; G-Code generated by Simplify3D(R) Version 4.1.2
; May 14, 2021 at 11:56:08 AM
; Settings Summary
;   processName,Detailed CR10S
;   applyToModels,Small box 2,Small box 1,Big box,Big box(2)
;   profileName,Creality CR-10S Pro (modified)
;   profileVersion,2021-05-02 22:29:37
;   baseProfile,
;   printMaterial,PLA
;   printQuality,High
;   printExtruders,
;   extruderName,Primary Extruder
;   extruderToolheadNumber,0
;   extruderDiameter,0.4
;   extruderAutoWidth,0
;   extruderWidth,0.4
;   extrusionMultiplier,0.9
;   extruderUseRetract,1
;   extruderRetractionDistance,5
;   extruderExtraRestartDistance,0
;   extruderRetractionZLift,0
;   extruderRetractionSpeed,1800
;   extruderUseCoasting,0
;   extruderCoastingDistance,0.2
;   extruderUseWipe,0
;   extruderWipeDistance,5
;   primaryExtruder,0
;   layerHeight,0.2
;   topSolidLayers,4
;   bottomSolidLayers,4
;   perimeterOutlines,2
;   printPerimetersInsideOut,1
;   startPointOption,2
;   startPointOriginX,0
;   startPointOriginY,0
;   sequentialIslands,0
;   spiralVaseMode,0
;   firstLayerHeightPercentage,120
;   firstLayerWidthPercentage,150
;   firstLayerUnderspeed,0.5
;   useRaft,0
;   raftExtruder,0
;   raftTopLayers,3
;   raftBaseLayers,2
;   raftOffset,3
;   raftSeparationDistance,0.14
;   raftTopInfill,100
;   aboveRaftSpeedMultiplier,0.3
;   useSkirt,0
;   skirtExtruder,0
;   skirtLayers,2
;   skirtOutlines,2
;   skirtOffset,4
;   usePrimePillar,0
;   primePillarExtruder,999
;   primePillarWidth,12
;   primePillarLocation,7
;   primePillarSpeedMultiplier,1
;   useOozeShield,0
;   oozeShieldExtruder,999
;   oozeShieldOffset,2
;   oozeShieldOutlines,1
;   oozeShieldSidewallShape,1
;   oozeShieldSidewallAngle,30
;   oozeShieldSpeedMultiplier,1
;   infillExtruder,0
;   internalInfillPattern,Rectilinear
;   externalInfillPattern,Rectilinear
;   infillPercentage,20
;   outlineOverlapPercentage,15
;   infillExtrusionWidthPercentage,100
;   minInfillLength,5
;   infillLayerInterval,1
;   internalInfillAngles,45,-45
;   overlapInternalInfillAngles,0
;   externalInfillAngles,45,-45
;   generateSupport,0
;   supportExtruder,0
;   supportInfillPercentage,40
;   supportExtraInflation,0
;   supportBaseLayers,0
;   denseSupportExtruder,0
;   denseSupportLayers,0
;   denseSupportInfillPercentage,70
;   supportLayerInterval,1
;   supportHorizontalPartOffset,0.3
;   supportUpperSeparationLayers,1
;   supportLowerSeparationLayers,1
;   supportType,0
;   supportGridSpacing,1
;   maxOverhangAngle,45
;   supportAngles,0
;   temperatureName,Primary Extruder,Heated Bed
;   temperatureNumber,0,0
;   temperatureSetpointCount,1,1
;   temperatureSetpointLayers,1,1
;   temperatureSetpointTemperatures,210,60
;   temperatureStabilizeAtStartup,1,1
;   temperatureHeatedBed,0,1
;   fanLayers,1,2
;   fanSpeeds,0,100
;   blipFanToFullPower,0
;   adjustSpeedForCooling,1
;   minSpeedLayerTime,15
;   minCoolingSpeedSlowdown,20
;   increaseFanForCooling,0
;   minFanLayerTime,45
;   maxCoolingFanSpeed,100
;   increaseFanForBridging,0
;   bridgingFanSpeed,100
;   use5D,1
;   relativeEdistances,0
;   allowEaxisZeroing,1
;   independentExtruderAxes,0
;   includeM10123,0
;   stickySupport,1
;   applyToolheadOffsets,0
;   gcodeXoffset,0
;   gcodeYoffset,0
;   gcodeZoffset,0
;   overrideMachineDefinition,1
;   machineTypeOverride,0
;   strokeXoverride,300
;   strokeYoverride,300
;   strokeZoverride,400
;   originOffsetXoverride,0
;   originOffsetYoverride,0
;   originOffsetZoverride,0
;   homeXdirOverride,-1
;   homeYdirOverride,-1
;   homeZdirOverride,-1
;   flipXoverride,1
;   flipYoverride,-1
;   flipZoverride,1
;   toolheadOffsets,0,0|0,0|0,0|0,0|0,0|0,0
;   overrideFirmwareConfiguration,1
;   firmwareTypeOverride,RepRap (Marlin/Repetier/Sprinter)
;   GPXconfigOverride,r2
;   baudRateOverride,115200
;   overridePrinterModels,1
;   printerModelsOverride
;   startingGcode,G28 X Y ; home all axes,;G29 ; auto-bed level,;G1 Z5 F3000 ; lift,G1 X20 Y20 F1500 ; move to prime,G28 Z,G1 Z100 F3000 ; lift,;G1 Z0.2 F3000 ; get ready to prime,;G92 E0 ; reset extrusion distance,;G1 Y80 E10 F600 ; prime nozzle,;G1 Y100 F5000 ; quick wipe
;   layerChangeGcode,;G90; Absolute positioning,;G1 F9000 Y100 Z100; Move to photo position;,;M240; Make a photo,
;   retractionGcode,
;   toolChangeGcode,
;   endingGcode,G28 X0 ; home X axis,M106 S0 ; turn off cooling fan,M104 S0 ; turn off extruder,M140 S0 ; turn off bed,M84 ; disable motors
;   exportFileFormat,gcode
;   celebration,0
;   celebrationSong,Random Song
;   postProcessing,
;   defaultSpeed,3600
;   outlineUnderspeed,0.5
;   solidInfillUnderspeed,0.8
;   supportUnderspeed,0.8
;   rapidXYspeed,4800
;   rapidZspeed,1002
;   minBridgingArea,50
;   bridgingExtraInflation,0
;   bridgingExtrusionMultiplier,1
;   bridgingSpeedMultiplier,1
;   useFixedBridgingAngle,0
;   fixedBridgingAngle,0
;   applyBridgingToPerimeters,0
;   filamentDiameters,1.75|1.75|1.75|1.75|1.75|1.75
;   filamentPricesPerKg,46|46|46|46|46|46
;   filamentDensities,1.25|1.25|1.25|1.25|1.25|1.25
;   useMinPrintHeight,0
;   minPrintHeight,20.7
;   useMaxPrintHeight,0
;   maxPrintHeight,4
;   useDiaphragm,0
;   diaphragmLayerInterval,20
;   robustSlicing,1
;   mergeAllIntoSolid,0
;   onlyRetractWhenCrossingOutline,1
;   retractBetweenLayers,1
;   useRetractionMinTravel,0
;   retractionMinTravel,3
;   retractWhileWiping,0
;   onlyWipeOutlines,1
;   avoidCrossingOutline,0
;   maxMovementDetourFactor,3
;   toolChangeRetractionDistance,12
;   toolChangeExtraRestartDistance,-0.5
;   toolChangeRetractionSpeed,600
;   externalThinWallType,0
;   internalThinWallType,2
;   thinWallAllowedOverlapPercentage,10
;   singleExtrusionMinLength,1
;   singleExtrusionMinPrintingWidthPercentage,50
;   singleExtrusionMaxPrintingWidthPercentage,200
;   singleExtrusionEndpointExtension,0.2
;   horizontalSizeCompensation,0
G90
M82
M106 S0
M140 S60
M190 S60
M104 S210 T0
M109 S210 T0
G28 X Y ; home all axes
;G29 ; auto-bed level
;G1 Z5 F3000 ; lift
G1 X20 Y20 F1500 ; move to prime
G28 Z
G1 Z100 F3000 ; lift
;G1 Z0.2 F3000 ; get ready to prime
;G92 E0 ; reset extrusion distance
;G1 Y80 E10 F600 ; prime nozzle
;G1 Y100 F5000 ; quick wipe
; process Detailed CR10S
; layer 1, Z = 0.240
T0
G92 E0.0000
G1 E-5.0000 F1800
;G90; Absolute positioning
;G1 F9000 Y100 Z100; Move to photo position;
;M240; Make a photo
; feature inner perimeter
; tool H0.240 W0.600
G1 Z0.240 F1002
G1 X100.400 Y77.400 F4800
G1 E0.0000 F1800
G92 E0.0000
G1 X146.600 Y77.400 E2.4893 F1350
G1 X146.600 Y146.600 E6.2179
G1 X100.400 Y146.600 E8.7072
G1 X100.400 Y77.400 E12.4358
; feature outer perimeter
G1 X99.800 Y76.800 F4800
G92 E0.0000
G1 X147.200 Y76.800 E2.5540 F900
G1 X147.200 Y147.200 E6.3472
G1 X99.800 Y147.200 E8.9012
G1 X99.800 Y76.800 E12.6945
; feature inner perimeter
G1 X101.600 Y78.600 F4800
G92 E0.0000
G1 X101.600 Y145.400 E3.5993 F1350
G1 X145.400 Y145.400 E5.9593
G1 X145.400 Y78.600 E9.5586
G1 X101.600 Y78.600 E11.9186
; feature outer perimeter
G1 X102.200 Y79.200 F4800
G92 E0.0000
G1 X102.200 Y144.800 E3.5346 F900
G1 X144.800 Y144.800 E5.8300
G1 X144.800 Y79.200 E9.3646
G1 X102.200 Y79.200 E11.6599
; feature solid layer
G1 X145.533 Y77.910 F4800
G92 E0.0000
G1 X145.713 Y78.090 E0.0137 F1440
G1 X144.865 Y78.090 E0.0594
G1 X144.685 Y77.910 E0.0732
G1 X143.836 Y77.910 E0.1189
G1 X144.016 Y78.090 E0.1326
G1 X143.168 Y78.090 E0.1783
G1 X142.988 Y77.910 E0.1920
G1 X142.139 Y77.910 E0.2377
G1 X142.319 Y78.090 E0.2515
G1 X141.471 Y78.090 E0.2972
G1 X141.291 Y77.910 E0.3109
G1 X140.442 Y77.910 E0.3566
G1 X140.622 Y78.090 E0.3703
G1 X139.774 Y78.090 E0.4161
G1 X139.594 Y77.910 E0.4298
G1 X138.745 Y77.910 E0.4755
G1 X138.925 Y78.090 E0.4892
G1 X138.077 Y78.090 E0.5349
G1 X137.897 Y77.910 E0.5486
G1 X137.048 Y77.910 E0.5944
G1 X137.228 Y78.090 E0.6081
G1 X136.380 Y78.090 E0.6538
G1 X136.200 Y77.910 E0.6675
G1 X135.351 Y77.910 E0.7132
G1 X135.531 Y78.090 E0.7269
G1 X134.683 Y78.090 E0.7727
G1 X134.503 Y77.910 E0.7864
G1 X133.654 Y77.910 E0.8321
G1 X133.834 Y78.090 E0.8458
G1 X132.986 Y78.090 E0.8915
G1 X132.806 Y77.910 E0.9053
G1 X131.957 Y77.910 E0.9510
G1 X132.137 Y78.090 E0.9647
G1 X131.288 Y78.090 E1.0104
G1 X131.108 Y77.910 E1.0241
G1 X130.260 Y77.910 E1.0698
G1 X130.440 Y78.090 E1.0836
G1 X129.591 Y78.090 E1.1293
G1 X129.411 Y77.910 E1.1430
G1 X128.563 Y77.910 E1.1887
G1 X128.743 Y78.090 E1.2024
G1 X127.894 Y78.090 E1.2482
G1 X127.714 Y77.910 E1.2619
G1 X126.866 Y77.910 E1.3076
G1 X127.046 Y78.090 E1.3213
G1 X126.197 Y78.090 E1.3670
G1 X126.017 Y77.910 E1.3807
G1 X125.169 Y77.910 E1.4265
G1 X125.349 Y78.090 E1.4402
G1 X124.500 Y78.090 E1.4859
G1 X124.320 Y77.910 E1.4996
G1 X123.472 Y77.910 E1.5453
G1 X123.652 Y78.090 E1.5590
G1 X122.803 Y78.090 E1.6048
G1 X122.623 Y77.910 E1.6185
G1 X121.775 Y77.910 E1.6642
G1 X121.955 Y78.090 E1.6779
G1 X121.106 Y78.090 E1.7236
G1 X120.926 Y77.910 E1.7374
G1 X120.078 Y77.910 E1.7831
G1 X120.258 Y78.090 E1.7968
G1 X119.409 Y78.090 E1.8425
G1 X119.229 Y77.910 E1.8562
G1 X118.381 Y77.910 E1.9019
G1 X118.561 Y78.090 E1.9157
G1 X117.712 Y78.090 E1.9614
G1 X117.532 Y77.910 E1.9751
G1 X116.684 Y77.910 E2.0208
G1 X116.864 Y78.090 E2.0345
G1 X116.015 Y78.090 E2.0803
G1 X115.835 Y77.910 E2.0940
G1 X114.986 Y77.910 E2.1397
G1 X115.166 Y78.090 E2.1534
G1 X114.318 Y78.090 E2.1991
G1 X114.138 Y77.910 E2.2128
G1 X113.289 Y77.910 E2.2586
G1 X113.469 Y78.090 E2.2723
G1 X112.621 Y78.090 E2.3180
G1 X112.441 Y77.910 E2.3317
G1 X111.592 Y77.910 E2.3774
G1 X111.772 Y78.090 E2.3912
G1 X110.924 Y78.090 E2.4369
G1 X110.744 Y77.910 E2.4506
G1 X109.895 Y77.910 E2.4963
G1 X110.075 Y78.090 E2.5100
G1 X109.227 Y78.090 E2.5557
G1 X109.047 Y77.910 E2.5695
G1 X108.198 Y77.910 E2.6152
G1 X108.378 Y78.090 E2.6289
G1 X107.530 Y78.090 E2.6746
G1 X107.350 Y77.910 E2.6883
G1 X106.501 Y77.910 E2.7340
G1 X106.681 Y78.090 E2.7478
G1 X105.833 Y78.090 E2.7935
G1 X105.653 Y77.910 E2.8072
G1 X104.804 Y77.910 E2.8529
G1 X104.984 Y78.090 E2.8666
G1 X104.136 Y78.090 E2.9124
G1 X103.956 Y77.910 E2.9261
G1 X103.107 Y77.910 E2.9718
G1 X103.287 Y78.090 E2.9855
G1 X102.439 Y78.090 E3.0312
G1 X102.259 Y77.910 E3.0449
G1 X101.410 Y77.910 E3.0907
G1 X101.590 Y78.090 E3.1044
G1 X101.090 Y78.090 E3.1313
G1 X101.090 Y78.439 E3.1501
G1 X100.910 Y78.259 E3.1638
G1 X100.910 Y79.107 E3.2095
G1 X101.090 Y79.287 E3.2233
G1 X101.090 Y80.136 E3.2690
G1 X100.910 Y79.956 E3.2827
G1 X100.910 Y80.804 E3.3284
G1 X101.090 Y80.984 E3.3421
G1 X101.090 Y81.833 E3.3878
G1 X100.910 Y81.653 E3.4016
G1 X100.910 Y82.501 E3.4473
G1 X101.090 Y82.681 E3.4610
G1 X101.090 Y83.530 E3.5067
G1 X100.910 Y83.350 E3.5204
G1 X100.910 Y84.198 E3.5662
G1 X101.090 Y84.378 E3.5799
G1 X101.090 Y85.227 E3.6256
G1 X100.910 Y85.047 E3.6393
G1 X100.910 Y85.895 E3.6850
G1 X101.090 Y86.075 E3.6987
G1 X101.090 Y86.924 E3.7445
G1 X100.910 Y86.744 E3.7582
G1 X100.910 Y87.592 E3.8039
G1 X101.090 Y87.772 E3.8176
G1 X101.090 Y88.621 E3.8633
G1 X100.910 Y88.441 E3.8770
G1 X100.910 Y89.289 E3.9228
G1 X101.090 Y89.469 E3.9365
G1 X101.090 Y90.318 E3.9822
G1 X100.910 Y90.138 E3.9959
G1 X100.910 Y90.986 E4.0416
G1 X101.090 Y91.166 E4.0554
G1 X101.090 Y92.015 E4.1011
G1 X100.910 Y91.835 E4.1148
G1 X100.910 Y92.683 E4.1605
G1 X101.090 Y92.863 E4.1742
G1 X101.090 Y93.712 E4.2199
G1 X100.910 Y93.532 E4.2337
G1 X100.910 Y94.381 E4.2794
G1 X101.090 Y94.561 E4.2931
G1 X101.090 Y95.409 E4.3388
G1 X100.910 Y95.229 E4.3525
G1 X100.910 Y96.078 E4.3983
G1 X101.090 Y96.258 E4.4120
G1 X101.090 Y97.106 E4.4577
G1 X100.910 Y96.926 E4.4714
G1 X100.910 Y97.775 E4.5171
G1 X101.090 Y97.955 E4.5308
G1 X101.090 Y98.803 E4.5766
G1 X100.910 Y98.623 E4.5903
G1 X100.910 Y99.472 E4.6360
G1 X101.090 Y99.652 E4.6497
G1 X101.090 Y100.500 E4.6954
G1 X100.910 Y100.320 E4.7091
G1 X100.910 Y101.169 E4.7549
G1 X101.090 Y101.349 E4.7686
G1 X101.090 Y102.197 E4.8143
G1 X100.910 Y102.017 E4.8280
G1 X100.910 Y102.866 E4.8737
G1 X101.090 Y103.046 E4.8875
G1 X101.090 Y103.894 E4.9332
G1 X100.910 Y103.714 E4.9469
G1 X100.910 Y104.563 E4.9926
G1 X101.090 Y104.743 E5.0063
G1 X101.090 Y105.591 E5.0520
G1 X100.910 Y105.411 E5.0658
G1 X100.910 Y106.260 E5.1115
G1 X101.090 Y106.440 E5.1252
G1 X101.090 Y107.288 E5.1709
G1 X100.910 Y107.108 E5.1846
G1 X100.910 Y107.957 E5.2304
G1 X101.090 Y108.137 E5.2441
G1 X101.090 Y108.986 E5.2898
G1 X100.910 Y108.806 E5.3035
G1 X100.910 Y109.654 E5.3492
G1 X101.090 Y109.834 E5.3629
G1 X101.090 Y110.683 E5.4087
G1 X100.910 Y110.503 E5.4224
G1 X100.910 Y111.351 E5.4681
G1 X101.090 Y111.531 E5.4818
G1 X101.090 Y112.380 E5.5275
G1 X100.910 Y112.200 E5.5413
G1 X100.910 Y113.048 E5.5870
G1 X101.090 Y113.228 E5.6007
G1 X101.090 Y114.077 E5.6464
G1 X100.910 Y113.897 E5.6601
G1 X100.910 Y114.745 E5.7058
G1 X101.090 Y114.925 E5.7196
G1 X101.090 Y115.774 E5.7653
G1 X100.910 Y115.594 E5.7790
G1 X100.910 Y116.442 E5.8247
G1 X101.090 Y116.622 E5.8384
G1 X101.090 Y117.471 E5.8842
G1 X100.910 Y117.291 E5.8979
G1 X100.910 Y118.139 E5.9436
G1 X101.090 Y118.319 E5.9573
G1 X101.090 Y119.168 E6.0030
G1 X100.910 Y118.988 E6.0167
G1 X100.910 Y119.836 E6.0625
G1 X101.090 Y120.016 E6.0762
G1 X101.090 Y120.865 E6.1219
G1 X100.910 Y120.685 E6.1356
G1 X100.910 Y121.533 E6.1813
G1 X101.090 Y121.713 E6.1950
G1 X101.090 Y122.562 E6.2408
G1 X100.910 Y122.382 E6.2545
G1 X100.910 Y123.231 E6.3002
G1 X101.090 Y123.411 E6.3139
G1 X101.090 Y124.259 E6.3596
G1 X100.910 Y124.079 E6.3734
G1 X100.910 Y124.928 E6.4191
G1 X101.090 Y125.108 E6.4328
G1 X101.090 Y125.956 E6.4785
G1 X100.910 Y125.776 E6.4922
G1 X100.910 Y126.625 E6.5379
G1 X101.090 Y126.805 E6.5517
G1 X101.090 Y127.653 E6.5974
G1 X100.910 Y127.473 E6.6111
G1 X100.910 Y128.322 E6.6568
G1 X101.090 Y128.502 E6.6705
G1 X101.090 Y129.350 E6.7163
G1 X100.910 Y129.170 E6.7300
G1 X100.910 Y130.019 E6.7757
G1 X101.090 Y130.199 E6.7894
G1 X101.090 Y131.047 E6.8351
G1 X100.910 Y130.867 E6.8488
G1 X100.910 Y131.716 E6.8946
G1 X101.090 Y131.896 E6.9083
G1 X101.090 Y132.744 E6.9540
G1 X100.910 Y132.564 E6.9677
G1 X100.910 Y133.413 E7.0134
G1 X101.090 Y133.593 E7.0271
G1 X101.090 Y134.441 E7.0729
G1 X100.910 Y134.261 E7.0866
G1 X100.910 Y135.110 E7.1323
G1 X101.090 Y135.290 E7.1460
G1 X101.090 Y136.138 E7.1917
G1 X100.910 Y135.958 E7.2055
G1 X100.910 Y136.807 E7.2512
G1 X101.090 Y136.987 E7.2649
G1 X101.090 Y137.835 E7.3106
G1 X100.910 Y137.655 E7.3243
G1 X100.910 Y138.504 E7.3700
G1 X101.090 Y138.684 E7.3838
G1 X101.090 Y139.533 E7.4295
G1 X100.910 Y139.353 E7.4432
G1 X100.910 Y140.201 E7.4889
G1 X101.090 Y140.381 E7.5026
G1 X101.090 Y141.230 E7.5484
G1 X100.910 Y141.050 E7.5621
G1 X100.910 Y141.898 E7.6078
G1 X101.090 Y142.078 E7.6215
G1 X101.090 Y142.927 E7.6672
G1 X100.910 Y142.747 E7.6809
G1 X100.910 Y143.595 E7.7267
G1 X101.090 Y143.775 E7.7404
G1 X101.090 Y144.624 E7.7861
G1 X100.910 Y144.444 E7.7998
G1 X100.910 Y145.292 E7.8455
G1 X101.090 Y145.472 E7.8593
G1 X101.090 Y145.910 E7.8828
G1 X101.528 Y145.910 E7.9064
G1 X101.708 Y146.090 E7.9201
G1 X102.556 Y146.090 E7.9659
G1 X102.376 Y145.910 E7.9796
G1 X103.225 Y145.910 E8.0253
G1 X103.405 Y146.090 E8.0390
G1 X104.253 Y146.090 E8.0847
G1 X104.073 Y145.910 E8.0984
G1 X104.922 Y145.910 E8.1442
G1 X105.102 Y146.090 E8.1579
G1 X105.950 Y146.090 E8.2036
G1 X105.770 Y145.910 E8.2173
G1 X106.619 Y145.910 E8.2630
G1 X106.799 Y146.090 E8.2768
G1 X107.647 Y146.090 E8.3225
G1 X107.467 Y145.910 E8.3362
G1 X108.316 Y145.910 E8.3819
G1 X108.496 Y146.090 E8.3956
G1 X109.345 Y146.090 E8.4413
G1 X109.165 Y145.910 E8.4551
G1 X110.013 Y145.910 E8.5008
G1 X110.193 Y146.090 E8.5145
G1 X111.042 Y146.090 E8.5602
G1 X110.862 Y145.910 E8.5739
G1 X111.710 Y145.910 E8.6197
G1 X111.890 Y146.090 E8.6334
G1 X112.739 Y146.090 E8.6791
G1 X112.559 Y145.910 E8.6928
G1 X113.407 Y145.910 E8.7385
G1 X113.587 Y146.090 E8.7522
G1 X114.436 Y146.090 E8.7980
G1 X114.256 Y145.910 E8.8117
G1 X115.104 Y145.910 E8.8574
G1 X115.284 Y146.090 E8.8711
G1 X116.133 Y146.090 E8.9168
G1 X115.953 Y145.910 E8.9306
G1 X116.801 Y145.910 E8.9763
G1 X116.981 Y146.090 E8.9900
G1 X117.830 Y146.090 E9.0357
G1 X117.650 Y145.910 E9.0494
G1 X118.498 Y145.910 E9.0951
G1 X118.678 Y146.090 E9.1089
G1 X119.527 Y146.090 E9.1546
