; G-Code generated by Simplify3D(R) Version 4.1.2
; May 13, 2021 at 5:07:50 PM
; Settings Summary
;   processName,Detailed CR10S
;   applyToModels,Small box 1
;   profileName,Creality CR-10S Pro (modified)
;   profileVersion,2021-05-02 22:29:37
;   baseProfile,
;   printMaterial,PLA
;   printQuality,High
;   printExtruders,
;   extruderName,Primary Extruder
;   extruderToolheadNumber,0
;   extruderDiameter,0.4
;   extruderAutoWidth,0
;   extruderWidth,0.4
;   extrusionMultiplier,0.9
;   extruderUseRetract,1
;   extruderRetractionDistance,5
;   extruderExtraRestartDistance,0
;   extruderRetractionZLift,0
;   extruderRetractionSpeed,1800
;   extruderUseCoasting,0
;   extruderCoastingDistance,0.2
;   extruderUseWipe,0
;   extruderWipeDistance,5
;   primaryExtruder,0
;   layerHeight,0.2
;   topSolidLayers,4
;   bottomSolidLayers,4
;   perimeterOutlines,2
;   printPerimetersInsideOut,1
;   startPointOption,2
;   startPointOriginX,0
;   startPointOriginY,0
;   sequentialIslands,0
;   spiralVaseMode,0
;   firstLayerHeightPercentage,120
;   firstLayerWidthPercentage,150
;   firstLayerUnderspeed,0.5
;   useRaft,0
;   raftExtruder,0
;   raftTopLayers,3
;   raftBaseLayers,2
;   raftOffset,3
;   raftSeparationDistance,0.14
;   raftTopInfill,100
;   aboveRaftSpeedMultiplier,0.3
;   useSkirt,1
;   skirtExtruder,0
;   skirtLayers,2
;   skirtOutlines,2
;   skirtOffset,4
;   usePrimePillar,0
;   primePillarExtruder,999
;   primePillarWidth,12
;   primePillarLocation,7
;   primePillarSpeedMultiplier,1
;   useOozeShield,0
;   oozeShieldExtruder,999
;   oozeShieldOffset,2
;   oozeShieldOutlines,1
;   oozeShieldSidewallShape,1
;   oozeShieldSidewallAngle,30
;   oozeShieldSpeedMultiplier,1
;   infillExtruder,0
;   internalInfillPattern,Rectilinear
;   externalInfillPattern,Rectilinear
;   infillPercentage,20
;   outlineOverlapPercentage,15
;   infillExtrusionWidthPercentage,100
;   minInfillLength,5
;   infillLayerInterval,1
;   internalInfillAngles,45,-45
;   overlapInternalInfillAngles,0
;   externalInfillAngles,45,-45
;   generateSupport,0
;   supportExtruder,0
;   supportInfillPercentage,40
;   supportExtraInflation,0
;   supportBaseLayers,0
;   denseSupportExtruder,0
;   denseSupportLayers,0
;   denseSupportInfillPercentage,70
;   supportLayerInterval,1
;   supportHorizontalPartOffset,0.3
;   supportUpperSeparationLayers,1
;   supportLowerSeparationLayers,1
;   supportType,0
;   supportGridSpacing,1
;   maxOverhangAngle,45
;   supportAngles,0
;   temperatureName,Primary Extruder,Heated Bed
;   temperatureNumber,0,0
;   temperatureSetpointCount,1,1
;   temperatureSetpointLayers,1,1
;   temperatureSetpointTemperatures,210,60
;   temperatureStabilizeAtStartup,1,1
;   temperatureHeatedBed,0,1
;   fanLayers,1,2
;   fanSpeeds,0,100
;   blipFanToFullPower,0
;   adjustSpeedForCooling,1
;   minSpeedLayerTime,15
;   minCoolingSpeedSlowdown,20
;   increaseFanForCooling,0
;   minFanLayerTime,45
;   maxCoolingFanSpeed,100
;   increaseFanForBridging,0
;   bridgingFanSpeed,100
;   use5D,1
;   relativeEdistances,0
;   allowEaxisZeroing,1
;   independentExtruderAxes,0
;   includeM10123,0
;   stickySupport,1
;   applyToolheadOffsets,0
;   gcodeXoffset,0
;   gcodeYoffset,0
;   gcodeZoffset,0
;   overrideMachineDefinition,1
;   machineTypeOverride,0
;   strokeXoverride,300
;   strokeYoverride,300
;   strokeZoverride,400
;   originOffsetXoverride,0
;   originOffsetYoverride,0
;   originOffsetZoverride,0
;   homeXdirOverride,-1
;   homeYdirOverride,-1
;   homeZdirOverride,-1
;   flipXoverride,1
;   flipYoverride,-1
;   flipZoverride,1
;   toolheadOffsets,0,0|0,0|0,0|0,0|0,0|0,0
;   overrideFirmwareConfiguration,1
;   firmwareTypeOverride,RepRap (Marlin/Repetier/Sprinter)
;   GPXconfigOverride,r2
;   baudRateOverride,115200
;   overridePrinterModels,1
;   printerModelsOverride
;   startingGcode,G28 ; home all axes,G29 ; auto-bed level,G1 Z5 F3000 ; lift,G1 X5 Y10 F1500 ; move to prime,G1 Z0.2 F3000 ; get ready to prime,G92 E0 ; reset extrusion distance,G1 Y80 E10 F600 ; prime nozzle,G1 Y100 F5000 ; quick wipe
;   layerChangeGcode,;G90; Absolute positioning,;G1 F9000 Y100 Z100; Move to photo position;,;M240; Make a photo,
;   retractionGcode,
;   toolChangeGcode,
;   endingGcode,G28 X0 ; home X axis,M106 S0 ; turn off cooling fan,M104 S0 ; turn off extruder,M140 S0 ; turn off bed,M84 ; disable motors
;   exportFileFormat,gcode
;   celebration,0
;   celebrationSong,Random Song
;   postProcessing,
;   defaultSpeed,3600
;   outlineUnderspeed,0.5
;   solidInfillUnderspeed,0.8
;   supportUnderspeed,0.8
;   rapidXYspeed,4800
;   rapidZspeed,1002
;   minBridgingArea,50
;   bridgingExtraInflation,0
;   bridgingExtrusionMultiplier,1
;   bridgingSpeedMultiplier,1
;   useFixedBridgingAngle,0
;   fixedBridgingAngle,0
;   applyBridgingToPerimeters,0
;   filamentDiameters,1.75|1.75|1.75|1.75|1.75|1.75
;   filamentPricesPerKg,46|46|46|46|46|46
;   filamentDensities,1.25|1.25|1.25|1.25|1.25|1.25
;   useMinPrintHeight,0
;   minPrintHeight,26.3
;   useMaxPrintHeight,0
;   maxPrintHeight,0
;   useDiaphragm,0
;   diaphragmLayerInterval,20
;   robustSlicing,1
;   mergeAllIntoSolid,0
;   onlyRetractWhenCrossingOutline,1
;   retractBetweenLayers,1
;   useRetractionMinTravel,0
;   retractionMinTravel,3
;   retractWhileWiping,0
;   onlyWipeOutlines,1
;   avoidCrossingOutline,0
;   maxMovementDetourFactor,3
;   toolChangeRetractionDistance,12
;   toolChangeExtraRestartDistance,-0.5
;   toolChangeRetractionSpeed,600
;   externalThinWallType,0
;   internalThinWallType,2
;   thinWallAllowedOverlapPercentage,10
;   singleExtrusionMinLength,1
;   singleExtrusionMinPrintingWidthPercentage,50
;   singleExtrusionMaxPrintingWidthPercentage,200
;   singleExtrusionEndpointExtension,0.2
;   horizontalSizeCompensation,0
G90
M82
M106 S0
M140 S60
M190 S60
M104 S210 T0
M109 S210 T0
G28 ; home all axes
G29 ; auto-bed level
G1 Z5 F3000 ; lift
G1 X5 Y10 F1500 ; move to prime
G1 Z0.2 F3000 ; get ready to prime
G92 E0 ; reset extrusion distance
G1 Y80 E10 F600 ; prime nozzle
G1 Y100 F5000 ; quick wipe
; process Detailed CR10S
; layer 1, Z = 0.240
T0
G92 E0.0000
G1 E-5.0000 F1800
;G90; Absolute positioning
;G1 F9000 Y100 Z100; Move to photo position;
;M240; Make a photo
; feature skirt
; tool H0.240 W0.600
G1 Z0.240 F1002
G1 X120.100 Y111.470 F4800
G1 E0.0000 F1800
G92 E0.0000
G1 X122.970 Y108.600 E0.2187 F1800
G1 X177.030 Y108.600 E3.1315
G1 X179.900 Y111.470 E3.3502
G1 X179.900 Y188.530 E7.5023
G1 X177.030 Y191.400 E7.7210
G1 X122.970 Y191.400 E10.6338
G1 X120.100 Y188.530 E10.8525
G1 X120.100 Y111.470 E15.0046
G92 E0.0000
G1 E-5.0000 F1800
G1 X120.700 Y111.719 F4800
G1 E0.0000 F1800
G92 E0.0000
G1 X123.219 Y109.200 E0.1919 F1800
G1 X176.781 Y109.200 E3.0779
G1 X179.300 Y111.719 E3.2699
G1 X179.300 Y188.281 E7.3952
G1 X176.781 Y190.800 E7.5871
G1 X123.219 Y190.800 E10.4731
G1 X120.700 Y188.281 E10.6651
G1 X120.700 Y111.719 E14.7903
G92 E0.0000
G1 E-5.0000 F1800
; feature inner perimeter
G1 X125.900 Y114.400 F4800
G1 E0.0000 F1800
G92 E0.0000
G1 X174.100 Y114.400 E2.5971 F1350
G1 X174.100 Y185.600 E6.4334
G1 X125.900 Y185.600 E9.0305
G1 X125.900 Y114.400 E12.8669
; feature outer perimeter
G1 X125.300 Y113.800 F4800
G92 E0.0000
G1 X174.700 Y113.800 E2.6617 F900
G1 X174.700 Y186.200 E6.5628
G1 X125.300 Y186.200 E9.2245
G1 X125.300 Y113.800 E13.1255
; feature solid layer
G1 X173.458 Y114.910 F4800
G92 E0.0000
G1 X173.590 Y115.042 E0.0100 F1440
G1 X173.590 Y115.890 E0.0557
G1 X172.610 Y114.910 E0.1304
G1 X171.761 Y114.910 E0.1761
G1 X173.590 Y116.739 E0.3155
G1 X173.590 Y117.587 E0.3612
G1 X170.913 Y114.910 E0.5652
G1 X170.064 Y114.910 E0.6109
G1 X173.590 Y118.436 E0.8796
G1 X173.590 Y119.284 E0.9253
G1 X169.216 Y114.910 E1.2586
G1 X168.367 Y114.910 E1.3043
G1 X173.590 Y120.133 E1.7023
G1 X173.590 Y120.981 E1.7480
G1 X167.519 Y114.910 E2.2106
G1 X166.670 Y114.910 E2.2564
G1 X173.590 Y121.830 E2.7837
G1 X173.590 Y122.678 E2.8294
G1 X165.822 Y114.910 E3.4213
G1 X164.973 Y114.910 E3.4670
G1 X173.590 Y123.527 E4.1236
G1 X173.590 Y124.375 E4.1694
G1 X164.125 Y114.910 E4.8906
G1 X163.276 Y114.910 E4.9363
G1 X173.590 Y125.224 E5.7222
G1 X173.590 Y126.072 E5.7680
G1 X162.428 Y114.910 E6.6185
G1 X161.579 Y114.910 E6.6643
G1 X173.590 Y126.921 E7.5795
G1 X173.590 Y127.769 E7.6252
G1 X160.731 Y114.910 E8.6051
G1 X159.882 Y114.910 E8.6508
G1 X173.590 Y128.618 E9.6954
G1 X173.590 Y129.467 E9.7411
G1 X159.033 Y114.910 E10.8503
G1 X158.185 Y114.910 E10.8960
G1 X173.590 Y130.315 E12.0699
G1 X173.590 Y131.164 E12.1156
G1 X157.336 Y114.910 E13.3541
G1 X156.488 Y114.910 E13.3998
G1 X173.590 Y132.012 E14.7030
G1 X173.590 Y132.861 E14.7487
G1 X155.639 Y114.910 E16.1166
G1 X154.791 Y114.910 E16.1623
G1 X173.590 Y133.709 E17.5948
G1 X173.590 Y134.558 E17.6405
G1 X153.942 Y114.910 E19.1377
G1 X153.094 Y114.910 E19.1834
G1 X173.590 Y135.406 E20.7452
G1 X173.590 Y136.255 E20.7909
G1 X152.245 Y114.910 E22.4174
G1 X151.397 Y114.910 E22.4631
G1 X173.590 Y137.103 E24.1542
G1 X173.590 Y137.952 E24.1999
G1 X150.548 Y114.910 E25.9557
G1 X149.700 Y114.910 E26.0014
G1 X173.590 Y138.800 E27.8219
G1 X173.590 Y139.649 E27.8676
G1 X148.851 Y114.910 E29.7527
G1 X148.003 Y114.910 E29.7984
G1 X173.590 Y140.497 E31.7482
G1 X173.590 Y141.346 E31.7939
G1 X147.154 Y114.910 E33.8083
G1 X146.306 Y114.910 E33.8540
G1 X173.590 Y142.194 E35.9331
G1 X173.590 Y143.043 E35.9788
G1 X145.457 Y114.910 E38.1225
G1 X144.608 Y114.910 E38.1683
G1 X173.590 Y143.892 E40.3766
G1 X173.590 Y144.740 E40.4224
G1 X143.760 Y114.910 E42.6954
G1 X142.911 Y114.910 E42.7411
G1 X173.590 Y145.589 E45.0788
G1 X173.590 Y146.437 E45.1245
G1 X142.063 Y114.910 E47.5269
G1 X141.214 Y114.910 E47.5726
G1 X173.590 Y147.286 E50.0396
G1 X173.590 Y148.134 E50.0854
G1 X140.366 Y114.910 E52.6170
G1 X139.517 Y114.910 E52.6628
G1 X173.590 Y148.983 E55.2591
G1 X173.590 Y149.831 E55.3048
G1 X138.669 Y114.910 E57.9658
G1 X137.820 Y114.910 E58.0115
G1 X173.590 Y150.680 E60.7372
G1 X173.590 Y151.528 E60.7829
G1 X136.972 Y114.910 E63.5732
G1 X136.123 Y114.910 E63.6189
G1 X173.590 Y152.377 E66.4739
G1 X173.590 Y153.225 E66.5196
G1 X135.275 Y114.910 E69.4392
G1 X134.426 Y114.910 E69.4849
G1 X173.590 Y154.074 E72.4692
G1 X173.590 Y154.922 E72.5149
G1 X133.578 Y114.910 E75.5639
G1 X132.729 Y114.910 E75.6096
G1 X173.590 Y155.771 E78.7232
G1 X173.590 Y156.619 E78.7689
G1 X131.881 Y114.910 E81.9471
G1 X131.032 Y114.910 E81.9929
G1 X173.590 Y157.468 E85.2358
G1 X173.590 Y158.316 E85.2815
G1 X130.184 Y114.910 E88.5891
G1 X129.335 Y114.910 E88.6348
G1 X173.590 Y159.165 E92.0070
G1 X173.590 Y160.014 E92.0527
G1 X128.486 Y114.910 E95.4896
G1 X127.638 Y114.910 E95.5353
G1 X173.590 Y160.862 E99.0369
G1 X173.590 Y161.711 E99.0826
G1 X126.789 Y114.910 E102.6488
G1 X126.410 Y114.910 E102.6692
G1 X126.410 Y115.379 E102.6945
G1 X173.590 Y162.559 E106.2896
G1 X173.590 Y163.408 E106.3353
G1 X126.410 Y116.228 E109.9304
G1 X126.410 Y117.076 E109.9762
G1 X173.590 Y164.256 E113.5713
G1 X173.590 Y165.105 E113.6170
G1 X126.410 Y117.925 E117.2121
G1 X126.410 Y118.773 E117.2578
G1 X173.590 Y165.953 E120.8529
G1 X173.590 Y166.802 E120.8986
G1 X126.410 Y119.622 E124.4938
G1 X126.410 Y120.470 E124.5395
G1 X173.590 Y167.650 E128.1346
G1 X173.590 Y168.499 E128.1803
G1 X126.410 Y121.319 E131.7754
G1 X126.410 Y122.167 E131.8211
G1 X173.590 Y169.347 E135.4162
G1 X173.590 Y170.196 E135.4620
G1 X126.410 Y123.016 E139.0571
G1 X126.410 Y123.864 E139.1028
G1 X173.590 Y171.044 E142.6979
G1 X173.590 Y171.893 E142.7436
G1 X126.410 Y124.713 E146.3387
G1 X126.410 Y125.561 E146.3844
G1 X173.590 Y172.741 E149.9795
G1 X173.590 Y173.590 E150.0253
G1 X126.410 Y126.410 E153.6204
G1 X126.410 Y127.259 E153.6661
G1 X173.590 Y174.439 E157.2612
G1 X173.590 Y175.287 E157.3069
G1 X126.410 Y128.107 E160.9020
G1 X126.410 Y128.956 E160.9478
G1 X173.590 Y176.136 E164.5429
G1 X173.590 Y176.984 E164.5886
G1 X126.410 Y129.804 E168.1837
G1 X126.410 Y130.653 E168.2294
G1 X173.590 Y177.833 E171.8245
G1 X173.590 Y178.681 E171.8702
G1 X126.410 Y131.501 E175.4653
G1 X126.410 Y132.350 E175.5111
G1 X173.590 Y179.530 E179.1062
G1 X173.590 Y180.378 E179.1519
G1 X126.410 Y133.198 E182.7470
G1 X126.410 Y134.047 E182.7927
G1 X173.590 Y181.227 E186.3878
G1 X173.590 Y182.075 E186.4335
G1 X126.410 Y134.895 E190.0287
G1 X126.410 Y135.744 E190.0744
G1 X173.590 Y182.924 E193.6695
G1 X173.590 Y183.772 E193.7152
G1 X126.410 Y136.592 E197.3103
G1 X126.410 Y137.441 E197.3560
G1 X173.590 Y184.621 E200.9511
G1 X173.590 Y185.090 E200.9764
G1 X173.211 Y185.090 E200.9969
G1 X126.410 Y138.289 E204.5631
G1 X126.410 Y139.138 E204.6088
G1 X172.362 Y185.090 E208.1103
G1 X171.514 Y185.090 E208.1560
G1 X126.410 Y139.986 E211.5929
G1 X126.410 Y140.835 E211.6386
G1 X170.665 Y185.090 E215.0109
G1 X169.817 Y185.090 E215.0566
G1 X126.410 Y141.683 E218.3642
G1 X126.410 Y142.532 E218.4099
G1 X168.968 Y185.090 E221.6528
G1 X168.119 Y185.090 E221.6985
G1 X126.410 Y143.381 E224.8768
G1 X126.410 Y144.229 E224.9225
G1 X167.271 Y185.090 E228.0361
G1 X166.422 Y185.090 E228.0818
G1 X126.410 Y145.078 E231.1307
G1 X126.410 Y145.926 E231.1765
G1 X165.574 Y185.090 E234.1607
G1 X164.725 Y185.090 E234.2065
G1 X126.410 Y146.775 E237.1261
G1 X126.410 Y147.623 E237.1718
G1 X163.877 Y185.090 E240.0268
G1 X163.028 Y185.090 E240.0725
G1 X126.410 Y148.472 E242.8628
G1 X126.410 Y149.320 E242.9085
G1 X162.180 Y185.090 E245.6342
G1 X161.331 Y185.090 E245.6799
G1 X126.410 Y150.169 E248.3409
G1 X126.410 Y151.017 E248.3866
G1 X160.483 Y185.090 E250.9829
G1 X159.634 Y185.090 E251.0286
G1 X126.410 Y151.866 E253.5603
G1 X126.410 Y152.714 E253.6060
G1 X158.786 Y185.090 E256.0731
G1 X157.937 Y185.090 E256.1188
G1 X126.410 Y153.563 E258.5211
G1 X126.410 Y154.411 E258.5669
G1 X157.089 Y185.090 E260.9046
G1 X156.240 Y185.090 E260.9503
G1 X126.410 Y155.260 E263.2233
G1 X126.410 Y156.108 E263.2690
G1 X155.392 Y185.090 E265.4774
G1 X154.543 Y185.090 E265.5232
G1 X126.410 Y156.957 E267.6669
G1 X126.410 Y157.806 E267.7126
G1 X153.694 Y185.090 E269.7917
G1 X152.846 Y185.090 E269.8374
G1 X126.410 Y158.654 E271.8518
G1 X126.410 Y159.503 E271.8975
G1 X151.997 Y185.090 E273.8473
G1 X151.149 Y185.090 E273.8930
G1 X126.410 Y160.351 E275.7781
G1 X126.410 Y161.200 E275.8238
G1 X150.300 Y185.090 E277.6443
G1 X149.452 Y185.090 E277.6900
G1 X126.410 Y162.048 E279.4458
G1 X126.410 Y162.897 E279.4915
G1 X148.603 Y185.090 E281.1826
G1 X147.755 Y185.090 E281.2283
G1 X126.410 Y163.745 E282.8548
G1 X126.410 Y164.594 E282.9005
G1 X146.906 Y185.090 E284.4623
G1 X146.058 Y185.090 E284.5081
G1 X126.410 Y165.442 E286.0052
G1 X126.410 Y166.291 E286.0509
G1 X145.209 Y185.090 E287.4834
G1 X144.361 Y185.090 E287.5291
G1 X126.410 Y167.139 E288.8970
G1 X126.410 Y167.988 E288.9427
G1 X143.512 Y185.090 E290.2459
G1 X142.664 Y185.090 E290.2916
G1 X126.410 Y168.836 E291.5301
G1 X126.410 Y169.685 E291.5758
G1 X141.815 Y185.090 E292.7497
G1 X140.967 Y185.090 E292.7954
G1 X126.410 Y170.533 E293.9046
G1 X126.410 Y171.382 E293.9504
G1 X140.118 Y185.090 E294.9949
G1 X139.269 Y185.090 E295.0406
G1 X126.410 Y172.231 E296.0205
G1 X126.410 Y173.079 E296.0662
G1 X138.421 Y185.090 E296.9815
G1 X137.572 Y185.090 E297.0272
G1 X126.410 Y173.928 E297.8778
G1 X126.410 Y174.776 E297.9235
G1 X136.724 Y185.090 E298.7094
G1 X135.875 Y185.090 E298.7551
G1 X126.410 Y175.625 E299.4764
G1 X126.410 Y176.473 E299.5221
G1 X135.027 Y185.090 E300.1787
G1 X134.178 Y185.090 E300.2244
G1 X126.410 Y177.322 E300.8164
G1 X126.410 Y178.170 E300.8621
G1 X133.330 Y185.090 E301.3894
G1 X132.481 Y185.090 E301.4351
G1 X126.410 Y179.019 E301.8977
G1 X126.410 Y179.867 E301.9434
G1 X131.633 Y185.090 E302.3414
G1 X130.784 Y185.090 E302.3871
G1 X126.410 Y180.716 E302.7204
G1 X126.410 Y181.564 E302.7662
G1 X129.936 Y185.090 E303.0348
G1 X129.087 Y185.090 E303.0805
G1 X126.410 Y182.413 E303.2845
G1 X126.410 Y183.261 E303.3303
G1 X128.239 Y185.090 E303.4696
G1 X127.390 Y185.090 E303.5153
G1 X126.410 Y184.110 E303.5900
G1 X126.410 Y184.958 E303.6357
G1 X126.542 Y185.090 E303.6458
G92 E0.0000
G1 E-5.0000 F1800
; layer 2, Z = 0.440
;G90; Absolute positioning
;G1 F9000 Y100 Z100; Move to photo position;
