; G-Code generated by Simplify3D(R) Version 4.1.2
; May 13, 2021 at 8:18:23 PM
; Settings Summary
;   processName,Detailed CR10S
;   applyToModels,Small box 1,Big box
;   profileName,Creality CR-10S Pro (modified)
;   profileVersion,2021-05-02 22:29:37
;   baseProfile,
;   printMaterial,PLA
;   printQuality,High
;   printExtruders,
;   extruderName,Primary Extruder
;   extruderToolheadNumber,0
;   extruderDiameter,0.4
;   extruderAutoWidth,0
;   extruderWidth,0.4
;   extrusionMultiplier,0.9
;   extruderUseRetract,1
;   extruderRetractionDistance,5
;   extruderExtraRestartDistance,0
;   extruderRetractionZLift,0
;   extruderRetractionSpeed,1800
;   extruderUseCoasting,0
;   extruderCoastingDistance,0.2
;   extruderUseWipe,0
;   extruderWipeDistance,5
;   primaryExtruder,0
;   layerHeight,0.2
;   topSolidLayers,4
;   bottomSolidLayers,4
;   perimeterOutlines,2
;   printPerimetersInsideOut,1
;   startPointOption,2
;   startPointOriginX,0
;   startPointOriginY,0
;   sequentialIslands,0
;   spiralVaseMode,0
;   firstLayerHeightPercentage,120
;   firstLayerWidthPercentage,150
;   firstLayerUnderspeed,0.5
;   useRaft,0
;   raftExtruder,0
;   raftTopLayers,3
;   raftBaseLayers,2
;   raftOffset,3
;   raftSeparationDistance,0.14
;   raftTopInfill,100
;   aboveRaftSpeedMultiplier,0.3
;   useSkirt,1
;   skirtExtruder,0
;   skirtLayers,2
;   skirtOutlines,2
;   skirtOffset,4
;   usePrimePillar,0
;   primePillarExtruder,999
;   primePillarWidth,12
;   primePillarLocation,7
;   primePillarSpeedMultiplier,1
;   useOozeShield,0
;   oozeShieldExtruder,999
;   oozeShieldOffset,2
;   oozeShieldOutlines,1
;   oozeShieldSidewallShape,1
;   oozeShieldSidewallAngle,30
;   oozeShieldSpeedMultiplier,1
;   infillExtruder,0
;   internalInfillPattern,Rectilinear
;   externalInfillPattern,Rectilinear
;   infillPercentage,20
;   outlineOverlapPercentage,15
;   infillExtrusionWidthPercentage,100
;   minInfillLength,5
;   infillLayerInterval,1
;   internalInfillAngles,45,-45
;   overlapInternalInfillAngles,0
;   externalInfillAngles,45,-45
;   generateSupport,0
;   supportExtruder,0
;   supportInfillPercentage,40
;   supportExtraInflation,0
;   supportBaseLayers,0
;   denseSupportExtruder,0
;   denseSupportLayers,0
;   denseSupportInfillPercentage,70
;   supportLayerInterval,1
;   supportHorizontalPartOffset,0.3
;   supportUpperSeparationLayers,1
;   supportLowerSeparationLayers,1
;   supportType,0
;   supportGridSpacing,1
;   maxOverhangAngle,45
;   supportAngles,0
;   temperatureName,Primary Extruder,Heated Bed
;   temperatureNumber,0,0
;   temperatureSetpointCount,1,1
;   temperatureSetpointLayers,1,1
;   temperatureSetpointTemperatures,210,60
;   temperatureStabilizeAtStartup,1,1
;   temperatureHeatedBed,0,1
;   fanLayers,1,2
;   fanSpeeds,0,100
;   blipFanToFullPower,0
;   adjustSpeedForCooling,1
;   minSpeedLayerTime,15
;   minCoolingSpeedSlowdown,20
;   increaseFanForCooling,0
;   minFanLayerTime,45
;   maxCoolingFanSpeed,100
;   increaseFanForBridging,0
;   bridgingFanSpeed,100
;   use5D,1
;   relativeEdistances,0
;   allowEaxisZeroing,1
;   independentExtruderAxes,0
;   includeM10123,0
;   stickySupport,1
;   applyToolheadOffsets,0
;   gcodeXoffset,0
;   gcodeYoffset,0
;   gcodeZoffset,0
;   overrideMachineDefinition,1
;   machineTypeOverride,0
;   strokeXoverride,300
;   strokeYoverride,300
;   strokeZoverride,400
;   originOffsetXoverride,0
;   originOffsetYoverride,0
;   originOffsetZoverride,0
;   homeXdirOverride,-1
;   homeYdirOverride,-1
;   homeZdirOverride,-1
;   flipXoverride,1
;   flipYoverride,-1
;   flipZoverride,1
;   toolheadOffsets,0,0|0,0|0,0|0,0|0,0|0,0
;   overrideFirmwareConfiguration,1
;   firmwareTypeOverride,RepRap (Marlin/Repetier/Sprinter)
;   GPXconfigOverride,r2
;   baudRateOverride,115200
;   overridePrinterModels,1
;   printerModelsOverride
;   startingGcode,G28 ; home all axes,G29 ; auto-bed level,G1 Z5 F3000 ; lift,G1 X5 Y10 F1500 ; move to prime,G1 Z0.2 F3000 ; get ready to prime,G92 E0 ; reset extrusion distance,G1 Y80 E10 F600 ; prime nozzle,G1 Y100 F5000 ; quick wipe
;   layerChangeGcode,;G90; Absolute positioning,;G1 F9000 Y100 Z100; Move to photo position;,;M240; Make a photo,
;   retractionGcode,
;   toolChangeGcode,
;   endingGcode,G28 X0 ; home X axis,M106 S0 ; turn off cooling fan,M104 S0 ; turn off extruder,M140 S0 ; turn off bed,M84 ; disable motors
;   exportFileFormat,gcode
;   celebration,0
;   celebrationSong,Random Song
;   postProcessing,
;   defaultSpeed,3600
;   outlineUnderspeed,0.5
;   solidInfillUnderspeed,0.8
;   supportUnderspeed,0.8
;   rapidXYspeed,4800
;   rapidZspeed,1002
;   minBridgingArea,50
;   bridgingExtraInflation,0
;   bridgingExtrusionMultiplier,1
;   bridgingSpeedMultiplier,1
;   useFixedBridgingAngle,0
;   fixedBridgingAngle,0
;   applyBridgingToPerimeters,0
;   filamentDiameters,1.75|1.75|1.75|1.75|1.75|1.75
;   filamentPricesPerKg,46|46|46|46|46|46
;   filamentDensities,1.25|1.25|1.25|1.25|1.25|1.25
;   useMinPrintHeight,0
;   minPrintHeight,26.3
;   useMaxPrintHeight,1
;   maxPrintHeight,4
;   useDiaphragm,0
;   diaphragmLayerInterval,20
;   robustSlicing,1
;   mergeAllIntoSolid,0
;   onlyRetractWhenCrossingOutline,1
;   retractBetweenLayers,1
;   useRetractionMinTravel,0
;   retractionMinTravel,3
;   retractWhileWiping,0
;   onlyWipeOutlines,1
;   avoidCrossingOutline,0
;   maxMovementDetourFactor,3
;   toolChangeRetractionDistance,12
;   toolChangeExtraRestartDistance,-0.5
;   toolChangeRetractionSpeed,600
;   externalThinWallType,0
;   internalThinWallType,2
;   thinWallAllowedOverlapPercentage,10
;   singleExtrusionMinLength,1
;   singleExtrusionMinPrintingWidthPercentage,50
;   singleExtrusionMaxPrintingWidthPercentage,200
;   singleExtrusionEndpointExtension,0.2
;   horizontalSizeCompensation,0
G90
M82
M106 S0
M140 S60
M190 S60
M104 S210 T0
M109 S210 T0
G28 ; home all axes
G29 ; auto-bed level
G1 Z5 F3000 ; lift
G1 X5 Y10 F1500 ; move to prime
G1 Z0.2 F3000 ; get ready to prime
G92 E0 ; reset extrusion distance
G1 Y80 E10 F600 ; prime nozzle
G1 Y100 F5000 ; quick wipe
; process Detailed CR10S
; layer 1, Z = 0.240
T0
G92 E0.0000
G1 E-5.0000 F1800
;G90; Absolute positioning
;G1 F9000 Y100 Z100; Move to photo position;
;M240; Make a photo
; feature skirt
; tool H0.240 W0.600
G1 Z0.240 F1002
G1 X109.600 Y74.470 F4800
G1 E0.0000 F1800
G92 E0.0000
G1 X112.470 Y71.600 E0.2187 F1800
G1 X164.530 Y71.600 E3.0237
G1 X167.400 Y74.470 E3.2425
G1 X167.400 Y147.600 E7.1828
G1 X187.530 Y147.600 E8.2674
G1 X190.400 Y150.470 E8.4861
G1 X190.400 Y225.530 E12.5304
G1 X187.530 Y228.400 E12.7492
G1 X112.470 Y228.400 E16.7935
G1 X109.600 Y225.530 E17.0122
G1 X109.600 Y150.470 E21.0565
G1 X110.070 Y150.000 E21.0923
G1 X109.600 Y149.530 E21.1282
G1 X109.600 Y74.470 E25.1725
G92 E0.0000
G1 E-5.0000 F1800
G1 X110.200 Y74.719 F4800
G1 E0.0000 F1800
G92 E0.0000
G1 X112.719 Y72.200 E0.1919 F1800
G1 X164.281 Y72.200 E2.9702
G1 X166.800 Y74.719 E3.1621
G1 X166.800 Y148.200 E7.1214
G1 X187.281 Y148.200 E8.2249
G1 X189.800 Y150.719 E8.4169
G1 X189.800 Y225.281 E12.4344
G1 X187.281 Y227.800 E12.6263
G1 X112.719 Y227.800 E16.6439
G1 X110.200 Y225.281 E16.8358
G1 X110.200 Y150.719 E20.8533
G1 X110.919 Y150.000 E20.9081
G1 X110.200 Y149.281 E20.9629
G1 X110.200 Y74.719 E24.9804
G92 E0.0000
G1 E-5.0000 F1800
; feature inner perimeter
G1 X115.400 Y77.400 F4800
G1 E0.0000 F1800
G92 E0.0000
G1 X161.600 Y77.400 E2.4893 F1350
G1 X161.600 Y146.600 E6.2179
G1 X115.400 Y146.600 E8.7072
G1 X115.400 Y77.400 E12.4358
; feature outer perimeter
G1 X114.800 Y76.800 F4800
G92 E0.0000
G1 X162.200 Y76.800 E2.5540 F900
G1 X162.200 Y147.200 E6.3472
G1 X114.800 Y147.200 E8.9012
G1 X114.800 Y76.800 E12.6945
; feature solid layer
G1 X161.066 Y77.910 F4800
G92 E0.0000
G1 X161.090 Y77.934 E0.0018 F1440
G1 X161.090 Y78.783 E0.0476
G1 X160.217 Y77.910 E0.1141
G1 X159.369 Y77.910 E0.1598
G1 X161.090 Y79.631 E0.2910
G1 X161.090 Y80.480 E0.3367
G1 X158.520 Y77.910 E0.5325
G1 X157.672 Y77.910 E0.5782
G1 X161.090 Y81.328 E0.8387
G1 X161.090 Y82.177 E0.8844
G1 X156.823 Y77.910 E1.2095
G1 X155.975 Y77.910 E1.2553
G1 X161.090 Y83.025 E1.6451
G1 X161.090 Y83.874 E1.6908
G1 X155.126 Y77.910 E2.1452
G1 X154.278 Y77.910 E2.1909
G1 X161.090 Y84.722 E2.7101
G1 X161.090 Y85.571 E2.7558
G1 X153.429 Y77.910 E3.3395
G1 X152.580 Y77.910 E3.3853
G1 X161.090 Y86.420 E4.0337
G1 X161.090 Y87.268 E4.0794
G1 X151.732 Y77.910 E4.7925
G1 X150.883 Y77.910 E4.8382
G1 X161.090 Y88.117 E5.6159
G1 X161.090 Y88.965 E5.6617
G1 X150.035 Y77.910 E6.5041
G1 X149.186 Y77.910 E6.5498
G1 X161.090 Y89.814 E7.4568
G1 X161.090 Y90.662 E7.5026
G1 X148.338 Y77.910 E8.4743
G1 X147.489 Y77.910 E8.5200
G1 X161.090 Y91.511 E9.5564
G1 X161.090 Y92.359 E9.6021
G1 X146.641 Y77.910 E10.7031
G1 X145.792 Y77.910 E10.7488
G1 X161.090 Y93.208 E11.9145
G1 X161.090 Y94.056 E11.9602
G1 X144.944 Y77.910 E13.1906
G1 X144.095 Y77.910 E13.2363
G1 X161.090 Y94.905 E14.5313
G1 X161.090 Y95.753 E14.5770
G1 X143.247 Y77.910 E15.9367
G1 X142.398 Y77.910 E15.9824
G1 X161.090 Y96.602 E17.4067
G1 X161.090 Y97.450 E17.4524
G1 X141.550 Y77.910 E18.9414
G1 X140.701 Y77.910 E18.9871
G1 X161.090 Y98.299 E20.5407
G1 X161.090 Y99.147 E20.5865
G1 X139.853 Y77.910 E22.2048
G1 X139.004 Y77.910 E22.2505
G1 X161.090 Y99.996 E23.9334
G1 X161.090 Y100.844 E23.9791
G1 X138.156 Y77.910 E25.7267
G1 X137.307 Y77.910 E25.7725
G1 X161.090 Y101.693 E27.5847
G1 X161.090 Y102.542 E27.6304
G1 X136.458 Y77.910 E29.5074
G1 X135.610 Y77.910 E29.5531
G1 X161.090 Y103.390 E31.4947
G1 X161.090 Y104.239 E31.5404
G1 X134.761 Y77.910 E33.5466
G1 X133.913 Y77.910 E33.5923
G1 X161.090 Y105.087 E35.6632
G1 X161.090 Y105.936 E35.7090
G1 X133.064 Y77.910 E37.8445
G1 X132.216 Y77.910 E37.8902
G1 X161.090 Y106.784 E40.0904
G1 X161.090 Y107.633 E40.1361
G1 X131.367 Y77.910 E42.4010
G1 X130.519 Y77.910 E42.4467
G1 X161.090 Y108.481 E44.7763
G1 X161.090 Y109.330 E44.8220
G1 X129.670 Y77.910 E47.2162
G1 X128.822 Y77.910 E47.2619
G1 X161.090 Y110.178 E49.7207
G1 X161.090 Y111.027 E49.7664
G1 X127.973 Y77.910 E52.2899
G1 X127.125 Y77.910 E52.3357
G1 X161.090 Y111.875 E54.9238
G1 X161.090 Y112.724 E54.9695
G1 X126.276 Y77.910 E57.6223
G1 X125.428 Y77.910 E57.6681
G1 X161.090 Y113.572 E60.3855
G1 X161.090 Y114.421 E60.4313
G1 X124.579 Y77.910 E63.2134
G1 X123.731 Y77.910 E63.2591
G1 X161.090 Y115.269 E66.1059
G1 X161.090 Y116.118 E66.1516
G1 X122.882 Y77.910 E69.0630
G1 X122.033 Y77.910 E69.1088
G1 X161.090 Y116.967 E72.0849
G1 X161.090 Y117.815 E72.1306
G1 X121.185 Y77.910 E75.1713
G1 X120.336 Y77.910 E75.2171
G1 X161.090 Y118.664 E78.3225
G1 X161.090 Y119.512 E78.3682
G1 X119.488 Y77.910 E81.5383
G1 X118.639 Y77.910 E81.5840
G1 X161.090 Y120.361 E84.8187
G1 X161.090 Y121.209 E84.8644
G1 X117.791 Y77.910 E88.1638
G1 X116.942 Y77.910 E88.2096
G1 X161.090 Y122.058 E91.5736
G1 X161.090 Y122.906 E91.6193
G1 X116.094 Y77.910 E95.0480
G1 X115.910 Y77.910 E95.0579
G1 X115.910 Y78.575 E95.0937
G1 X161.090 Y123.755 E98.5365
G1 X161.090 Y124.603 E98.5822
G1 X115.910 Y79.423 E102.0249
G1 X115.910 Y80.272 E102.0706
G1 X161.090 Y125.452 E105.5133
G1 X161.090 Y126.300 E105.5590
G1 X115.910 Y81.120 E109.0017
G1 X115.910 Y81.969 E109.0475
G1 X161.090 Y127.149 E112.4902
G1 X161.090 Y127.997 E112.5359
G1 X115.910 Y82.817 E115.9786
G1 X115.910 Y83.666 E116.0243
G1 X161.090 Y128.846 E119.4670
G1 X161.090 Y129.694 E119.5127
G1 X115.910 Y84.514 E122.9555
G1 X115.910 Y85.363 E123.0012
G1 X161.090 Y130.543 E126.4439
G1 X161.090 Y131.392 E126.4896
G1 X115.910 Y86.212 E129.9323
G1 X115.910 Y87.060 E129.9780
G1 X161.090 Y132.240 E133.4207
G1 X161.090 Y133.089 E133.4665
G1 X115.910 Y87.909 E136.9092
G1 X115.910 Y88.757 E136.9549
G1 X161.090 Y133.937 E140.3976
G1 X161.090 Y134.786 E140.4433
G1 X115.910 Y89.606 E143.8860
G1 X115.910 Y90.454 E143.9317
G1 X161.090 Y135.634 E147.3745
G1 X161.090 Y136.483 E147.4202
G1 X115.910 Y91.303 E150.8629
G1 X115.910 Y92.151 E150.9086
G1 X161.090 Y137.331 E154.3513
G1 X161.090 Y138.180 E154.3970
G1 X115.910 Y93.000 E157.8397
G1 X115.910 Y93.848 E157.8855
G1 X161.090 Y139.028 E161.3282
G1 X161.090 Y139.877 E161.3739
G1 X115.910 Y94.697 E164.8166
G1 X115.910 Y95.545 E164.8623
G1 X161.090 Y140.725 E168.3050
G1 X161.090 Y141.574 E168.3507
G1 X115.910 Y96.394 E171.7934
G1 X115.910 Y97.242 E171.8392
G1 X161.090 Y142.422 E175.2819
G1 X161.090 Y143.271 E175.3276
G1 X115.910 Y98.091 E178.7703
G1 X115.910 Y98.939 E178.8160
G1 X161.090 Y144.119 E182.2587
G1 X161.090 Y144.968 E182.3045
G1 X115.910 Y99.788 E185.7472
G1 X115.910 Y100.636 E185.7929
G1 X161.090 Y145.816 E189.2356
G1 X161.090 Y146.090 E189.2503
G1 X160.515 Y146.090 E189.2813
G1 X115.910 Y101.485 E192.6802
G1 X115.910 Y102.334 E192.7259
G1 X159.666 Y146.090 E196.0602
G1 X158.818 Y146.090 E196.1059
G1 X115.910 Y103.182 E199.3755
G1 X115.910 Y104.031 E199.4212
G1 X157.969 Y146.090 E202.6261
G1 X157.121 Y146.090 E202.6718
G1 X115.910 Y104.879 E205.8121
G1 X115.910 Y105.728 E205.8578
G1 X156.272 Y146.090 E208.9334
G1 X155.424 Y146.090 E208.9791
G1 X115.910 Y106.576 E211.9901
G1 X115.910 Y107.425 E212.0358
G1 X154.575 Y146.090 E214.9821
G1 X153.727 Y146.090 E215.0278
G1 X115.910 Y108.273 E217.9094
G1 X115.910 Y109.122 E217.9551
G1 X152.878 Y146.090 E220.7721
G1 X152.030 Y146.090 E220.8178
G1 X115.910 Y109.970 E223.5702
G1 X115.910 Y110.819 E223.6159
G1 X151.181 Y146.090 E226.3035
G1 X150.333 Y146.090 E226.3493
G1 X115.910 Y111.667 E228.9723
G1 X115.910 Y112.516 E229.0180
G1 X149.484 Y146.090 E231.5763
G1 X148.636 Y146.090 E231.6220
G1 X115.910 Y113.364 E234.1157
G1 X115.910 Y114.213 E234.1614
G1 X147.787 Y146.090 E236.5905
G1 X146.939 Y146.090 E236.6362
G1 X115.910 Y115.061 E239.0006
G1 X115.910 Y115.910 E239.0463
G1 X146.090 Y146.090 E241.3460
G1 X145.241 Y146.090 E241.3917
G1 X115.910 Y116.759 E243.6268
G1 X115.910 Y117.607 E243.6725
G1 X144.393 Y146.090 E245.8429
G1 X143.544 Y146.090 E245.8886
G1 X115.910 Y118.456 E247.9943
G1 X115.910 Y119.304 E248.0401
G1 X142.696 Y146.090 E250.0811
G1 X141.847 Y146.090 E250.1269
G1 X115.910 Y120.153 E252.1033
G1 X115.910 Y121.001 E252.1490
G1 X140.999 Y146.090 E254.0608
G1 X140.150 Y146.090 E254.1065
G1 X115.910 Y121.850 E255.9536
G1 X115.910 Y122.698 E255.9993
G1 X139.302 Y146.090 E257.7818
G1 X138.453 Y146.090 E257.8275
G1 X115.910 Y123.547 E259.5453
G1 X115.910 Y124.395 E259.5910
G1 X137.605 Y146.090 E261.2441
G1 X136.756 Y146.090 E261.2899
G1 X115.910 Y125.244 E262.8783
G1 X115.910 Y126.092 E262.9241
G1 X135.908 Y146.090 E264.4479
G1 X135.059 Y146.090 E264.4936
G1 X115.910 Y126.941 E265.9528
G1 X115.910 Y127.789 E265.9985
G1 X134.211 Y146.090 E267.3930
G1 X133.362 Y146.090 E267.4387
G1 X115.910 Y128.638 E268.7685
G1 X115.910 Y129.486 E268.8143
G1 X132.514 Y146.090 E270.0795
G1 X131.665 Y146.090 E270.1252
G1 X115.910 Y130.335 E271.3257
G1 X115.910 Y131.183 E271.3714
G1 X130.817 Y146.090 E272.5073
G1 X129.968 Y146.090 E272.5530
G1 X115.910 Y132.032 E273.6242
G1 X115.910 Y132.881 E273.6700
G1 X129.119 Y146.090 E274.6765
G1 X128.271 Y146.090 E274.7222
G1 X115.910 Y133.729 E275.6641
G1 X115.910 Y134.578 E275.7098
G1 X127.422 Y146.090 E276.5871
G1 X126.574 Y146.090 E276.6328
G1 X115.910 Y135.426 E277.4454
G1 X115.910 Y136.275 E277.4911
G1 X125.725 Y146.090 E278.2390
G1 X124.877 Y146.090 E278.2848
G1 X115.910 Y137.123 E278.9680
G1 X115.910 Y137.972 E279.0138
G1 X124.028 Y146.090 E279.6324
G1 X123.180 Y146.090 E279.6781
G1 X115.910 Y138.820 E280.2320
G1 X115.910 Y139.669 E280.2778
G1 X122.331 Y146.090 E280.7671
G1 X121.483 Y146.090 E280.8128
G1 X115.910 Y140.517 E281.2374
G1 X115.910 Y141.366 E281.2831
G1 X120.634 Y146.090 E281.6431
G1 X119.786 Y146.090 E281.6888
G1 X115.910 Y142.214 E281.9842
G1 X115.910 Y143.063 E282.0299
G1 X118.937 Y146.090 E282.2605
G1 X118.089 Y146.090 E282.3063
G1 X115.910 Y143.911 E282.4723
G1 X115.910 Y144.760 E282.5180
G1 X117.240 Y146.090 E282.6193
G1 X116.392 Y146.090 E282.6651
G1 X115.910 Y145.608 E282.7018
G92 E0.0000
G1 E-5.0000 F1800
; feature inner perimeter
G1 X115.400 Y153.400 F4800
G1 E0.0000 F1800
G92 E0.0000
G1 X184.600 Y153.400 E3.7286 F1350
G1 X184.600 Y222.600 E7.4572
