; G-Code generated by Simplify3D(R) Version 4.1.2
; Mar 22, 2021 at 6:13:14 PM
; Settings Summary
;   processName,Normal
;   applyToModels,Divider,Divider(2)
;   profileName,FlashForge Creator Pro (modified)
;   profileVersion,2020-10-11 13:46:27
;   baseProfile,
;   printMaterial,PLA
;   printQuality,Medium
;   printExtruders,Right Extruder Only
;   extruderName,Right Extruder,Left Extruder
;   extruderToolheadNumber,0,1
;   extruderDiameter,0.4,0.4
;   extruderAutoWidth,0,0
;   extruderWidth,0.4,0.4
;   extrusionMultiplier,0.9,0.9
;   extruderUseRetract,1,1
;   extruderRetractionDistance,1.5,1.5
;   extruderExtraRestartDistance,0,0
;   extruderRetractionZLift,0,0
;   extruderRetractionSpeed,1200,1200
;   extruderUseCoasting,0,0
;   extruderCoastingDistance,0.2,0.2
;   extruderUseWipe,0,0
;   extruderWipeDistance,5,5
;   primaryExtruder,0
;   layerHeight,0.2
;   topSolidLayers,6
;   bottomSolidLayers,3
;   perimeterOutlines,2
;   printPerimetersInsideOut,1
;   startPointOption,2
;   startPointOriginX,0
;   startPointOriginY,0
;   sequentialIslands,0
;   spiralVaseMode,0
;   firstLayerHeightPercentage,90
;   firstLayerWidthPercentage,100
;   firstLayerUnderspeed,0.5
;   useRaft,0
;   raftExtruder,0
;   raftTopLayers,3
;   raftBaseLayers,2
;   raftOffset,3
;   raftSeparationDistance,0.14
;   raftTopInfill,100
;   aboveRaftSpeedMultiplier,0.3
;   useSkirt,1
;   skirtExtruder,0
;   skirtLayers,1
;   skirtOutlines,6
;   skirtOffset,4
;   usePrimePillar,0
;   primePillarExtruder,999
;   primePillarWidth,2
;   primePillarLocation,7
;   primePillarSpeedMultiplier,1
;   useOozeShield,0
;   oozeShieldExtruder,999
;   oozeShieldOffset,2
;   oozeShieldOutlines,1
;   oozeShieldSidewallShape,1
;   oozeShieldSidewallAngle,30
;   oozeShieldSpeedMultiplier,1
;   infillExtruder,0
;   internalInfillPattern,Rectilinear
;   externalInfillPattern,Rectilinear
;   infillPercentage,20
;   outlineOverlapPercentage,20
;   infillExtrusionWidthPercentage,100
;   minInfillLength,5
;   infillLayerInterval,1
;   internalInfillAngles,45,-45
;   overlapInternalInfillAngles,0
;   externalInfillAngles,45,-45
;   generateSupport,1
;   supportExtruder,0
;   supportInfillPercentage,30
;   supportExtraInflation,0
;   supportBaseLayers,0
;   denseSupportExtruder,0
;   denseSupportLayers,0
;   denseSupportInfillPercentage,70
;   supportLayerInterval,1
;   supportHorizontalPartOffset,0.3
;   supportUpperSeparationLayers,1
;   supportLowerSeparationLayers,1
;   supportType,0
;   supportGridSpacing,1.5
;   maxOverhangAngle,45
;   supportAngles,0
;   temperatureName,Right Extruder,Left Extruder,Heated Build Platform
;   temperatureNumber,0,1,0
;   temperatureSetpointCount,1,1,1
;   temperatureSetpointLayers,1,1,1
;   temperatureSetpointTemperatures,210,0,60
;   temperatureStabilizeAtStartup,0,0,0
;   temperatureHeatedBed,0,0,1
;   fanLayers,1,2
;   fanSpeeds,0,100
;   blipFanToFullPower,0
;   adjustSpeedForCooling,1
;   minSpeedLayerTime,15
;   minCoolingSpeedSlowdown,20
;   increaseFanForCooling,0
;   minFanLayerTime,45
;   maxCoolingFanSpeed,100
;   increaseFanForBridging,1
;   bridgingFanSpeed,100
;   use5D,1
;   relativeEdistances,1
;   allowEaxisZeroing,0
;   independentExtruderAxes,1
;   includeM10123,0
;   stickySupport,1
;   applyToolheadOffsets,0
;   gcodeXoffset,0
;   gcodeYoffset,0
;   gcodeZoffset,0
;   overrideMachineDefinition,1
;   machineTypeOverride,0
;   strokeXoverride,225
;   strokeYoverride,145
;   strokeZoverride,150
;   originOffsetXoverride,112.5
;   originOffsetYoverride,72.5
;   originOffsetZoverride,0
;   homeXdirOverride,1
;   homeYdirOverride,1
;   homeZdirOverride,-1
;   flipXoverride,1
;   flipYoverride,-1
;   flipZoverride,1
;   toolheadOffsets,0,0|34,0|0,0|0,0|0,0|0,0
;   overrideFirmwareConfiguration,1
;   firmwareTypeOverride,MakerBot/Sailfish Firmware
;   GPXconfigOverride,r1d
;   baudRateOverride,115200
;   overridePrinterModels,1
;   printerModelsOverride,FlashForge_CreatorPro.stl
;   startingGcode,; **** Replicator 1 dual start.gcode ****,M73 P0 ; enable build progress,G162 X Y F3000 ; home XY maximum,G161 Z F1200 ; home Z minimum,G92 Z-5 ; set Z to -5,G1 Z0 ; move Z to 0,G161 Z F100 ; home Z slowly,M132 X Y Z A B ; recall home offsets,M135 T0 ; load right extruder offsets,G1 X150 Y-70 Z30 F9000 ; move to wait position right hand side of the table,G130 X20 Y20 Z20 A20 B20 ; lower stepper Vrefs while heating,M126 S[fan_speed_pwm],M140 S[bed0_temperature] T0,M134 T0 ; stabilize bed temperature,M104 S[extruder0_temperature] T0,M133 T0 ; stabilize right extruder temperature,G130 X127 Y127 Z40 A127 B127 ; default stepper Vrefs,G92 A0 B0 ; zero extruders,G1 Z0.4 ; position nozzle,G1 X110 Y-70 E25 F300 ; purge nozzle,G1 X120 Y-70 Z0.15 F1200 ; slow wipe,G1 X110 Y-70 Z0.5 F1200 ; lift,G92 A0 B0 ; zero extruders,M73 P1 ;@body (notify GPX body has started),; **** end of start.gcode ****
;   layerChangeGcode,
;   retractionGcode,
;   toolChangeGcode,
;   endingGcode,; **** Replicator 1 dual end.gcode ****,M73 P100 ; end build progress,G1 Z150 F1000 ; send Z axis to bottom of machine,M140 S0 T0 ; cool down HBP,M104 S0 T0 ; cool down right extruder,M104 S0 T1 ; cool down left extruder,M127 ; stop blower fan,G162 X Y F3000 ; home XY maximum,M18 ; disable stepper,M72 P1 ; play Ta-Da song,; **** end of end.gcode ****
;   exportFileFormat,x3g
;   celebration,0
;   celebrationSong,Random Song
;   postProcessing,
;   defaultSpeed,3600
;   outlineUnderspeed,0.5
;   solidInfillUnderspeed,0.8
;   supportUnderspeed,0.8
;   rapidXYspeed,4200
;   rapidZspeed,1200
;   minBridgingArea,50
;   bridgingExtraInflation,0
;   bridgingExtrusionMultiplier,1
;   bridgingSpeedMultiplier,0.8
;   useFixedBridgingAngle,0
;   fixedBridgingAngle,0
;   applyBridgingToPerimeters,0
;   filamentDiameters,1.75|1.75|1.75|1.75|1.75|1.75
;   filamentPricesPerKg,46|46|46|46|46|46
;   filamentDensities,1.25|1.25|1.25|1.25|1.25|1.25
;   useMinPrintHeight,0
;   minPrintHeight,0
;   useMaxPrintHeight,0
;   maxPrintHeight,0
;   useDiaphragm,0
;   diaphragmLayerInterval,20
;   robustSlicing,1
;   mergeAllIntoSolid,0
;   onlyRetractWhenCrossingOutline,1
;   retractBetweenLayers,1
;   useRetractionMinTravel,0
;   retractionMinTravel,3
;   retractWhileWiping,0
;   onlyWipeOutlines,1
;   avoidCrossingOutline,0
;   maxMovementDetourFactor,3
;   toolChangeRetractionDistance,12
;   toolChangeExtraRestartDistance,-0.5
;   toolChangeRetractionSpeed,600
;   externalThinWallType,0
;   internalThinWallType,2
;   thinWallAllowedOverlapPercentage,10
;   singleExtrusionMinLength,1
;   singleExtrusionMinPrintingWidthPercentage,50
;   singleExtrusionMaxPrintingWidthPercentage,200
;   singleExtrusionEndpointExtension,0.2
;   horizontalSizeCompensation,0
G90
M83
; **** Replicator 1 dual start.gcode ****
M73 P0 ; enable build progress
G162 X Y F3000 ; home XY maximum
G161 Z F1200 ; home Z minimum
G92 Z-5 ; set Z to -5
G1 Z0 ; move Z to 0
G161 Z F100 ; home Z slowly
M132 X Y Z A B ; recall home offsets
M135 T0 ; load right extruder offsets
G1 X150 Y-70 Z30 F9000 ; move to wait position right hand side of the table
G130 X20 Y20 Z20 A20 B20 ; lower stepper Vrefs while heating
M127
M140 S60 T0
M134 T0 ; stabilize bed temperature
M104 S210 T0
M133 T0 ; stabilize right extruder temperature
G130 X127 Y127 Z40 A127 B127 ; default stepper Vrefs
G92 A0 B0 ; zero extruders
G1 Z0.4 ; position nozzle
G1 X110 Y-70 E25 F300 ; purge nozzle
G1 X120 Y-70 Z0.15 F1200 ; slow wipe
G1 X110 Y-70 Z0.5 F1200 ; lift
G92 A0 B0 ; zero extruders
M73 P1 ;@body (notify GPX body has started)
; **** end of start.gcode ****
; process Normal
; layer 1, Z = 0.180
M135 T0
G1 E-1.5000 F1200
; feature skirt
; tool H0.180 W0.400
G1 Z0.180 F1200
G1 X3.535 Y7.692 F4200
G1 E1.5000 F1200
G1 X3.525 Y7.948 E0.0069 F1800
G1 X3.363 Y9.895 E0.0526
G1 X3.332 Y10.149 E0.0069
G1 X3.015 Y12.044 E0.0518
G1 X2.978 Y12.233 E0.0052
G1 X2.743 Y13.247 E0.0280
G1 X2.694 Y13.433 E0.0052
G1 X2.146 Y15.274 E0.0518
G1 X2.063 Y15.517 E0.0069
G1 X1.353 Y17.335 E0.0526
G1 X1.251 Y17.569 E0.0069
G1 X0.428 Y19.254 E0.0505
G1 X0.340 Y19.420 E0.0051
G1 X-0.193 Y20.364 E0.0292
G1 X-0.296 Y20.534 E0.0053
G1 X-1.331 Y22.118 E0.0510
G1 X-1.441 Y22.275 E0.0052
G1 X-2.063 Y23.109 E0.0280
G1 X-2.182 Y23.258 E0.0051
G1 X-3.372 Y24.666 E0.0497
G1 X-3.498 Y24.805 E0.0051
G1 X-4.201 Y25.541 E0.0274
G1 X-4.248 Y25.589 E0.0018
G1 X-14.002 Y35.369 E0.3721
G1 X-14.298 Y35.706 E0.0121
G1 X-15.043 Y36.677 E0.0330
G1 X-15.665 Y37.653 E0.0312
G1 X-16.230 Y38.739 E0.0330
G1 X-16.409 Y39.145 E0.0119
G1 X-16.828 Y40.296 E0.0330
G1 X-17.127 Y41.414 E0.0312
G1 X-17.340 Y42.620 E0.0330
G1 X-17.388 Y43.060 E0.0119
G1 X-17.447 Y44.420 E0.0367
G1 X-17.448 Y48.153 E0.1006
G1 X-17.632 Y49.211 E0.0289
G1 X-18.161 Y50.679 E0.0420
G1 X-19.198 Y52.107 E0.0475
G1 X-20.821 Y53.366 E0.0553
G1 X-22.771 Y54.034 E0.0555
G1 X-39.558 Y54.048 E0.4522
G1 X-39.699 Y54.349 E0.0089
G1 X-41.325 Y55.925 E0.0610
G1 X-43.105 Y56.695 E0.0522
G1 X-44.349 Y56.952 E0.0342
G1 X-65.763 Y56.953 E0.5769
G1 X-66.727 Y56.800 E0.0263
G1 X-68.226 Y56.313 E0.0425
G1 X-69.751 Y55.241 E0.0502
G1 X-70.859 Y53.813 E0.0487
G1 X-71.463 Y52.476 E0.0395
G1 X-71.673 Y51.374 E0.0302
G1 X-71.728 Y50.792 E0.0158
G1 X-71.728 Y44.216 E0.1772
G1 X-71.725 Y44.081 E0.0036
G1 X-71.644 Y42.234 E0.0498
G1 X-71.629 Y42.032 E0.0055
G1 X-71.515 Y40.996 E0.0281
G1 X-71.487 Y40.795 E0.0055
G1 X-71.154 Y38.908 E0.0516
G1 X-71.095 Y38.644 E0.0073
G1 X-70.591 Y36.761 E0.0525
G1 X-70.509 Y36.503 E0.0073
G1 X-69.842 Y34.670 E0.0525
G1 X-69.739 Y34.420 E0.0073
G1 X-68.929 Y32.684 E0.0516
G1 X-68.837 Y32.503 E0.0055
G1 X-68.336 Y31.589 E0.0281
G1 X-68.232 Y31.414 E0.0055
G1 X-67.221 Y29.827 E0.0507
G1 X-67.107 Y29.659 E0.0055
G1 X-66.490 Y28.818 E0.0281
G1 X-66.365 Y28.659 E0.0055
G1 X-65.134 Y27.192 E0.0516
G1 X-64.955 Y26.996 E0.0072
G1 X-55.088 Y17.103 E0.3764
G1 X-54.137 Y16.065 E0.0379
G1 X-53.364 Y15.058 E0.0342
G1 X-52.682 Y13.988 E0.0342
G1 X-52.096 Y12.863 E0.0342
G1 X-51.611 Y11.691 E0.0342
G1 X-51.219 Y10.448 E0.0351
G1 X-51.041 Y9.685 E0.0211
G1 X-50.859 Y8.628 E0.0289
G1 X-50.747 Y7.346 E0.0347
G1 X-50.728 Y-6.585 E0.3753
G1 X-50.789 Y-7.983 E0.0377
G1 X-50.964 Y-9.309 E0.0360
G1 X-51.061 Y-9.798 E0.0134
G1 X-51.424 Y-11.155 E0.0379
G1 X-51.585 Y-11.628 E0.0135
G1 X-52.096 Y-12.863 E0.0360
G1 X-52.714 Y-14.048 E0.0360
G1 X-52.973 Y-14.475 E0.0135
G1 X-53.739 Y-15.570 E0.0360
G1 X-54.558 Y-16.546 E0.0343
G1 X-64.326 Y-26.342 E0.3727
G1 X-64.417 Y-26.436 E0.0035
G1 X-65.664 Y-27.797 E0.0497
G1 X-65.796 Y-27.951 E0.0055
G1 X-66.449 Y-28.765 E0.0281
G1 X-66.571 Y-28.927 E0.0055
G1 X-67.669 Y-30.496 E0.0516
G1 X-67.815 Y-30.725 E0.0073
G1 X-68.773 Y-32.384 E0.0516
G1 X-68.869 Y-32.563 E0.0055
G1 X-69.330 Y-33.498 E0.0281
G1 X-69.413 Y-33.683 E0.0055
G1 X-70.147 Y-35.453 E0.0516
G1 X-70.239 Y-35.707 E0.0073
G1 X-70.826 Y-37.567 E0.0525
G1 X-70.896 Y-37.828 E0.0073
G1 X-71.318 Y-39.732 E0.0525
G1 X-71.365 Y-39.998 E0.0073
G1 X-71.619 Y-41.932 E0.0525
G1 X-71.643 Y-42.201 E0.0073
G1 X-71.725 Y-44.081 E0.0507
G1 X-71.728 Y-44.216 E0.0036
G1 X-71.728 Y-51.037 E0.1837
G1 X-71.543 Y-52.095 E0.0289
G1 X-70.920 Y-53.827 E0.0496
G1 X-69.449 Y-55.549 E0.0610
G1 X-67.607 Y-56.561 E0.0566
G1 X-66.090 Y-56.951 E0.0422
G1 X-44.235 Y-56.951 E0.5888
G1 X-42.807 Y-56.608 E0.0395
G1 X-41.037 Y-55.706 E0.0535
G1 X-39.555 Y-54.128 E0.0583
G1 X-39.523 Y-54.053 E0.0022
G1 X-23.461 Y-54.053 E0.4327
G1 X-22.592 Y-53.929 E0.0237
G1 X-21.280 Y-53.548 E0.0368
G1 X-19.928 Y-52.747 E0.0423
G1 X-18.778 Y-51.593 E0.0439
G1 X-18.013 Y-50.341 E0.0395
G1 X-17.601 Y-49.069 E0.0360
G1 X-17.450 Y-48.123 E0.0258
G1 X-17.430 Y-43.720 E0.1186
G1 X-17.328 Y-42.553 E0.0316
G1 X-17.127 Y-41.414 E0.0312
G1 X-16.810 Y-40.231 E0.0330
G1 X-16.667 Y-39.811 E0.0119
G1 X-16.199 Y-38.679 E0.0330
G1 X-15.665 Y-37.653 E0.0312
G1 X-15.043 Y-36.677 E0.0312
G1 X-14.297 Y-35.706 E0.0330
G1 X-14.002 Y-35.369 E0.0121
G1 X-4.225 Y-25.565 E0.3730
G1 X-4.134 Y-25.471 E0.0035
G1 X-2.788 Y-24.002 E0.0537
G1 X-2.614 Y-23.795 E0.0073
G1 X-1.359 Y-22.159 E0.0555
G1 X-1.204 Y-21.937 E0.0073
G1 X-0.096 Y-20.199 E0.0555
G1 X0.039 Y-19.964 E0.0073
G1 X0.991 Y-18.135 E0.0555
G1 X1.105 Y-17.890 E0.0073
G1 X1.894 Y-15.985 E0.0555
G1 X1.987 Y-15.731 E0.0073
G1 X2.607 Y-13.765 E0.0555
G1 X2.677 Y-13.504 E0.0073
G1 X3.123 Y-11.491 E0.0555
G1 X3.170 Y-11.224 E0.0073
G1 X3.435 Y-9.214 E0.0546
G1 X3.455 Y-9.012 E0.0055
G1 X3.526 Y-7.916 E0.0296
G1 X3.533 Y-7.713 E0.0055
G1 X3.535 Y7.692 E0.4150
G1 E-1.5000 F1200
G1 X3.135 Y7.683 F4200
G1 E1.5000 F1200
G1 X3.125 Y7.923 E0.0065 F1800
G1 X2.965 Y9.854 E0.0522
G1 X2.936 Y10.092 E0.0065
G1 X2.622 Y11.972 E0.0514
G1 X2.587 Y12.149 E0.0048
G1 X2.355 Y13.151 E0.0277
G1 X2.309 Y13.325 E0.0048
G1 X1.765 Y15.152 E0.0514
G1 X1.687 Y15.379 E0.0065
G1 X0.983 Y17.182 E0.0522
G1 X0.888 Y17.401 E0.0064
G1 X0.071 Y19.073 E0.0501
G1 X-0.011 Y19.229 E0.0047
G1 X-0.538 Y20.162 E0.0289
G1 X-0.635 Y20.320 E0.0050
G1 X-1.663 Y21.894 E0.0506
G1 X-1.766 Y22.041 E0.0048
G1 X-2.380 Y22.865 E0.0277
G1 X-2.491 Y23.005 E0.0048
G1 X-3.674 Y24.403 E0.0493
G1 X-3.791 Y24.533 E0.0047
G1 X-4.489 Y25.263 E0.0272
G1 X-4.532 Y25.308 E0.0017
G1 X-14.295 Y35.096 E0.3724
G1 X-14.607 Y35.452 E0.0128
G1 X-15.371 Y36.447 E0.0338
G1 X-16.011 Y37.453 E0.0321
G1 X-16.591 Y38.566 E0.0338
G1 X-16.780 Y38.996 E0.0127
G1 X-17.209 Y40.176 E0.0338
G1 X-17.518 Y41.327 E0.0321
G1 X-17.736 Y42.563 E0.0338
G1 X-17.787 Y43.030 E0.0126
G1 X-17.847 Y44.411 E0.0372
G1 X-17.848 Y48.119 E0.0999
G1 X-18.021 Y49.108 E0.0271
G1 X-18.518 Y50.490 E0.0396
G1 X-19.488 Y51.826 E0.0445
G1 X-21.014 Y53.009 E0.0520
G1 X-22.838 Y53.634 E0.0519
G1 X-39.812 Y53.649 E0.4573
G1 X-40.030 Y54.112 E0.0138
G1 X-41.551 Y55.586 E0.0571
G1 X-43.226 Y56.311 E0.0492
G1 X-44.390 Y56.552 E0.0320
G1 X-65.732 Y56.553 E0.5750
G1 X-66.633 Y56.410 E0.0246
G1 X-68.045 Y55.951 E0.0400
G1 X-69.472 Y54.948 E0.0470
G1 X-70.514 Y53.606 E0.0458
G1 X-71.079 Y52.354 E0.0370
G1 X-71.276 Y51.318 E0.0284
G1 X-71.328 Y50.773 E0.0147
G1 X-71.328 Y44.221 E0.1765
G1 X-71.325 Y44.094 E0.0034
G1 X-71.245 Y42.258 E0.0495
G1 X-71.230 Y42.069 E0.0051
G1 X-71.118 Y41.046 E0.0277
G1 X-71.091 Y40.858 E0.0051
G1 X-70.761 Y38.986 E0.0512
G1 X-70.707 Y38.739 E0.0068
G1 X-70.206 Y36.873 E0.0521
G1 X-70.130 Y36.631 E0.0068
G1 X-69.469 Y34.815 E0.0521
G1 X-69.373 Y34.581 E0.0068
G1 X-68.569 Y32.859 E0.0512
G1 X-68.483 Y32.689 E0.0051
G1 X-67.988 Y31.787 E0.0277
G1 X-67.892 Y31.623 E0.0051
G1 X-66.887 Y30.047 E0.0504
G1 X-66.780 Y29.890 E0.0051
G1 X-66.171 Y29.060 E0.0277
G1 X-66.054 Y28.911 E0.0051
G1 X-64.834 Y27.456 E0.0512
G1 X-64.665 Y27.272 E0.0067
G1 X-54.799 Y17.380 E0.3764
G1 X-53.830 Y16.322 E0.0386
G1 X-53.036 Y15.288 E0.0351
G1 X-52.336 Y14.188 E0.0351
G1 X-51.733 Y13.032 E0.0351
G1 X-51.235 Y11.828 E0.0351
G1 X-50.833 Y10.553 E0.0360
G1 X-50.649 Y9.764 E0.0218
G1 X-50.462 Y8.679 E0.0297
G1 X-50.347 Y7.364 E0.0356
G1 X-50.328 Y-6.593 E0.3760
G1 X-50.390 Y-8.018 E0.0384
G1 X-50.569 Y-9.374 E0.0368
G1 X-50.671 Y-9.889 E0.0141
G1 X-51.041 Y-11.271 E0.0386
G1 X-51.210 Y-11.769 E0.0142
G1 X-51.734 Y-13.032 E0.0368
G1 X-52.365 Y-14.245 E0.0368
G1 X-52.638 Y-14.694 E0.0142
G1 X-53.422 Y-15.814 E0.0368
G1 X-54.263 Y-16.816 E0.0352
G1 X-64.040 Y-26.621 E0.3731
G1 X-64.125 Y-26.710 E0.0033
G1 X-65.365 Y-28.063 E0.0494
G1 X-65.488 Y-28.207 E0.0051
G1 X-66.133 Y-29.010 E0.0277
G1 X-66.247 Y-29.162 E0.0051
G1 X-67.337 Y-30.719 E0.0512
G1 X-67.473 Y-30.932 E0.0068
G1 X-68.423 Y-32.578 E0.0512
G1 X-68.513 Y-32.746 E0.0051
G1 X-68.968 Y-33.669 E0.0277
G1 X-69.046 Y-33.842 E0.0051
G1 X-69.774 Y-35.598 E0.0512
G1 X-69.860 Y-35.836 E0.0068
G1 X-70.441 Y-37.679 E0.0521
G1 X-70.507 Y-37.923 E0.0068
G1 X-70.925 Y-39.810 E0.0521
G1 X-70.969 Y-40.059 E0.0068
G1 X-71.221 Y-41.975 E0.0521
G1 X-71.243 Y-42.227 E0.0068
G1 X-71.325 Y-44.094 E0.0504
G1 X-71.328 Y-44.221 E0.0034
G1 X-71.328 Y-51.002 E0.1827
G1 X-71.155 Y-51.992 E0.0271
G1 X-70.568 Y-53.622 E0.0467
G1 X-69.192 Y-55.234 E0.0571
G1 X-67.459 Y-56.186 E0.0533
G1 X-66.039 Y-56.551 E0.0395
G1 X-44.282 Y-56.551 E0.5862
