; G-Code generated by Simplify3D(R) Version 4.1.2
; Dec 23, 2021 at 9:17:53 AM
; Settings Summary
;   processName,Process1
;   applyToModels,Divider,Divider(2)
;   profileName,Creality CR-10S Pro (modified)
;   profileVersion,2021-05-02 22:29:37
;   baseProfile,
;   printMaterial,PLA
;   printQuality,High
;   printExtruders,
;   extruderName,Primary Extruder
;   extruderToolheadNumber,0
;   extruderDiameter,0.4
;   extruderAutoWidth,0
;   extruderWidth,0.4
;   extrusionMultiplier,0.9
;   extruderUseRetract,1
;   extruderRetractionDistance,5
;   extruderExtraRestartDistance,0
;   extruderRetractionZLift,0
;   extruderRetractionSpeed,1800
;   extruderUseCoasting,0
;   extruderCoastingDistance,0.2
;   extruderUseWipe,0
;   extruderWipeDistance,5
;   primaryExtruder,0
;   layerHeight,0.2
;   topSolidLayers,6
;   bottomSolidLayers,4
;   perimeterOutlines,2
;   printPerimetersInsideOut,1
;   startPointOption,2
;   startPointOriginX,0
;   startPointOriginY,0
;   sequentialIslands,0
;   spiralVaseMode,0
;   firstLayerHeightPercentage,120
;   firstLayerWidthPercentage,150
;   firstLayerUnderspeed,0.5
;   useRaft,0
;   raftExtruder,0
;   raftTopLayers,3
;   raftBaseLayers,2
;   raftOffset,3
;   raftSeparationDistance,0.14
;   raftTopInfill,100
;   aboveRaftSpeedMultiplier,0.3
;   useSkirt,1
;   skirtExtruder,0
;   skirtLayers,2
;   skirtOutlines,2
;   skirtOffset,4
;   usePrimePillar,0
;   primePillarExtruder,999
;   primePillarWidth,12
;   primePillarLocation,7
;   primePillarSpeedMultiplier,1
;   useOozeShield,0
;   oozeShieldExtruder,999
;   oozeShieldOffset,2
;   oozeShieldOutlines,1
;   oozeShieldSidewallShape,1
;   oozeShieldSidewallAngle,30
;   oozeShieldSpeedMultiplier,1
;   infillExtruder,0
;   internalInfillPattern,Rectilinear
;   externalInfillPattern,Rectilinear
;   infillPercentage,10
;   outlineOverlapPercentage,15
;   infillExtrusionWidthPercentage,100
;   minInfillLength,5
;   infillLayerInterval,1
;   internalInfillAngles,45,-45
;   overlapInternalInfillAngles,0
;   externalInfillAngles,45,-45
;   generateSupport,0
;   supportExtruder,0
;   supportInfillPercentage,40
;   supportExtraInflation,0
;   supportBaseLayers,0
;   denseSupportExtruder,0
;   denseSupportLayers,0
;   denseSupportInfillPercentage,70
;   supportLayerInterval,1
;   supportHorizontalPartOffset,0.3
;   supportUpperSeparationLayers,1
;   supportLowerSeparationLayers,1
;   supportType,0
;   supportGridSpacing,3
;   maxOverhangAngle,45
;   supportAngles,0
;   temperatureName,Primary Extruder,Heated Bed
;   temperatureNumber,0,0
;   temperatureSetpointCount,1,1
;   temperatureSetpointLayers,1,1
;   temperatureSetpointTemperatures,210,60
;   temperatureStabilizeAtStartup,1,1
;   temperatureHeatedBed,0,1
;   fanLayers,1,2
;   fanSpeeds,0,100
;   blipFanToFullPower,0
;   adjustSpeedForCooling,1
;   minSpeedLayerTime,15
;   minCoolingSpeedSlowdown,20
;   increaseFanForCooling,0
;   minFanLayerTime,45
;   maxCoolingFanSpeed,100
;   increaseFanForBridging,0
;   bridgingFanSpeed,100
;   use5D,1
;   relativeEdistances,0
;   allowEaxisZeroing,1
;   independentExtruderAxes,0
;   includeM10123,0
;   stickySupport,1
;   applyToolheadOffsets,0
;   gcodeXoffset,0
;   gcodeYoffset,0
;   gcodeZoffset,0
;   overrideMachineDefinition,1
;   machineTypeOverride,0
;   strokeXoverride,300
;   strokeYoverride,300
;   strokeZoverride,400
;   originOffsetXoverride,0
;   originOffsetYoverride,0
;   originOffsetZoverride,0
;   homeXdirOverride,-1
;   homeYdirOverride,-1
;   homeZdirOverride,-1
;   flipXoverride,1
;   flipYoverride,-1
;   flipZoverride,1
;   toolheadOffsets,0,0|0,0|0,0|0,0|0,0|0,0
;   overrideFirmwareConfiguration,1
;   firmwareTypeOverride,RepRap (Marlin/Repetier/Sprinter)
;   GPXconfigOverride,r2
;   baudRateOverride,115200
;   overridePrinterModels,1
;   printerModelsOverride
;   startingGcode,G28 ; home all axes,G29 ; auto-bed level,G1 Z5 F3000 ; lift,G1 X5 Y10 F1500 ; move to prime,G1 Z0.2 F3000 ; get ready to prime,G92 E0 ; reset extrusion distance,G1 Y80 E10 F600 ; prime nozzle,G1 Y100 F5000 ; quick wipe
;   layerChangeGcode,;G90; Absolute positioning,;G1 F9000 Y100 Z100; Move to photo position;,;M240; Make a photo,
;   retractionGcode,
;   toolChangeGcode,
;   endingGcode,G28 X0 ; home X axis,M106 S0 ; turn off cooling fan,M104 S0 ; turn off extruder,M140 S0 ; turn off bed,M84 ; disable motors
;   exportFileFormat,gcode
;   celebration,0
;   celebrationSong,Random Song
;   postProcessing,{REPLACE "; layer 10" "M600\n; layer 41"}
;   defaultSpeed,3600
;   outlineUnderspeed,0.5
;   solidInfillUnderspeed,0.8
;   supportUnderspeed,0.8
;   rapidXYspeed,4800
;   rapidZspeed,1002
;   minBridgingArea,50
;   bridgingExtraInflation,0
;   bridgingExtrusionMultiplier,1
;   bridgingSpeedMultiplier,1
;   useFixedBridgingAngle,0
;   fixedBridgingAngle,0
;   applyBridgingToPerimeters,0
;   filamentDiameters,1.75|1.75|1.75|1.75|1.75|1.75
;   filamentPricesPerKg,46|46|46|46|46|46
;   filamentDensities,1.25|1.25|1.25|1.25|1.25|1.25
;   useMinPrintHeight,0
;   minPrintHeight,26.3
;   useMaxPrintHeight,0
;   maxPrintHeight,0
;   useDiaphragm,0
;   diaphragmLayerInterval,20
;   robustSlicing,1
;   mergeAllIntoSolid,0
;   onlyRetractWhenCrossingOutline,1
;   retractBetweenLayers,1
;   useRetractionMinTravel,0
;   retractionMinTravel,3
;   retractWhileWiping,0
;   onlyWipeOutlines,1
;   avoidCrossingOutline,0
;   maxMovementDetourFactor,3
;   toolChangeRetractionDistance,12
;   toolChangeExtraRestartDistance,-0.5
;   toolChangeRetractionSpeed,600
;   externalThinWallType,0
;   internalThinWallType,2
;   thinWallAllowedOverlapPercentage,10
;   singleExtrusionMinLength,1
;   singleExtrusionMinPrintingWidthPercentage,50
;   singleExtrusionMaxPrintingWidthPercentage,200
;   singleExtrusionEndpointExtension,0.2
;   horizontalSizeCompensation,0
G90
M82
M106 S0
M140 S60
M190 S60
M104 S210 T0
M109 S210 T0
G28 ; home all axes
G29 ; auto-bed level
G1 Z5 F3000 ; lift
G1 X5 Y10 F1500 ; move to prime
G1 Z0.2 F3000 ; get ready to prime
G92 E0 ; reset extrusion distance
G1 Y80 E10 F600 ; prime nozzle
G1 Y100 F5000 ; quick wipe
; process Process1
; layer 1, Z = 0.240
T0
G92 E0.0000
G1 E-5.0000 F1800
;G90; Absolute positioning
;G1 F9000 Y100 Z100; Move to photo position;
;M240; Make a photo
; feature skirt
; tool H0.240 W0.600
G1 Z0.240 F1002
G1 X13.665 Y41.338 F4800
G1 E0.0000 F1800
G92 E0.0000
G1 X14.901 Y40.929 E0.0701 F1800
G1 X15.675 Y40.805 E0.1124
G1 X36.672 Y40.805 E1.2437
G1 X37.275 Y40.881 E1.2765
G1 X38.121 Y41.095 E1.3235
G1 X38.893 Y41.440 E1.3690
G1 X39.706 Y41.987 E1.4218
G1 X40.325 Y42.584 E1.4682
G1 X40.914 Y43.395 E1.5222
G1 X41.066 Y43.705 E1.5408
G1 X57.751 Y43.705 E2.4398
G1 X58.362 Y43.782 E2.4730
G1 X59.451 Y44.061 E2.5336
G1 X60.536 Y44.658 E2.6003
G1 X61.582 Y45.640 E2.6776
G1 X62.245 Y46.685 E2.7443
G1 X62.617 Y47.827 E2.8090
G1 X62.737 Y48.589 E2.8505
G1 X62.738 Y52.208 E3.0456
G1 X62.798 Y53.573 E3.1191
G1 X62.969 Y54.873 E3.1898
G1 X63.081 Y55.438 E3.2208
G1 X63.218 Y55.997 E3.2519
G1 X63.612 Y57.248 E3.3225
G1 X64.094 Y58.410 E3.3903
G1 X64.675 Y59.526 E3.4581
G1 X65.351 Y60.587 E3.5259
G1 X66.149 Y61.628 E3.5966
G1 X66.496 Y62.023 E3.6249
G1 X76.289 Y71.842 E4.3721
G1 X76.360 Y71.917 E4.3777
G1 X77.686 Y73.364 E4.4834
G1 X77.824 Y73.527 E4.4949
G1 X79.052 Y75.128 E4.6036
G1 X79.174 Y75.303 E4.6152
G1 X80.258 Y77.005 E4.7239
G1 X80.365 Y77.190 E4.7354
G1 X81.297 Y78.979 E4.8441
G1 X81.387 Y79.173 E4.8556
G1 X82.159 Y81.037 E4.9643
G1 X82.232 Y81.238 E4.9758
G1 X82.839 Y83.162 E5.0845
G1 X82.894 Y83.368 E5.0961
G1 X83.325 Y85.312 E5.2033
G1 X83.355 Y85.470 E5.2120
G1 X83.516 Y86.520 E5.2692
G1 X83.535 Y86.679 E5.2778
G1 X83.709 Y88.662 E5.3851
G1 X83.718 Y88.875 E5.3966
G1 X83.720 Y104.271 E6.2261
G1 X83.712 Y104.474 E6.2371
G1 X83.554 Y106.379 E6.3401
G1 X83.529 Y106.580 E6.3510
G1 X83.219 Y108.440 E6.4526
G1 X83.189 Y108.589 E6.4608
G1 X82.962 Y109.569 E6.5150
G1 X82.923 Y109.716 E6.5232
G1 X82.392 Y111.500 E6.6235
G1 X82.345 Y111.644 E6.6316
G1 X81.998 Y112.589 E6.6859
G1 X81.942 Y112.730 E6.6941
G1 X81.184 Y114.457 E6.7957
G1 X81.095 Y114.639 E6.8066
G1 X80.185 Y116.320 E6.9096
G1 X80.082 Y116.494 E6.9205
G1 X79.050 Y118.073 E7.0221
G1 X78.963 Y118.197 E7.0303
G1 X78.364 Y119.000 E7.0843
G1 X78.276 Y119.112 E7.0919
G1 X77.265 Y120.315 E7.1766
G1 X77.174 Y120.417 E7.1840
G1 X76.328 Y121.317 E7.2506
G1 X76.278 Y121.369 E7.2544
G1 X66.533 Y131.139 E7.9979
G1 X65.723 Y132.105 E8.0659
G1 X64.970 Y133.180 E8.1366
G1 X64.672 Y133.672 E8.1676
G1 X64.395 Y134.177 E8.1986
G1 X63.840 Y135.365 E8.2693
G1 X63.410 Y136.548 E8.3371
G1 X63.071 Y137.815 E8.4077
G1 X62.969 Y138.327 E8.4359
G1 X62.798 Y139.627 E8.5066
G1 X62.738 Y140.992 E8.5801
G1 X62.737 Y144.650 E8.7773
G1 X62.591 Y145.486 E8.8230
G1 X62.190 Y146.601 E8.8869
G1 X61.610 Y147.515 E8.9451
G1 X60.730 Y148.395 E9.0122
G1 X59.741 Y149.001 E9.0747
G1 X58.590 Y149.375 E9.1399
G1 X57.828 Y149.495 E9.1815
G1 X41.066 Y149.495 E10.0846
G1 X40.914 Y149.805 E10.1032
G1 X40.305 Y150.643 E10.1590
G1 X39.630 Y151.277 E10.2090
G1 X38.755 Y151.832 E10.2648
G1 X37.971 Y152.157 E10.3105
G1 X37.173 Y152.336 E10.3546
G1 X36.637 Y152.395 E10.3836
G1 X15.875 Y152.395 E11.5023
G1 X15.491 Y152.365 E11.5231
G1 X14.645 Y152.231 E11.5692
G1 X13.641 Y151.834 E11.6274
G1 X12.574 Y151.110 E11.6968
G1 X11.848 Y150.346 E11.7537
G1 X11.289 Y149.428 E11.8116
G1 X10.979 Y148.630 E11.8577
G1 X10.817 Y147.824 E11.9020
G1 X10.769 Y147.342 E11.9281
G1 X10.769 Y140.831 E12.2789
G1 X10.772 Y140.725 E12.2846
G1 X10.851 Y138.896 E12.3833
G1 X10.870 Y138.685 E12.3947
G1 X11.120 Y136.774 E12.4985
G1 X11.157 Y136.561 E12.5102
G1 X11.570 Y134.700 E12.6129
G1 X11.625 Y134.493 E12.6244
G1 X12.198 Y132.676 E12.7271
G1 X12.271 Y132.475 E12.7386
G1 X13.000 Y130.714 E12.8413
G1 X13.091 Y130.520 E12.8528
G1 X13.958 Y128.853 E12.9541
G1 X14.037 Y128.714 E12.9627
G1 X14.559 Y127.853 E13.0170
G1 X14.647 Y127.719 E13.0256
G1 X15.709 Y126.201 E13.1254
G1 X15.806 Y126.073 E13.1340
G1 X16.436 Y125.288 E13.1883
G1 X16.540 Y125.166 E13.1969
G1 X17.772 Y123.822 E13.2952
G1 X17.844 Y123.747 E13.3008
G1 X27.638 Y113.926 E14.0481
G1 X28.520 Y112.874 E14.1221
G1 X29.306 Y111.752 E14.1959
G1 X29.991 Y110.566 E14.2697
G1 X30.570 Y109.324 E14.3435
G1 X31.056 Y107.987 E14.4202
G1 X31.233 Y107.380 E14.4542
G1 X31.383 Y106.767 E14.4883
G1 X31.640 Y105.312 E14.5678
G1 X31.703 Y104.738 E14.5990
G1 X31.769 Y103.212 E14.6813
G1 X31.750 Y89.203 E15.4361
G1 X31.626 Y87.784 E15.5128
G1 X31.534 Y87.192 E15.5451
G1 X31.230 Y85.821 E15.6208
G1 X30.818 Y84.514 E15.6946
G1 X30.294 Y83.249 E15.7684
G1 X29.661 Y82.034 E15.8422
G1 X28.925 Y80.879 E15.9160
G1 X28.091 Y79.792 E15.9898
G1 X27.092 Y78.701 E16.0696
G1 X17.240 Y68.823 E16.8213
G1 X17.133 Y68.708 E16.8297
G1 X16.470 Y67.953 E16.8839
G1 X16.368 Y67.829 E16.8925
G1 X15.224 Y66.338 E16.9938
G1 X15.102 Y66.163 E17.0053
G1 X14.092 Y64.578 E17.1065
G1 X14.010 Y64.440 E17.1152
G1 X13.526 Y63.558 E17.1694
G1 X13.454 Y63.415 E17.1780
G1 X12.660 Y61.712 E17.2793
G1 X12.578 Y61.514 E17.2908
G1 X11.926 Y59.723 E17.3935
G1 X11.862 Y59.519 E17.4050
G1 X11.368 Y57.678 E17.5077
G1 X11.322 Y57.470 E17.5192
G1 X10.996 Y55.619 E17.6205
G1 X10.973 Y55.460 E17.6291
G1 X10.864 Y54.460 E17.6833
G1 X10.851 Y54.300 E17.6920
G1 X10.772 Y52.476 E17.7904
G1 X10.769 Y52.369 E17.7961
G1 X10.770 Y45.750 E18.1527
G1 X10.859 Y45.093 E18.1885
G1 X11.141 Y44.079 E18.2452
G1 X11.658 Y43.115 E18.3042
G1 X12.566 Y42.070 E18.3787
G1 X13.665 Y41.338 E18.4499
G92 E0.0000
G1 E-5.0000 F1800
G1 X13.931 Y41.882 F4800
G1 E0.0000 F1800
G92 E0.0000
G1 X15.044 Y41.514 E0.0632 F1800
G1 X15.723 Y41.405 E0.1003
G1 X36.634 Y41.405 E1.2270
G1 X37.164 Y41.471 E1.2557
G1 X37.923 Y41.664 E1.2979
G1 X38.601 Y41.966 E1.3379
G1 X39.327 Y42.455 E1.3851
G1 X39.870 Y42.979 E1.4257
G1 X40.398 Y43.705 E1.4741
G1 X40.692 Y44.305 E1.5101
G1 X57.713 Y44.305 E2.4272
G1 X58.250 Y44.372 E2.4564
G1 X59.229 Y44.624 E2.5108
G1 X60.181 Y45.147 E2.5694
G1 X61.116 Y46.025 E2.6385
G1 X61.698 Y46.943 E2.6970
G1 X62.031 Y47.968 E2.7551
G1 X62.137 Y48.636 E2.7916
G1 X62.138 Y52.221 E2.9848
G1 X62.199 Y53.625 E3.0605
G1 X62.376 Y54.971 E3.1336
G1 X62.495 Y55.568 E3.1664
G1 X62.640 Y56.159 E3.1992
G1 X63.048 Y57.453 E3.2723
G1 X63.550 Y58.664 E3.3429
G1 X64.155 Y59.827 E3.4135
G1 X64.859 Y60.932 E3.4842
G1 X65.685 Y62.009 E3.5573
G1 X66.057 Y62.433 E3.5877
G1 X75.859 Y72.261 E4.3356
G1 X75.922 Y72.327 E4.3405
G1 X77.235 Y73.759 E4.4452
G1 X77.355 Y73.903 E4.4553
G1 X78.568 Y75.483 E4.5626
G1 X78.675 Y75.637 E4.5727
G1 X79.745 Y77.316 E4.6800
G1 X79.839 Y77.478 E4.6901
G1 X80.758 Y79.245 E4.7974
G1 X80.838 Y79.415 E4.8075
G1 X81.600 Y81.254 E4.9148
G1 X81.664 Y81.431 E4.9249
G1 X82.263 Y83.330 E5.0322
G1 X82.311 Y83.511 E5.0423
G1 X82.737 Y85.432 E5.1483
G1 X82.763 Y85.571 E5.1559
G1 X82.922 Y86.601 E5.2121
G1 X82.939 Y86.741 E5.2197
G1 X83.110 Y88.701 E5.3257
G1 X83.118 Y88.888 E5.3358
G1 X83.120 Y104.259 E6.1640
G1 X83.113 Y104.436 E6.1736
G1 X82.957 Y106.317 E6.2752
G1 X82.935 Y106.493 E6.2848
G1 X82.628 Y108.332 E6.3853
G1 X82.602 Y108.463 E6.3924
G1 X82.380 Y109.425 E6.4457
G1 X82.346 Y109.554 E6.4529
G1 X81.820 Y111.319 E6.5521
G1 X81.778 Y111.446 E6.5593
G1 X81.438 Y112.373 E6.6125
G1 X81.388 Y112.497 E6.6197
G1 X80.639 Y114.204 E6.7201
G1 X80.561 Y114.364 E6.7297
G1 X79.664 Y116.023 E6.8314
G1 X79.573 Y116.176 E6.8410
G1 X78.553 Y117.737 E6.9414
G1 X78.476 Y117.846 E6.9486
G1 X77.889 Y118.634 E7.0016
G1 X77.811 Y118.732 E7.0083
G1 X76.811 Y119.923 E7.0921
G1 X76.731 Y120.012 E7.0985
G1 X75.894 Y120.903 E7.1644
G1 X75.850 Y120.949 E7.1678
G1 X66.090 Y130.734 E7.9125
G1 X65.246 Y131.740 E7.9832
G1 X64.468 Y132.852 E8.0564
G1 X64.152 Y133.372 E8.0892
G1 X63.859 Y133.905 E8.1220
G1 X63.286 Y135.136 E8.1951
G1 X62.837 Y136.367 E8.2657
G1 X62.486 Y137.678 E8.3388
G1 X62.376 Y138.229 E8.3691
G1 X62.199 Y139.575 E8.4423
G1 X62.138 Y140.979 E8.5179
G1 X62.137 Y144.598 E8.7130
G1 X62.009 Y145.331 E8.7531
G1 X61.647 Y146.336 E8.8106
G1 X61.139 Y147.137 E8.8618
G1 X60.356 Y147.920 E8.9214
G1 X59.488 Y148.452 E8.9763
G1 X58.450 Y148.790 E9.0351
G1 X57.781 Y148.895 E9.0716
G1 X40.692 Y148.895 E9.9924
G1 X40.398 Y149.495 E10.0283
G1 X39.853 Y150.245 E10.0783
G1 X39.260 Y150.801 E10.1221
G1 X38.477 Y151.298 E10.1720
G1 X37.789 Y151.583 E10.2122
G1 X37.074 Y151.743 E10.2516
G1 X36.604 Y151.795 E10.2771
G1 X15.899 Y151.795 E11.3928
G1 X15.561 Y151.769 E11.4110
G1 X14.804 Y151.649 E11.4523
G1 X13.923 Y151.300 E11.5033
G1 X12.965 Y150.650 E11.5658
G1 X12.327 Y149.980 E11.6156
G1 X11.829 Y149.161 E11.6672
G1 X11.557 Y148.461 E11.7077
G1 X11.411 Y147.736 E11.7476
G1 X11.369 Y147.313 E11.7705
G1 X11.369 Y140.838 E12.1194
G1 X11.371 Y140.744 E12.1244
G1 X11.450 Y138.935 E12.2220
G1 X11.466 Y138.749 E12.2320
G1 X11.713 Y136.865 E12.3344
G1 X11.746 Y136.678 E12.3446
G1 X12.153 Y134.842 E12.4460
G1 X12.201 Y134.661 E12.4561
G1 X12.766 Y132.868 E12.5573
G1 X12.830 Y132.692 E12.5674
G1 X13.550 Y130.956 E12.6687
G1 X13.629 Y130.786 E12.6788
G1 X14.486 Y129.139 E12.7788
G1 X14.555 Y129.016 E12.7864
G1 X15.067 Y128.173 E12.8396
G1 X15.144 Y128.055 E12.8472
G1 X16.195 Y126.554 E12.9459
G1 X16.280 Y126.441 E12.9535
G1 X16.897 Y125.671 E13.0067
G1 X16.989 Y125.565 E13.0143
G1 X18.210 Y124.232 E13.1117
G1 X18.273 Y124.166 E13.1166
G1 X28.081 Y114.331 E13.8650
G1 X28.997 Y113.239 E13.9417
G1 X29.812 Y112.075 E14.0184
G1 X30.523 Y110.843 E14.0950
G1 X31.125 Y109.554 E14.1716
G1 X31.627 Y108.174 E14.2508
G1 X31.813 Y107.536 E14.2866
G1 X31.971 Y106.890 E14.3224
G1 X32.234 Y105.397 E14.4041
G1 X32.301 Y104.784 E14.4373
G1 X32.369 Y103.225 E14.5214
G1 X32.350 Y89.176 E15.2784
G1 X32.222 Y87.712 E15.3576
G1 X32.124 Y87.081 E15.3919
G1 X31.810 Y85.666 E15.4701
G1 X31.382 Y84.309 E15.5467
G1 X30.838 Y82.995 E15.6233
G1 X30.181 Y81.733 E15.7000
G1 X29.417 Y80.534 E15.7766
G1 X28.552 Y79.406 E15.8532
G1 X27.526 Y78.286 E15.9351
G1 X17.672 Y68.406 E16.6869
G1 X17.577 Y68.305 E16.6944
G1 X16.928 Y67.565 E16.7475
G1 X16.838 Y67.456 E16.7550
G1 X15.708 Y65.983 E16.8550
G1 X15.601 Y65.829 E16.8652
G1 X14.603 Y64.264 E16.9652
