; G-Code generated by Simplify3D(R) Version 4.1.2
; Mar 20, 2021 at 10:07:20 AM
; Settings Summary
;   processName,Normal
;   applyToModels,Part_2-4,Divider
;   profileName,FlashForge Creator Pro (modified)
;   profileVersion,2020-10-11 13:46:27
;   baseProfile,
;   printMaterial,PLA
;   printQuality,Medium
;   printExtruders,Left Extruder Only
;   extruderName,Right Extruder,Left Extruder
;   extruderToolheadNumber,0,1
;   extruderDiameter,0.4,0.4
;   extruderAutoWidth,0,0
;   extruderWidth,0.4,0.4
;   extrusionMultiplier,0.9,0.9
;   extruderUseRetract,1,1
;   extruderRetractionDistance,1.5,1.5
;   extruderExtraRestartDistance,0,0
;   extruderRetractionZLift,0,0
;   extruderRetractionSpeed,1200,1200
;   extruderUseCoasting,0,0
;   extruderCoastingDistance,0.2,0.2
;   extruderUseWipe,0,0
;   extruderWipeDistance,5,5
;   primaryExtruder,1
;   layerHeight,0.2
;   topSolidLayers,6
;   bottomSolidLayers,3
;   perimeterOutlines,2
;   printPerimetersInsideOut,1
;   startPointOption,2
;   startPointOriginX,0
;   startPointOriginY,0
;   sequentialIslands,0
;   spiralVaseMode,0
;   firstLayerHeightPercentage,90
;   firstLayerWidthPercentage,100
;   firstLayerUnderspeed,0.5
;   useRaft,0
;   raftExtruder,1
;   raftTopLayers,3
;   raftBaseLayers,2
;   raftOffset,3
;   raftSeparationDistance,0.14
;   raftTopInfill,100
;   aboveRaftSpeedMultiplier,0.3
;   useSkirt,1
;   skirtExtruder,1
;   skirtLayers,1
;   skirtOutlines,6
;   skirtOffset,4
;   usePrimePillar,0
;   primePillarExtruder,999
;   primePillarWidth,2
;   primePillarLocation,7
;   primePillarSpeedMultiplier,1
;   useOozeShield,0
;   oozeShieldExtruder,999
;   oozeShieldOffset,2
;   oozeShieldOutlines,1
;   oozeShieldSidewallShape,1
;   oozeShieldSidewallAngle,30
;   oozeShieldSpeedMultiplier,1
;   infillExtruder,1
;   internalInfillPattern,Rectilinear
;   externalInfillPattern,Rectilinear
;   infillPercentage,20
;   outlineOverlapPercentage,20
;   infillExtrusionWidthPercentage,100
;   minInfillLength,5
;   infillLayerInterval,1
;   internalInfillAngles,45,-45
;   overlapInternalInfillAngles,0
;   externalInfillAngles,45,-45
;   generateSupport,1
;   supportExtruder,1
;   supportInfillPercentage,30
;   supportExtraInflation,0
;   supportBaseLayers,0
;   denseSupportExtruder,1
;   denseSupportLayers,0
;   denseSupportInfillPercentage,70
;   supportLayerInterval,1
;   supportHorizontalPartOffset,0.3
;   supportUpperSeparationLayers,1
;   supportLowerSeparationLayers,1
;   supportType,0
;   supportGridSpacing,1.5
;   maxOverhangAngle,45
;   supportAngles,0
;   temperatureName,Right Extruder,Left Extruder,Heated Build Platform
;   temperatureNumber,0,1,0
;   temperatureSetpointCount,1,1,1
;   temperatureSetpointLayers,1,1,1
;   temperatureSetpointTemperatures,0,210,60
;   temperatureStabilizeAtStartup,0,0,0
;   temperatureHeatedBed,0,0,1
;   fanLayers,1,2
;   fanSpeeds,0,100
;   blipFanToFullPower,0
;   adjustSpeedForCooling,1
;   minSpeedLayerTime,15
;   minCoolingSpeedSlowdown,20
;   increaseFanForCooling,0
;   minFanLayerTime,45
;   maxCoolingFanSpeed,100
;   increaseFanForBridging,1
;   bridgingFanSpeed,100
;   use5D,1
;   relativeEdistances,1
;   allowEaxisZeroing,0
;   independentExtruderAxes,1
;   includeM10123,0
;   stickySupport,1
;   applyToolheadOffsets,0
;   gcodeXoffset,0
;   gcodeYoffset,0
;   gcodeZoffset,0
;   overrideMachineDefinition,1
;   machineTypeOverride,0
;   strokeXoverride,225
;   strokeYoverride,145
;   strokeZoverride,150
;   originOffsetXoverride,112.5
;   originOffsetYoverride,72.5
;   originOffsetZoverride,0
;   homeXdirOverride,1
;   homeYdirOverride,1
;   homeZdirOverride,-1
;   flipXoverride,1
;   flipYoverride,-1
;   flipZoverride,1
;   toolheadOffsets,0,0|34,0|0,0|0,0|0,0|0,0
;   overrideFirmwareConfiguration,1
;   firmwareTypeOverride,MakerBot/Sailfish Firmware
;   GPXconfigOverride,r1d
;   baudRateOverride,115200
;   overridePrinterModels,1
;   printerModelsOverride,FlashForge_CreatorPro.stl
;   startingGcode,; **** Replicator 1 dual start.gcode ****,M73 P0 ; enable build progress,G162 X Y F3000 ; home XY maximum,G161 Z F1200 ; home Z minimum,G92 Z-5 ; set Z to -5,G1 Z0 ; move Z to 0,G161 Z F100 ; home Z slowly,M132 X Y Z A B ; recall home offsets,M135 T0 ; load right extruder offsets,G1 X-110 Y-70 Z30 F9000 ; move to wait position left hand side of the table,G130 X20 Y20 Z20 A20 B20 ; lower stepper Vrefs while heating,M126 S[fan_speed_pwm],M140 S[bed0_temperature] T0,M134 T0 ; stabilize bed temperature,M104 S[extruder1_temperature] T1,M133 T1 ; stabilize left extruder temperature,G130 X127 Y127 Z40 A127 B127 ; default stepper Vrefs,G92 A0 B0 ; zero extruders,G1 Z0.4 ; position nozzle,M135 T1 ; left tool,G1 X-140 Y-70 F9000 ; reposition nozzle,G1 X-100 Y-70 E25 F300 ; purge nozzle,G1 X-110 Y-70 Z0.15 F1200 ; slow wipe,G1 X-100 Y-70 Z0.5 F1200 ; lift,G92 A0 B0 ; zero extruders,M73 P1 ;@body (notify GPX body has started),; **** end of start.gcode ****
;   layerChangeGcode,
;   retractionGcode,
;   toolChangeGcode,
;   endingGcode,; **** Replicator 1 dual end.gcode ****,M73 P100 ; end build progress,G1 Z150 F1000 ; send Z axis to bottom of machine,M140 S0 T0 ; cool down HBP,M104 S0 T0 ; cool down right extruder,M104 S0 T1 ; cool down left extruder,M127 ; stop blower fan,G162 X Y F3000 ; home XY maximum,M18 ; disable stepper,M72 P1 ; play Ta-Da song,; **** end of end.gcode ****
;   exportFileFormat,x3g
;   celebration,0
;   celebrationSong,Random Song
;   postProcessing,
;   defaultSpeed,3600
;   outlineUnderspeed,0.5
;   solidInfillUnderspeed,0.8
;   supportUnderspeed,0.8
;   rapidXYspeed,4200
;   rapidZspeed,1200
;   minBridgingArea,50
;   bridgingExtraInflation,0
;   bridgingExtrusionMultiplier,1
;   bridgingSpeedMultiplier,0.8
;   useFixedBridgingAngle,0
;   fixedBridgingAngle,0
;   applyBridgingToPerimeters,0
;   filamentDiameters,1.75|1.75|1.75|1.75|1.75|1.75
;   filamentPricesPerKg,46|46|46|46|46|46
;   filamentDensities,1.25|1.25|1.25|1.25|1.25|1.25
;   useMinPrintHeight,0
;   minPrintHeight,0
;   useMaxPrintHeight,0
;   maxPrintHeight,0
;   useDiaphragm,0
;   diaphragmLayerInterval,20
;   robustSlicing,1
;   mergeAllIntoSolid,0
;   onlyRetractWhenCrossingOutline,1
;   retractBetweenLayers,1
;   useRetractionMinTravel,0
;   retractionMinTravel,3
;   retractWhileWiping,0
;   onlyWipeOutlines,1
;   avoidCrossingOutline,0
;   maxMovementDetourFactor,3
;   toolChangeRetractionDistance,12
;   toolChangeExtraRestartDistance,-0.5
;   toolChangeRetractionSpeed,600
;   externalThinWallType,0
;   internalThinWallType,2
;   thinWallAllowedOverlapPercentage,10
;   singleExtrusionMinLength,1
;   singleExtrusionMinPrintingWidthPercentage,50
;   singleExtrusionMaxPrintingWidthPercentage,200
;   singleExtrusionEndpointExtension,0.2
;   horizontalSizeCompensation,0
G90
M83
; **** Replicator 1 dual start.gcode ****
M73 P0 ; enable build progress
G162 X Y F3000 ; home XY maximum
G161 Z F1200 ; home Z minimum
G92 Z-5 ; set Z to -5
G1 Z0 ; move Z to 0
G161 Z F100 ; home Z slowly
M132 X Y Z A B ; recall home offsets
M135 T0 ; load right extruder offsets
G1 X-110 Y-70 Z30 F9000 ; move to wait position left hand side of the table
G130 X20 Y20 Z20 A20 B20 ; lower stepper Vrefs while heating
M127
M140 S60 T0
M134 T0 ; stabilize bed temperature
M104 S210 T1
M133 T1 ; stabilize left extruder temperature
G130 X127 Y127 Z40 A127 B127 ; default stepper Vrefs
G92 A0 B0 ; zero extruders
G1 Z0.4 ; position nozzle
M135 T1 ; left tool
G1 X-140 Y-70 F9000 ; reposition nozzle
G1 X-100 Y-70 E25 F300 ; purge nozzle
G1 X-110 Y-70 Z0.15 F1200 ; slow wipe
G1 X-100 Y-70 Z0.5 F1200 ; lift
G92 A0 B0 ; zero extruders
M73 P1 ;@body (notify GPX body has started)
; **** end of start.gcode ****
; process Normal
; layer 1, Z = 0.180
M135 T1
G1 E-1.5000 F1200
; feature skirt
; tool H0.180 W0.400
G1 Z0.180 F1200
G1 X33.272 Y-9.616 F4200
G1 E1.5000 F1200
G1 X33.272 Y10.321 E0.5371 F1800
G1 X37.392 Y8.261 E0.1241
G1 X43.272 Y11.896 E0.1863
G1 X43.272 Y55.773 E1.1821
G1 X39.641 Y59.405 E0.1384
G1 X-21.496 Y59.405 E1.6471
G1 X-25.128 Y55.773 E0.1384
G1 X-25.128 Y25.273 E0.8217
G1 X-29.047 Y27.232 E0.1180
G1 X-33.552 Y24.447 E0.1427
G1 X-33.737 Y24.666 E0.0077
G1 X-33.862 Y24.805 E0.0051
G1 X-34.566 Y25.541 E0.0274
G1 X-34.612 Y25.588 E0.0018
G1 X-44.319 Y35.321 E0.3703
G1 X-45.109 Y36.263 E0.0331
G1 X-45.371 Y36.620 E0.0119
G1 X-46.029 Y37.653 E0.0330
G1 X-46.563 Y38.679 E0.0312
G1 X-47.006 Y39.748 E0.0312
G1 X-47.374 Y40.916 E0.0330
G1 X-47.480 Y41.347 E0.0120
G1 X-47.704 Y42.620 E0.0348
G1 X-47.752 Y43.060 E0.0119
G1 X-47.812 Y44.420 E0.0367
G1 X-47.812 Y48.153 E0.1006
G1 X-47.997 Y49.211 E0.0289
G1 X-48.525 Y50.679 E0.0420
G1 X-49.562 Y52.106 E0.0475
G1 X-51.186 Y53.366 E0.0553
G1 X-53.135 Y54.034 E0.0555
G1 X-69.922 Y54.048 E0.4522
G1 X-70.063 Y54.348 E0.0089
G1 X-71.690 Y55.924 E0.0610
G1 X-73.469 Y56.695 E0.0522
G1 X-74.713 Y56.952 E0.0342
G1 X-96.127 Y56.953 E0.5769
G1 X-97.092 Y56.800 E0.0263
G1 X-98.591 Y56.313 E0.0425
G1 X-100.116 Y55.241 E0.0502
G1 X-101.223 Y53.813 E0.0487
G1 X-101.827 Y52.476 E0.0395
G1 X-102.037 Y51.375 E0.0302
G1 X-102.092 Y50.792 E0.0158
G1 X-102.092 Y44.217 E0.1772
G1 X-102.089 Y44.081 E0.0036
G1 X-102.009 Y42.235 E0.0498
G1 X-101.993 Y42.033 E0.0055
G1 X-101.880 Y40.996 E0.0281
G1 X-101.851 Y40.795 E0.0055
G1 X-101.518 Y38.908 E0.0516
G1 X-101.460 Y38.644 E0.0073
G1 X-100.955 Y36.761 E0.0525
G1 X-100.874 Y36.502 E0.0073
G1 X-100.207 Y34.670 E0.0525
G1 X-100.103 Y34.420 E0.0073
G1 X-99.294 Y32.684 E0.0516
G1 X-99.202 Y32.503 E0.0055
G1 X-98.700 Y31.589 E0.0281
G1 X-98.597 Y31.414 E0.0055
G1 X-97.586 Y29.827 E0.0507
G1 X-97.471 Y29.659 E0.0055
G1 X-96.854 Y28.818 E0.0281
G1 X-96.729 Y28.659 E0.0055
G1 X-95.499 Y27.192 E0.0516
G1 X-95.319 Y26.996 E0.0072
G1 X-85.452 Y17.103 E0.3764
G1 X-84.501 Y16.065 E0.0379
G1 X-83.729 Y15.058 E0.0342
G1 X-83.047 Y13.989 E0.0342
G1 X-82.461 Y12.863 E0.0342
G1 X-81.975 Y11.691 E0.0342
G1 X-81.583 Y10.448 E0.0351
G1 X-81.406 Y9.685 E0.0211
G1 X-81.224 Y8.628 E0.0289
G1 X-81.112 Y7.346 E0.0347
G1 X-81.092 Y-6.585 E0.3753
G1 X-81.154 Y-7.983 E0.0377
G1 X-81.328 Y-9.309 E0.0360
G1 X-81.425 Y-9.799 E0.0135
G1 X-81.789 Y-11.155 E0.0378
G1 X-81.949 Y-11.628 E0.0135
G1 X-82.461 Y-12.863 E0.0360
G1 X-83.078 Y-14.048 E0.0360
G1 X-83.337 Y-14.475 E0.0135
G1 X-84.104 Y-15.570 E0.0360
G1 X-84.922 Y-16.546 E0.0343
G1 X-94.691 Y-26.342 E0.3727
G1 X-94.781 Y-26.436 E0.0035
G1 X-96.028 Y-27.797 E0.0497
G1 X-96.161 Y-27.951 E0.0055
G1 X-96.813 Y-28.765 E0.0281
G1 X-96.935 Y-28.927 E0.0055
G1 X-98.015 Y-30.469 E0.0507
G1 X-98.125 Y-30.639 E0.0055
G1 X-98.666 Y-31.530 E0.0281
G1 X-98.766 Y-31.707 E0.0055
G1 X-99.651 Y-33.406 E0.0516
G1 X-99.765 Y-33.652 E0.0073
G1 X-100.511 Y-35.453 E0.0525
G1 X-100.604 Y-35.707 E0.0073
G1 X-101.190 Y-37.567 E0.0525
G1 X-101.260 Y-37.828 E0.0073
G1 X-101.682 Y-39.732 E0.0525
G1 X-101.729 Y-39.998 E0.0073
G1 X-101.984 Y-41.931 E0.0525
G1 X-102.007 Y-42.201 E0.0073
G1 X-102.089 Y-44.081 E0.0507
G1 X-102.092 Y-44.217 E0.0036
G1 X-102.092 Y-51.037 E0.1837
G1 X-101.908 Y-52.095 E0.0289
G1 X-101.284 Y-53.827 E0.0496
G1 X-99.813 Y-55.549 E0.0610
G1 X-97.972 Y-56.561 E0.0566
G1 X-96.454 Y-56.951 E0.0422
G1 X-74.599 Y-56.951 E0.5888
G1 X-73.172 Y-56.608 E0.0395
G1 X-71.401 Y-55.706 E0.0535
G1 X-69.920 Y-54.128 E0.0583
G1 X-69.887 Y-54.053 E0.0022
G1 X-53.826 Y-54.053 E0.4327
G1 X-52.956 Y-53.929 E0.0237
G1 X-51.645 Y-53.548 E0.0368
G1 X-50.293 Y-52.747 E0.0423
G1 X-49.142 Y-51.593 E0.0439
G1 X-48.378 Y-50.341 E0.0395
G1 X-47.966 Y-49.069 E0.0360
G1 X-47.814 Y-48.123 E0.0258
G1 X-47.794 Y-43.720 E0.1186
G1 X-47.692 Y-42.553 E0.0316
G1 X-47.491 Y-41.414 E0.0312
G1 X-47.192 Y-40.295 E0.0312
G1 X-46.785 Y-39.177 E0.0320
G1 X-46.592 Y-38.734 E0.0130
G1 X-45.998 Y-37.593 E0.0347
G1 X-45.767 Y-37.212 E0.0120
G1 X-45.086 Y-36.239 E0.0320
G1 X-44.315 Y-35.318 E0.0324
G1 X-34.589 Y-25.565 E0.3711
G1 X-34.499 Y-25.471 E0.0035
G1 X-33.153 Y-24.002 E0.0537
G1 X-33.146 Y-23.994 E0.0003
G1 X-29.047 Y-26.527 E0.1298
G1 X-25.128 Y-24.567 E0.1180
G1 X-25.128 Y-55.068 E0.8217
G1 X-21.496 Y-58.700 E0.1384
G1 X39.641 Y-58.700 E1.6471
G1 X43.272 Y-55.068 E0.1384
G1 X43.272 Y-11.191 E1.1821
G1 X37.392 Y-7.556 E0.1863
G1 X33.272 Y-9.616 E0.1241
G1 E-1.5000 F1200
G1 X32.872 Y-10.263 F4200
G1 E1.5000 F1200
G1 X32.872 Y10.968 E0.5720 F1800
G1 X37.371 Y8.719 E0.1355
G1 X42.872 Y12.119 E0.1742
G1 X42.872 Y55.608 E1.1716
G1 X39.475 Y59.005 E0.1294
G1 X-21.330 Y59.005 E1.6381
G1 X-24.728 Y55.608 E0.1294
G1 X-24.728 Y24.625 E0.8347
G1 X-29.026 Y26.775 E0.1295
G1 X-33.635 Y23.926 E0.1460
G1 X-34.038 Y24.403 E0.0168
G1 X-34.156 Y24.533 E0.0047
G1 X-34.853 Y25.263 E0.0272
G1 X-34.897 Y25.307 E0.0017
G1 X-44.614 Y35.051 E0.3707
G1 X-45.424 Y36.015 E0.0339
G1 X-45.701 Y36.394 E0.0126
G1 X-46.376 Y37.453 E0.0338
G1 X-46.926 Y38.510 E0.0321
G1 X-47.382 Y39.611 E0.0321
G1 X-47.760 Y40.808 E0.0338
G1 X-47.872 Y41.265 E0.0127
G1 X-48.100 Y42.563 E0.0355
G1 X-48.152 Y43.030 E0.0126
G1 X-48.212 Y44.411 E0.0373
G1 X-48.212 Y48.119 E0.0999
G1 X-48.385 Y49.108 E0.0271
G1 X-48.882 Y50.490 E0.0396
G1 X-49.853 Y51.825 E0.0445
G1 X-51.378 Y53.009 E0.0520
G1 X-53.202 Y53.634 E0.0520
G1 X-70.176 Y53.649 E0.4573
G1 X-70.394 Y54.112 E0.0138
G1 X-71.916 Y55.586 E0.0571
G1 X-73.590 Y56.311 E0.0492
G1 X-74.754 Y56.552 E0.0320
G1 X-96.096 Y56.553 E0.5750
G1 X-96.998 Y56.410 E0.0246
G1 X-98.410 Y55.951 E0.0400
G1 X-99.837 Y54.948 E0.0470
G1 X-100.878 Y53.605 E0.0458
G1 X-101.443 Y52.354 E0.0370
G1 X-101.641 Y51.318 E0.0284
G1 X-101.692 Y50.773 E0.0147
G1 X-101.692 Y44.221 E0.1765
G1 X-101.690 Y44.094 E0.0034
G1 X-101.609 Y42.259 E0.0495
G1 X-101.595 Y42.070 E0.0051
G1 X-101.483 Y41.046 E0.0277
G1 X-101.456 Y40.858 E0.0051
G1 X-101.126 Y38.986 E0.0512
G1 X-101.071 Y38.739 E0.0068
G1 X-100.571 Y36.873 E0.0521
G1 X-100.495 Y36.631 E0.0068
G1 X-99.834 Y34.815 E0.0521
G1 X-99.737 Y34.581 E0.0068
G1 X-98.934 Y32.859 E0.0512
G1 X-98.848 Y32.690 E0.0051
G1 X-98.353 Y31.787 E0.0277
G1 X-98.256 Y31.623 E0.0051
G1 X-97.252 Y30.047 E0.0504
G1 X-97.145 Y29.890 E0.0051
G1 X-96.536 Y29.060 E0.0277
G1 X-96.419 Y28.911 E0.0051
G1 X-95.198 Y27.456 E0.0512
G1 X-95.030 Y27.272 E0.0067
G1 X-85.163 Y17.380 E0.3764
G1 X-84.194 Y16.322 E0.0386
G1 X-83.401 Y15.288 E0.0351
G1 X-82.700 Y14.189 E0.0351
G1 X-82.098 Y13.032 E0.0351
G1 X-81.599 Y11.827 E0.0351
G1 X-81.197 Y10.553 E0.0360
G1 X-81.013 Y9.764 E0.0218
G1 X-80.827 Y8.679 E0.0297
G1 X-80.712 Y7.364 E0.0356
G1 X-80.692 Y-6.593 E0.3760
G1 X-80.755 Y-8.018 E0.0384
G1 X-80.933 Y-9.374 E0.0368
G1 X-81.036 Y-9.889 E0.0142
G1 X-81.406 Y-11.271 E0.0385
G1 X-81.575 Y-11.769 E0.0142
G1 X-82.098 Y-13.032 E0.0368
G1 X-82.729 Y-14.244 E0.0368
G1 X-83.002 Y-14.694 E0.0142
G1 X-83.786 Y-15.814 E0.0368
G1 X-84.627 Y-16.816 E0.0352
G1 X-94.405 Y-26.621 E0.3731
G1 X-94.489 Y-26.710 E0.0033
G1 X-95.729 Y-28.063 E0.0494
G1 X-95.853 Y-28.207 E0.0051
G1 X-96.497 Y-29.010 E0.0277
G1 X-96.611 Y-29.162 E0.0051
G1 X-97.683 Y-30.693 E0.0504
G1 X-97.787 Y-30.852 E0.0051
G1 X-98.321 Y-31.732 E0.0277
G1 X-98.414 Y-31.897 E0.0051
G1 X-99.292 Y-33.583 E0.0512
G1 X-99.399 Y-33.813 E0.0068
G1 X-100.138 Y-35.598 E0.0521
G1 X-100.225 Y-35.836 E0.0068
G1 X-100.806 Y-37.679 E0.0521
G1 X-100.871 Y-37.923 E0.0068
G1 X-101.290 Y-39.810 E0.0521
G1 X-101.334 Y-40.059 E0.0068
G1 X-101.586 Y-41.975 E0.0521
G1 X-101.608 Y-42.227 E0.0068
G1 X-101.689 Y-44.094 E0.0504
G1 X-101.692 Y-44.221 E0.0034
G1 X-101.692 Y-51.002 E0.1827
G1 X-101.520 Y-51.992 E0.0271
G1 X-100.933 Y-53.623 E0.0467
G1 X-99.557 Y-55.234 E0.0571
G1 X-97.823 Y-56.186 E0.0533
G1 X-96.404 Y-56.551 E0.0395
G1 X-74.646 Y-56.551 E0.5862
G1 X-73.311 Y-56.230 E0.0370
G1 X-71.645 Y-55.381 E0.0504
G1 X-70.259 Y-53.905 E0.0545
G1 X-70.150 Y-53.653 E0.0074
G1 X-53.854 Y-53.653 E0.4390
G1 X-53.041 Y-53.537 E0.0221
G1 X-51.805 Y-53.178 E0.0347
G1 X-50.540 Y-52.429 E0.0396
G1 X-49.459 Y-51.344 E0.0413
G1 X-48.744 Y-50.173 E0.0370
G1 X-48.356 Y-48.975 E0.0339
G1 X-48.214 Y-48.090 E0.0241
G1 X-48.194 Y-43.701 E0.1182
G1 X-48.089 Y-42.501 E0.0325
G1 X-47.882 Y-41.327 E0.0321
G1 X-47.573 Y-40.174 E0.0322
