; G-Code generated by Simplify3D(R) Version 4.1.2
; Mar 20, 2021 at 7:39:39 PM
; Settings Summary
;   processName,Normal
;   applyToModels,Part_5
;   profileName,FlashForge Creator Pro (modified)
;   profileVersion,2020-10-11 13:46:27
;   baseProfile,
;   printMaterial,PLA
;   printQuality,Medium
;   printExtruders,Left Extruder Only
;   extruderName,Right Extruder,Left Extruder
;   extruderToolheadNumber,0,1
;   extruderDiameter,0.4,0.4
;   extruderAutoWidth,0,0
;   extruderWidth,0.4,0.4
;   extrusionMultiplier,0.9,0.9
;   extruderUseRetract,1,1
;   extruderRetractionDistance,1.5,1.5
;   extruderExtraRestartDistance,0,0
;   extruderRetractionZLift,0,0
;   extruderRetractionSpeed,1200,1200
;   extruderUseCoasting,0,0
;   extruderCoastingDistance,0.2,0.2
;   extruderUseWipe,0,0
;   extruderWipeDistance,5,5
;   primaryExtruder,1
;   layerHeight,0.2
;   topSolidLayers,6
;   bottomSolidLayers,3
;   perimeterOutlines,2
;   printPerimetersInsideOut,1
;   startPointOption,2
;   startPointOriginX,0
;   startPointOriginY,0
;   sequentialIslands,0
;   spiralVaseMode,0
;   firstLayerHeightPercentage,90
;   firstLayerWidthPercentage,100
;   firstLayerUnderspeed,0.5
;   useRaft,0
;   raftExtruder,1
;   raftTopLayers,3
;   raftBaseLayers,2
;   raftOffset,3
;   raftSeparationDistance,0.14
;   raftTopInfill,100
;   aboveRaftSpeedMultiplier,0.3
;   useSkirt,1
;   skirtExtruder,1
;   skirtLayers,1
;   skirtOutlines,6
;   skirtOffset,4
;   usePrimePillar,0
;   primePillarExtruder,999
;   primePillarWidth,2
;   primePillarLocation,7
;   primePillarSpeedMultiplier,1
;   useOozeShield,0
;   oozeShieldExtruder,999
;   oozeShieldOffset,2
;   oozeShieldOutlines,1
;   oozeShieldSidewallShape,1
;   oozeShieldSidewallAngle,30
;   oozeShieldSpeedMultiplier,1
;   infillExtruder,1
;   internalInfillPattern,Rectilinear
;   externalInfillPattern,Rectilinear
;   infillPercentage,20
;   outlineOverlapPercentage,20
;   infillExtrusionWidthPercentage,100
;   minInfillLength,5
;   infillLayerInterval,1
;   internalInfillAngles,45,-45
;   overlapInternalInfillAngles,0
;   externalInfillAngles,45,-45
;   generateSupport,1
;   supportExtruder,1
;   supportInfillPercentage,30
;   supportExtraInflation,0
;   supportBaseLayers,0
;   denseSupportExtruder,1
;   denseSupportLayers,0
;   denseSupportInfillPercentage,70
;   supportLayerInterval,1
;   supportHorizontalPartOffset,0.3
;   supportUpperSeparationLayers,1
;   supportLowerSeparationLayers,1
;   supportType,0
;   supportGridSpacing,1.5
;   maxOverhangAngle,45
;   supportAngles,0
;   temperatureName,Right Extruder,Left Extruder,Heated Build Platform
;   temperatureNumber,0,1,0
;   temperatureSetpointCount,1,1,1
;   temperatureSetpointLayers,1,1,1
;   temperatureSetpointTemperatures,0,210,60
;   temperatureStabilizeAtStartup,0,0,0
;   temperatureHeatedBed,0,0,1
;   fanLayers,1,2
;   fanSpeeds,0,100
;   blipFanToFullPower,0
;   adjustSpeedForCooling,1
;   minSpeedLayerTime,15
;   minCoolingSpeedSlowdown,20
;   increaseFanForCooling,0
;   minFanLayerTime,45
;   maxCoolingFanSpeed,100
;   increaseFanForBridging,1
;   bridgingFanSpeed,100
;   use5D,1
;   relativeEdistances,1
;   allowEaxisZeroing,0
;   independentExtruderAxes,1
;   includeM10123,0
;   stickySupport,1
;   applyToolheadOffsets,0
;   gcodeXoffset,0
;   gcodeYoffset,0
;   gcodeZoffset,0
;   overrideMachineDefinition,1
;   machineTypeOverride,0
;   strokeXoverride,225
;   strokeYoverride,145
;   strokeZoverride,150
;   originOffsetXoverride,112.5
;   originOffsetYoverride,72.5
;   originOffsetZoverride,0
;   homeXdirOverride,1
;   homeYdirOverride,1
;   homeZdirOverride,-1
;   flipXoverride,1
;   flipYoverride,-1
;   flipZoverride,1
;   toolheadOffsets,0,0|34,0|0,0|0,0|0,0|0,0
;   overrideFirmwareConfiguration,1
;   firmwareTypeOverride,MakerBot/Sailfish Firmware
;   GPXconfigOverride,r1d
;   baudRateOverride,115200
;   overridePrinterModels,1
;   printerModelsOverride,FlashForge_CreatorPro.stl
;   startingGcode,; **** Replicator 1 dual start.gcode ****,M73 P0 ; enable build progress,G162 X Y F3000 ; home XY maximum,G161 Z F1200 ; home Z minimum,G92 Z-5 ; set Z to -5,G1 Z0 ; move Z to 0,G161 Z F100 ; home Z slowly,M132 X Y Z A B ; recall home offsets,M135 T0 ; load right extruder offsets,G1 X-110 Y-70 Z30 F9000 ; move to wait position left hand side of the table,G130 X20 Y20 Z20 A20 B20 ; lower stepper Vrefs while heating,M126 S[fan_speed_pwm],M140 S[bed0_temperature] T0,M134 T0 ; stabilize bed temperature,M104 S[extruder1_temperature] T1,M133 T1 ; stabilize left extruder temperature,G130 X127 Y127 Z40 A127 B127 ; default stepper Vrefs,G92 A0 B0 ; zero extruders,G1 Z0.4 ; position nozzle,M135 T1 ; left tool,G1 X-140 Y-70 F9000 ; reposition nozzle,G1 X-100 Y-70 E25 F300 ; purge nozzle,G1 X-110 Y-70 Z0.15 F1200 ; slow wipe,G1 X-100 Y-70 Z0.5 F1200 ; lift,G92 A0 B0 ; zero extruders,M73 P1 ;@body (notify GPX body has started),; **** end of start.gcode ****
;   layerChangeGcode,
;   retractionGcode,
;   toolChangeGcode,
;   endingGcode,; **** Replicator 1 dual end.gcode ****,M73 P100 ; end build progress,G1 Z150 F1000 ; send Z axis to bottom of machine,M140 S0 T0 ; cool down HBP,M104 S0 T0 ; cool down right extruder,M104 S0 T1 ; cool down left extruder,M127 ; stop blower fan,G162 X Y F3000 ; home XY maximum,M18 ; disable stepper,M72 P1 ; play Ta-Da song,; **** end of end.gcode ****
;   exportFileFormat,x3g
;   celebration,0
;   celebrationSong,Random Song
;   postProcessing,
;   defaultSpeed,3600
;   outlineUnderspeed,0.5
;   solidInfillUnderspeed,0.8
;   supportUnderspeed,0.8
;   rapidXYspeed,4200
;   rapidZspeed,1200
;   minBridgingArea,50
;   bridgingExtraInflation,0
;   bridgingExtrusionMultiplier,1
;   bridgingSpeedMultiplier,0.8
;   useFixedBridgingAngle,0
;   fixedBridgingAngle,0
;   applyBridgingToPerimeters,0
;   filamentDiameters,1.75|1.75|1.75|1.75|1.75|1.75
;   filamentPricesPerKg,46|46|46|46|46|46
;   filamentDensities,1.25|1.25|1.25|1.25|1.25|1.25
;   useMinPrintHeight,0
;   minPrintHeight,0
;   useMaxPrintHeight,0
;   maxPrintHeight,0
;   useDiaphragm,0
;   diaphragmLayerInterval,20
;   robustSlicing,1
;   mergeAllIntoSolid,0
;   onlyRetractWhenCrossingOutline,1
;   retractBetweenLayers,1
;   useRetractionMinTravel,0
;   retractionMinTravel,3
;   retractWhileWiping,0
;   onlyWipeOutlines,1
;   avoidCrossingOutline,0
;   maxMovementDetourFactor,3
;   toolChangeRetractionDistance,12
;   toolChangeExtraRestartDistance,-0.5
;   toolChangeRetractionSpeed,600
;   externalThinWallType,0
;   internalThinWallType,2
;   thinWallAllowedOverlapPercentage,10
;   singleExtrusionMinLength,1
;   singleExtrusionMinPrintingWidthPercentage,50
;   singleExtrusionMaxPrintingWidthPercentage,200
;   singleExtrusionEndpointExtension,0.2
;   horizontalSizeCompensation,0
G90
M83
; **** Replicator 1 dual start.gcode ****
M73 P0 ; enable build progress
G162 X Y F3000 ; home XY maximum
G161 Z F1200 ; home Z minimum
G92 Z-5 ; set Z to -5
G1 Z0 ; move Z to 0
G161 Z F100 ; home Z slowly
M132 X Y Z A B ; recall home offsets
M135 T0 ; load right extruder offsets
G1 X-110 Y-70 Z30 F9000 ; move to wait position left hand side of the table
G130 X20 Y20 Z20 A20 B20 ; lower stepper Vrefs while heating
M127
M140 S60 T0
M134 T0 ; stabilize bed temperature
M104 S210 T1
M133 T1 ; stabilize left extruder temperature
G130 X127 Y127 Z40 A127 B127 ; default stepper Vrefs
G92 A0 B0 ; zero extruders
G1 Z0.4 ; position nozzle
M135 T1 ; left tool
G1 X-140 Y-70 F9000 ; reposition nozzle
G1 X-100 Y-70 E25 F300 ; purge nozzle
G1 X-110 Y-70 Z0.15 F1200 ; slow wipe
G1 X-100 Y-70 Z0.5 F1200 ; lift
G92 A0 B0 ; zero extruders
M73 P1 ;@body (notify GPX body has started)
; **** end of start.gcode ****
; process Normal
; layer 1, Z = 0.180
M135 T1
G1 E-1.5000 F1200
; feature skirt
; tool H0.180 W0.400
G1 Z0.180 F1200
G1 X-30.800 Y24.920 F4200
G1 E1.5000 F1200
G1 X-34.719 Y26.880 E0.1180 F1800
G1 X-40.600 Y23.245 E0.1863
G1 X-40.600 Y-23.245 E1.2525
G1 X-34.719 Y-26.880 E0.1863
G1 X-30.800 Y-24.920 E0.1180
G1 X-30.800 Y-55.421 E0.8217
G1 X-27.168 Y-59.053 E0.1384
G1 X33.569 Y-59.053 E1.6363
G1 X33.907 Y-59.034 E0.0091
G1 X34.697 Y-58.948 E0.0214
G1 X35.550 Y-58.729 E0.0237
G1 X36.763 Y-58.227 E0.0354
G1 X37.729 Y-57.596 E0.0311
G1 X38.827 Y-56.545 E0.0409
G1 X39.527 Y-55.545 E0.0329
G1 X40.098 Y-54.247 E0.0382
G1 X40.344 Y-53.331 E0.0256
G1 X40.434 Y-52.507 E0.0223
G1 X40.453 Y-52.169 E0.0091
G1 X40.453 Y52.283 E2.8140
G1 X40.401 Y52.845 E0.0152
G1 X40.215 Y53.857 E0.0277
G1 X39.937 Y54.687 E0.0236
G1 X39.470 Y55.619 E0.0281
G1 X38.981 Y56.329 E0.0232
G1 X38.193 Y57.190 E0.0314
G1 X37.512 Y57.748 E0.0237
G1 X36.687 Y58.249 E0.0260
G1 X36.074 Y58.535 E0.0182
G1 X35.257 Y58.812 E0.0232
G1 X34.596 Y58.959 E0.0182
G1 X33.907 Y59.034 E0.0187
G1 X33.569 Y59.053 E0.0091
G1 X-27.168 Y59.053 E1.6363
G1 X-30.800 Y55.421 E0.1384
G1 X-30.800 Y24.920 E0.8217
G1 E-1.5000 F1200
G1 X-30.400 Y24.273 F4200
G1 E1.5000 F1200
G1 X-34.698 Y26.422 E0.1295 F1800
G1 X-40.200 Y23.022 E0.1742
G1 X-40.200 Y-23.022 E1.2405
G1 X-34.698 Y-26.422 E0.1742
G1 X-30.400 Y-24.273 E0.1295
G1 X-30.400 Y-55.255 E0.8347
G1 X-27.002 Y-58.653 E0.1294
G1 X33.558 Y-58.653 E1.6315
G1 X33.874 Y-58.635 E0.0085
G1 X34.625 Y-58.553 E0.0204
G1 X35.424 Y-58.349 E0.0222
G1 X36.576 Y-57.871 E0.0336
G1 X37.479 Y-57.282 E0.0291
G1 X38.522 Y-56.284 E0.0389
G1 X39.177 Y-55.348 E0.0308
G1 X39.720 Y-54.114 E0.0363
G1 X39.950 Y-53.257 E0.0239
G1 X40.035 Y-52.474 E0.0212
G1 X40.053 Y-52.158 E0.0085
G1 X40.053 Y52.264 E2.8132
G1 X40.005 Y52.791 E0.0142
G1 X39.827 Y53.757 E0.0265
G1 X39.566 Y54.533 E0.0221
G1 X39.125 Y55.415 E0.0266
G1 X38.668 Y56.079 E0.0217
G1 X37.917 Y56.899 E0.0299
G1 X37.280 Y57.421 E0.0222
G1 X36.499 Y57.895 E0.0246
G1 X35.925 Y58.163 E0.0171
G1 X35.149 Y58.426 E0.0221
G1 X34.531 Y58.563 E0.0171
G1 X33.874 Y58.635 E0.0178
G1 X33.558 Y58.653 E0.0085
G1 X-27.002 Y58.653 E1.6315
G1 X-30.400 Y55.255 E0.1294
G1 X-30.400 Y24.273 E0.8347
G1 E-1.5000 F1200
G1 X-30.000 Y23.626 F4200
G1 E1.5000 F1200
G1 X-34.678 Y25.965 E0.1409 F1800
G1 X-39.800 Y22.799 E0.1622
G1 X-39.800 Y-22.799 E1.2284
G1 X-34.678 Y-25.965 E0.1622
G1 X-30.000 Y-23.626 E0.1409
G1 X-30.000 Y-55.089 E0.8477
G1 X-26.837 Y-58.253 E0.1205
G1 X33.547 Y-58.253 E1.6268
G1 X33.841 Y-58.237 E0.0079
G1 X34.554 Y-58.159 E0.0193
G1 X35.297 Y-57.968 E0.0207
G1 X36.389 Y-57.516 E0.0318
G1 X37.230 Y-56.967 E0.0271
G1 X38.217 Y-56.022 E0.0368
G1 X38.827 Y-55.151 E0.0287
G1 X39.342 Y-53.981 E0.0344
G1 X39.555 Y-53.183 E0.0223
G1 X39.637 Y-52.442 E0.0201
G1 X39.653 Y-52.147 E0.0079
G1 X39.653 Y52.246 E2.8124
G1 X39.608 Y52.736 E0.0133
G1 X39.438 Y53.656 E0.0252
G1 X39.196 Y54.380 E0.0205
G1 X38.780 Y55.211 E0.0251
G1 X38.354 Y55.830 E0.0202
G1 X37.641 Y56.607 E0.0284
G1 X37.048 Y57.094 E0.0207
G1 X36.310 Y57.542 E0.0233
G1 X35.775 Y57.791 E0.0159
G1 X35.041 Y58.041 E0.0209
G1 X34.465 Y58.168 E0.0159
G1 X33.841 Y58.237 E0.0169
G1 X33.547 Y58.253 E0.0079
G1 X-26.837 Y58.253 E1.6268
G1 X-30.000 Y55.089 E0.1205
G1 X-30.000 Y23.626 E0.8477
G1 E-1.5000 F1200
G1 X-29.600 Y22.978 F4200
G1 E1.5000 F1200
G1 X-34.657 Y25.507 E0.1523 F1800
G1 X-39.400 Y22.576 E0.1502
G1 X-39.400 Y-22.576 E1.2164
G1 X-34.657 Y-25.507 E0.1502
G1 X-29.600 Y-22.978 E0.1523
G1 X-29.600 Y-54.924 E0.8606
G1 X-26.671 Y-57.853 E0.1116
G1 X33.536 Y-57.853 E1.6220
G1 X33.809 Y-57.838 E0.0073
G1 X34.482 Y-57.764 E0.0182
G1 X35.170 Y-57.588 E0.0191
G1 X36.201 Y-57.161 E0.0301
G1 X36.980 Y-56.652 E0.0251
G1 X37.912 Y-55.760 E0.0348
G1 X38.477 Y-54.953 E0.0265
G1 X38.963 Y-53.848 E0.0325
G1 X39.161 Y-53.109 E0.0206
G1 X39.238 Y-52.409 E0.0190
G1 X39.253 Y-52.136 E0.0074
G1 X39.253 Y52.228 E2.8116
G1 X39.211 Y52.682 E0.0123
G1 X39.050 Y53.556 E0.0239
G1 X38.826 Y54.226 E0.0190
G1 X38.434 Y55.007 E0.0236
G1 X38.040 Y55.580 E0.0187
G1 X37.365 Y56.316 E0.0269
G1 X36.817 Y56.767 E0.0191
G1 X36.121 Y57.189 E0.0219
G1 X35.626 Y57.420 E0.0147
G1 X34.933 Y57.655 E0.0197
G1 X34.400 Y57.773 E0.0147
G1 X33.809 Y57.838 E0.0160
G1 X33.536 Y57.853 E0.0073
G1 X-26.671 Y57.853 E1.6220
G1 X-29.600 Y54.924 E0.1116
G1 X-29.600 Y22.978 E0.8606
G1 E-1.5000 F1200
G1 X-29.200 Y22.331 F4200
G1 E1.5000 F1200
G1 X-34.637 Y25.050 E0.1638 F1800
G1 X-39.000 Y22.353 E0.1382
G1 X-39.000 Y-22.353 E1.2044
G1 X-34.637 Y-25.050 E0.1382
G1 X-29.200 Y-22.331 E0.1638
G1 X-29.200 Y-54.758 E0.8736
G1 X-26.505 Y-57.453 E0.1027
G1 X33.525 Y-57.453 E1.6173
G1 X33.776 Y-57.439 E0.0068
G1 X34.410 Y-57.370 E0.0172
G1 X35.043 Y-57.207 E0.0176
G1 X36.014 Y-56.805 E0.0283
G1 X36.730 Y-56.338 E0.0230
G1 X37.607 Y-55.499 E0.0327
G1 X38.126 Y-54.756 E0.0244
G1 X38.585 Y-53.715 E0.0306
G1 X38.767 Y-53.035 E0.0190
G1 X38.839 Y-52.376 E0.0179
G1 X38.853 Y-52.126 E0.0068
G1 X38.853 Y52.210 E2.8109
G1 X38.815 Y52.627 E0.0113
G1 X38.662 Y53.456 E0.0227
G1 X38.456 Y54.072 E0.0175
G1 X38.089 Y54.804 E0.0220
G1 X37.727 Y55.330 E0.0172
G1 X37.090 Y56.025 E0.0254
G1 X36.585 Y56.440 E0.0176
G1 X35.932 Y56.836 E0.0206
G1 X35.477 Y57.048 E0.0135
G1 X34.825 Y57.269 E0.0185
G1 X34.335 Y57.378 E0.0135
G1 X33.776 Y57.439 E0.0151
G1 X33.525 Y57.453 E0.0068
G1 X-26.505 Y57.453 E1.6173
G1 X-29.200 Y54.758 E0.1027
G1 X-29.200 Y22.331 E0.8736
G1 E-1.5000 F1200
G1 X-28.800 Y21.684 F4200
G1 E1.5000 F1200
G1 X-34.616 Y24.592 E0.1752 F1800
G1 X-38.600 Y22.130 E0.1262
G1 X-38.600 Y-22.130 E1.1924
G1 X-34.616 Y-24.592 E0.1262
G1 X-28.800 Y-21.684 E0.1752
G1 X-28.800 Y-54.592 E0.8866
G1 X-26.340 Y-57.053 E0.0937
G1 X33.515 Y-57.053 E1.6125
G1 X33.743 Y-57.040 E0.0062
G1 X34.338 Y-56.975 E0.0161
G1 X34.916 Y-56.827 E0.0161
G1 X35.826 Y-56.450 E0.0265
G1 X36.480 Y-56.023 E0.0210
G1 X37.302 Y-55.237 E0.0306
G1 X37.776 Y-54.559 E0.0223
G1 X38.206 Y-53.582 E0.0288
G1 X38.372 Y-52.961 E0.0173
G1 X38.440 Y-52.344 E0.0167
G1 X38.453 Y-52.115 E0.0062
G1 X38.453 Y52.191 E2.8101
G1 X38.418 Y52.573 E0.0103
G1 X38.274 Y53.356 E0.0214
G1 X38.085 Y53.918 E0.0160
G1 X37.744 Y54.600 E0.0205
G1 X37.413 Y55.080 E0.0157
G1 X36.814 Y55.734 E0.0239
G1 X36.353 Y56.112 E0.0161
G1 X35.743 Y56.482 E0.0192
G1 X35.328 Y56.676 E0.0124
G1 X34.717 Y56.883 E0.0174
G1 X34.270 Y56.983 E0.0124
G1 X33.743 Y57.040 E0.0143
G1 X33.515 Y57.053 E0.0062
G1 X-26.340 Y57.053 E1.6125
G1 X-28.800 Y54.592 E0.0937
G1 X-28.800 Y21.684 E0.8866
G1 E-1.5000 F1200
; feature inner perimeter
G1 X-33.800 Y18.817 F4200
G1 E1.5000 F1200
G1 X-33.800 Y-18.817 E1.0139 F1350
G1 X-24.376 Y-14.106 E0.2838
G1 X-24.000 Y-14.858 E0.0227
G1 X-24.000 Y-52.253 E1.0074
G1 X33.367 Y-52.253 E1.5455
G1 X33.461 Y-52.242 E0.0025
G1 X33.496 Y-52.231 E0.0010
G1 X33.535 Y-52.211 E0.0012
G1 X33.564 Y-52.189 E0.0010
G1 X33.619 Y-52.126 E0.0022
G1 X33.643 Y-52.054 E0.0021
G1 X33.653 Y-51.967 E0.0024
G1 X33.653 Y51.974 E2.8002
G1 X33.647 Y52.041 E0.0018
G1 X33.634 Y52.087 E0.0013
G1 X33.608 Y52.138 E0.0016
G1 X33.585 Y52.169 E0.0010
G1 X33.557 Y52.194 E0.0010
G1 X33.505 Y52.226 E0.0016
G1 X33.454 Y52.243 E0.0015
G1 X33.367 Y52.253 E0.0023
G1 X-24.000 Y52.253 E1.5455
G1 X-24.000 Y14.858 E1.0074
G1 X-24.376 Y14.106 E0.0227
G1 X-33.800 Y18.817 E0.2838
; feature outer perimeter
G1 X-34.200 Y19.465 F4200
G1 X-34.200 Y-19.465 E1.0488 F900
G1 X-24.555 Y-14.642 E0.2905
G1 X-24.400 Y-14.953 E0.0094
G1 X-24.400 Y-52.653 E1.0157
G1 X33.389 Y-52.653 E1.5569
G1 X33.543 Y-52.636 E0.0042
G1 X33.649 Y-52.602 E0.0030
G1 X33.750 Y-52.550 E0.0031
G1 X33.839 Y-52.482 E0.0030
G1 X33.935 Y-52.372 E0.0039
G1 X33.990 Y-52.277 E0.0029
G1 X34.036 Y-52.141 E0.0039
G1 X34.053 Y-51.989 E0.0041
G1 X34.053 Y51.991 E2.8013
G1 X34.042 Y52.112 E0.0033
G1 X34.009 Y52.231 E0.0033
G1 X33.949 Y52.352 E0.0036
G1 X33.881 Y52.440 E0.0030
G1 X33.798 Y52.516 E0.0030
G1 X33.675 Y52.590 E0.0039
G1 X33.541 Y52.636 E0.0038
G1 X33.389 Y52.653 E0.0041
G1 X-24.400 Y52.653 E1.5569
G1 X-24.400 Y14.953 E1.0157
G1 X-24.555 Y14.642 E0.0094
G1 X-34.200 Y19.465 E0.2905
; feature solid layer
G1 X-33.480 Y17.997 F4200
G1 X-33.279 Y18.199 E0.0077 F1440
G1 X-32.901 Y18.010 E0.0114
G1 X-33.480 Y17.432 E0.0220
G1 X-33.480 Y16.866 E0.0152
G1 X-32.524 Y17.822 E0.0364
G1 X-32.147 Y17.633 E0.0114
G1 X-33.480 Y16.300 E0.0508
