; G-Code generated by Simplify3D(R) Version 4.1.2
; Mar 23, 2021 at 5:25:29 PM
; Settings Summary
;   processName,Normal Quick
;   applyToModels,Part_5,Part_2-4
;   profileName,FlashForge Creator Pro (modified)
;   profileVersion,2020-10-11 13:46:27
;   baseProfile,
;   printMaterial,PLA
;   printQuality,Medium
;   printExtruders,Left Extruder Only
;   extruderName,Right Extruder,Left Extruder
;   extruderToolheadNumber,0,1
;   extruderDiameter,0.4,0.4
;   extruderAutoWidth,0,0
;   extruderWidth,0.4,0.4
;   extrusionMultiplier,0.9,0.9
;   extruderUseRetract,1,1
;   extruderRetractionDistance,1.5,1.5
;   extruderExtraRestartDistance,0,0
;   extruderRetractionZLift,0,0
;   extruderRetractionSpeed,1200,1200
;   extruderUseCoasting,0,0
;   extruderCoastingDistance,0.2,0.2
;   extruderUseWipe,0,0
;   extruderWipeDistance,5,5
;   primaryExtruder,1
;   layerHeight,0.2
;   topSolidLayers,6
;   bottomSolidLayers,3
;   perimeterOutlines,2
;   printPerimetersInsideOut,1
;   startPointOption,2
;   startPointOriginX,0
;   startPointOriginY,0
;   sequentialIslands,0
;   spiralVaseMode,0
;   firstLayerHeightPercentage,90
;   firstLayerWidthPercentage,100
;   firstLayerUnderspeed,0.4
;   useRaft,0
;   raftExtruder,1
;   raftTopLayers,3
;   raftBaseLayers,2
;   raftOffset,3
;   raftSeparationDistance,0.14
;   raftTopInfill,100
;   aboveRaftSpeedMultiplier,0.3
;   useSkirt,1
;   skirtExtruder,1
;   skirtLayers,1
;   skirtOutlines,6
;   skirtOffset,4
;   usePrimePillar,0
;   primePillarExtruder,999
;   primePillarWidth,2
;   primePillarLocation,7
;   primePillarSpeedMultiplier,1
;   useOozeShield,0
;   oozeShieldExtruder,999
;   oozeShieldOffset,2
;   oozeShieldOutlines,1
;   oozeShieldSidewallShape,1
;   oozeShieldSidewallAngle,30
;   oozeShieldSpeedMultiplier,1
;   infillExtruder,1
;   internalInfillPattern,Rectilinear
;   externalInfillPattern,Rectilinear
;   infillPercentage,20
;   outlineOverlapPercentage,20
;   infillExtrusionWidthPercentage,100
;   minInfillLength,5
;   infillLayerInterval,1
;   internalInfillAngles,45,-45
;   overlapInternalInfillAngles,0
;   externalInfillAngles,45,-45
;   generateSupport,1
;   supportExtruder,1
;   supportInfillPercentage,30
;   supportExtraInflation,0
;   supportBaseLayers,0
;   denseSupportExtruder,1
;   denseSupportLayers,0
;   denseSupportInfillPercentage,70
;   supportLayerInterval,1
;   supportHorizontalPartOffset,0.3
;   supportUpperSeparationLayers,1
;   supportLowerSeparationLayers,1
;   supportType,0
;   supportGridSpacing,1.5
;   maxOverhangAngle,45
;   supportAngles,0
;   temperatureName,Right Extruder,Left Extruder,Heated Build Platform
;   temperatureNumber,0,1,0
;   temperatureSetpointCount,1,1,1
;   temperatureSetpointLayers,1,1,1
;   temperatureSetpointTemperatures,0,210,60
;   temperatureStabilizeAtStartup,0,0,0
;   temperatureHeatedBed,0,0,1
;   fanLayers,1,2
;   fanSpeeds,0,100
;   blipFanToFullPower,0
;   adjustSpeedForCooling,1
;   minSpeedLayerTime,15
;   minCoolingSpeedSlowdown,20
;   increaseFanForCooling,0
;   minFanLayerTime,45
;   maxCoolingFanSpeed,100
;   increaseFanForBridging,1
;   bridgingFanSpeed,100
;   use5D,1
;   relativeEdistances,1
;   allowEaxisZeroing,0
;   independentExtruderAxes,1
;   includeM10123,0
;   stickySupport,1
;   applyToolheadOffsets,0
;   gcodeXoffset,0
;   gcodeYoffset,0
;   gcodeZoffset,0
;   overrideMachineDefinition,1
;   machineTypeOverride,0
;   strokeXoverride,225
;   strokeYoverride,145
;   strokeZoverride,150
;   originOffsetXoverride,112.5
;   originOffsetYoverride,72.5
;   originOffsetZoverride,0
;   homeXdirOverride,1
;   homeYdirOverride,1
;   homeZdirOverride,-1
;   flipXoverride,1
;   flipYoverride,-1
;   flipZoverride,1
;   toolheadOffsets,0,0|34,0|0,0|0,0|0,0|0,0
;   overrideFirmwareConfiguration,1
;   firmwareTypeOverride,MakerBot/Sailfish Firmware
;   GPXconfigOverride,r1d
;   baudRateOverride,115200
;   overridePrinterModels,1
;   printerModelsOverride,FlashForge_CreatorPro.stl
;   startingGcode,; **** Replicator 1 dual start.gcode ****,M73 P0 ; enable build progress,G162 X Y F3000 ; home XY maximum,G161 Z F1200 ; home Z minimum,G92 Z-5 ; set Z to -5,G1 Z0 ; move Z to 0,G161 Z F100 ; home Z slowly,M132 X Y Z A B ; recall home offsets,M135 T0 ; load right extruder offsets,G1 X-110 Y-70 Z30 F9000 ; move to wait position left hand side of the table,G130 X20 Y20 Z20 A20 B20 ; lower stepper Vrefs while heating,M126 S[fan_speed_pwm],M140 S[bed0_temperature] T0,M134 T0 ; stabilize bed temperature,M104 S[extruder1_temperature] T1,M133 T1 ; stabilize left extruder temperature,G130 X127 Y127 Z40 A127 B127 ; default stepper Vrefs,G92 A0 B0 ; zero extruders,G1 Z0.4 ; position nozzle,M135 T1 ; left tool,G1 X-140 Y-70 F9000 ; reposition nozzle,G1 X-100 Y-70 E25 F300 ; purge nozzle,G1 X-110 Y-70 Z0.15 F1200 ; slow wipe,G1 X-100 Y-70 Z0.5 F1200 ; lift,G92 A0 B0 ; zero extruders,M73 P1 ;@body (notify GPX body has started),; **** end of start.gcode ****
;   layerChangeGcode,
;   retractionGcode,
;   toolChangeGcode,
;   endingGcode,; **** Replicator 1 dual end.gcode ****,M73 P100 ; end build progress,G1 Z150 F1000 ; send Z axis to bottom of machine,M140 S0 T0 ; cool down HBP,M104 S0 T0 ; cool down right extruder,M104 S0 T1 ; cool down left extruder,M127 ; stop blower fan,G162 X Y F3000 ; home XY maximum,M18 ; disable stepper,M72 P1 ; play Ta-Da song,; **** end of end.gcode ****
;   exportFileFormat,x3g
;   celebration,0
;   celebrationSong,Random Song
;   postProcessing,
;   defaultSpeed,5400
;   outlineUnderspeed,0.5
;   solidInfillUnderspeed,0.8
;   supportUnderspeed,0.8
;   rapidXYspeed,4200
;   rapidZspeed,1200
;   minBridgingArea,50
;   bridgingExtraInflation,0
;   bridgingExtrusionMultiplier,1
;   bridgingSpeedMultiplier,0.8
;   useFixedBridgingAngle,0
;   fixedBridgingAngle,0
;   applyBridgingToPerimeters,0
;   filamentDiameters,1.75|1.75|1.75|1.75|1.75|1.75
;   filamentPricesPerKg,46|46|46|46|46|46
;   filamentDensities,1.25|1.25|1.25|1.25|1.25|1.25
;   useMinPrintHeight,0
;   minPrintHeight,0
;   useMaxPrintHeight,0
;   maxPrintHeight,0
;   useDiaphragm,0
;   diaphragmLayerInterval,20
;   robustSlicing,1
;   mergeAllIntoSolid,0
;   onlyRetractWhenCrossingOutline,1
;   retractBetweenLayers,1
;   useRetractionMinTravel,0
;   retractionMinTravel,3
;   retractWhileWiping,0
;   onlyWipeOutlines,1
;   avoidCrossingOutline,0
;   maxMovementDetourFactor,3
;   toolChangeRetractionDistance,12
;   toolChangeExtraRestartDistance,-0.5
;   toolChangeRetractionSpeed,600
;   externalThinWallType,0
;   internalThinWallType,2
;   thinWallAllowedOverlapPercentage,10
;   singleExtrusionMinLength,1
;   singleExtrusionMinPrintingWidthPercentage,50
;   singleExtrusionMaxPrintingWidthPercentage,200
;   singleExtrusionEndpointExtension,0.2
;   horizontalSizeCompensation,0
G90
M83
; **** Replicator 1 dual start.gcode ****
M73 P0 ; enable build progress
G162 X Y F3000 ; home XY maximum
G161 Z F1200 ; home Z minimum
G92 Z-5 ; set Z to -5
G1 Z0 ; move Z to 0
G161 Z F100 ; home Z slowly
M132 X Y Z A B ; recall home offsets
M135 T0 ; load right extruder offsets
G1 X-110 Y-70 Z30 F9000 ; move to wait position left hand side of the table
G130 X20 Y20 Z20 A20 B20 ; lower stepper Vrefs while heating
M127
M140 S60 T0
M134 T0 ; stabilize bed temperature
M104 S210 T1
M133 T1 ; stabilize left extruder temperature
G130 X127 Y127 Z40 A127 B127 ; default stepper Vrefs
G92 A0 B0 ; zero extruders
G1 Z0.4 ; position nozzle
M135 T1 ; left tool
G1 X-140 Y-70 F9000 ; reposition nozzle
G1 X-100 Y-70 E25 F300 ; purge nozzle
G1 X-110 Y-70 Z0.15 F1200 ; slow wipe
G1 X-100 Y-70 Z0.5 F1200 ; lift
G92 A0 B0 ; zero extruders
M73 P1 ;@body (notify GPX body has started)
; **** end of start.gcode ****
; process Normal Quick
; layer 1, Z = 0.180
M135 T1
G1 E-1.5000 F1200
; feature skirt
; tool H0.180 W0.400
G1 Z0.180 F1200
G1 X-58.799 Y24.920 F4200
G1 E1.5000 F1200
G1 X-62.718 Y26.880 E0.1180 F2160
G1 X-68.599 Y23.245 E0.1863
G1 X-68.599 Y-23.245 E1.2525
G1 X-62.718 Y-26.880 E0.1863
G1 X-58.799 Y-24.920 E0.1180
G1 X-58.799 Y-55.421 E0.8217
G1 X-55.167 Y-59.053 E0.1384
G1 X61.568 Y-59.053 E3.1449
G1 X61.906 Y-59.034 E0.0091
G1 X62.696 Y-58.948 E0.0214
G1 X63.550 Y-58.729 E0.0237
G1 X64.763 Y-58.226 E0.0354
G1 X65.728 Y-57.596 E0.0311
G1 X66.826 Y-56.545 E0.0409
G1 X67.527 Y-55.545 E0.0329
G1 X68.098 Y-54.247 E0.0382
G1 X68.343 Y-53.331 E0.0256
G1 X68.433 Y-52.507 E0.0223
G1 X68.452 Y-52.169 E0.0091
G1 X68.452 Y52.283 E2.8140
G1 X68.400 Y52.845 E0.0152
G1 X68.189 Y53.991 E0.0314
G1 X67.777 Y55.064 E0.0310
G1 X66.992 Y56.338 E0.0403
G1 X66.178 Y57.221 E0.0324
G1 X65.043 Y58.053 E0.0379
G1 X64.202 Y58.491 E0.0256
G1 X63.256 Y58.812 E0.0269
G1 X62.595 Y58.959 E0.0182
G1 X61.906 Y59.034 E0.0187
G1 X61.568 Y59.053 E0.0091
G1 X-55.167 Y59.053 E3.1449
G1 X-58.799 Y55.421 E0.1384
G1 X-58.799 Y24.920 E0.8217
G1 E-1.5000 F1200
G1 X-58.399 Y24.273 F4200
G1 E1.5000 F1200
G1 X-62.698 Y26.422 E0.1295 F2160
G1 X-68.199 Y23.022 E0.1742
G1 X-68.199 Y-23.022 E1.2405
G1 X-62.698 Y-26.422 E0.1742
G1 X-58.399 Y-24.273 E0.1295
G1 X-58.399 Y-55.255 E0.8347
G1 X-55.002 Y-58.653 E0.1294
G1 X61.557 Y-58.653 E3.1402
G1 X61.873 Y-58.635 E0.0085
G1 X62.625 Y-58.553 E0.0204
G1 X63.423 Y-58.349 E0.0222
G1 X64.575 Y-57.871 E0.0336
G1 X65.478 Y-57.282 E0.0291
G1 X66.521 Y-56.284 E0.0389
G1 X67.176 Y-55.348 E0.0308
G1 X67.719 Y-54.114 E0.0363
G1 X67.949 Y-53.257 E0.0239
G1 X68.035 Y-52.474 E0.0212
G1 X68.052 Y-52.158 E0.0085
G1 X68.052 Y52.264 E2.8132
G1 X68.004 Y52.791 E0.0142
G1 X67.803 Y53.883 E0.0299
G1 X67.417 Y54.886 E0.0290
G1 X66.672 Y56.096 E0.0383
G1 X65.910 Y56.921 E0.0303
G1 X64.831 Y57.713 E0.0360
G1 X64.044 Y58.122 E0.0239
G1 X63.148 Y58.426 E0.0255
G1 X62.530 Y58.564 E0.0171
G1 X61.873 Y58.635 E0.0178
G1 X61.557 Y58.653 E0.0085
G1 X-55.002 Y58.653 E3.1402
G1 X-58.399 Y55.255 E0.1294
G1 X-58.399 Y24.273 E0.8347
G1 E-1.5000 F1200
G1 X-57.999 Y23.626 F4200
G1 E1.5000 F1200
G1 X-62.677 Y25.965 E0.1409 F2160
G1 X-67.799 Y22.799 E0.1622
G1 X-67.799 Y-22.799 E1.2284
G1 X-62.677 Y-25.965 E0.1622
G1 X-57.999 Y-23.626 E0.1409
G1 X-57.999 Y-55.089 E0.8477
G1 X-54.836 Y-58.253 E0.1205
G1 X61.546 Y-58.253 E3.1354
G1 X61.841 Y-58.237 E0.0079
G1 X62.553 Y-58.159 E0.0193
G1 X63.296 Y-57.968 E0.0207
G1 X64.388 Y-57.516 E0.0318
G1 X65.229 Y-56.967 E0.0271
G1 X66.216 Y-56.022 E0.0368
G1 X66.826 Y-55.151 E0.0287
G1 X67.341 Y-53.981 E0.0344
G1 X67.554 Y-53.183 E0.0223
G1 X67.636 Y-52.442 E0.0201
G1 X67.652 Y-52.147 E0.0079
G1 X67.652 Y52.246 E2.8124
G1 X67.607 Y52.736 E0.0133
G1 X67.416 Y53.774 E0.0284
G1 X67.057 Y54.708 E0.0270
G1 X66.352 Y55.853 E0.0362
G1 X65.643 Y56.622 E0.0282
G1 X64.619 Y57.372 E0.0342
G1 X63.887 Y57.753 E0.0223
G1 X63.040 Y58.041 E0.0241
G1 X62.465 Y58.168 E0.0159
G1 X61.841 Y58.237 E0.0169
G1 X61.546 Y58.253 E0.0079
G1 X-54.836 Y58.253 E3.1354
G1 X-57.999 Y55.089 E0.1205
G1 X-57.999 Y23.626 E0.8477
G1 E-1.5000 F1200
G1 X-57.599 Y22.978 F4200
G1 E1.5000 F1200
G1 X-62.656 Y25.507 E0.1523 F2160
G1 X-67.399 Y22.576 E0.1502
G1 X-67.399 Y-22.576 E1.2164
G1 X-62.656 Y-25.507 E0.1502
G1 X-57.599 Y-22.978 E0.1523
G1 X-57.599 Y-54.924 E0.8606
G1 X-54.670 Y-57.853 E0.1116
G1 X61.536 Y-57.853 E3.1307
G1 X61.808 Y-57.838 E0.0073
G1 X62.481 Y-57.764 E0.0182
G1 X63.169 Y-57.588 E0.0191
G1 X64.200 Y-57.161 E0.0301
G1 X64.979 Y-56.652 E0.0251
G1 X65.911 Y-55.760 E0.0348
G1 X66.476 Y-54.953 E0.0265
G1 X66.962 Y-53.848 E0.0325
G1 X67.160 Y-53.109 E0.0206
G1 X67.237 Y-52.409 E0.0190
G1 X67.252 Y-52.136 E0.0074
G1 X67.252 Y52.228 E2.8116
G1 X67.210 Y52.682 E0.0123
G1 X67.029 Y53.665 E0.0269
G1 X66.697 Y54.530 E0.0250
G1 X66.031 Y55.610 E0.0342
G1 X65.375 Y56.322 E0.0261
G1 X64.408 Y57.031 E0.0323
G1 X63.729 Y57.384 E0.0206
G1 X62.932 Y57.655 E0.0227
G1 X62.399 Y57.773 E0.0147
G1 X61.808 Y57.838 E0.0160
G1 X61.536 Y57.853 E0.0073
G1 X-54.670 Y57.853 E3.1307
G1 X-57.599 Y54.924 E0.1116
G1 X-57.599 Y22.978 E0.8606
G1 E-1.5000 F1200
G1 X-57.199 Y22.331 F4200
G1 E1.5000 F1200
G1 X-62.636 Y25.050 E0.1638 F2160
G1 X-66.999 Y22.353 E0.1382
G1 X-66.999 Y-22.353 E1.2044
G1 X-62.636 Y-25.050 E0.1382
G1 X-57.199 Y-22.331 E0.1638
G1 X-57.199 Y-54.758 E0.8736
G1 X-54.505 Y-57.453 E0.1027
G1 X61.525 Y-57.453 E3.1259
G1 X61.775 Y-57.439 E0.0068
G1 X62.409 Y-57.370 E0.0172
G1 X63.042 Y-57.207 E0.0176
G1 X64.013 Y-56.805 E0.0283
G1 X64.729 Y-56.338 E0.0230
G1 X65.606 Y-55.499 E0.0327
G1 X66.126 Y-54.756 E0.0244
G1 X66.584 Y-53.715 E0.0306
G1 X66.766 Y-53.035 E0.0190
G1 X66.838 Y-52.376 E0.0179
G1 X66.852 Y-52.126 E0.0068
G1 X66.852 Y52.210 E2.8109
G1 X66.814 Y52.627 E0.0113
G1 X66.643 Y53.556 E0.0254
G1 X66.337 Y54.352 E0.0230
G1 X65.711 Y55.367 E0.0321
G1 X65.107 Y56.022 E0.0240
G1 X64.196 Y56.691 E0.0304
G1 X63.571 Y57.015 E0.0190
G1 X62.825 Y57.269 E0.0212
G1 X62.334 Y57.378 E0.0135
G1 X61.775 Y57.439 E0.0151
G1 X61.525 Y57.453 E0.0068
G1 X-54.505 Y57.453 E3.1259
G1 X-57.199 Y54.758 E0.1027
G1 X-57.199 Y22.331 E0.8736
G1 E-1.5000 F1200
G1 X-56.799 Y21.684 F4200
G1 E1.5000 F1200
G1 X-62.615 Y24.592 E0.1752 F2160
G1 X-66.599 Y22.130 E0.1262
G1 X-66.599 Y-22.130 E1.1924
G1 X-62.615 Y-24.592 E0.1262
G1 X-56.799 Y-21.684 E0.1752
G1 X-56.799 Y-54.592 E0.8866
G1 X-54.339 Y-57.053 E0.0937
G1 X61.514 Y-57.053 E3.1212
G1 X61.742 Y-57.040 E0.0062
G1 X62.337 Y-56.975 E0.0161
G1 X62.915 Y-56.827 E0.0161
G1 X63.825 Y-56.450 E0.0265
G1 X64.480 Y-56.023 E0.0210
G1 X65.301 Y-55.237 E0.0306
G1 X65.775 Y-54.559 E0.0223
G1 X66.205 Y-53.582 E0.0288
G1 X66.372 Y-52.961 E0.0173
G1 X66.439 Y-52.344 E0.0167
G1 X66.452 Y-52.115 E0.0062
G1 X66.452 Y52.191 E2.8101
G1 X66.417 Y52.573 E0.0103
G1 X66.256 Y53.447 E0.0239
G1 X65.977 Y54.174 E0.0210
G1 X65.391 Y55.125 E0.0301
G1 X64.839 Y55.723 E0.0219
G1 X63.984 Y56.350 E0.0286
G1 X63.414 Y56.647 E0.0173
G1 X62.717 Y56.883 E0.0198
G1 X62.269 Y56.983 E0.0124
G1 X61.742 Y57.040 E0.0143
G1 X61.514 Y57.053 E0.0062
G1 X-54.339 Y57.053 E3.1212
G1 X-56.799 Y54.592 E0.0937
G1 X-56.799 Y21.684 E0.8866
G1 E-1.5000 F1200
; feature inner perimeter
G1 X-61.799 Y18.817 F4200
G1 E1.5000 F1200
G1 X-61.799 Y-18.817 E1.0139 F1620
G1 X-52.376 Y-14.106 E0.2838
G1 X-51.999 Y-14.858 E0.0227
G1 X-51.999 Y-52.253 E1.0074
G1 X61.366 Y-52.253 E3.0541
G1 X61.460 Y-52.242 E0.0025
G1 X61.495 Y-52.231 E0.0010
G1 X61.534 Y-52.211 E0.0012
G1 X61.563 Y-52.189 E0.0010
G1 X61.618 Y-52.126 E0.0022
G1 X61.642 Y-52.054 E0.0021
G1 X61.652 Y-51.967 E0.0023
G1 X61.652 Y51.974 E2.8002
G1 X61.646 Y52.041 E0.0018
G1 X61.633 Y52.087 E0.0013
G1 X61.607 Y52.138 E0.0016
G1 X61.584 Y52.169 E0.0011
G1 X61.556 Y52.194 E0.0010
G1 X61.504 Y52.226 E0.0016
G1 X61.453 Y52.243 E0.0015
G1 X61.366 Y52.253 E0.0023
G1 X3.999 Y52.253 E1.5455
G1 X-51.999 Y52.253 E1.5086
G1 X-51.999 Y14.858 E1.0074
G1 X-52.376 Y14.106 E0.0227
G1 X-61.799 Y18.817 E0.2838
; feature outer perimeter
G1 X-62.199 Y19.465 F4200
G1 X-62.199 Y-19.465 E1.0488 F1080
G1 X-52.554 Y-14.642 E0.2905
G1 X-52.399 Y-14.953 E0.0094
G1 X-52.399 Y-52.653 E1.0157
G1 X61.388 Y-52.653 E3.0655
G1 X61.542 Y-52.636 E0.0042
G1 X61.649 Y-52.602 E0.0030
G1 X61.749 Y-52.550 E0.0031
G1 X61.838 Y-52.482 E0.0030
G1 X61.934 Y-52.372 E0.0039
G1 X61.989 Y-52.277 E0.0029
G1 X62.035 Y-52.141 E0.0039
G1 X62.052 Y-51.989 E0.0041
G1 X62.052 Y51.991 E2.8013
G1 X62.041 Y52.112 E0.0033
G1 X62.008 Y52.231 E0.0033
G1 X61.948 Y52.352 E0.0036
G1 X61.880 Y52.440 E0.0030
G1 X61.798 Y52.516 E0.0030
G1 X61.674 Y52.590 E0.0039
G1 X61.540 Y52.636 E0.0038
G1 X61.388 Y52.653 E0.0041
G1 X3.599 Y52.653 E1.5569
G1 X-52.399 Y52.653 E1.5086
G1 X-52.399 Y14.953 E1.0157
G1 X-52.554 Y14.642 E0.0094
G1 X-62.199 Y19.465 E0.2905
G1 E-1.5000 F1200
; feature inner perimeter
G1 X-7.199 Y20.971 F4200
G1 E1.5000 F1200
G1 X3.999 Y15.372 E0.3373 F1620
G1 X3.999 Y14.858 E0.0138
G1 X3.623 Y14.106 E0.0227
G1 X-5.801 Y18.817 E0.2838
G1 X-5.801 Y-18.817 E1.0139
G1 X3.623 Y-14.106 E0.2838
G1 X3.999 Y-14.858 E0.0227
G1 X3.999 Y-15.372 E0.0138
G1 X-7.199 Y-20.971 E0.3373
G1 X-7.199 Y20.971 E1.1299
; feature outer perimeter
G1 X-6.799 Y20.324 F4200
G1 X3.599 Y15.124 E0.3132 F1080
G1 X3.599 Y14.953 E0.0046
G1 X3.444 Y14.642 E0.0094
G1 X-6.201 Y19.465 E0.2905
