;FLAVOR:Marlin
;TIME:798
;Filament used: 0.398721m
;Layer height: 0.2
;MINX:127.967
;MINY:121.5
;MINZ:0.2
;MAXX:172.032
;MAXY:177.933
;MAXZ:4.6
;Generated with Cura_SteamEngine main
M140 S60
M105
M190 S60
M104 S210
M105
M109 S210
M82 ;absolute extrusion mode
M201 X500.00 Y500.00 Z100.00 E5000.00 ;Setup machine max acceleration
M203 X500.00 Y500.00 Z10.00 E50.00 ;Setup machine max feedrate
M204 P500.00 R1000.00 T500.00 ;Setup Print/Retract/Travel acceleration
M205 X8.00 Y8.00 Z0.40 E5.00 ;Setup Jerk
M220 S100 ;Reset Feedrate
M221 S100 ;Reset Flowrate

G28 ;Home
G29 ;Auto bed Level

G92 E0 ;Reset Extruder
G1 Z2.0 F3000 ;Move Z Axis up
G1 X10.1 Y20 Z0.28 F5000.0 ;Move to start position
G1 X10.1 Y200.0 Z0.28 F1500.0 E15 ;Draw the first line
G1 X10.4 Y200.0 Z0.28 F5000.0 ;Move to side a little
G1 X10.4 Y20 Z0.28 F1500.0 E30 ;Draw the second line
G92 E0 ;Reset Extruder
G1 Z2.0 F3000 ;Move Z Axis up

G92 E0
G92 E0
G1 F2700 E-5
;LAYER_COUNT:23
;LAYER:0
M107
G0 F6000 X133.377 Y124.852 Z0.2
G0 X130.168 Y133.11
;TYPE:SKIRT
G1 F2700 E0
G1 F1200 X130.178 Y132.443 E0.01997
G1 X130.232 Y131.507 E0.04803
G1 X130.366 Y130.578 E0.07613
G1 X130.578 Y129.665 E0.10419
G1 X130.867 Y128.773 E0.13225
G1 X131.231 Y127.908 E0.16035
G1 X131.668 Y127.078 E0.18843
G1 X132.173 Y126.288 E0.21649
G1 X132.745 Y125.544 E0.24458
G1 X133.377 Y124.852 E0.27264
G1 X134.066 Y124.216 E0.30071
G1 X134.807 Y123.64 E0.3288
G1 X135.594 Y123.13 E0.35687
G1 X136.421 Y122.689 E0.38493
G1 X137.284 Y122.32 E0.41302
G1 X138.168 Y122.028 E0.44089
G1 X138.495 Y121.935 E0.45107
G1 X139.407 Y121.717 E0.47914
G1 X140.335 Y121.577 E0.50723
G1 X141.309 Y121.517 E0.53644
G1 X142.064 Y121.505 E0.55904
G1 X156.425 Y121.5 E0.98893
G1 X157.24 Y121.51 E1.01333
G1 X158.176 Y121.563 E1.04139
G1 X159.105 Y121.695 E1.06948
G1 X160.018 Y121.906 E1.09753
G1 X160.911 Y122.194 E1.12561
G1 X161.776 Y122.557 E1.1537
G1 X162.607 Y122.992 E1.18177
G1 X163.397 Y123.497 E1.20984
G1 X164.142 Y124.067 E1.23792
G1 X164.835 Y124.698 E1.26597
G1 X165.473 Y125.386 E1.29406
G1 X166.049 Y126.126 E1.32213
G1 X166.56 Y126.913 E1.35022
G1 X167.002 Y127.74 E1.37829
G1 X167.373 Y128.601 E1.40635
G1 X167.668 Y129.492 E1.43445
G1 X167.887 Y130.404 E1.46253
G1 X168.027 Y131.331 E1.49059
G1 X168.085 Y132.167 E1.51567
G1 X168.129 Y133.581 E1.55802
G1 X168.145 Y134.347 E1.58096
G1 X168.27 Y136.886 E1.65705
G1 X168.468 Y139.422 E1.73319
G1 X168.732 Y141.901 E1.80782
G1 X169.065 Y144.374 E1.88252
G1 X169.477 Y146.882 E1.9586
G1 X169.957 Y149.374 E2.03456
G1 X170.489 Y151.767 E2.10795
G1 X171.129 Y154.3 E2.18615
G1 X171.615 Y156.048 E2.24046
G1 X171.828 Y156.961 E2.26852
G1 X171.962 Y157.89 E2.29662
G1 X172.015 Y158.804 E2.32403
G1 X172.032 Y159.86 E2.35564
G1 X172.032 Y162.9 E2.44664
G1 X172.023 Y163.515 E2.46505
G1 X171.923 Y164.838 E2.50477
G1 X171.862 Y165.286 E2.5183
G1 X171.696 Y166.209 E2.54637
G1 X171.452 Y167.115 E2.57446
G1 X171.132 Y167.996 E2.60252
G1 X170.738 Y168.847 E2.63059
G1 X170.397 Y169.458 E2.65154
G1 X170.132 Y169.9 E2.66696
G1 X169.616 Y170.683 E2.69503
G1 X169.092 Y171.353 E2.72049
G1 X168.717 Y171.789 E2.73771
G1 X167.063 Y173.631 E2.81181
G1 X166.444 Y174.3 E2.8391
G1 X165.777 Y174.96 E2.86719
G1 X165.057 Y175.561 E2.89526
G1 X164.288 Y176.098 E2.92334
G1 X163.156 Y176.735 E2.96222
G1 X162.195 Y177.157 E2.99364
G1 X161.307 Y177.46 E3.02172
G1 X160.397 Y177.686 E3.04979
G1 X159.471 Y177.834 E3.07786
G1 X158.535 Y177.903 E3.10596
G1 X157.974 Y177.906 E3.12275
G1 X154.741 Y177.839 E3.21955
G1 X152.193 Y177.863 E3.29582
G1 X151.087 Y177.902 E3.32895
G1 X149.261 Y177.933 E3.38362
G1 X141.383 Y177.932 E3.61944
G1 X140.685 Y177.922 E3.64034
G1 X139.669 Y177.86 E3.6708
G1 X139.371 Y177.828 E3.67978
G1 X138.443 Y177.688 E3.70787
G1 X137.58 Y177.484 E3.73441
G1 X137.287 Y177.402 E3.74352
G1 X136.396 Y177.111 E3.77158
G1 X135.9 Y176.911 E3.78759
G1 X135.517 Y176.746 E3.80007
G1 X134.672 Y176.339 E3.82815
G1 X133.865 Y175.861 E3.85622
G1 X132.786 Y175.06 E3.89645
G1 X132.445 Y174.773 E3.90979
G1 X131.754 Y174.139 E3.93786
G1 X130.971 Y173.281 E3.97263
G1 X130.091 Y172.074 E4.01735
G1 X129.93 Y171.821 E4.02632
G1 X129.46 Y171.009 E4.05441
G1 X129.191 Y170.456 E4.07282
G1 X129.065 Y170.178 E4.08195
G1 X128.715 Y169.308 E4.11003
G1 X128.459 Y168.486 E4.1358
G1 X128.385 Y168.21 E4.14435
G1 X128.181 Y167.294 E4.17244
G1 X128.046 Y166.249 E4.20398
G1 X128.012 Y165.829 E4.2166
G1 X127.977 Y165.087 E4.23883
G1 X127.968 Y164.341 E4.26116
G1 X127.967 Y156.099 E4.50788
G1 X127.977 Y155.436 E4.52773
G1 X128.031 Y154.5 E4.5558
G1 X128.188 Y153.454 E4.58746
G1 X128.669 Y151.035 E4.66129
G1 X129.089 Y148.583 E4.73575
G1 X129.448 Y146.058 E4.8121
G1 X129.731 Y143.567 E4.88714
G1 X129.946 Y141.025 E4.96351
G1 X130.084 Y138.602 E5.03615
G1 X130.167 Y134.643 E5.15469
G1 X130.168 Y133.11 E5.20058
G0 F6000 X130.567 Y134.652
G1 F1200 X130.568 Y133.116 E5.24656
G1 X130.578 Y132.449 E5.26653
G1 X130.632 Y131.53 E5.29408
G1 X130.765 Y130.619 E5.32164
G1 X130.977 Y129.723 E5.3492
G1 X131.266 Y128.849 E5.37676
G1 X131.629 Y128.003 E5.40432
G1 X132.065 Y127.192 E5.43188
G1 X132.569 Y126.422 E5.45943
G1 X133.139 Y125.698 E5.48701
G1 X133.769 Y125.027 E5.51456
G1 X134.454 Y124.413 E5.5421
G1 X135.191 Y123.86 E5.56968
G1 X135.972 Y123.374 E5.59721
G1 X136.793 Y122.957 E5.62478
G1 X137.647 Y122.613 E5.65234
G1 X138.277 Y122.412 E5.67213
G1 X138.604 Y122.319 E5.68231
G1 X139.5 Y122.106 E5.70988
G1 X140.411 Y121.972 E5.73744
G1 X141.316 Y121.917 E5.76458
G1 X142.064 Y121.905 E5.78697
G1 X156.425 Y121.9 E6.21686
G1 X157.234 Y121.91 E6.24108
G1 X158.153 Y121.962 E6.26863
G1 X159.065 Y122.095 E6.29622
G1 X159.961 Y122.305 E6.32377
G1 X160.835 Y122.593 E6.35131
G1 X161.682 Y122.955 E6.37889
G1 X162.493 Y123.39 E6.40643
G1 X163.264 Y123.893 E6.43399
G1 X163.989 Y124.461 E6.46156
G1 X164.661 Y125.09 E6.48911
G1 X165.276 Y125.775 E6.51667
G1 X165.83 Y126.511 E6.54425
G1 X166.317 Y127.292 E6.5718
G1 X166.735 Y128.112 E6.59935
G1 X167.08 Y128.966 E6.62692
G1 X167.35 Y129.846 E6.65447
G1 X167.542 Y130.746 E6.68202
G1 X167.656 Y131.66 E6.70959
G1 X167.685 Y132.179 E6.72515
G1 X167.747 Y134.41 E6.79196
G1 X167.87 Y136.903 E6.86668
G1 X168.067 Y139.424 E6.94237
G1 X168.337 Y141.965 E7.01886
G1 X168.673 Y144.456 E7.0941
G1 X169.082 Y146.951 E7.16979
G1 X169.559 Y149.423 E7.24515
G1 X170.107 Y151.887 E7.32071
G1 X170.736 Y154.378 E7.39761
G1 X171.23 Y156.155 E7.45282
G1 X171.438 Y157.052 E7.48039
G1 X171.567 Y157.963 E7.50793
G1 X171.615 Y158.81 E7.53332
G1 X171.632 Y159.86 E7.56476
G1 X171.632 Y162.894 E7.65558
G1 X171.623 Y163.509 E7.67399
G1 X171.527 Y164.784 E7.71226
G1 X171.466 Y165.232 E7.7258
G1 X171.302 Y166.138 E7.75336
G1 X171.061 Y167.026 E7.7809
G1 X170.743 Y167.89 E7.80846
G1 X170.351 Y168.724 E7.83605
G1 X170.054 Y169.253 E7.85421
G1 X169.789 Y169.695 E7.86963
G1 X169.282 Y170.463 E7.89718
G1 X168.787 Y171.095 E7.92121
G1 X168.419 Y171.522 E7.93809
G1 X166.65 Y173.49 E8.0173
G1 X166.151 Y174.028 E8.03926
G1 X165.496 Y174.676 E8.06684
G1 X164.787 Y175.263 E8.0944
G1 X164.031 Y175.788 E8.12195
G1 X162.977 Y176.377 E8.15809
G1 X162.034 Y176.791 E8.18892
G1 X161.162 Y177.086 E8.21647
G1 X160.267 Y177.304 E8.24405
G1 X159.357 Y177.445 E8.27161
G1 X157.982 Y177.506 E8.31281
G1 X154.745 Y177.439 E8.40973
G1 X152.175 Y177.463 E8.48667
G1 X150.875 Y177.508 E8.5256
G1 X149.438 Y177.532 E8.56862
G1 X141.389 Y177.532 E8.80956
G1 X140.691 Y177.522 E8.83046
G1 X139.711 Y177.462 E8.85985
G1 X139.413 Y177.43 E8.86882
G1 X138.503 Y177.292 E8.89637
G1 X137.688 Y177.099 E8.92145
G1 X137.395 Y177.017 E8.93055
G1 X136.52 Y176.73 E8.95812
G1 X136.058 Y176.544 E8.97303
G1 X135.675 Y176.379 E8.98551
G1 X134.846 Y175.978 E9.01308
G1 X134.055 Y175.507 E9.04063
G1 X133.043 Y174.754 E9.07839
G1 X132.702 Y174.467 E9.09173
G1 X132.024 Y173.844 E9.1193
G1 X131.278 Y173.024 E9.15248
G1 X130.428 Y171.859 E9.19565
G1 X130.267 Y171.606 E9.20463
G1 X129.807 Y170.808 E9.2322
G1 X129.555 Y170.291 E9.24941
G1 X129.429 Y170.013 E9.25855
G1 X129.086 Y169.159 E9.2861
G1 X128.846 Y168.382 E9.31044
G1 X128.772 Y168.106 E9.319
G1 X128.572 Y167.207 E9.34657
G1 X128.445 Y166.216 E9.37647
G1 X128.411 Y165.796 E9.38909
G1 X128.377 Y165.082 E9.41048
G1 X128.368 Y164.341 E9.43267
G1 X128.367 Y156.105 E9.6792
G1 X128.377 Y155.442 E9.69905
G1 X128.431 Y154.523 E9.72661
G1 X128.58 Y153.533 E9.75658
G1 X129.061 Y151.116 E9.83035
G1 X129.486 Y148.634 E9.90572
G1 X129.848 Y146.088 E9.9827
G1 X130.129 Y143.609 E10.05739
G1 X130.343 Y141.083 E10.13327
G1 X130.484 Y138.603 E10.20763
G1 X130.567 Y134.652 E10.32592
G1 F2700 E5.32592
G0 F6000 X130.884 Y138.607
G1 F2700 E10.32592
G1 F1200 X130.967 Y134.66 E10.4441
G1 X130.968 Y133.122 E10.49014
G1 X130.978 Y132.455 E10.51011
G1 X131.032 Y131.554 E10.53712
G1 X131.165 Y130.66 E10.56418
G1 X131.376 Y129.782 E10.59121
G1 X131.665 Y128.927 E10.61823
G1 X132.027 Y128.1 E10.64525
G1 X132.462 Y127.308 E10.6723
G1 X132.965 Y126.558 E10.69933
G1 X133.532 Y125.855 E10.72637
G1 X134.16 Y125.205 E10.75342
G1 X134.842 Y124.614 E10.78043
G1 X135.574 Y124.085 E10.80747
G1 X136.35 Y123.623 E10.8345
G1 X137.164 Y123.231 E10.86155
G1 X138.387 Y122.797 E10.90039
G1 X138.714 Y122.704 E10.91057
G1 X139.592 Y122.496 E10.93758
G1 X140.486 Y122.366 E10.96462
G1 X141.323 Y122.317 E10.98972
G1 X142.064 Y122.305 E11.0119
G1 X156.425 Y122.3 E11.44179
G1 X157.229 Y122.31 E11.46586
G1 X158.13 Y122.362 E11.49287
G1 X159.024 Y122.494 E11.51992
G1 X159.902 Y122.704 E11.54695
G1 X160.758 Y122.991 E11.57397
G1 X161.586 Y123.353 E11.60102
G1 X162.378 Y123.787 E11.62806
G1 X163.129 Y124.289 E11.6551
G1 X163.832 Y124.855 E11.68211
G1 X164.483 Y125.482 E11.70917
G1 X165.076 Y126.163 E11.7362
G1 X165.606 Y126.894 E11.76323
G1 X166.069 Y127.669 E11.79025
G1 X166.462 Y128.483 E11.81731
G1 X166.781 Y129.327 E11.84432
G1 X167.025 Y130.197 E11.87137
G1 X167.19 Y131.085 E11.8984
G1 X167.285 Y132.192 E11.93166
G1 X167.347 Y134.403 E11.99787
G1 X167.472 Y136.953 E12.0743
G1 X167.668 Y139.461 E12.1496
G1 X167.937 Y141.988 E12.22567
G1 X168.281 Y144.542 E12.30281
G1 X168.688 Y147.02 E12.37798
G1 X169.169 Y149.514 E12.45401
G1 X169.714 Y151.967 E12.52923
G1 X170.343 Y154.456 E12.60608
G1 X170.845 Y156.262 E12.66219
G1 X171.048 Y157.142 E12.68923
G1 X171.172 Y158.036 E12.71624
G1 X171.215 Y158.817 E12.73966
G1 X171.232 Y159.86 E12.77088
G1 X171.232 Y162.888 E12.86152
G1 X171.223 Y163.503 E12.87994
G1 X171.131 Y164.73 E12.91677
G1 X171.07 Y165.178 E12.9303
G1 X170.908 Y166.067 E12.95735
G1 X170.669 Y166.938 E12.98439
G1 X170.354 Y167.784 E13.01141
G1 X169.965 Y168.599 E13.03844
G1 X169.711 Y169.047 E13.05386
G1 X169.446 Y169.489 E13.06929
G1 X168.948 Y170.242 E13.09631
G1 X168.482 Y170.836 E13.11891
G1 X168.121 Y171.255 E13.13546
G1 X166.467 Y173.097 E13.20957
G1 X165.857 Y173.756 E13.23645
G1 X165.215 Y174.391 E13.26348
G1 X164.518 Y174.966 E13.29053
G1 X163.774 Y175.477 E13.31755
G1 X162.797 Y176.02 E13.35101
G1 X161.873 Y176.424 E13.38119
G1 X161.017 Y176.711 E13.40822
G1 X160.139 Y176.922 E13.43525
G1 X159.245 Y177.054 E13.4623
G1 X157.99 Y177.106 E13.4999
G1 X154.75 Y177.039 E13.59691
G1 X152.196 Y177.063 E13.67336
G1 X150.868 Y177.108 E13.71314
G1 X149.431 Y177.132 E13.75616
G1 X141.395 Y177.132 E13.99671
G1 X140.697 Y177.122 E14.01761
G1 X139.754 Y177.065 E14.04588
G1 X139.456 Y177.033 E14.05486
G1 X138.563 Y176.897 E14.0819
G1 X137.796 Y176.714 E14.1055
G1 X137.503 Y176.632 E14.11461
G1 X136.645 Y176.35 E14.14164
G1 X136.216 Y176.177 E14.15549
G1 X135.833 Y176.012 E14.16797
G1 X135.021 Y175.618 E14.19499
G1 X134.246 Y175.154 E14.22203
G1 X133.301 Y174.448 E14.25734
G1 X132.96 Y174.161 E14.27068
G1 X132.295 Y173.549 E14.29773
G1 X131.585 Y172.768 E14.32933
G1 X130.766 Y171.644 E14.37096
G1 X130.605 Y171.391 E14.37994
G1 X130.154 Y170.608 E14.40698
G1 X129.92 Y170.126 E14.42302
G1 X129.794 Y169.848 E14.43216
G1 X129.458 Y169.009 E14.45921
G1 X129.232 Y168.278 E14.48212
G1 X129.158 Y168.002 E14.49067
G1 X128.963 Y167.121 E14.51768
G1 X128.843 Y166.184 E14.54596
G1 X128.809 Y165.764 E14.55857
G1 X128.777 Y165.076 E14.57919
G1 X128.768 Y164.341 E14.60119
G1 X128.767 Y156.111 E14.84755
G1 X128.777 Y155.448 E14.8674
G1 X128.831 Y154.547 E14.89442
G1 X128.972 Y153.611 E14.92275
G1 X129.455 Y151.184 E14.99683
G1 X129.881 Y148.692 E15.0725
G1 X130.242 Y146.152 E15.1493
G1 X130.526 Y143.652 E15.22462
G1 X130.742 Y141.104 E15.30116
G1 X130.884 Y138.607 E15.37603
G1 F2700 E10.37603
;MESH:Skadis_Universal_Hook.stl
G0 F6000 X137.747 Y147.975
G0 X147.92 Y161.972
G0 X150.343 Y166.316
;TYPE:WALL-INNER
G1 F2700 E15.37603
G1 F1200 X150.62 Y166.225 E15.38476
G1 X150.86 Y166.102 E15.39283
G1 X151.166 Y165.821 E15.40527
G1 X151.39 Y165.352 E15.42082
G1 X151.433 Y165.039 E15.43028
G1 X151.434 Y161.853 E15.52565
G1 X151.524 Y161.616 E15.53324
G1 X151.662 Y161.462 E15.53943
G1 X151.813 Y161.375 E15.54465
G1 X151.982 Y161.336 E15.54984
G1 X157.667 Y161.333 E15.72001
G1 X157.917 Y161.387 E15.72767
G1 X158.107 Y161.525 E15.7347
G1 X158.224 Y161.705 E15.74113
G1 X158.267 Y161.933 E15.74807
G1 X158.268 Y166.062 E15.87167
G1 X160.222 Y163.89 E15.95913
G1 X160.396 Y163.604 E15.96915
G1 X160.433 Y163.358 E15.97659
G1 X160.433 Y159.27 E16.09896
G1 X151.982 Y159.264 E16.35194
G1 X151.813 Y159.225 E16.35713
G1 X151.662 Y159.138 E16.36235
G1 X151.5 Y158.941 E16.36998
G1 X151.434 Y158.746 E16.37614
G1 X151.433 Y136.202 E17.05098
G1 X151.496 Y135.963 E17.05838
G1 X151.611 Y135.805 E17.06423
G1 X151.796 Y135.681 E17.07089
G1 X151.956 Y135.633 E17.07589
G1 X156.5 Y135.632 E17.21191
G1 X156.5 Y133.1 E17.28771
G1 X141.767 Y133.105 E17.72873
G1 X141.768 Y135.83 E17.8103
G1 X146.67 Y135.836 E17.95703
G1 X147.22 Y135.901 E17.97361
G1 X147.648 Y136.049 E17.98717
G1 X147.984 Y136.22 E17.99845
G1 X148.32 Y136.449 E18.01063
G1 X148.701 Y136.845 E18.02707
G1 X149.003 Y137.322 E18.04397
G1 X149.168 Y137.765 E18.05813
G1 X149.262 Y138.226 E18.07221
G1 X149.264 Y161.637 E18.773
G1 X149.216 Y162.021 E18.78458
G1 X149.128 Y162.351 E18.7948
G1 X148.971 Y162.727 E18.807
G1 X148.753 Y163.071 E18.81919
G1 X148.548 Y163.327 E18.82901
G1 X148.2 Y163.647 E18.84316
G1 X147.735 Y163.925 E18.85938
G1 X147.356 Y164.059 E18.87141
G1 X147.004 Y164.135 E18.88219
G1 X146.646 Y164.166 E18.89295
G1 X144.187 Y164.167 E18.96656
G1 X143.803 Y164.1 E18.97822
G1 X143.357 Y163.966 E18.99216
G1 X143.001 Y163.769 E19.00434
G1 X142.706 Y163.558 E19.0152
G1 X142.439 Y163.307 E19.02617
G1 X142.128 Y162.916 E19.04113
G1 X141.889 Y162.426 E19.05744
G1 X141.761 Y161.935 E19.07263
G1 X141.734 Y161.537 E19.08458
G1 X141.733 Y156.1 E19.24733
G1 X139.567 Y156.1 E19.31216
G1 X139.568 Y164.973 E19.57777
G1 X139.591 Y165.242 E19.58585
G1 X139.736 Y165.641 E19.59856
G1 X139.945 Y165.935 E19.60936
G1 X140.205 Y166.146 E19.61938
G1 X140.562 Y166.298 E19.631
G1 X140.868 Y166.333 E19.64021
G1 X150.08 Y166.333 E19.91597
G1 X150.343 Y166.316 E19.92386
G0 F6000 X150.775 Y166.595
;TYPE:WALL-OUTER
G1 F1200 X151.091 Y166.433 E19.93449
G1 X151.366 Y166.181 E19.94565
G1 X151.529 Y165.982 E19.95335
G1 X151.663 Y165.744 E19.96153
G1 X151.78 Y165.456 E19.97083
G1 X151.833 Y165.066 E19.98261
G1 X151.837 Y161.899 E20.07742
G1 X151.91 Y161.776 E20.0817
G1 X152.016 Y161.734 E20.08511
G1 X157.734 Y161.733 E20.25627
G1 X157.867 Y161.872 E20.26203
G1 X157.868 Y166.529 E20.40144
G1 X157.962 Y166.68 E20.40676
G1 X158.179 Y166.716 E20.41334
G1 X158.246 Y166.685 E20.41555
G1 X160.545 Y164.13 E20.51844
G1 X160.78 Y163.742 E20.53202
G1 X160.833 Y163.388 E20.54273
G1 X160.833 Y159.116 E20.67061
G1 X160.778 Y158.961 E20.67554
G1 X160.622 Y158.871 E20.68093
G1 X152.016 Y158.866 E20.93854
G1 X151.91 Y158.824 E20.94195
G1 X151.836 Y158.701 E20.94625
G1 X151.833 Y136.222 E21.61914
G1 X151.892 Y136.09 E21.62347
G1 X151.998 Y136.035 E21.62704
G1 X156.9 Y136.032 E21.77378
G1 X156.9 Y132.7 E21.87352
G1 X141.533 Y132.705 E22.33352
G1 X141.367 Y132.752 E22.33868
G1 X141.367 Y135.982 E22.43537
G1 X141.418 Y136.137 E22.44025
G1 X141.578 Y136.23 E22.44579
G1 X146.623 Y136.234 E22.59681
G1 X147.15 Y136.3 E22.61271
G1 X147.446 Y136.397 E22.62203
G1 X147.759 Y136.551 E22.63248
