; G-Code generated by Simplify3D(R) Version 4.1.2
; May 23, 2021 at 4:03:01 PM
; Settings Summary
;   processName,Detailed CR10S
;   applyToModels,hex-holder
;   profileName,Creality CR-10S Pro (modified)
;   profileVersion,2021-05-02 22:29:37
;   baseProfile,
;   printMaterial,PLA
;   printQuality,High
;   printExtruders,
;   extruderName,Primary Extruder
;   extruderToolheadNumber,0
;   extruderDiameter,0.4
;   extruderAutoWidth,0
;   extruderWidth,0.4
;   extrusionMultiplier,0.9
;   extruderUseRetract,1
;   extruderRetractionDistance,5
;   extruderExtraRestartDistance,0
;   extruderRetractionZLift,0
;   extruderRetractionSpeed,1800
;   extruderUseCoasting,0
;   extruderCoastingDistance,0.2
;   extruderUseWipe,0
;   extruderWipeDistance,5
;   primaryExtruder,0
;   layerHeight,0.1
;   topSolidLayers,4
;   bottomSolidLayers,4
;   perimeterOutlines,2
;   printPerimetersInsideOut,1
;   startPointOption,2
;   startPointOriginX,0
;   startPointOriginY,0
;   sequentialIslands,0
;   spiralVaseMode,0
;   firstLayerHeightPercentage,120
;   firstLayerWidthPercentage,150
;   firstLayerUnderspeed,0.5
;   useRaft,0
;   raftExtruder,0
;   raftTopLayers,3
;   raftBaseLayers,2
;   raftOffset,3
;   raftSeparationDistance,0.14
;   raftTopInfill,100
;   aboveRaftSpeedMultiplier,0.3
;   useSkirt,0
;   skirtExtruder,0
;   skirtLayers,2
;   skirtOutlines,2
;   skirtOffset,4
;   usePrimePillar,0
;   primePillarExtruder,999
;   primePillarWidth,12
;   primePillarLocation,7
;   primePillarSpeedMultiplier,1
;   useOozeShield,0
;   oozeShieldExtruder,999
;   oozeShieldOffset,2
;   oozeShieldOutlines,1
;   oozeShieldSidewallShape,1
;   oozeShieldSidewallAngle,30
;   oozeShieldSpeedMultiplier,1
;   infillExtruder,0
;   internalInfillPattern,Rectilinear
;   externalInfillPattern,Rectilinear
;   infillPercentage,25
;   outlineOverlapPercentage,15
;   infillExtrusionWidthPercentage,100
;   minInfillLength,5
;   infillLayerInterval,1
;   internalInfillAngles,45,-45
;   overlapInternalInfillAngles,0
;   externalInfillAngles,45,-45
;   generateSupport,0
;   supportExtruder,0
;   supportInfillPercentage,25
;   supportExtraInflation,0
;   supportBaseLayers,0
;   denseSupportExtruder,0
;   denseSupportLayers,0
;   denseSupportInfillPercentage,70
;   supportLayerInterval,1
;   supportHorizontalPartOffset,0.3
;   supportUpperSeparationLayers,1
;   supportLowerSeparationLayers,1
;   supportType,0
;   supportGridSpacing,2
;   maxOverhangAngle,45
;   supportAngles,0
;   temperatureName,Primary Extruder,Heated Bed
;   temperatureNumber,0,0
;   temperatureSetpointCount,1,1
;   temperatureSetpointLayers,1,1
;   temperatureSetpointTemperatures,210,60
;   temperatureStabilizeAtStartup,1,1
;   temperatureHeatedBed,0,1
;   fanLayers,1,2
;   fanSpeeds,0,100
;   blipFanToFullPower,0
;   adjustSpeedForCooling,1
;   minSpeedLayerTime,15
;   minCoolingSpeedSlowdown,20
;   increaseFanForCooling,0
;   minFanLayerTime,45
;   maxCoolingFanSpeed,100
;   increaseFanForBridging,0
;   bridgingFanSpeed,100
;   use5D,1
;   relativeEdistances,0
;   allowEaxisZeroing,1
;   independentExtruderAxes,0
;   includeM10123,0
;   stickySupport,1
;   applyToolheadOffsets,0
;   gcodeXoffset,0
;   gcodeYoffset,0
;   gcodeZoffset,0
;   overrideMachineDefinition,1
;   machineTypeOverride,0
;   strokeXoverride,300
;   strokeYoverride,300
;   strokeZoverride,400
;   originOffsetXoverride,0
;   originOffsetYoverride,0
;   originOffsetZoverride,0
;   homeXdirOverride,-1
;   homeYdirOverride,-1
;   homeZdirOverride,-1
;   flipXoverride,1
;   flipYoverride,-1
;   flipZoverride,1
;   toolheadOffsets,0,0|0,0|0,0|0,0|0,0|0,0
;   overrideFirmwareConfiguration,1
;   firmwareTypeOverride,RepRap (Marlin/Repetier/Sprinter)
;   GPXconfigOverride,r2
;   baudRateOverride,115200
;   overridePrinterModels,1
;   printerModelsOverride
;   startingGcode,G28; home all axes,G29 ; auto-bed level,G1 Z5 F3000 ; lift,G1 X20 Y20 F1500 ; move to prime,G1 Z100 F3000 ; lift,G1 Z0.2 F3000 ; get ready to prime,G92 E0 ; reset extrusion distance,G1 Y80 E10 F600 ; prime nozzle,G1 Y100 F5000 ; quick wipe
;   layerChangeGcode,;G90; Absolute positioning,;G1 F9000 Y100 Z100; Move to photo position;,;M240; Make a photo,
;   retractionGcode,
;   toolChangeGcode,
;   endingGcode,G28 X0 ; home X axis,M106 S0 ; turn off cooling fan,M104 S0 ; turn off extruder,M140 S0 ; turn off bed,M84 ; disable motors
;   exportFileFormat,gcode
;   celebration,0
;   celebrationSong,Random Song
;   postProcessing,
;   defaultSpeed,3600
;   outlineUnderspeed,0.5
;   solidInfillUnderspeed,0.8
;   supportUnderspeed,0.8
;   rapidXYspeed,4800
;   rapidZspeed,1002
;   minBridgingArea,50
;   bridgingExtraInflation,0
;   bridgingExtrusionMultiplier,1
;   bridgingSpeedMultiplier,1
;   useFixedBridgingAngle,0
;   fixedBridgingAngle,0
;   applyBridgingToPerimeters,0
;   filamentDiameters,1.75|1.75|1.75|1.75|1.75|1.75
;   filamentPricesPerKg,46|46|46|46|46|46
;   filamentDensities,1.25|1.25|1.25|1.25|1.25|1.25
;   useMinPrintHeight,0
;   minPrintHeight,20.7
;   useMaxPrintHeight,0
;   maxPrintHeight,4
;   useDiaphragm,0
;   diaphragmLayerInterval,20
;   robustSlicing,1
;   mergeAllIntoSolid,0
;   onlyRetractWhenCrossingOutline,1
;   retractBetweenLayers,1
;   useRetractionMinTravel,0
;   retractionMinTravel,3
;   retractWhileWiping,0
;   onlyWipeOutlines,1
;   avoidCrossingOutline,0
;   maxMovementDetourFactor,3
;   toolChangeRetractionDistance,12
;   toolChangeExtraRestartDistance,-0.5
;   toolChangeRetractionSpeed,600
;   externalThinWallType,0
;   internalThinWallType,2
;   thinWallAllowedOverlapPercentage,10
;   singleExtrusionMinLength,1
;   singleExtrusionMinPrintingWidthPercentage,50
;   singleExtrusionMaxPrintingWidthPercentage,200
;   singleExtrusionEndpointExtension,0.2
;   horizontalSizeCompensation,0
G90
M82
M106 S0
M140 S60
M190 S60
M104 S210 T0
M109 S210 T0
G28; home all axes
G29 ; auto-bed level
G1 Z5 F3000 ; lift
G1 X20 Y20 F1500 ; move to prime
G1 Z100 F3000 ; lift
G1 Z0.2 F3000 ; get ready to prime
G92 E0 ; reset extrusion distance
G1 Y80 E10 F600 ; prime nozzle
G1 Y100 F5000 ; quick wipe
; process Detailed CR10S
; layer 1, Z = 0.120
T0
G92 E0.0000
G1 E-5.0000 F1800
;G90; Absolute positioning
;G1 F9000 Y100 Z100; Move to photo position;
;M240; Make a photo
; feature inner perimeter
; tool H0.120 W0.600
G1 Z0.120 F1002
G1 X123.410 Y104.695 F4800
G1 E0.0000 F1800
G92 E0.0000
G1 X123.545 Y104.560 E0.0052 F1350
G1 X123.702 Y104.450 E0.0103
G1 X123.875 Y104.370 E0.0154
G1 X124.060 Y104.320 E0.0206
G1 X124.289 Y104.300 E0.0268
G1 X175.711 Y104.300 E1.4121
G1 X175.940 Y104.320 E1.4183
G1 X176.125 Y104.370 E1.4235
G1 X176.298 Y104.450 E1.4286
G1 X176.455 Y104.560 E1.4338
G1 X176.590 Y104.695 E1.4389
G1 X176.722 Y104.884 E1.4452
G1 X202.433 Y149.416 E2.8305
G1 X202.530 Y149.625 E2.8367
G1 X202.580 Y149.810 E2.8418
G1 X202.596 Y150.000 E2.8470
G1 X202.580 Y150.190 E2.8521
G1 X202.530 Y150.375 E2.8573
G1 X202.433 Y150.584 E2.8635
G1 X177.553 Y193.677 E4.2041
G1 X176.722 Y195.116 E4.2488
G1 X176.590 Y195.305 E4.2550
G1 X176.455 Y195.440 E4.2602
G1 X176.298 Y195.550 E4.2653
G1 X176.125 Y195.630 E4.2705
G1 X175.940 Y195.680 E4.2756
G1 X175.710 Y195.700 E4.2818
G1 X124.290 Y195.700 E5.6672
G1 X124.060 Y195.680 E5.6734
G1 X123.875 Y195.630 E5.6785
G1 X123.702 Y195.550 E5.6837
G1 X123.545 Y195.440 E5.6888
G1 X123.410 Y195.305 E5.6940
G1 X123.278 Y195.116 E5.7002
G1 X98.157 Y151.605 E7.0537
G1 X97.567 Y150.584 E7.0855
G1 X97.470 Y150.375 E7.0917
G1 X97.420 Y150.190 E7.0969
G1 X97.404 Y150.000 E7.1020
G1 X97.420 Y149.810 E7.1072
G1 X97.470 Y149.625 E7.1123
G1 X97.567 Y149.416 E7.1185
G1 X123.278 Y104.884 E8.5038
G1 X123.410 Y104.695 E8.5101
; feature outer perimeter
G1 X122.949 Y104.308 F4800
G92 E0.0000
G1 X123.158 Y104.099 E0.0080 F900
G1 X123.401 Y103.929 E0.0160
G1 X123.669 Y103.804 E0.0239
G1 X123.955 Y103.727 E0.0319
G1 X124.263 Y103.700 E0.0402
G1 X175.737 Y103.700 E1.4270
G1 X176.045 Y103.727 E1.4353
G1 X176.331 Y103.804 E1.4433
G1 X176.599 Y103.929 E1.4513
G1 X176.842 Y104.099 E1.4592
G1 X177.051 Y104.308 E1.4672
G1 X177.229 Y104.561 E1.4756
G1 X202.965 Y149.139 E2.8623
G1 X203.096 Y149.419 E2.8706
G1 X203.173 Y149.705 E2.8786
G1 X203.198 Y150.000 E2.8866
G1 X203.173 Y150.295 E2.8945
G1 X203.096 Y150.581 E2.9025
G1 X202.965 Y150.861 E2.9109
G1 X178.072 Y193.977 E4.2521
G1 X177.229 Y195.439 E4.2976
G1 X177.051 Y195.692 E4.3059
G1 X176.842 Y195.901 E4.3139
G1 X176.599 Y196.071 E4.3219
G1 X176.331 Y196.196 E4.3299
G1 X176.045 Y196.273 E4.3378
G1 X175.737 Y196.300 E4.3462
G1 X124.263 Y196.300 E5.7329
G1 X123.955 Y196.273 E5.7412
G1 X123.669 Y196.196 E5.7492
G1 X123.401 Y196.071 E5.7572
G1 X123.158 Y195.901 E5.7652
G1 X122.949 Y195.692 E5.7731
G1 X122.771 Y195.439 E5.7815
G1 X97.637 Y151.905 E7.1357
G1 X97.035 Y150.861 E7.1682
G1 X96.904 Y150.581 E7.1765
G1 X96.827 Y150.295 E7.1845
G1 X96.802 Y150.000 E7.1925
G1 X96.827 Y149.705 E7.2005
G1 X96.904 Y149.419 E7.2084
G1 X97.035 Y149.139 E7.2168
G1 X122.771 Y104.561 E8.6035
G1 X122.949 Y104.308 E8.6118
; feature inner perimeter
G1 X123.148 Y107.232 F4800
G92 E0.0000
G1 X122.777 Y107.366 E0.0106 F1350
G1 X122.458 Y107.597 E0.0212
G1 X122.254 Y107.857 E0.0301
G1 X112.390 Y124.943 E0.5617
G1 X112.266 Y125.249 E0.5706
G1 X112.226 Y125.641 E0.5812
G1 X112.296 Y126.029 E0.5918
G1 X112.470 Y126.383 E0.6024
G1 X113.036 Y127.003 E0.6250
G1 X113.233 Y127.402 E0.6370
G1 X113.312 Y127.840 E0.6490
G1 X113.266 Y128.283 E0.6610
G1 X113.100 Y128.696 E0.6730
G1 X112.825 Y129.046 E0.6850
G1 X112.465 Y129.307 E0.6970
G1 X112.046 Y129.458 E0.7090
G1 X111.602 Y129.487 E0.7209
G1 X110.782 Y129.307 E0.7436
G1 X110.389 Y129.332 E0.7542
G1 X110.018 Y129.466 E0.7648
G1 X109.698 Y129.697 E0.7754
G1 X109.495 Y129.957 E0.7843
G1 X99.630 Y147.043 E1.3158
G1 X99.509 Y147.343 E1.3245
G1 X99.466 Y147.731 E1.3351
G1 X99.535 Y148.126 E1.3459
G1 X99.710 Y148.481 E1.3565
G1 X100.287 Y149.120 E1.3797
G1 X100.485 Y149.540 E1.3922
G1 X100.552 Y150.000 E1.4048
G1 X100.485 Y150.460 E1.4173
G1 X100.287 Y150.880 E1.4298
G1 X99.710 Y151.519 E1.4530
G1 X99.536 Y151.871 E1.4635
G1 X99.466 Y152.259 E1.4742
G1 X99.507 Y152.651 E1.4848
G1 X99.630 Y152.957 E1.4937
G1 X109.495 Y170.043 E2.0252
G1 X109.698 Y170.303 E2.0341
G1 X110.018 Y170.534 E2.0447
G1 X110.389 Y170.668 E2.0553
G1 X110.782 Y170.693 E2.0660
G1 X111.602 Y170.513 E2.0886
G1 X112.046 Y170.542 E2.1006
G1 X112.465 Y170.693 E2.1126
G1 X112.825 Y170.954 E2.1245
G1 X113.100 Y171.304 E2.1365
G1 X113.266 Y171.717 E2.1485
G1 X113.312 Y172.160 E2.1605
G1 X113.233 Y172.598 E2.1725
G1 X113.036 Y172.997 E2.1845
G1 X112.470 Y173.617 E2.2071
G1 X112.296 Y173.971 E2.2177
G1 X112.226 Y174.359 E2.2283
G1 X112.266 Y174.751 E2.2390
G1 X112.390 Y175.057 E2.2479
G1 X122.254 Y192.143 E2.7794
G1 X122.458 Y192.403 E2.7883
G1 X122.777 Y192.634 E2.7989
G1 X123.148 Y192.768 E2.8095
G1 X123.539 Y192.793 E2.8201
G1 X124.382 Y192.613 E2.8433
G1 X124.844 Y192.652 E2.8558
G1 X125.276 Y192.823 E2.8683
G1 X125.640 Y193.111 E2.8808
G1 X125.905 Y193.493 E2.8933
G1 X126.171 Y194.312 E2.9165
G1 X126.388 Y194.638 E2.9271
G1 X126.689 Y194.893 E2.9377
G1 X127.049 Y195.054 E2.9483
G1 X127.376 Y195.100 E2.9572
G1 X147.105 Y195.100 E3.4888
G1 X147.432 Y195.054 E3.4977
G1 X147.792 Y194.893 E3.5083
G1 X148.093 Y194.638 E3.5189
G1 X148.312 Y194.310 E3.5295
G1 X148.566 Y193.511 E3.5521
G1 X148.813 Y193.140 E3.5641
G1 X149.153 Y192.853 E3.5761
G1 X149.559 Y192.671 E3.5881
G1 X150.000 Y192.609 E3.6001
G1 X150.441 Y192.671 E3.6121
G1 X150.847 Y192.853 E3.6241
G1 X151.187 Y193.140 E3.6361
G1 X151.434 Y193.511 E3.6481
G1 X151.688 Y194.310 E3.6707
G1 X151.907 Y194.638 E3.6813
G1 X152.208 Y194.893 E3.6919
G1 X152.568 Y195.054 E3.7025
G1 X152.895 Y195.100 E3.7114
G1 X172.624 Y195.100 E4.2429
G1 X172.951 Y195.054 E4.2518
G1 X173.311 Y194.893 E4.2625
G1 X173.612 Y194.638 E4.2731
G1 X173.829 Y194.312 E4.2836
G1 X174.095 Y193.493 E4.3068
G1 X174.360 Y193.111 E4.3193
G1 X174.724 Y192.823 E4.3319
G1 X175.156 Y192.652 E4.3444
G1 X175.618 Y192.613 E4.3569
G1 X176.461 Y192.793 E4.3801
G1 X176.852 Y192.768 E4.3907
G1 X177.223 Y192.634 E4.4013
G1 X177.542 Y192.403 E4.4119
G1 X177.746 Y192.143 E4.4208
G1 X187.610 Y175.057 E4.9523
G1 X187.734 Y174.751 E4.9612
G1 X187.774 Y174.359 E4.9718
G1 X187.704 Y173.971 E4.9825
G1 X187.530 Y173.617 E4.9931
G1 X186.964 Y172.997 E5.0157
G1 X186.767 Y172.598 E5.0277
G1 X186.688 Y172.160 E5.0397
G1 X186.734 Y171.717 E5.0517
G1 X186.900 Y171.304 E5.0636
G1 X187.175 Y170.954 E5.0756
G1 X187.535 Y170.693 E5.0876
G1 X187.954 Y170.542 E5.0996
G1 X188.398 Y170.513 E5.1116
G1 X189.218 Y170.693 E5.1342
G1 X189.611 Y170.668 E5.1448
G1 X189.982 Y170.534 E5.1555
G1 X190.302 Y170.303 E5.1661
G1 X190.505 Y170.043 E5.1750
G1 X200.370 Y152.957 E5.7065
G1 X200.493 Y152.651 E5.7154
G1 X200.534 Y152.259 E5.7260
G1 X200.464 Y151.871 E5.7366
G1 X200.290 Y151.519 E5.7472
G1 X199.713 Y150.880 E5.7704
G1 X199.515 Y150.460 E5.7829
G1 X199.448 Y150.000 E5.7954
G1 X199.515 Y149.540 E5.8079
G1 X199.713 Y149.120 E5.8204
G1 X200.290 Y148.481 E5.8437
G1 X200.464 Y148.129 E5.8542
G1 X200.534 Y147.741 E5.8648
G1 X200.493 Y147.349 E5.8755
G1 X200.370 Y147.043 E5.8844
G1 X190.505 Y129.957 E6.4159
G1 X190.302 Y129.697 E6.4248
G1 X189.982 Y129.466 E6.4354
G1 X189.611 Y129.332 E6.4460
G1 X189.218 Y129.307 E6.4566
G1 X188.398 Y129.487 E6.4792
G1 X187.954 Y129.458 E6.4912
G1 X187.535 Y129.307 E6.5032
G1 X187.175 Y129.046 E6.5152
G1 X186.900 Y128.696 E6.5272
G1 X186.734 Y128.283 E6.5392
G1 X186.688 Y127.840 E6.5512
G1 X186.767 Y127.402 E6.5632
G1 X186.964 Y127.003 E6.5752
G1 X187.530 Y126.383 E6.5978
G1 X187.704 Y126.029 E6.6084
G1 X187.774 Y125.641 E6.6190
G1 X187.734 Y125.249 E6.6296
G1 X187.610 Y124.943 E6.6385
G1 X177.746 Y107.857 E7.1700
G1 X177.542 Y107.597 E7.1789
G1 X177.223 Y107.366 E7.1896
G1 X176.852 Y107.232 E7.2002
G1 X176.461 Y107.207 E7.2107
G1 X175.618 Y107.387 E7.2340
G1 X175.156 Y107.348 E7.2465
G1 X174.724 Y107.177 E7.2590
G1 X174.360 Y106.889 E7.2715
G1 X174.095 Y106.507 E7.2840
G1 X173.829 Y105.688 E7.3072
G1 X173.612 Y105.362 E7.3178
G1 X173.311 Y105.107 E7.3284
G1 X172.951 Y104.946 E7.3390
G1 X172.624 Y104.900 E7.3479
G1 X152.895 Y104.900 E7.8794
G1 X152.568 Y104.946 E7.8883
G1 X152.208 Y105.107 E7.8989
G1 X151.907 Y105.362 E7.9096
G1 X151.688 Y105.689 E7.9202
G1 X151.434 Y106.489 E7.9428
G1 X151.187 Y106.860 E7.9548
G1 X150.847 Y107.147 E7.9668
G1 X150.441 Y107.329 E7.9788
G1 X150.000 Y107.391 E7.9908
G1 X149.559 Y107.329 E8.0027
G1 X149.153 Y107.147 E8.0147
G1 X148.813 Y106.860 E8.0267
G1 X148.566 Y106.489 E8.0387
G1 X148.312 Y105.690 E8.0613
G1 X148.093 Y105.362 E8.0720
G1 X147.792 Y105.107 E8.0826
G1 X147.432 Y104.946 E8.0932
G1 X147.105 Y104.900 E8.1021
G1 X127.376 Y104.900 E8.6336
G1 X127.049 Y104.946 E8.6425
G1 X126.689 Y105.107 E8.6531
G1 X126.388 Y105.362 E8.6637
G1 X126.171 Y105.688 E8.6743
G1 X125.905 Y106.507 E8.6975
G1 X125.640 Y106.889 E8.7100
G1 X125.276 Y107.177 E8.7225
G1 X124.844 Y107.348 E8.7351
G1 X124.382 Y107.387 E8.7476
G1 X123.539 Y107.207 E8.7708
G1 X123.148 Y107.232 E8.7813
; feature outer perimeter
G1 X123.495 Y107.811 F4800
G92 E0.0000
G1 X123.271 Y107.826 E0.0060 F900
G1 X123.060 Y107.902 E0.0121
G1 X122.878 Y108.033 E0.0181
G1 X122.753 Y108.193 E0.0236
G1 X112.930 Y125.207 E0.5529
G1 X112.854 Y125.395 E0.5583
G1 X112.831 Y125.619 E0.5644
G1 X112.871 Y125.840 E0.5704
G1 X112.971 Y126.041 E0.5765
G1 X113.536 Y126.661 E0.5991
G1 X113.808 Y127.212 E0.6157
G1 X113.917 Y127.817 E0.6322
G1 X113.854 Y128.428 E0.6488
G1 X113.624 Y128.999 E0.6653
G1 X113.246 Y129.483 E0.6819
G1 X112.748 Y129.843 E0.6985
G1 X112.169 Y130.051 E0.7150
G1 X111.556 Y130.091 E0.7316
G1 X110.736 Y129.911 E0.7542
G1 X110.512 Y129.926 E0.7602
G1 X110.301 Y130.002 E0.7663
G1 X110.119 Y130.133 E0.7723
G1 X109.993 Y130.293 E0.7778
G1 X100.171 Y147.307 E1.3071
G1 X100.097 Y147.490 E1.3124
G1 X100.072 Y147.712 E1.3184
G1 X100.111 Y147.939 E1.3246
G1 X100.211 Y148.140 E1.3307
G1 X100.792 Y148.784 E1.3540
G1 X101.065 Y149.365 E1.3713
G1 X101.159 Y150.000 E1.3886
G1 X101.065 Y150.635 E1.4059
G1 X100.792 Y151.216 E1.4232
