; G-Code generated by Simplify3D(R) Version 4.1.2
; Mar 31, 2021 at 1:19:30 PM
; Settings Summary
;   processName,Best
;   applyToModels,hex-holder
;   profileName,FlashForge Creator Pro (modified)
;   profileVersion,2021-03-29 18:58:04
;   baseProfile,
;   printMaterial,PLA
;   printQuality,High
;   printExtruders,Left Extruder Only
;   extruderName,Right Extruder,Left Extruder
;   extruderToolheadNumber,0,1
;   extruderDiameter,0.4,0.4
;   extruderAutoWidth,0,0
;   extruderWidth,0.4,0.4
;   extrusionMultiplier,0.9,0.9
;   extruderUseRetract,1,1
;   extruderRetractionDistance,1.5,1.5
;   extruderExtraRestartDistance,0,0
;   extruderRetractionZLift,0,0
;   extruderRetractionSpeed,1200,1200
;   extruderUseCoasting,0,0
;   extruderCoastingDistance,0.2,0.2
;   extruderUseWipe,0,0
;   extruderWipeDistance,5,5
;   primaryExtruder,1
;   layerHeight,0.1
;   topSolidLayers,4
;   bottomSolidLayers,4
;   perimeterOutlines,2
;   printPerimetersInsideOut,1
;   startPointOption,2
;   startPointOriginX,0
;   startPointOriginY,0
;   sequentialIslands,0
;   spiralVaseMode,0
;   firstLayerHeightPercentage,90
;   firstLayerWidthPercentage,100
;   firstLayerUnderspeed,0.4
;   useRaft,0
;   raftExtruder,1
;   raftTopLayers,3
;   raftBaseLayers,2
;   raftOffset,3
;   raftSeparationDistance,0.14
;   raftTopInfill,100
;   aboveRaftSpeedMultiplier,0.3
;   useSkirt,1
;   skirtExtruder,1
;   skirtLayers,2
;   skirtOutlines,3
;   skirtOffset,4
;   usePrimePillar,0
;   primePillarExtruder,999
;   primePillarWidth,2
;   primePillarLocation,7
;   primePillarSpeedMultiplier,1
;   useOozeShield,0
;   oozeShieldExtruder,999
;   oozeShieldOffset,2
;   oozeShieldOutlines,1
;   oozeShieldSidewallShape,1
;   oozeShieldSidewallAngle,30
;   oozeShieldSpeedMultiplier,1
;   infillExtruder,1
;   internalInfillPattern,Rectilinear
;   externalInfillPattern,Rectilinear
;   infillPercentage,100
;   outlineOverlapPercentage,20
;   infillExtrusionWidthPercentage,100
;   minInfillLength,5
;   infillLayerInterval,1
;   internalInfillAngles,45,-45
;   overlapInternalInfillAngles,0
;   externalInfillAngles,45,-45
;   generateSupport,1
;   supportExtruder,1
;   supportInfillPercentage,40
;   supportExtraInflation,0
;   supportBaseLayers,0
;   denseSupportExtruder,1
;   denseSupportLayers,0
;   denseSupportInfillPercentage,70
;   supportLayerInterval,1
;   supportHorizontalPartOffset,0.3
;   supportUpperSeparationLayers,1
;   supportLowerSeparationLayers,1
;   supportType,0
;   supportGridSpacing,1.5
;   maxOverhangAngle,45
;   supportAngles,0
;   temperatureName,Right Extruder,Left Extruder,Heated Build Platform
;   temperatureNumber,0,1,0
;   temperatureSetpointCount,1,1,1
;   temperatureSetpointLayers,1,1,1
;   temperatureSetpointTemperatures,0,210,60
;   temperatureStabilizeAtStartup,0,0,0
;   temperatureHeatedBed,0,0,1
;   fanLayers,1,2
;   fanSpeeds,0,100
;   blipFanToFullPower,0
;   adjustSpeedForCooling,1
;   minSpeedLayerTime,15
;   minCoolingSpeedSlowdown,20
;   increaseFanForCooling,0
;   minFanLayerTime,45
;   maxCoolingFanSpeed,100
;   increaseFanForBridging,1
;   bridgingFanSpeed,100
;   use5D,1
;   relativeEdistances,1
;   allowEaxisZeroing,0
;   independentExtruderAxes,1
;   includeM10123,0
;   stickySupport,1
;   applyToolheadOffsets,0
;   gcodeXoffset,0
;   gcodeYoffset,0
;   gcodeZoffset,0
;   overrideMachineDefinition,1
;   machineTypeOverride,0
;   strokeXoverride,225
;   strokeYoverride,145
;   strokeZoverride,150
;   originOffsetXoverride,112.5
;   originOffsetYoverride,72.5
;   originOffsetZoverride,0
;   homeXdirOverride,1
;   homeYdirOverride,1
;   homeZdirOverride,-1
;   flipXoverride,1
;   flipYoverride,-1
;   flipZoverride,1
;   toolheadOffsets,0,0|34,0|0,0|0,0|0,0|0,0
;   overrideFirmwareConfiguration,1
;   firmwareTypeOverride,MakerBot/Sailfish Firmware
;   GPXconfigOverride,r1d
;   baudRateOverride,115200
;   overridePrinterModels,1
;   printerModelsOverride,FlashForge_CreatorPro.stl
;   startingGcode,; **** Replicator 1 dual start.gcode ****,M73 P0 ; enable build progress,G162 X Y F3000 ; home XY maximum,G161 Z F1200 ; home Z minimum,G92 Z-5 ; set Z to -5,G1 Z0 ; move Z to 0,G161 Z F100 ; home Z slowly,M132 X Y Z A B ; recall home offsets,M135 T0 ; load right extruder offsets,G1 X-110 Y-70 Z30 F9000 ; move to wait position left hand side of the table,G130 X20 Y20 Z20 A20 B20 ; lower stepper Vrefs while heating,M126 S[fan_speed_pwm],M140 S[bed0_temperature] T0,M134 T0 ; stabilize bed temperature,M104 S[extruder1_temperature] T1,M133 T1 ; stabilize left extruder temperature,G130 X127 Y127 Z40 A127 B127 ; default stepper Vrefs,G92 A0 B0 ; zero extruders,G1 Z0.4 ; position nozzle,M135 T1 ; left tool,G1 X-140 Y-70 F9000 ; reposition nozzle,G1 X-100 Y-70 E25 F300 ; purge nozzle,G1 X-110 Y-70 Z0.15 F1200 ; slow wipe,G1 X-100 Y-70 Z0.5 F1200 ; lift,G92 A0 B0 ; zero extruders,M73 P1 ;@body (notify GPX body has started),; **** end of start.gcode ****
;   layerChangeGcode,
;   retractionGcode,
;   toolChangeGcode,
;   endingGcode,; **** Replicator 1 dual end.gcode ****,M73 P100 ; end build progress,G1 Z150 F1000 ; send Z axis to bottom of machine,M140 S0 T0 ; cool down HBP,M104 S0 T0 ; cool down right extruder,M104 S0 T1 ; cool down left extruder,M127 ; stop blower fan,G162 X Y F3000 ; home XY maximum,M18 ; disable stepper,M72 P1 ; play Ta-Da song,; **** end of end.gcode ****
;   exportFileFormat,x3g
;   celebration,0
;   celebrationSong,Random Song
;   postProcessing,
;   defaultSpeed,4200
;   outlineUnderspeed,0.5
;   solidInfillUnderspeed,0.8
;   supportUnderspeed,0.8
;   rapidXYspeed,4200
;   rapidZspeed,1200
;   minBridgingArea,50
;   bridgingExtraInflation,0
;   bridgingExtrusionMultiplier,1
;   bridgingSpeedMultiplier,0.8
;   useFixedBridgingAngle,0
;   fixedBridgingAngle,0
;   applyBridgingToPerimeters,0
;   filamentDiameters,1.75|1.75|1.75|1.75|1.75|1.75
;   filamentPricesPerKg,46|46|46|46|46|46
;   filamentDensities,1.25|1.25|1.25|1.25|1.25|1.25
;   useMinPrintHeight,0
;   minPrintHeight,0
;   useMaxPrintHeight,0
;   maxPrintHeight,0
;   useDiaphragm,0
;   diaphragmLayerInterval,20
;   robustSlicing,1
;   mergeAllIntoSolid,0
;   onlyRetractWhenCrossingOutline,1
;   retractBetweenLayers,1
;   useRetractionMinTravel,0
;   retractionMinTravel,3
;   retractWhileWiping,0
;   onlyWipeOutlines,1
;   avoidCrossingOutline,0
;   maxMovementDetourFactor,3
;   toolChangeRetractionDistance,12
;   toolChangeExtraRestartDistance,-0.5
;   toolChangeRetractionSpeed,600
;   externalThinWallType,0
;   internalThinWallType,2
;   thinWallAllowedOverlapPercentage,10
;   singleExtrusionMinLength,1
;   singleExtrusionMinPrintingWidthPercentage,50
;   singleExtrusionMaxPrintingWidthPercentage,200
;   singleExtrusionEndpointExtension,0.2
;   horizontalSizeCompensation,0
G90
M83
; **** Replicator 1 dual start.gcode ****
M73 P0 ; enable build progress
G162 X Y F3000 ; home XY maximum
G161 Z F1200 ; home Z minimum
G92 Z-5 ; set Z to -5
G1 Z0 ; move Z to 0
G161 Z F100 ; home Z slowly
M132 X Y Z A B ; recall home offsets
M135 T0 ; load right extruder offsets
G1 X-110 Y-70 Z30 F9000 ; move to wait position left hand side of the table
G130 X20 Y20 Z20 A20 B20 ; lower stepper Vrefs while heating
M127
M140 S60 T0
M134 T0 ; stabilize bed temperature
M104 S210 T1
M133 T1 ; stabilize left extruder temperature
G130 X127 Y127 Z40 A127 B127 ; default stepper Vrefs
G92 A0 B0 ; zero extruders
G1 Z0.4 ; position nozzle
M135 T1 ; left tool
G1 X-140 Y-70 F9000 ; reposition nozzle
G1 X-100 Y-70 E25 F300 ; purge nozzle
G1 X-110 Y-70 Z0.15 F1200 ; slow wipe
G1 X-100 Y-70 Z0.5 F1200 ; lift
G92 A0 B0 ; zero extruders
M73 P1 ;@body (notify GPX body has started)
; **** end of start.gcode ****
; process Best
; layer 1, Z = 0.090
M135 T1
G1 E-1.5000 F1200
; feature skirt
; tool H0.090 W0.400
G1 Z0.090 F1200
G1 X25.859 Y51.600 F4200
G1 E1.5000 F1200
G1 X-25.859 Y51.600 E0.6967 F1680
G1 X-26.077 Y51.590 E0.0029
G1 X-26.750 Y51.532 E0.0091
G1 X-27.180 Y51.456 E0.0059
G1 X-27.939 Y51.253 E0.0106
G1 X-28.349 Y51.103 E0.0059
G1 X-29.061 Y50.771 E0.0106
G1 X-29.439 Y50.553 E0.0059
G1 X-30.082 Y50.103 E0.0106
G1 X-30.417 Y49.822 E0.0059
G1 X-30.972 Y49.267 E0.0106
G1 X-31.252 Y48.932 E0.0059
G1 X-31.640 Y48.379 E0.0091
G1 X-31.757 Y48.195 E0.0029
G1 X-57.616 Y3.406 E0.6967
G1 X-57.717 Y3.212 E0.0029
G1 X-58.003 Y2.599 E0.0091
G1 X-58.152 Y2.189 E0.0059
G1 X-58.355 Y1.431 E0.0106
G1 X-58.431 Y1.001 E0.0059
G1 X-58.500 Y0.218 E0.0106
G1 X-58.500 Y-0.218 E0.0059
G1 X-58.431 Y-1.001 E0.0106
G1 X-58.355 Y-1.431 E0.0059
G1 X-58.152 Y-2.189 E0.0106
G1 X-58.003 Y-2.599 E0.0059
G1 X-57.717 Y-3.212 E0.0091
G1 X-57.616 Y-3.406 E0.0029
G1 X-31.757 Y-48.195 E0.6967
G1 X-31.640 Y-48.379 E0.0029
G1 X-31.252 Y-48.932 E0.0091
G1 X-30.972 Y-49.267 E0.0059
G1 X-30.417 Y-49.822 E0.0106
G1 X-30.082 Y-50.103 E0.0059
G1 X-29.439 Y-50.553 E0.0106
G1 X-29.061 Y-50.771 E0.0059
G1 X-28.349 Y-51.103 E0.0106
G1 X-27.939 Y-51.253 E0.0059
G1 X-27.180 Y-51.456 E0.0106
G1 X-26.750 Y-51.532 E0.0059
G1 X-26.077 Y-51.590 E0.0091
G1 X-25.859 Y-51.600 E0.0029
G1 X25.859 Y-51.600 E0.6967
G1 X26.077 Y-51.590 E0.0029
G1 X26.750 Y-51.532 E0.0091
G1 X27.180 Y-51.456 E0.0059
G1 X27.939 Y-51.253 E0.0106
G1 X28.349 Y-51.103 E0.0059
G1 X29.061 Y-50.771 E0.0106
G1 X29.439 Y-50.553 E0.0059
G1 X30.082 Y-50.103 E0.0106
G1 X30.417 Y-49.822 E0.0059
G1 X30.972 Y-49.267 E0.0106
G1 X31.252 Y-48.932 E0.0059
G1 X31.640 Y-48.379 E0.0091
G1 X31.757 Y-48.195 E0.0029
G1 X57.616 Y-3.406 E0.6967
G1 X57.717 Y-3.212 E0.0029
G1 X58.003 Y-2.599 E0.0091
G1 X58.152 Y-2.189 E0.0059
G1 X58.355 Y-1.431 E0.0106
G1 X58.431 Y-1.001 E0.0059
G1 X58.500 Y-0.218 E0.0106
G1 X58.500 Y0.218 E0.0059
G1 X58.431 Y1.001 E0.0106
G1 X58.355 Y1.431 E0.0059
G1 X58.152 Y2.189 E0.0106
G1 X58.003 Y2.599 E0.0059
G1 X57.717 Y3.212 E0.0091
G1 X57.616 Y3.406 E0.0029
G1 X31.757 Y48.195 E0.6967
G1 X31.640 Y48.379 E0.0029
G1 X31.252 Y48.932 E0.0091
G1 X30.972 Y49.267 E0.0059
G1 X30.417 Y49.822 E0.0106
G1 X30.082 Y50.103 E0.0059
G1 X29.439 Y50.553 E0.0106
G1 X29.061 Y50.771 E0.0059
G1 X28.349 Y51.103 E0.0106
G1 X27.939 Y51.253 E0.0059
G1 X27.180 Y51.456 E0.0106
G1 X26.750 Y51.532 E0.0059
G1 X26.077 Y51.590 E0.0091
G1 X25.859 Y51.600 E0.0029
G1 E-1.5000 F1200
G1 X25.850 Y51.200 F4200
G1 E1.5000 F1200
G1 X-25.850 Y51.200 E0.6964 F1680
G1 X-26.051 Y51.191 E0.0027
G1 X-26.698 Y51.135 E0.0088
G1 X-27.094 Y51.065 E0.0054
G1 X-27.818 Y50.871 E0.0101
G1 X-28.196 Y50.733 E0.0054
G1 X-28.876 Y50.416 E0.0101
G1 X-29.224 Y50.215 E0.0054
G1 X-29.838 Y49.785 E0.0101
G1 X-30.146 Y49.527 E0.0054
G1 X-30.677 Y48.996 E0.0101
G1 X-30.935 Y48.689 E0.0054
G1 X-31.308 Y48.156 E0.0088
G1 X-31.415 Y47.987 E0.0027
G1 X-57.266 Y3.213 E0.6964
G1 X-57.358 Y3.035 E0.0027
G1 X-57.633 Y2.446 E0.0088
G1 X-57.770 Y2.069 E0.0054
G1 X-57.964 Y1.344 E0.0101
G1 X-58.034 Y0.948 E0.0054
G1 X-58.100 Y0.201 E0.0101
G1 X-58.100 Y-0.201 E0.0054
G1 X-58.034 Y-0.948 E0.0101
G1 X-57.964 Y-1.344 E0.0054
G1 X-57.770 Y-2.069 E0.0101
G1 X-57.633 Y-2.446 E0.0054
G1 X-57.358 Y-3.035 E0.0088
G1 X-57.266 Y-3.213 E0.0027
G1 X-31.415 Y-47.987 E0.6964
G1 X-31.308 Y-48.156 E0.0027
G1 X-30.935 Y-48.689 E0.0088
G1 X-30.677 Y-48.996 E0.0054
G1 X-30.146 Y-49.527 E0.0101
G1 X-29.838 Y-49.785 E0.0054
G1 X-29.224 Y-50.215 E0.0101
G1 X-28.876 Y-50.416 E0.0054
G1 X-28.196 Y-50.733 E0.0101
G1 X-27.818 Y-50.871 E0.0054
G1 X-27.094 Y-51.065 E0.0101
G1 X-26.698 Y-51.135 E0.0054
G1 X-26.051 Y-51.191 E0.0088
G1 X-25.850 Y-51.200 E0.0027
G1 X25.850 Y-51.200 E0.6964
G1 X26.051 Y-51.191 E0.0027
G1 X26.698 Y-51.135 E0.0088
G1 X27.094 Y-51.065 E0.0054
G1 X27.818 Y-50.871 E0.0101
G1 X28.196 Y-50.733 E0.0054
G1 X28.876 Y-50.416 E0.0101
G1 X29.224 Y-50.215 E0.0054
G1 X29.838 Y-49.785 E0.0101
G1 X30.146 Y-49.527 E0.0054
G1 X30.677 Y-48.996 E0.0101
G1 X30.935 Y-48.689 E0.0054
G1 X31.308 Y-48.156 E0.0088
G1 X31.415 Y-47.987 E0.0027
G1 X57.266 Y-3.213 E0.6964
G1 X57.358 Y-3.035 E0.0027
G1 X57.633 Y-2.446 E0.0088
G1 X57.770 Y-2.069 E0.0054
G1 X57.964 Y-1.344 E0.0101
G1 X58.034 Y-0.948 E0.0054
G1 X58.100 Y-0.201 E0.0101
G1 X58.100 Y0.201 E0.0054
G1 X58.034 Y0.948 E0.0101
G1 X57.964 Y1.344 E0.0054
G1 X57.770 Y2.069 E0.0101
G1 X57.633 Y2.446 E0.0054
G1 X57.358 Y3.035 E0.0088
G1 X57.266 Y3.213 E0.0027
G1 X31.415 Y47.987 E0.6964
G1 X31.308 Y48.156 E0.0027
G1 X30.935 Y48.689 E0.0088
G1 X30.677 Y48.996 E0.0054
G1 X30.146 Y49.527 E0.0101
G1 X29.838 Y49.785 E0.0054
G1 X29.224 Y50.215 E0.0101
G1 X28.876 Y50.416 E0.0054
G1 X28.196 Y50.733 E0.0101
G1 X27.818 Y50.871 E0.0054
G1 X27.094 Y51.065 E0.0101
G1 X26.698 Y51.135 E0.0054
G1 X26.051 Y51.191 E0.0088
G1 X25.850 Y51.200 E0.0027
G1 E-1.5000 F1200
G1 X25.841 Y50.800 F4200
G1 E1.5000 F1200
G1 X-25.841 Y50.800 E0.6962 F1680
G1 X-26.025 Y50.792 E0.0025
G1 X-26.646 Y50.738 E0.0084
G1 X-27.007 Y50.674 E0.0049
G1 X-27.698 Y50.489 E0.0096
G1 X-28.043 Y50.363 E0.0049
G1 X-28.691 Y50.061 E0.0096
G1 X-29.009 Y49.878 E0.0049
G1 X-29.595 Y49.467 E0.0096
G1 X-29.876 Y49.232 E0.0049
G1 X-30.381 Y48.726 E0.0096
G1 X-30.617 Y48.445 E0.0049
G1 X-30.975 Y47.934 E0.0084
G1 X-31.073 Y47.779 E0.0025
G1 X-56.915 Y3.021 E0.6962
G1 X-56.999 Y2.858 E0.0025
G1 X-57.263 Y2.293 E0.0084
G1 X-57.388 Y1.948 E0.0049
G1 X-57.574 Y1.257 E0.0096
G1 X-57.637 Y0.896 E0.0049
G1 X-57.700 Y0.183 E0.0096
G1 X-57.700 Y-0.183 E0.0049
G1 X-57.637 Y-0.896 E0.0096
G1 X-57.574 Y-1.257 E0.0049
G1 X-57.388 Y-1.948 E0.0096
G1 X-57.263 Y-2.293 E0.0049
G1 X-56.999 Y-2.858 E0.0084
G1 X-56.915 Y-3.021 E0.0025
G1 X-31.073 Y-47.779 E0.6962
G1 X-30.975 Y-47.934 E0.0025
G1 X-30.617 Y-48.445 E0.0084
G1 X-30.381 Y-48.726 E0.0049
G1 X-29.876 Y-49.232 E0.0096
G1 X-29.595 Y-49.467 E0.0049
G1 X-29.009 Y-49.878 E0.0096
G1 X-28.691 Y-50.061 E0.0049
G1 X-28.043 Y-50.363 E0.0096
G1 X-27.698 Y-50.489 E0.0049
G1 X-27.007 Y-50.674 E0.0096
G1 X-26.646 Y-50.738 E0.0049
G1 X-26.025 Y-50.792 E0.0084
G1 X-25.841 Y-50.800 E0.0025
G1 X25.841 Y-50.800 E0.6962
G1 X26.025 Y-50.792 E0.0025
G1 X26.646 Y-50.738 E0.0084
G1 X27.007 Y-50.674 E0.0049
G1 X27.698 Y-50.489 E0.0096
G1 X28.043 Y-50.363 E0.0049
G1 X28.691 Y-50.061 E0.0096
G1 X29.009 Y-49.878 E0.0049
G1 X29.595 Y-49.467 E0.0096
G1 X29.876 Y-49.232 E0.0049
G1 X30.381 Y-48.726 E0.0096
G1 X30.617 Y-48.445 E0.0049
G1 X30.975 Y-47.934 E0.0084
G1 X31.073 Y-47.779 E0.0025
G1 X56.915 Y-3.021 E0.6962
G1 X56.999 Y-2.858 E0.0025
G1 X57.263 Y-2.293 E0.0084
G1 X57.388 Y-1.948 E0.0049
G1 X57.574 Y-1.257 E0.0096
G1 X57.637 Y-0.896 E0.0049
G1 X57.700 Y-0.183 E0.0096
G1 X57.700 Y0.183 E0.0049
G1 X57.637 Y0.896 E0.0096
G1 X57.574 Y1.257 E0.0049
G1 X57.388 Y1.948 E0.0096
G1 X57.263 Y2.293 E0.0049
G1 X56.999 Y2.858 E0.0084
G1 X56.915 Y3.021 E0.0025
G1 X31.073 Y47.779 E0.6962
G1 X30.975 Y47.934 E0.0025
G1 X30.617 Y48.445 E0.0084
G1 X30.381 Y48.726 E0.0049
G1 X29.876 Y49.232 E0.0096
G1 X29.595 Y49.467 E0.0049
G1 X29.009 Y49.878 E0.0096
G1 X28.691 Y50.061 E0.0049
G1 X28.043 Y50.363 E0.0096
G1 X27.698 Y50.489 E0.0049
G1 X27.007 Y50.674 E0.0096
G1 X26.646 Y50.738 E0.0049
G1 X26.025 Y50.792 E0.0084
G1 X25.841 Y50.800 E0.0025
G1 E-1.5000 F1200
; feature inner perimeter
G1 X25.724 Y46.000 F4200
G1 E1.5000 F1200
G1 X-25.724 Y46.000 E0.6930 F1260
G1 X-25.993 Y45.976 E0.0036
G1 X-26.228 Y45.913 E0.0033
G1 X-26.449 Y45.810 E0.0033
G1 X-26.648 Y45.671 E0.0033
G1 X-26.820 Y45.498 E0.0033
G1 X-26.975 Y45.277 E0.0036
G1 X-39.837 Y23.000 E0.3465
G1 X-52.699 Y0.723 E0.3465
G1 X-52.813 Y0.478 E0.0036
G1 X-52.876 Y0.243 E0.0033
G1 X-52.897 Y0.000 E0.0033
G1 X-52.876 Y-0.243 E0.0033
G1 X-52.813 Y-0.478 E0.0033
G1 X-52.699 Y-0.723 E0.0036
G1 X-26.976 Y-45.277 E0.6930
G1 X-26.818 Y-45.501 E0.0037
G1 X-26.648 Y-45.671 E0.0032
G1 X-26.449 Y-45.810 E0.0033
G1 X-26.228 Y-45.913 E0.0033
G1 X-25.993 Y-45.976 E0.0033
G1 X-25.724 Y-46.000 E0.0036
G1 X25.724 Y-46.000 E0.6930
G1 X25.993 Y-45.976 E0.0036
G1 X26.228 Y-45.913 E0.0033
G1 X26.449 Y-45.810 E0.0033
G1 X26.648 Y-45.671 E0.0033
G1 X26.820 Y-45.498 E0.0033
G1 X26.975 Y-45.277 E0.0036
G1 X52.699 Y-0.723 E0.6930
G1 X52.813 Y-0.478 E0.0036
G1 X52.876 Y-0.243 E0.0033
G1 X52.897 Y0.000 E0.0033
G1 X52.876 Y0.243 E0.0033
G1 X52.813 Y0.478 E0.0033
