;FLAVOR:Marlin
;TIME:781
;Filament used: 0.545409m
;Layer height: 0.2
;MINX:129
;MINY:129
;MINZ:0.2
;MAXX:171
;MAXY:171
;MAXZ:7
;Generated with Cura_SteamEngine 5.2.1
M140 S60
M105
M190 S60
M104 S210
M105
M109 S210
M82 ;absolute extrusion mode
M201 X500.00 Y500.00 Z100.00 E5000.00 ;Setup machine max acceleration
M203 X500.00 Y500.00 Z10.00 E50.00 ;Setup machine max feedrate
M204 P500.00 R1000.00 T500.00 ;Setup Print/Retract/Travel acceleration
M205 X8.00 Y8.00 Z0.40 E5.00 ;Setup Jerk
M220 S100 ;Reset Feedrate
M221 S100 ;Reset Flowrate

G28 ;Home
G29 ;Auto bed Level

G92 E0 ;Reset Extruder
G1 Z2.0 F3000 ;Move Z Axis up
G1 X10.1 Y20 Z0.28 F5000.0 ;Move to start position
G1 X10.1 Y200.0 Z0.28 F1500.0 E15 ;Draw the first line
G1 X10.4 Y200.0 Z0.28 F5000.0 ;Move to side a little
G1 X10.4 Y20 Z0.28 F1500.0 E30 ;Draw the second line
G92 E0 ;Reset Extruder
G1 Z2.0 F3000 ;Move Z Axis up

G92 E0
G92 E0
G1 F2700 E-6
;LAYER_COUNT:35
;LAYER:0
M107
G0 F6000 X132.198 Y132.264 Z0.2
;TYPE:SKIRT
G1 F2700 E0
G1 F1200 X132.886 Y131.627 E0.03119
G1 X133.626 Y131.051 E0.06237
G1 X134.412 Y130.539 E0.09357
G1 X135.239 Y130.097 E0.12476
G1 X136.101 Y129.727 E0.15596
G1 X136.991 Y129.431 E0.18716
G1 X137.903 Y129.213 E0.21835
G1 X138.83 Y129.072 E0.24953
G1 X139.701 Y129.013 E0.27857
G1 X140.33 Y129 E0.29949
G1 X159.451 Y129.001 E0.93546
G1 X160.149 Y129.011 E0.95868
G1 X161.085 Y129.065 E0.98986
G1 X162.013 Y129.197 E1.02104
G1 X162.927 Y129.409 E1.05224
G1 X163.819 Y129.698 E1.08343
G1 X164.684 Y130.061 E1.11463
G1 X165.514 Y130.497 E1.14581
G1 X166.305 Y131.002 E1.17703
G1 X167.049 Y131.573 E1.20822
G1 X167.742 Y132.205 E1.23942
G1 X168.379 Y132.893 E1.2706
G1 X168.954 Y133.634 E1.3018
G1 X169.465 Y134.42 E1.33298
G1 X169.907 Y135.248 E1.3642
G1 X170.276 Y136.11 E1.39538
G1 X170.571 Y137 E1.42657
G1 X170.789 Y137.912 E1.45776
G1 X170.929 Y138.84 E1.48897
G1 X170.987 Y139.701 E1.51767
G1 X171 Y140.33 E1.5386
G1 X170.999 Y159.4 E2.17287
G1 X170.99 Y160.127 E2.19705
G1 X170.939 Y161.064 E2.22826
G1 X170.807 Y161.992 E2.25944
G1 X170.598 Y162.906 E2.29062
G1 X170.311 Y163.799 E2.32182
G1 X169.949 Y164.665 E2.35304
G1 X169.515 Y165.496 E2.38422
G1 X169.011 Y166.287 E2.41541
G1 X168.442 Y167.032 E2.44659
G1 X167.811 Y167.727 E2.47782
G1 X167.124 Y168.365 E2.509
G1 X166.385 Y168.942 E2.54018
G1 X165.599 Y169.454 E2.57138
G1 X164.773 Y169.897 E2.60256
G1 X163.911 Y170.269 E2.63378
G1 X163.022 Y170.565 E2.66495
G1 X162.11 Y170.785 E2.69615
G1 X161.183 Y170.926 E2.72734
G1 X160.299 Y170.987 E2.75681
G1 X159.67 Y171 E2.77773
G1 X140.565 Y170.999 E3.41317
G1 X139.867 Y170.99 E3.43639
G1 X138.931 Y170.938 E3.46757
G1 X138.002 Y170.806 E3.49878
G1 X137.088 Y170.596 E3.52997
G1 X136.195 Y170.309 E3.56116
G1 X135.33 Y169.946 E3.59237
G1 X134.499 Y169.512 E3.62355
G1 X133.708 Y169.008 E3.65474
G1 X132.963 Y168.438 E3.68594
G1 X132.269 Y167.807 E3.71714
G1 X131.632 Y167.12 E3.7483
G1 X131.055 Y166.38 E3.77951
G1 X130.543 Y165.594 E3.81071
G1 X130.1 Y164.767 E3.84191
G1 X129.729 Y163.906 E3.8731
G1 X129.433 Y163.016 E3.90429
G1 X129.214 Y162.104 E3.93549
G1 X129.073 Y161.177 E3.96667
G1 X129.013 Y160.288 E3.99631
G1 X129 Y159.658 E4.01727
G1 X129.001 Y140.525 E4.65363
G1 X129.01 Y139.86 E4.67575
G1 X129.063 Y138.924 E4.70694
G1 X129.195 Y137.995 E4.73814
G1 X129.406 Y137.081 E4.76934
G1 X129.694 Y136.189 E4.80052
G1 X130.057 Y135.324 E4.83172
G1 X130.492 Y134.493 E4.86292
G1 X130.996 Y133.703 E4.89408
G1 X131.566 Y132.958 E4.92528
G1 X132.198 Y132.264 E4.9565
G0 F6000 X132.589 Y132.439
G1 F1200 X133.274 Y131.823 E4.98714
G1 X134.01 Y131.27 E5.01776
G1 X134.791 Y130.782 E5.04839
G1 X135.611 Y130.364 E5.07901
G1 X136.465 Y130.019 E5.10964
G1 X137.345 Y129.749 E5.14026
G1 X138.245 Y129.557 E5.17086
G1 X139.159 Y129.443 E5.2015
G1 X139.712 Y129.413 E5.21992
G1 X140.33 Y129.4 E5.24048
G1 X159.293 Y129.4 E5.87119
G1 X160.143 Y129.411 E5.89946
G1 X161.062 Y129.464 E5.93008
G1 X161.973 Y129.597 E5.9607
G1 X162.869 Y129.808 E5.99132
G1 X163.743 Y130.096 E6.02192
G1 X164.59 Y130.459 E6.05257
G1 X165.401 Y130.894 E6.08318
G1 X166.171 Y131.398 E6.11379
G1 X166.895 Y131.967 E6.14442
G1 X167.567 Y132.597 E6.17506
G1 X168.182 Y133.282 E6.20567
G1 X168.735 Y134.018 E6.23629
G1 X169.222 Y134.799 E6.26691
G1 X169.639 Y135.62 E6.29753
G1 X169.984 Y136.474 E6.32817
G1 X170.253 Y137.354 E6.35877
G1 X170.445 Y138.255 E6.38941
G1 X170.558 Y139.168 E6.42001
G1 X170.587 Y139.712 E6.43813
G1 X170.6 Y140.33 E6.45869
G1 X170.599 Y159.395 E7.0928
G1 X170.59 Y160.122 E7.11698
G1 X170.539 Y161.041 E7.14759
G1 X170.408 Y161.953 E7.17823
G1 X170.198 Y162.849 E7.20884
G1 X169.912 Y163.724 E7.23946
G1 X169.551 Y164.571 E7.27008
G1 X169.117 Y165.383 E7.30071
G1 X168.615 Y166.155 E7.33134
G1 X168.047 Y166.88 E7.36197
G1 X167.419 Y167.553 E7.39258
G1 X166.735 Y168.169 E7.4232
G1 X166 Y168.723 E7.45381
G1 X165.22 Y169.212 E7.48443
G1 X164.4 Y169.631 E7.51506
G1 X163.547 Y169.977 E7.54568
G1 X162.667 Y170.248 E7.5763
G1 X161.767 Y170.441 E7.60692
G1 X160.853 Y170.556 E7.63756
G1 X160.288 Y170.587 E7.65638
G1 X159.67 Y170.6 E7.67693
G1 X140.57 Y170.599 E8.3122
G1 X139.872 Y170.59 E8.33542
G1 X138.953 Y170.538 E8.36604
G1 X138.042 Y170.407 E8.39665
G1 X137.146 Y170.197 E8.42726
G1 X136.271 Y169.91 E8.45788
G1 X135.424 Y169.548 E8.48852
G1 X134.612 Y169.114 E8.51914
G1 X133.841 Y168.612 E8.54974
G1 X133.116 Y168.044 E8.58038
G1 X132.443 Y167.415 E8.61101
G1 X131.828 Y166.731 E8.64161
G1 X131.274 Y165.996 E8.67222
G1 X130.786 Y165.215 E8.70285
G1 X130.367 Y164.395 E8.73348
G1 X130.021 Y163.542 E8.76409
G1 X129.751 Y162.662 E8.79471
G1 X129.558 Y161.761 E8.82536
G1 X129.444 Y160.848 E8.85596
G1 X129.413 Y160.277 E8.87498
G1 X129.4 Y159.658 E8.89557
G1 X129.401 Y140.531 E9.53174
G1 X129.41 Y139.866 E9.55386
G1 X129.462 Y138.946 E9.58451
G1 X129.594 Y138.035 E9.61512
G1 X129.805 Y137.139 E9.64574
G1 X130.092 Y136.264 E9.67637
G1 X130.455 Y135.418 E9.70699
G1 X130.889 Y134.606 E9.73761
G1 X131.392 Y133.835 E9.76823
G1 X131.961 Y133.111 E9.79885
G1 X132.589 Y132.439 E9.82945
G0 F6000 X132.981 Y132.617
G1 F1200 X133.662 Y132.024 E9.85948
G1 X134.394 Y131.494 E9.88954
G1 X135.169 Y131.031 E9.91956
G1 X135.982 Y130.638 E9.9496
G1 X136.827 Y130.318 E9.97965
G1 X137.696 Y130.075 E10.00966
G1 X138.584 Y129.909 E10.03971
G1 X139.723 Y129.813 E10.07773
G1 X140.33 Y129.8 E10.09792
G1 X159.293 Y129.8 E10.72863
G1 X160.137 Y129.811 E10.75671
G1 X161.039 Y129.864 E10.78676
G1 X161.932 Y129.996 E10.81678
G1 X162.81 Y130.207 E10.84682
G1 X163.666 Y130.495 E10.87686
G1 X164.493 Y130.857 E10.90688
G1 X165.285 Y131.292 E10.93694
G1 X166.036 Y131.794 E10.96698
G1 X166.739 Y132.361 E10.99702
G1 X167.389 Y132.988 E11.02706
G1 X167.981 Y133.67 E11.05709
G1 X168.511 Y134.401 E11.08713
G1 X168.973 Y135.177 E11.11716
G1 X169.366 Y135.99 E11.1472
G1 X169.684 Y136.835 E11.17723
G1 X169.927 Y137.705 E11.20727
G1 X170.092 Y138.593 E11.23731
G1 X170.187 Y139.723 E11.27503
G1 X170.2 Y140.33 E11.29522
G1 X170.199 Y159.39 E11.92916
G1 X170.19 Y160.117 E11.95334
G1 X170.139 Y161.019 E11.98339
G1 X170.008 Y161.913 E12.01344
G1 X169.799 Y162.791 E12.04346
G1 X169.513 Y163.648 E12.07351
G1 X169.152 Y164.476 E12.10355
G1 X168.72 Y165.268 E12.13356
G1 X168.219 Y166.02 E12.16361
G1 X167.653 Y166.724 E12.19366
G1 X167.028 Y167.375 E12.22367
G1 X166.347 Y167.969 E12.25373
G1 X165.616 Y168.5 E12.28378
G1 X164.842 Y168.964 E12.31379
G1 X164.029 Y169.358 E12.34384
G1 X163.185 Y169.678 E12.37386
G1 X162.315 Y169.923 E12.40393
G1 X161.428 Y170.089 E12.43394
G1 X160.277 Y170.187 E12.47236
G1 X159.67 Y170.2 E12.49255
G1 X140.575 Y170.199 E13.12766
G1 X139.877 Y170.19 E13.15087
G1 X138.976 Y170.139 E13.18089
G1 X138.082 Y170.007 E13.21095
G1 X137.204 Y169.798 E13.24096
G1 X136.347 Y169.511 E13.27102
G1 X135.52 Y169.15 E13.30104
G1 X134.727 Y168.717 E13.33109
G1 X133.976 Y168.216 E13.36111
G1 X133.272 Y167.65 E13.39116
G1 X132.621 Y167.024 E13.4212
G1 X132.028 Y166.343 E13.45123
G1 X131.498 Y165.612 E13.48126
G1 X131.034 Y164.837 E13.51131
G1 X130.64 Y164.024 E13.54135
G1 X130.32 Y163.18 E13.57138
G1 X130.076 Y162.31 E13.60143
G1 X129.91 Y161.422 E13.63148
G1 X129.813 Y160.267 E13.67003
G1 X129.8 Y159.658 E13.69029
G1 X129.801 Y140.536 E14.32629
G1 X129.81 Y139.871 E14.34841
G1 X129.862 Y138.969 E14.37846
G1 X129.994 Y138.076 E14.40848
G1 X130.204 Y137.198 E14.43851
G1 X130.491 Y136.341 E14.46857
G1 X130.853 Y135.514 E14.49859
G1 X131.286 Y134.722 E14.52861
G1 X131.788 Y133.971 E14.55866
G1 X132.355 Y133.267 E14.58872
G1 X132.981 Y132.617 E14.61874
G1 F2700 E8.61874
;MESH:hole_test_3.stl
G0 F6000 X144.937 Y144.977
G0 X150.276 Y152.608
;TYPE:WALL-INNER
G1 F2700 E14.61874
G1 F1200 X149.55 Y152.565 E14.64293
G1 X149.136 Y152.456 E14.65717
G1 X148.59 Y152.19 E14.67737
G1 X148.133 Y151.811 E14.69711
G1 X147.868 Y151.49 E14.71096
G1 X147.588 Y150.993 E14.72993
G1 X147.112 Y150.705 E14.74844
G1 X146.598 Y150.311 E14.76998
G1 X146.082 Y149.775 E14.79472
G1 X145.768 Y149.347 E14.81238
G1 X145.43 Y148.79 E14.83405
G1 X145.189 Y148.194 E14.85543
G1 X145.023 Y147.62 E14.8753
G1 X144.933 Y147.135 E14.89171
G1 X144.9 Y146.591 E14.90984
G1 X144.914 Y146.128 E14.92524
G1 X144.98 Y145.603 E14.94284
G1 X145.122 Y144.976 E14.96423
G1 X145.34 Y144.424 E14.98397
G1 X145.496 Y144.106 E14.99575
G1 X145.803 Y143.601 E15.0154
G1 X146.046 Y143.278 E15.02885
G1 X146.395 Y142.878 E15.0465
G1 X146.931 Y142.425 E15.06984
G1 X147.372 Y142.128 E15.08753
G1 X147.73 Y141.931 E15.10112
G1 X148.098 Y141.767 E15.11452
G1 X148.441 Y141.642 E15.12666
G1 X148.956 Y141.507 E15.14437
G1 X149.366 Y141.439 E15.15819
G1 X149.898 Y141.401 E15.17593
G1 X150.516 Y141.42 E15.1965
G1 X150.987 Y141.496 E15.21236
G1 X151.559 Y141.644 E15.23202
G1 X151.899 Y141.766 E15.24403
G1 X152.318 Y141.957 E15.25935
G1 X152.777 Y142.223 E15.27699
G1 X153.12 Y142.464 E15.29093
G1 X153.599 Y142.873 E15.31188
G1 X153.953 Y143.276 E15.32972
G1 X154.226 Y143.646 E15.34502
G1 X154.506 Y144.108 E15.36298
G1 X154.678 Y144.467 E15.37622
G1 X154.877 Y144.972 E15.39428
G1 X155.056 Y145.746 E15.4207
G1 X155.099 Y146.396 E15.44237
G1 X155.085 Y146.989 E15.4621
G1 X154.951 Y147.775 E15.48861
G1 X154.717 Y148.439 E15.51203
G1 X154.498 Y148.923 E15.5297
G1 X154.063 Y149.6 E15.55646
G1 X153.523 Y150.203 E15.58339
G1 X152.974 Y150.644 E15.60681
G1 X152.635 Y150.868 E15.62032
G1 X152.389 Y151.005 E15.62969
G1 X152.248 Y151.349 E15.64205
G1 X151.767 Y151.934 E15.66724
G1 X151.236 Y152.292 E15.68854
G1 X150.855 Y152.458 E15.70237
G1 X150.276 Y152.608 E15.72226
G0 F6000 X150.258 Y152.201
;TYPE:WALL-OUTER
G1 F1200 X149.594 Y152.163 E15.74438
G1 X149.292 Y152.083 E15.75477
G1 X148.791 Y151.837 E15.77333
G1 X148.413 Y151.525 E15.78964
G1 X148.193 Y151.256 E15.80119
G1 X147.983 Y150.882 E15.81546
G1 X147.93 Y150.736 E15.82063
G1 X147.343 Y150.378 E15.8435
G1 X146.851 Y149.998 E15.86417
G1 X146.404 Y149.537 E15.88553
G1 X146.11 Y149.139 E15.90199
G1 X145.783 Y148.595 E15.9231
G1 X145.553 Y148.024 E15.94357
G1 X145.421 Y147.566 E15.95942
G1 X145.327 Y147.066 E15.97635
G1 X145.3 Y146.553 E15.99343
G1 X145.311 Y146.176 E16.00598
G1 X145.37 Y145.691 E16.02223
G1 X145.503 Y145.105 E16.04221
G1 X145.699 Y144.6 E16.06023
G1 X145.855 Y144.282 E16.07201
G1 X146.123 Y143.841 E16.08917
G1 X146.348 Y143.541 E16.10165
G1 X146.689 Y143.153 E16.11883
G1 X147.156 Y142.756 E16.13921
G1 X147.566 Y142.478 E16.15569
G1 X147.894 Y142.296 E16.16817
G1 X148.235 Y142.143 E16.1806
G1 X148.578 Y142.018 E16.19274
G1 X149.074 Y141.891 E16.20977
G1 X149.448 Y141.832 E16.22236
G1 X149.925 Y141.8 E16.23826
G1 X150.452 Y141.815 E16.2558
G1 X150.942 Y141.895 E16.27231
G1 X151.424 Y142.021 E16.28888
G1 X151.779 Y142.149 E16.30143
G1 X152.102 Y142.295 E16.31322
G1 X152.549 Y142.552 E16.33037
G1 X152.86 Y142.768 E16.34297
G1 X153.327 Y143.169 E16.36344
G1 X153.653 Y143.54 E16.37987
G1 X153.885 Y143.855 E16.39288
G1 X154.146 Y144.282 E16.40952
G1 X154.306 Y144.614 E16.42178
G1 X154.496 Y145.102 E16.4392
G1 X154.66 Y145.822 E16.46376
G1 X154.7 Y146.422 E16.48376
G1 X154.684 Y146.962 E16.50173
G1 X154.557 Y147.689 E16.52627
G1 X154.353 Y148.274 E16.54688
G1 X154.138 Y148.745 E16.5641
G1 X153.753 Y149.344 E16.58778
G1 X153.233 Y149.923 E16.61367
G1 X152.752 Y150.311 E16.63422
G1 X152.44 Y150.518 E16.64667
G1 X152.071 Y150.724 E16.66073
G1 X151.893 Y151.153 E16.67618
G1 X151.507 Y151.622 E16.69638
G1 X151.027 Y151.946 E16.71564
G1 X150.71 Y152.082 E16.72712
G1 X150.258 Y152.201 E16.74266
G1 F2700 E10.74266
G0 F6000 X150.333 Y152.491
G0 X149.6 Y152.75
G0 X145.939 Y159.199
G0 X140.601 Y159.399
;TYPE:WALL-INNER
G1 F2700 E16.74266
G1 F1200 X159.4 Y159.4 E17.36792
G1 X159.4 Y140.6 E17.99321
G1 X147.892 Y140.6 E18.37597
G1 X140.601 Y140.601 E18.61847
G1 X140.601 Y159.399 E19.24369
G0 F6000 X140.201 Y159.799
;TYPE:WALL-OUTER
G1 F1200 X159.8 Y159.8 E19.89556
G1 X159.8 Y140.2 E20.54745
G1 X147.892 Y140.2 E20.94352
G1 X140.201 Y140.201 E21.19932
G1 X140.201 Y159.799 E21.85115
G0 F6000 X140.47 Y159.53
G0 X140.701 Y159.038
G0 X140.962 Y159.038
;TYPE:SKIN
G1 F1200 X159.04 Y159.04 E22.45243
G1 X159.04 Y143.14 E22.98127
G1 X159.04 Y140.96 E23.05377
G1 X151.639 Y140.961 E23.29993
G1 F960 X151.159 Y141.061 E23.32032
G1 X151.598 Y141.28 E23.34071
G1 F1200 X152.095 Y141.456 E23.35825
G1 X152.414 Y141.6 E23.36989
G1 X152.983 Y141.927 E23.39172
G1 X153.35 Y142.186 E23.40666
G1 X153.838 Y142.603 E23.42801
G1 X154.235 Y143.049 E23.44787
G1 X154.496 Y143.401 E23.46244
G1 X154.831 Y143.95 E23.48383
G1 X155.008 Y144.321 E23.4975
G1 X155.224 Y144.871 E23.51716
G1 X155.415 Y145.705 E23.54561
G1 X155.46 Y146.382 E23.56818
G1 X155.443 Y147.037 E23.58997
G1 X155.305 Y147.845 E23.61724
G1 X155.046 Y148.59 E23.64347
G1 X154.835 Y149.053 E23.66039
G1 X154.343 Y149.827 E23.6909
G1 X153.783 Y150.455 E23.71888
G1 X153.194 Y150.931 E23.74407
G1 X152.865 Y151.15 E23.75722
G1 X152.677 Y151.258 E23.76443
G1 X152.567 Y151.529 E23.77415
G1 X152.011 Y152.206 E23.80329
G1 X151.399 Y152.613 E23.82774
G1 X150.981 Y152.796 E23.84291
G1 X150.336 Y152.965 E23.86509
G1 X149.478 Y152.919 E23.89367
G1 X148.989 Y152.785 E23.91053
G1 X148.397 Y152.497 E23.93243
G1 X147.857 Y152.051 E23.95572
G1 X147.553 Y151.675 E23.97181
G1 X147.321 Y151.256 E23.98774
G1 X146.852 Y150.963 E24.00613
G1 X146.335 Y150.559 E24.02795
G1 X145.791 Y149.989 E24.05416
G1 X145.457 Y149.531 E24.07301
G1 X145.106 Y148.947 E24.09567
G1 X144.842 Y148.296 E24.11904
G1 X144.669 Y147.691 E24.13997
G1 X144.57 Y147.153 E24.15816
G1 X144.54 Y146.595 E24.17675
G1 X144.556 Y146.084 E24.19375
G1 X144.626 Y145.535 E24.21216
G1 X144.76 Y144.941 E24.23241
G1 X144.99 Y144.319 E24.25447
G1 X145.181 Y143.929 E24.26891
G1 X145.503 Y143.4 E24.28951
G1 X145.738 Y143.087 E24.30253
G1 X146.14 Y142.621 E24.323
G1 X146.659 Y142.179 E24.34567
G1 X147.183 Y141.821 E24.36678
G1 X147.522 Y141.632 E24.37969
G1 X147.921 Y141.451 E24.39426
G1 X148.335 Y141.295 E24.40898
G1 F979.6 X148.924 Y141.051 E24.43495
G1 X148.293 Y140.961 E24.46092
G1 F1200 X140.962 Y140.961 E24.70475
G1 X140.962 Y159.038 E25.306
G1 F2700 E19.306
G0 F6000 X140.701 Y159.038
G0 X140.773 Y140.773
G0 X148.858 Y140.762
G0 X148.971 Y141.319
G0 X148.924 Y141.051
G1 F2700 E25.306
G1 F874.3 X149.321 Y141.021 E25.32417
G1 F961.9 X149.894 Y141.001 E25.34796
G1 F985.6 X150.509 Y141.007 E25.37286
G1 F877.5 X151.159 Y141.061 E25.40253
G0 F6000 X151.158 Y140.701
G0 X158.697 Y140.7
G0 X158.697 Y141.161
G1 F1200 X158.839 Y141.303 E25.40921
G0 F6000 X158.839 Y141.868
G1 F1200 X158.131 Y141.161 E25.44249
G0 F6000 X157.566 Y141.161
G1 F1200 X158.839 Y142.434 E25.50237
G0 F6000 X158.839 Y143
G1 F1200 X157 Y141.161 E25.58887
G0 F6000 X156.434 Y141.161
G1 F1200 X158.839 Y143.566 E25.70199
G0 F6000 X158.839 Y144.131
G1 F1200 X155.868 Y141.161 E25.84171
G0 F6000 X155.303 Y141.161
G1 F1200 X158.839 Y144.697 E26.00804
G0 F6000 X158.839 Y145.263
G1 F1200 X154.738 Y141.161 E26.20096
G0 F6000 X154.172 Y141.161
G1 F1200 X158.839 Y145.828 E26.42048
G0 F6000 X158.839 Y146.394
G1 F1200 X153.606 Y141.161 E26.66662
G0 F6000 X153.041 Y141.161
G1 F1200 X158.839 Y146.96 E26.93937
G0 F6000 X158.839 Y147.525
