;FLAVOR:Marlin
;TIME:1220
;Filament used: 0.940218m
;Layer height: 0.2
;MINX:124
;MINY:129
;MINZ:0.2
;MAXX:176
;MAXY:171
;MAXZ:10
;Generated with Cura_SteamEngine 5.2.1
M140 S60
M105
M190 S60
M104 S210
M105
M109 S210
M82 ;absolute extrusion mode
M201 X500.00 Y500.00 Z100.00 E5000.00 ;Setup machine max acceleration
M203 X500.00 Y500.00 Z10.00 E50.00 ;Setup machine max feedrate
M204 P500.00 R1000.00 T500.00 ;Setup Print/Retract/Travel acceleration
M205 X8.00 Y8.00 Z0.40 E5.00 ;Setup Jerk
M220 S100 ;Reset Feedrate
M221 S100 ;Reset Flowrate

G28 ;Home
G29 ;Auto bed Level

G92 E0 ;Reset Extruder
G1 Z2.0 F3000 ;Move Z Axis up
G1 X10.1 Y20 Z0.28 F5000.0 ;Move to start position
G1 X10.1 Y200.0 Z0.28 F1500.0 E15 ;Draw the first line
G1 X10.4 Y200.0 Z0.28 F5000.0 ;Move to side a little
G1 X10.4 Y20 Z0.28 F1500.0 E30 ;Draw the second line
G92 E0 ;Reset Extruder
G1 Z2.0 F3000 ;Move Z Axis up

G92 E0
G92 E0
G1 F2700 E-6
;LAYER_COUNT:50
;LAYER:0
M107
G0 F6000 X127.198 Y132.264 Z0.2
;TYPE:SKIRT
G1 F2700 E0
G1 F1200 X127.886 Y131.627 E0.03119
G1 X128.626 Y131.051 E0.06237
G1 X129.412 Y130.539 E0.09357
G1 X130.239 Y130.097 E0.12476
G1 X131.101 Y129.727 E0.15596
G1 X131.991 Y129.431 E0.18716
G1 X132.903 Y129.213 E0.21835
G1 X133.83 Y129.072 E0.24953
G1 X134.701 Y129.013 E0.27857
G1 X135.33 Y129 E0.29949
G1 X164.451 Y129.001 E1.26806
G1 X165.149 Y129.011 E1.29128
G1 X166.085 Y129.065 E1.32246
G1 X167.013 Y129.197 E1.35364
G1 X167.927 Y129.409 E1.38485
G1 X168.819 Y129.698 E1.41603
G1 X169.684 Y130.061 E1.44723
G1 X170.514 Y130.497 E1.47842
G1 X171.305 Y131.002 E1.50963
G1 X172.049 Y131.573 E1.54082
G1 X172.742 Y132.205 E1.57202
G1 X173.379 Y132.893 E1.6032
G1 X173.954 Y133.634 E1.6344
G1 X174.465 Y134.42 E1.66558
G1 X174.907 Y135.248 E1.6968
G1 X175.276 Y136.11 E1.72798
G1 X175.571 Y137 E1.75917
G1 X175.789 Y137.912 E1.79036
G1 X175.929 Y138.84 E1.82157
G1 X175.987 Y139.701 E1.85027
G1 X176 Y140.33 E1.8712
G1 X175.999 Y159.4 E2.50547
G1 X175.99 Y160.127 E2.52965
G1 X175.939 Y161.064 E2.56086
G1 X175.807 Y161.992 E2.59204
G1 X175.598 Y162.906 E2.62322
G1 X175.311 Y163.799 E2.65442
G1 X174.949 Y164.665 E2.68564
G1 X174.515 Y165.496 E2.71682
G1 X174.011 Y166.287 E2.74802
G1 X173.442 Y167.032 E2.7792
G1 X172.811 Y167.727 E2.81042
G1 X172.124 Y168.365 E2.8416
G1 X171.385 Y168.942 E2.87278
G1 X170.599 Y169.454 E2.90398
G1 X169.773 Y169.897 E2.93516
G1 X168.911 Y170.269 E2.96638
G1 X168.022 Y170.565 E2.99755
G1 X167.11 Y170.785 E3.02875
G1 X166.183 Y170.926 E3.05994
G1 X165.299 Y170.987 E3.08941
G1 X164.67 Y171 E3.11034
G1 X135.565 Y170.999 E4.07837
G1 X134.867 Y170.99 E4.10159
G1 X133.931 Y170.938 E4.13277
G1 X133.002 Y170.806 E4.16398
G1 X132.088 Y170.596 E4.19517
G1 X131.195 Y170.309 E4.22637
G1 X130.33 Y169.946 E4.25757
G1 X129.499 Y169.512 E4.28875
G1 X128.708 Y169.008 E4.31995
G1 X127.963 Y168.438 E4.35114
G1 X127.269 Y167.807 E4.38234
G1 X126.632 Y167.12 E4.4135
G1 X126.055 Y166.38 E4.44471
G1 X125.543 Y165.594 E4.47591
G1 X125.1 Y164.767 E4.50712
G1 X124.729 Y163.906 E4.5383
G1 X124.433 Y163.016 E4.56949
G1 X124.214 Y162.104 E4.60069
G1 X124.073 Y161.177 E4.63188
G1 X124.013 Y160.288 E4.66151
G1 X124 Y159.658 E4.68247
G1 X124.001 Y140.525 E5.31884
G1 X124.01 Y139.86 E5.34096
G1 X124.063 Y138.924 E5.37214
G1 X124.195 Y137.995 E5.40335
G1 X124.406 Y137.081 E5.43455
G1 X124.694 Y136.189 E5.46572
G1 X125.057 Y135.324 E5.49692
G1 X125.492 Y134.493 E5.52812
G1 X125.996 Y133.703 E5.55929
G1 X126.566 Y132.958 E5.59049
G1 X127.198 Y132.264 E5.62171
G0 F6000 X127.589 Y132.439
G1 F1200 X128.274 Y131.823 E5.65235
G1 X129.01 Y131.27 E5.68297
G1 X129.791 Y130.782 E5.7136
G1 X130.611 Y130.364 E5.74421
G1 X131.465 Y130.019 E5.77484
G1 X132.345 Y129.749 E5.80546
G1 X133.245 Y129.557 E5.83607
G1 X134.159 Y129.443 E5.8667
G1 X134.712 Y129.413 E5.88512
G1 X135.33 Y129.4 E5.90568
G1 X164.293 Y129.4 E6.86899
G1 X165.143 Y129.411 E6.89727
G1 X166.062 Y129.464 E6.92788
G1 X166.973 Y129.597 E6.95851
G1 X167.869 Y129.808 E6.98912
G1 X168.743 Y130.096 E7.01973
G1 X169.59 Y130.459 E7.05038
G1 X170.401 Y130.894 E7.08099
G1 X171.171 Y131.398 E7.1116
G1 X171.895 Y131.967 E7.14222
G1 X172.567 Y132.597 E7.17286
G1 X173.182 Y133.282 E7.20348
G1 X173.735 Y134.018 E7.2341
G1 X174.222 Y134.799 E7.26471
G1 X174.639 Y135.62 E7.29534
G1 X174.984 Y136.474 E7.32597
G1 X175.253 Y137.354 E7.35658
G1 X175.445 Y138.255 E7.38722
G1 X175.558 Y139.168 E7.41782
G1 X175.587 Y139.712 E7.43594
G1 X175.6 Y140.33 E7.45649
G1 X175.599 Y159.395 E8.0906
G1 X175.59 Y160.122 E8.11478
G1 X175.539 Y161.041 E8.14539
G1 X175.408 Y161.953 E8.17604
G1 X175.198 Y162.849 E8.20665
G1 X174.912 Y163.724 E8.23727
G1 X174.551 Y164.571 E8.26789
G1 X174.117 Y165.383 E8.29851
G1 X173.615 Y166.155 E8.32914
G1 X173.047 Y166.88 E8.35977
G1 X172.419 Y167.553 E8.39039
G1 X171.735 Y168.169 E8.421
G1 X171 Y168.723 E8.45162
G1 X170.22 Y169.212 E8.48224
G1 X169.4 Y169.631 E8.51286
G1 X168.547 Y169.977 E8.54348
G1 X167.667 Y170.248 E8.5741
G1 X166.767 Y170.441 E8.60472
G1 X165.853 Y170.556 E8.63536
G1 X165.288 Y170.587 E8.65418
G1 X164.67 Y170.6 E8.67474
G1 X135.57 Y170.599 E9.64261
G1 X134.872 Y170.59 E9.66583
G1 X133.953 Y170.538 E9.69644
G1 X133.042 Y170.407 E9.72705
G1 X132.146 Y170.197 E9.75766
G1 X131.271 Y169.91 E9.78829
G1 X130.424 Y169.548 E9.81893
G1 X129.612 Y169.114 E9.84955
G1 X128.841 Y168.612 E9.88015
G1 X128.116 Y168.044 E9.91078
G1 X127.443 Y167.415 E9.94142
G1 X126.828 Y166.731 E9.97201
G1 X126.274 Y165.996 E10.00263
G1 X125.786 Y165.215 E10.03326
G1 X125.367 Y164.395 E10.06388
G1 X125.021 Y163.542 E10.0945
G1 X124.751 Y162.662 E10.12512
G1 X124.558 Y161.761 E10.15576
G1 X124.444 Y160.848 E10.18637
G1 X124.413 Y160.277 E10.20538
G1 X124.4 Y159.658 E10.22598
G1 X124.401 Y140.531 E10.86214
G1 X124.41 Y139.866 E10.88426
G1 X124.462 Y138.946 E10.91491
G1 X124.594 Y138.035 E10.94553
G1 X124.805 Y137.139 E10.97614
G1 X125.092 Y136.264 E11.00677
G1 X125.455 Y135.418 E11.03739
G1 X125.889 Y134.606 E11.06801
G1 X126.392 Y133.835 E11.09863
G1 X126.961 Y133.111 E11.12926
G1 X127.589 Y132.439 E11.15985
G0 F6000 X127.981 Y132.617
G1 F1200 X128.662 Y132.024 E11.18989
G1 X129.394 Y131.494 E11.21994
G1 X130.169 Y131.031 E11.24997
G1 X130.982 Y130.638 E11.28
G1 X131.827 Y130.318 E11.31006
G1 X132.696 Y130.075 E11.34007
G1 X133.584 Y129.909 E11.37011
G1 X134.723 Y129.813 E11.40813
G1 X135.33 Y129.8 E11.42833
G1 X164.293 Y129.8 E12.39164
G1 X165.137 Y129.811 E12.41971
G1 X166.039 Y129.864 E12.44977
G1 X166.932 Y129.996 E12.47979
G1 X167.81 Y130.207 E12.50982
G1 X168.666 Y130.495 E12.53986
G1 X169.493 Y130.857 E12.56989
G1 X170.285 Y131.292 E12.59994
G1 X171.036 Y131.794 E12.62999
G1 X171.739 Y132.361 E12.66003
G1 X172.389 Y132.988 E12.69006
G1 X172.981 Y133.67 E12.7201
G1 X173.511 Y134.401 E12.75013
G1 X173.973 Y135.177 E12.78017
G1 X174.366 Y135.99 E12.8102
G1 X174.684 Y136.835 E12.84023
G1 X174.927 Y137.705 E12.87028
G1 X175.092 Y138.593 E12.90032
G1 X175.187 Y139.723 E12.93803
G1 X175.2 Y140.33 E12.95823
G1 X175.199 Y159.39 E13.59217
G1 X175.19 Y160.117 E13.61635
G1 X175.139 Y161.019 E13.6464
G1 X175.008 Y161.913 E13.67645
G1 X174.799 Y162.791 E13.70647
G1 X174.513 Y163.648 E13.73652
G1 X174.152 Y164.476 E13.76656
G1 X173.72 Y165.268 E13.79657
G1 X173.219 Y166.02 E13.82662
G1 X172.653 Y166.724 E13.85666
G1 X172.028 Y167.375 E13.88668
G1 X171.347 Y167.969 E13.91674
G1 X170.616 Y168.5 E13.94679
G1 X169.842 Y168.964 E13.9768
G1 X169.029 Y169.358 E14.00685
G1 X168.185 Y169.678 E14.03687
G1 X167.315 Y169.923 E14.06693
G1 X166.428 Y170.089 E14.09695
G1 X165.277 Y170.187 E14.13537
G1 X164.67 Y170.2 E14.15556
G1 X135.575 Y170.199 E15.12326
G1 X134.877 Y170.19 E15.14648
G1 X133.976 Y170.139 E15.1765
G1 X133.082 Y170.007 E15.20655
G1 X132.204 Y169.798 E15.23657
G1 X131.347 Y169.511 E15.26663
G1 X130.52 Y169.15 E15.29665
G1 X129.727 Y168.717 E15.3267
G1 X128.976 Y168.216 E15.35672
G1 X128.272 Y167.65 E15.38677
G1 X127.621 Y167.024 E15.41681
G1 X127.028 Y166.343 E15.44684
G1 X126.498 Y165.612 E15.47687
G1 X126.034 Y164.837 E15.50691
G1 X125.64 Y164.024 E15.53696
G1 X125.32 Y163.18 E15.56698
G1 X125.076 Y162.31 E15.59704
G1 X124.91 Y161.422 E15.62708
G1 X124.813 Y160.267 E15.66563
G1 X124.8 Y159.658 E15.68589
G1 X124.801 Y140.536 E16.32189
G1 X124.81 Y139.871 E16.34401
G1 X124.862 Y138.969 E16.37406
G1 X124.994 Y138.076 E16.40409
G1 X125.204 Y137.198 E16.43412
G1 X125.491 Y136.341 E16.46417
G1 X125.853 Y135.514 E16.4942
G1 X126.286 Y134.722 E16.52422
G1 X126.788 Y133.971 E16.55427
G1 X127.355 Y133.267 E16.58433
G1 X127.981 Y132.617 E16.61435
G1 F2700 E10.61435
;MESH:hole_test.stl
G0 F6000 X135.414 Y139.335
G0 X135.6 Y159.4
;TYPE:WALL-INNER
G1 F2700 E16.61435
G1 F1200 X164.4 Y159.4 E17.57224
G1 X164.4 Y143.091 E18.11468
G1 X164.4 Y140.6 E18.19753
G1 X135.6 Y140.6 E19.15542
G1 X135.6 Y159.4 E19.78071
G0 F6000 X135.2 Y159.8
;TYPE:WALL-OUTER
G1 F1200 X164.8 Y159.8 E20.76521
G1 X164.8 Y143.091 E21.32096
G1 X164.8 Y140.2 E21.41711
G1 X135.2 Y140.2 E22.40161
G1 X135.2 Y159.8 E23.05351
G1 F2700 E17.05351
G0 F6000 X135.47 Y159.53
G0 X156.053 Y159.58
G0 X156.053 Y156.78
G0 X156.053 Y156.6
;TYPE:WALL-INNER
G1 F2700 E23.05351
G1 F1200 X155.679 Y156.593 E23.06595
G1 X155.091 Y156.538 E23.08559
G1 X154.739 Y156.479 E23.09746
G1 X154.357 Y156.394 E23.11048
G1 X154.03 Y156.299 E23.12181
G1 X153.517 Y156.115 E23.13993
G1 X153.17 Y155.964 E23.15252
G1 X152.807 Y155.776 E23.16612
G1 X152.516 Y155.606 E23.17733
G1 X152.206 Y155.402 E23.18967
G1 X151.903 Y155.175 E23.20226
G1 X151.621 Y154.94 E23.21447
G1 X151.324 Y154.659 E23.22807
G1 X151.065 Y154.383 E23.24066
G1 X150.743 Y153.992 E23.2575
G1 X150.522 Y153.683 E23.27014
G1 X150.226 Y153.2 E23.28898
G1 X150.046 Y152.847 E23.30216
G1 X149.895 Y152.508 E23.3145
G1 X149.744 Y152.098 E23.32904
G1 X149.619 Y152.086 E23.33321
G1 X149.043 Y151.873 E23.35364
G1 X148.682 Y151.642 E23.36789
G1 X148.387 Y151.349 E23.38172
G1 X148.149 Y150.996 E23.39588
G1 X147.911 Y150.387 E23.41763
G1 X147.911 Y149.773 E23.43805
G1 X148.061 Y149.184 E23.45827
G1 X148.263 Y148.819 E23.47214
G1 X148.661 Y148.354 E23.4925
G1 X149.258 Y148.013 E23.51537
G1 X149.738 Y147.919 E23.53163
G1 X149.905 Y147.468 E23.54763
G1 X150.057 Y147.128 E23.56002
G1 X150.225 Y146.803 E23.57219
G1 X150.517 Y146.325 E23.59082
G1 X150.712 Y146.048 E23.60208
G1 X151.093 Y145.584 E23.62205
G1 X151.349 Y145.316 E23.63438
G1 X151.617 Y145.065 E23.64659
G1 X151.905 Y144.821 E23.65914
G1 X152.203 Y144.6 E23.67148
G1 X152.483 Y144.413 E23.68268
G1 X152.836 Y144.207 E23.69628
G1 X153.139 Y144.052 E23.7076
G1 X153.476 Y143.902 E23.71987
G1 X153.982 Y143.713 E23.73783
G1 X154.392 Y143.597 E23.752
G1 X154.762 Y143.514 E23.76462
G1 X155.133 Y143.457 E23.7771
G1 X155.638 Y143.41 E23.79397
G1 X156.062 Y143.4 E23.80807
G1 X156.566 Y143.424 E23.82486
G1 X157.121 Y143.495 E23.84347
G1 X157.53 Y143.58 E23.85736
G1 X157.882 Y143.675 E23.86949
G1 X158.239 Y143.791 E23.88197
G1 X158.587 Y143.927 E23.8944
G1 X158.932 Y144.086 E23.90703
G1 X159.379 Y144.331 E23.92399
G1 X159.726 Y144.552 E23.93767
G1 X160 Y144.749 E23.9489
G1 X160.299 Y144.992 E23.96171
G1 X160.593 Y145.258 E23.9749
G1 X160.848 Y145.522 E23.9871
G1 X161.1 Y145.807 E23.99976
G1 X161.311 Y146.079 E24.01121
G1 X161.534 Y146.404 E24.02432
G1 X161.706 Y146.682 E24.03519
G1 X161.889 Y147.017 E24.04789
G1 X162.049 Y147.359 E24.06044
G1 X162.205 Y147.748 E24.07438
G1 X162.31 Y148.058 E24.08527
G1 X162.452 Y148.601 E24.10394
G1 X162.524 Y148.995 E24.11726
G1 X162.57 Y149.363 E24.12959
G1 X162.596 Y149.743 E24.14226
G1 X162.596 Y150.254 E24.15926
G1 X162.57 Y150.633 E24.17189
G1 X162.52 Y151.031 E24.18524
G1 X162.457 Y151.372 E24.19677
G1 X162.319 Y151.904 E24.21505
G1 X162.191 Y152.287 E24.22848
G1 X161.966 Y152.825 E24.24788
G1 X161.713 Y153.305 E24.26592
G1 X161.514 Y153.627 E24.27851
G1 X161.218 Y154.042 E24.29547
G1 X160.955 Y154.363 E24.30927
G1 X160.695 Y154.64 E24.32191
G1 X160.291 Y155.016 E24.34026
G1 X160.003 Y155.247 E24.35254
G1 X159.701 Y155.465 E24.36493
G1 X159.414 Y155.649 E24.37627
G1 X158.896 Y155.932 E24.3959
G1 X158.558 Y156.085 E24.40824
G1 X158.229 Y156.215 E24.42001
G1 X157.884 Y156.327 E24.43207
G1 X157.342 Y156.464 E24.45066
G1 X156.976 Y156.528 E24.46302
G1 X156.432 Y156.587 E24.48122
G1 X156.053 Y156.6 E24.49384
G0 F6000 X156.028 Y156.2
;TYPE:WALL-OUTER
G1 F1200 X155.675 Y156.192 E24.50558
G1 X155.156 Y156.143 E24.52292
G1 X154.825 Y156.088 E24.53408
G1 X154.469 Y156.01 E24.5462
G1 X154.13 Y155.911 E24.55795
G1 X153.653 Y155.739 E24.57481
G1 X153.32 Y155.592 E24.58692
G1 X153.009 Y155.43 E24.59858
G1 X152.708 Y155.254 E24.61018
G1 X152.416 Y155.061 E24.62182
G1 X152.137 Y154.85 E24.63345
G1 X151.868 Y154.625 E24.64512
G1 X151.615 Y154.385 E24.65672
G1 X151.374 Y154.129 E24.66841
G1 X151.043 Y153.726 E24.68576
G1 X150.841 Y153.44 E24.6974
G1 X150.569 Y152.994 E24.71478
G1 X150.411 Y152.683 E24.72638
G1 X150.269 Y152.366 E24.73793
G1 X150.146 Y152.039 E24.74955
G1 X150.036 Y151.693 E24.76163
G1 X149.74 Y151.698 E24.77147
G1 X149.224 Y151.514 E24.78969
G1 X148.953 Y151.341 E24.80039
G1 X148.709 Y151.105 E24.81168
G1 X148.503 Y150.81 E24.82365
G1 X148.309 Y150.308 E24.84155
G1 X148.309 Y149.814 E24.85798
G1 X148.429 Y149.351 E24.87388
G1 X148.606 Y149.028 E24.88613
G1 X148.918 Y148.669 E24.90195
G1 X149.407 Y148.388 E24.92071
G1 X149.849 Y148.306 E24.93566
G1 X150.035 Y148.306 E24.94185
G1 X150.147 Y147.956 E24.95407
G1 X150.271 Y147.63 E24.96567
G1 X150.413 Y147.311 E24.97729
G1 X150.575 Y146.998 E24.98901
G1 X150.844 Y146.555 E25.00625
G1 X151.048 Y146.267 E25.01799
G1 X151.383 Y145.86 E25.03552
G1 X151.623 Y145.608 E25.04709
G1 X151.877 Y145.369 E25.05869
G1 X152.144 Y145.142 E25.07035
G1 X152.425 Y144.933 E25.082
G1 X152.705 Y144.746 E25.0932
G1 X153.018 Y144.563 E25.10526
G1 X153.331 Y144.404 E25.11693
G1 X153.65 Y144.263 E25.12853
G1 X154.136 Y144.084 E25.14576
G1 X154.48 Y143.987 E25.15765
G1 X154.834 Y143.908 E25.16971
G1 X155.17 Y143.855 E25.18102
G1 X155.675 Y143.808 E25.19789
G1 X156.043 Y143.8 E25.21013
G1 X156.564 Y143.825 E25.22748
G1 X157.068 Y143.892 E25.24439
G1 X157.426 Y143.966 E25.25655
G1 X157.76 Y144.056 E25.26806
G1 X158.094 Y144.164 E25.27973
G1 X158.421 Y144.291 E25.2914
G1 X158.74 Y144.437 E25.30307
G1 X159.198 Y144.689 E25.32046
G1 X159.492 Y144.877 E25.33206
G1 X159.776 Y145.082 E25.34371
G1 X160.045 Y145.302 E25.35527
G1 X160.306 Y145.537 E25.36695
G1 X160.549 Y145.788 E25.37857
G1 X160.784 Y146.052 E25.39033
G1 X161.001 Y146.333 E25.40214
G1 X161.194 Y146.614 E25.41347
G1 X161.37 Y146.901 E25.42467
G1 X161.543 Y147.219 E25.43671
G1 X161.69 Y147.537 E25.44836
G1 X161.826 Y147.876 E25.46051
G1 X161.935 Y148.201 E25.47191
G1 X162.067 Y148.715 E25.48956
G1 X162.127 Y149.046 E25.50075
G1 X162.171 Y149.391 E25.51232
G1 X162.196 Y149.743 E25.52406
G1 X162.195 Y150.269 E25.54155
G1 X162.17 Y150.616 E25.55312
G1 X162.125 Y150.964 E25.56479
G1 X162.06 Y151.313 E25.5766
G1 X161.928 Y151.816 E25.5939
G1 X161.821 Y152.135 E25.60509
G1 X161.612 Y152.639 E25.62324
G1 X161.372 Y153.096 E25.6404
G1 X161.188 Y153.395 E25.65208
G1 X160.884 Y153.819 E25.66943
G1 X160.661 Y154.091 E25.68113
G1 X160.422 Y154.348 E25.69281
G1 X160.04 Y154.704 E25.71017
G1 X159.768 Y154.923 E25.72179
G1 X159.485 Y155.128 E25.73341
G1 X159.186 Y155.319 E25.74521
G1 X158.73 Y155.568 E25.76249
G1 X158.411 Y155.713 E25.77415
G1 X158.07 Y155.847 E25.78633
G1 X157.762 Y155.946 E25.79709
G1 X157.23 Y156.079 E25.81533
G1 X156.908 Y156.134 E25.8262
G1 X156.39 Y156.189 E25.84352
G1 X156.028 Y156.2 E25.85557
G0 F6000 X155.66 Y156.953
;TYPE:SKIN
G1 F1200 X155.03 Y156.893 E25.87662
G1 X154.701 Y156.839 E25.88771
G1 X154.254 Y156.74 E25.90293
G1 X153.922 Y156.643 E25.91444
G1 X153.383 Y156.448 E25.9335
G1 X153.013 Y156.289 E25.9469
G1 X152.655 Y156.105 E25.96028
G1 X152.323 Y155.911 E25.97307
G1 X151.955 Y155.668 E25.98774
G1 X151.681 Y155.459 E25.9992
G1 X151.389 Y155.217 E26.01182
G1 X151.091 Y154.937 E26.02542
G1 X150.82 Y154.651 E26.03852
G1 X150.455 Y154.209 E26.05759
G1 X150.192 Y153.837 E26.07274
G1 X149.893 Y153.345 E26.09189
G1 X149.732 Y153.028 E26.10371
