; HEADER_BLOCK_START
; generated by OrcaSlicer 1.9.0 on 2024-02-06 at 22:05:17
; total layer number: 45
; filament_density: 1.24
; filament_diameter: 1.75
; max_z_height: 9.00
; HEADER_BLOCK_END

; THUMBNAIL_BLOCK_START

;
; THUMBNAIL_BLOCK_END

; THUMBNAIL_BLOCK_START

;
; THUMBNAIL_BLOCK_END

; external perimeters extrusion width = 0.42mm
; perimeters extrusion width = 0.45mm
; infill extrusion width = 0.45mm
; solid infill extrusion width = 0.42mm
; top infill extrusion width = 0.42mm
; first layer extrusion width = 0.50mm

; EXECUTABLE_BLOCK_START
EXCLUDE_OBJECT_DEFINE NAME=frame_left_top.stl_id_0_copy_0 CENTER=150,150 POLYGON=[[1,285.8],[284,5],[299,5],[299,295],[9,295],[1,292.8],[1,285.8]]
M73 P0 R78
M106 S0
M106 P2 S0
;TYPE:Custom
M140 S0
M104 S0 
START_PRINT EXTRUDER_TEMP=220 BED_TEMP=60
G90
G21
M83 ; use relative distances for extrusion
; filament start gcode
M106 S0
M106 P2 S0
;LAYER_CHANGE
;Z:0.2
;HEIGHT:0.2
;BEFORE_LAYER_CHANGE
;0.2
G92 E0

G1 E-.5 F2400
;_SET_FAN_SPEED_CHANGING_LAYER
SET_VELOCITY_LIMIT ACCEL=500 ACCEL_TO_DECEL=250
SET_VELOCITY_LIMIT SQUARE_CORNER_VELOCITY=9
EXCLUDE_OBJECT_START NAME=frame_left_top.stl_id_0_copy_0
G1 Z.2 F30000
G1 X297.418 Y14.165
G1 Z.2
G1 E.5 F2400
;TYPE:Inner wall
;WIDTH:0.499999
G1 F3000
G1 X297.506 Y14.097 E.00413
G1 X297.702 Y13.606 E.01969
G1 X297.686 Y14.157 E.02053
G1 X297.686 Y293.686 E10.41138
G1 X290.428 Y293.688 E.27031
G1 X290.059 Y293.701 E.01378
;WIDTH:0.474296
G1 X289.689 Y293.714 E.013
;WIDTH:0.474971
G1 X289.888 Y293.674 E.00714
;WIDTH:0.499999
G1 X290.623 Y293.386 E.02941
G1 X291.163 Y293.006 E.0246
G1 X291.63 Y292.508 E.02543
G1 X292.043 Y291.798 E.0306
G1 X292.266 Y291.039 E.02944
G1 X292.305 Y290.358 E.02542
G1 X292.169 Y289.548 E.0306
G1 X291.854 Y288.823 E.02945
G1 X291.448 Y288.274 E.02543
G2 X290.826 Y287.741 I-2.463 J2.243 E.0306
G1 X290.266 Y287.437 E.02372
G1 X289.762 Y287.291 E.01954
G1 X289.05 Y286.549 E.03828
G1 X288.393 Y286.047 E.03082
G1 X287.729 Y285.678 E.02829
G1 X286.985 Y285.4 E.02959
G1 X286.207 Y285.236 E.0296
G1 X285.411 Y285.189 E.0297
G1 X284.616 Y285.263 E.02973
G1 X283.853 Y285.45 E.02925
G1 X283.119 Y285.752 E.02957
G1 X282.438 Y286.16 E.02957
G1 X281.825 Y286.665 E.02957
G1 X281.295 Y287.255 E.02957
G1 X280.858 Y287.918 E.02957
G1 X280.525 Y288.639 E.02957
G1 X280.303 Y289.401 E.02957
G1 X280.197 Y290.188 E.02957
G1 X280.21 Y290.982 E.02957
G1 X280.341 Y291.765 E.02957
G1 X280.587 Y292.52 E.02957
G1 X280.943 Y293.23 E.02958
G1 X281.257 Y293.689 E.0207
G1 X10.314 Y293.686 E10.09156
M73 P0 R77
G1 X10.314 Y291.606 E.07748
G2 X10.21 Y291.129 I-1.143 J0 E.01831
G1 X9.99 Y290.809 E.01448
G1 X9.641 Y290.564 E.01587
G2 X9.03 Y290.472 I-.47 J1.042 E.02333
G1 X2.314 Y291.311 E.25208
G1 X2.314 Y287.289 E.14983
G1 X9.03 Y288.128 E.25208
G2 X10.081 Y287.686 I.142 J-1.134 E.04448
G1 X10.264 Y287.33 E.01489
G1 X10.314 Y286.994 E.01265
G1 X10.314 Y281.314 E.21156
G1 X284.171 Y281.314 E10.20013
G1 X284.562 Y281.245 E.01478
G1 X284.893 Y281.057 E.01418
G1 X285.128 Y280.797 E.01305
G1 X285.261 Y280.515 E.01164
G1 X285.314 Y280.171 E.01294
G1 X285.314 Y6.314 E10.20013
G1 X288.866 Y6.314 E.13229
G1 X288.866 Y13.411 E.26435
G1 X288.883 Y13.609 E.00738
G1 X289.038 Y14.015 E.0162
G2 X289.638 Y14.492 I1.061 J-.717 E.02899
G1 X290.009 Y14.554 E.01399
G1 X296.591 Y14.554 E.24519
G1 X297.031 Y14.466 E.01669
G1 X297.387 Y14.19 E.01678
G1 X297.096 Y13.857 F30000
G1 F3000
G1 X297.14 Y13.823 E.00206
G1 X297.267 Y13.53 E.01189
G1 X297.277 Y13.411 E.00443
G1 X297.277 Y5.857 E.28137
G1 X298.143 Y5.857 E.03225
G1 X298.143 Y6.29 E.01612
G1 X298.143 Y294.143 E10.72142
G1 X288.669 Y294.157 E.35288
G2 X289.449 Y293.311 I-2.301 J-2.905 E.04305
G1 X289.734 Y293.257 E.01078
G1 X290.373 Y293.003 E.02563
G1 X290.843 Y292.68 E.02123
G1 X291.245 Y292.261 E.02164
G1 X291.61 Y291.653 E.0264
G1 X291.812 Y290.994 E.02567
G1 X291.852 Y290.415 E.02163
G1 X291.743 Y289.715 E.02639
G1 X291.476 Y289.079 E.02567
G1 X291.136 Y288.608 E.02164
G1 X290.605 Y288.141 E.02635
G1 X289.986 Y287.823 E.0259
G1 X289.466 Y287.685 E.02002
G2 X288.765 Y286.906 I-6.429 J5.082 E.03906
G1 X288.164 Y286.443 E.02828
G1 X287.562 Y286.104 E.02575
G1 X286.883 Y285.846 E.02705
G1 X286.173 Y285.691 E.02705
G1 X285.445 Y285.645 E.02717
G1 X284.718 Y285.708 E.02719
G1 X284.02 Y285.875 E.02671
G1 X283.348 Y286.148 E.02703
G1 X282.723 Y286.517 E.02703
G1 X282.16 Y286.976 E.02703
G1 X281.672 Y287.513 E.02703
G1 X281.27 Y288.117 E.02703
G1 X280.962 Y288.774 E.02703
G1 X280.755 Y289.469 E.02703
G1 X280.655 Y290.188 E.02703
G1 X280.662 Y290.914 E.02703
G1 X280.778 Y291.63 E.02703
G1 X280.999 Y292.322 E.02703
G1 X281.321 Y292.972 E.02704
G1 X281.74 Y293.571 E.02721
G1 X282.327 Y294.157 E.03089
G1 X9.857 Y294.143 E10.14844
G1 X9.857 Y291.606 E.0945
G1 X9.778 Y291.285 E.0123
G1 X9.579 Y291.054 E.01134
G1 X9.282 Y290.929 E.01201
G1 X9.086 Y290.925 E.00728
G1 X1.857 Y291.829 E.27136
G1 X1.857 Y286.771 E.1884
G1 X9.112 Y287.677 E.27231
G1 X9.453 Y287.619 E.01291
G1 X9.663 Y287.473 E.00952
G1 X9.795 Y287.28 E.00869
G1 X9.857 Y286.994 E.0109
G1 X9.857 Y280.857 E.22859
G1 X284.171 Y280.857 E10.21715
G2 X284.605 Y280.703 I0 J-.686 E.01746
G1 X284.795 Y280.457 E.01158
G1 X284.857 Y280.171 E.01089
G1 X284.857 Y5.857 E10.21715
M73 P1 R77
G1 X289.323 Y5.857 E.16634
G1 X289.323 Y13.411 E.28137
G1 X289.35 Y13.603 E.00722
G1 X289.536 Y13.908 E.01328
G1 X289.786 Y14.06 E.01091
G1 X290.009 Y14.097 E.0084
G1 X296.591 Y14.097 E.24519
G1 X296.855 Y14.044 E.01002
G1 X297.065 Y13.881 E.00989
G1 X296.774 Y13.549 F30000
;TYPE:Outer wall
G1 F3000
G1 X296.82 Y13.411 E.00538
G1 X296.82 Y5.4 E.2984
G1 X298.6 Y5.4 E.0663
G1 X298.6 Y6.29 E.03315
G1 X298.6 Y294.6 E10.73844
G1 X289.245 Y294.603 E.34843
G2 X287.48 Y294.75 I-.024 J10.383 E.06604
G1 X286.973 Y294.75 E.01891
;WIDTH:0.54195
G1 X286.658 Y294.729 E.01281
;WIDTH:0.5839
G1 X286.344 Y294.708 E.01388
G1 X286.37 Y294.699 E.0012
;WIDTH:0.578118
G1 X286.872 Y294.508 E.02345
;WIDTH:0.539059
G1 X287.375 Y294.317 E.02174
;WIDTH:0.499999
G2 X288.319 Y293.858 I-.969 J-3.197 E.03925
G1 X288.81 Y293.398 E.02507
G1 X289.187 Y292.901 E.02322
G1 X289.575 Y292.829 E.01472
G1 X290.078 Y292.643 E.01995
G1 X290.487 Y292.382 E.01807
G1 X290.86 Y292.014 E.01953
G1 X291.176 Y291.509 E.0222
G1 X291.346 Y290.999 E.02003
G1 X291.398 Y290.472 E.01973
G1 X291.317 Y289.881 E.02219
G1 X291.121 Y289.381 E.02003
G1 X290.824 Y288.942 E.01973
G1 X290.384 Y288.541 E.02218
G1 X289.921 Y288.286 E.01968
G1 X289.188 Y288.112 E.02809
G2 X281.207 Y289.538 I-3.688 J2.403 E.38372
G1 X281.112 Y290.188 E.02449
G1 X281.114 Y290.846 E.02449
G1 X281.215 Y291.496 E.02449
G1 X281.411 Y292.123 E.02449
G1 X281.699 Y292.715 E.0245
G1 X282.072 Y293.258 E.02455
G2 X283.291 Y294.202 I2.605 J-2.104 E.05795
G1 X283.865 Y294.422 E.02291
;WIDTH:0.542901
G1 X284.063 Y294.51 E.00879
;WIDTH:0.585803
G1 X284.26 Y294.598 E.00955
;WIDTH:0.628704
G1 X284.457 Y294.686 E.0103
G1 X284.413 Y294.693 E.00214
;WIDTH:0.614372
G1 X284.121 Y294.712 E.01363
;WIDTH:0.576248
G1 X283.829 Y294.731 E.01272
;WIDTH:0.538124
G1 X283.537 Y294.75 E.01181
;WIDTH:0.499999
G2 X282 Y294.603 I-1.717 J9.85 E.05754
G1 X9.4 Y294.6 E10.15332
G1 X9.4 Y291.606 E.11152
G1 X9.393 Y291.551 E.00207
G1 X9.307 Y291.422 E.00576
G1 X9.143 Y291.379 E.00632
G1 X1.4 Y292.347 E.29065
G1 X1.4 Y286.253 E.22697
G1 X9.143 Y287.221 E.29065
G2 X9.335 Y287.154 I.028 J-.227 E.00786
G1 X9.4 Y286.994 E.00641
G1 X9.4 Y280.4 E.24561
G1 X284.171 Y280.4 E10.23418
M73 P1 R76
G1 X284.329 Y280.337 E.00633
G1 X284.4 Y280.171 E.0067
G1 X284.4 Y5.4 E10.23418
G1 X289.78 Y5.4 E.20038
G1 X289.78 Y13.411 E.2984
G1 X289.851 Y13.577 E.00671
G1 X290.009 Y13.64 E.00632
G1 X296.591 Y13.64 E.24519
G1 X296.738 Y13.566 E.00612
G1 X297.702 Y13.606 F30000
;TYPE:Inner wall
;WIDTH:0.468648
G1 F3000
G1 X297.71 Y13.411 E.00676
;WIDTH:0.4517
G1 X297.71 Y6.29 E.23722
G1 E-.35 F2400
;WIPE_START
G1 F3000
G1 X297.71 Y7.29 E-.15
;WIPE_END
G1 Z.4 F30000
G1 X286.344 Y294.708 Z.4
G1 Z.2
G1 E.5 F2400
;TYPE:Outer wall
;WIDTH:0.5839
G1 F3000
G1 X286.037 Y294.727 E.01357
;WIDTH:0.545364
G1 X285.73 Y294.747 E.0126
;WIDTH:0.520004
G1 X285.094 Y294.74 E.02471
;WIDTH:0.556238
G1 X284.882 Y294.722 E.00891
;WIDTH:0.592471
G1 X284.669 Y294.704 E.00954
;WIDTH:0.628704
G1 X284.457 Y294.686 E.01017
G1 E-.35 F2400
;WIPE_START
G1 F3000
G1 X284.669 Y294.704 E-.03196
G1 X284.882 Y294.722 E-.03196
G1 X285.094 Y294.74 E-.03196
G1 X285.455 Y294.744 E-.05411
;WIPE_END
G1 Z.4 F30000
G1 X288.683 Y7.048 Z.4
G1 Z.2
G1 E.5 F2400
;TYPE:Bottom surface
;WIDTH:0.500386
G1 F6300
G1 X288.337 Y6.703 E.01823
G1 X287.69 Y6.703 E.02412
G1 X288.477 Y7.49 E.04149
G1 X288.477 Y8.137 E.02412
G1 X287.043 Y6.703 E.07559
G1 X286.396 Y6.703 E.02412
G1 X288.477 Y8.784 E.1097
G1 X288.477 Y9.431 E.02412
G1 X285.749 Y6.703 E.14381
G1 X285.703 Y6.703 E.00175
G1 X285.703 Y7.303 E.02237
G1 X288.477 Y10.077 E.14628
G1 X288.477 Y10.724 E.02412
G1 X285.703 Y7.95 E.14628
G1 X285.703 Y8.597 E.02412
G1 X288.477 Y11.371 E.14628
G1 X288.477 Y12.018 E.02412
G1 X285.703 Y9.244 E.14628
G1 X285.703 Y9.891 E.02412
G1 X288.477 Y12.665 E.14628
G1 X288.477 Y13.312 E.02412
G1 X285.497 Y10.332 E.15712
G1 E-.35 F2400
;WIPE_START
G1 F6300
G1 X286.204 Y11.039 E-.15
;WIPE_END
G1 Z.4 F30000
G1 X296.947 Y14.665 Z.4
G1 Z.2
G1 E.5 F2400
G1 F6300
G1 X297.297 Y15.016 E.01849
G1 X297.297 Y15.663 E.02412
G1 X296.577 Y14.943 E.03796
G1 X295.93 Y14.943 E.02412
G1 X297.297 Y16.31 E.07207
G1 X297.297 Y16.957 E.02412
G1 X295.283 Y14.943 E.10617
G1 X294.636 Y14.943 E.02412
G1 X297.297 Y17.604 E.14028
G1 X297.297 Y18.251 E.02412
G1 X293.989 Y14.943 E.17439
G1 X293.343 Y14.943 E.02412
G1 X297.297 Y18.897 E.20849
G1 X297.297 Y19.544 E.02412
G1 X292.696 Y14.943 E.2426
G1 X292.049 Y14.943 E.02412
G1 X297.297 Y20.191 E.27671
G1 X297.297 Y20.838 E.02412
G1 X291.402 Y14.943 E.31081
G1 X290.755 Y14.943 E.02412
G1 X297.297 Y21.485 E.34492
G1 X297.297 Y22.132 E.02412
G1 X289.893 Y14.728 E.39034
G1 E-.35 F2400
;WIPE_START
G1 F6300
G1 X290.6 Y15.435 E-.15
;WIPE_END
G1 Z.4 F30000
G1 X297.503 Y22.985 Z.4
G1 Z.2
G1 E.5 F2400
G1 F6300
G1 X285.703 Y11.185 E.6221
G1 X285.703 Y11.831 E.02412
G1 X297.297 Y23.426 E.61125
G1 X297.297 Y24.073 E.02412
G1 X285.703 Y12.478 E.61125
G1 X285.703 Y13.125 E.02412
G1 X297.297 Y24.72 E.61125
G1 X297.297 Y25.367 E.02412
G1 X285.703 Y13.772 E.61125
G1 X285.703 Y14.419 E.02412
G1 X297.297 Y26.014 E.61125
G1 X297.297 Y26.661 E.02412
G1 X285.703 Y15.066 E.61125
G1 X285.703 Y15.713 E.02412
G1 X297.297 Y27.308 E.61125
G1 X297.297 Y27.955 E.02412
G1 X285.703 Y16.36 E.61125
G1 X285.703 Y17.007 E.02412
G1 X297.297 Y28.602 E.61125
G1 X297.297 Y29.249 E.02412
G1 X285.703 Y17.654 E.61125
G1 X285.703 Y18.301 E.02412
G1 X297.297 Y29.896 E.61125
G1 X297.297 Y30.543 E.02412
G1 X285.703 Y18.948 E.61125
G1 X285.703 Y19.595 E.02412
G1 X297.297 Y31.19 E.61125
G1 X297.297 Y31.837 E.02412
G1 X285.703 Y20.242 E.61125
G1 X285.703 Y20.889 E.02412
G1 X297.297 Y32.484 E.61125
G1 X297.297 Y33.13 E.02412
G1 X285.703 Y21.536 E.61125
G1 X285.703 Y22.183 E.02412
G1 X297.297 Y33.777 E.61125
G1 X297.297 Y34.424 E.02412
G1 X285.703 Y22.83 E.61125
G1 X285.703 Y23.477 E.02412
G1 X297.297 Y35.071 E.61125
G1 X297.297 Y35.718 E.02412
G1 X285.703 Y24.124 E.61125
M73 P2 R76
G1 X285.703 Y24.771 E.02412
G1 X297.297 Y36.365 E.61125
G1 X297.297 Y37.012 E.02412
G1 X285.703 Y25.418 E.61125
G1 X285.703 Y26.064 E.02412
G1 X297.297 Y37.659 E.61125
G1 X297.297 Y38.306 E.02412
G1 X285.703 Y26.711 E.61125
G1 X285.703 Y27.358 E.02412
G1 X297.297 Y38.953 E.61125
G1 X297.297 Y39.6 E.02412
G1 X285.703 Y28.005 E.61125
G1 X285.703 Y28.652 E.02412
G1 X297.297 Y40.247 E.61125
G1 X297.297 Y40.894 E.02412
G1 X285.703 Y29.299 E.61125
G1 X285.703 Y29.946 E.02412
G1 X297.297 Y41.541 E.61125
G1 X297.297 Y42.188 E.02412
G1 X285.703 Y30.593 E.61125
G1 X285.703 Y31.24 E.02412
G1 X297.297 Y42.835 E.61125
G1 X297.297 Y43.482 E.02412
G1 X285.703 Y31.887 E.61125
G1 X285.703 Y32.534 E.02412
G1 X297.297 Y44.129 E.61125
G1 X297.297 Y44.776 E.02412
G1 X285.703 Y33.181 E.61125
G1 X285.703 Y33.828 E.02412
G1 X297.297 Y45.423 E.61125
G1 X297.297 Y46.07 E.02412
G1 X285.703 Y34.475 E.61125
G1 X285.703 Y35.122 E.02412
G1 X297.297 Y46.717 E.61125
G1 X297.297 Y47.363 E.02412
G1 X285.703 Y35.769 E.61125
G1 X285.703 Y36.416 E.02412
G1 X297.297 Y48.01 E.61125
G1 X297.297 Y48.657 E.02412
G1 X285.703 Y37.063 E.61125
G1 X285.703 Y37.71 E.02412
G1 X297.297 Y49.304 E.61125
G1 X297.297 Y49.951 E.02412
G1 X285.703 Y38.357 E.61125
G1 X285.703 Y39.004 E.02412
G1 X297.297 Y50.598 E.61125
G1 X297.297 Y51.245 E.02412
G1 X285.703 Y39.651 E.61125
G1 X285.703 Y40.298 E.02412
G1 X297.297 Y51.892 E.61125
G1 X297.297 Y52.539 E.02412
G1 X285.703 Y40.944 E.61125
G1 X285.703 Y41.591 E.02412
G1 X297.297 Y53.186 E.61125
G1 X297.297 Y53.833 E.02412
G1 X285.703 Y42.238 E.61125
G1 X285.703 Y42.885 E.02412
G1 X297.297 Y54.48 E.61125
G1 X297.297 Y55.127 E.02412
G1 X285.703 Y43.532 E.61125
G1 X285.703 Y44.179 E.02412
G1 X297.297 Y55.774 E.61125
G1 X297.297 Y56.421 E.02412
G1 X285.703 Y44.826 E.61125
G1 X285.703 Y45.473 E.02412
G1 X297.297 Y57.068 E.61125
G1 X297.297 Y57.715 E.02412
G1 X285.703 Y46.12 E.61125
G1 X285.703 Y46.767 E.02412
G1 X297.297 Y58.362 E.61125
G1 X297.297 Y59.009 E.02412
G1 X285.703 Y47.414 E.61125
G1 X285.703 Y48.061 E.02412
G1 X297.297 Y59.656 E.61125
G1 X297.297 Y60.303 E.02412
G1 X285.703 Y48.708 E.61125
G1 X285.703 Y49.355 E.02412
G1 X297.297 Y60.95 E.61125
G1 X297.297 Y61.596 E.02412
G1 X285.703 Y50.002 E.61125
G1 X285.703 Y50.649 E.02412
G1 X297.297 Y62.243 E.61125
G1 X297.297 Y62.89 E.02412
G1 X285.703 Y51.296 E.61125
G1 X285.703 Y51.943 E.02412
G1 X297.297 Y63.537 E.61125
G1 X297.297 Y64.184 E.02412
G1 X285.703 Y52.59 E.61125
G1 X285.703 Y53.237 E.02412
G1 X297.297 Y64.831 E.61125
G1 X297.297 Y65.478 E.02412
G1 X285.703 Y53.884 E.61125
G1 X285.703 Y54.531 E.02412
G1 X297.297 Y66.125 E.61125
G1 X297.297 Y66.772 E.02412
G1 X285.703 Y55.177 E.61125
G1 X285.703 Y55.824 E.02412
G1 X297.297 Y67.419 E.61125
G1 X297.297 Y68.066 E.02412
G1 X285.703 Y56.471 E.61125
G1 X285.703 Y57.118 E.02412
G1 X297.297 Y68.713 E.61125
G1 X297.297 Y69.36 E.02412
G1 X285.703 Y57.765 E.61125
G1 X285.703 Y58.412 E.02412
G1 X297.297 Y70.007 E.61125
G1 X297.297 Y70.654 E.02412
G1 X285.703 Y59.059 E.61125
G1 X285.703 Y59.706 E.02412
G1 X297.297 Y71.301 E.61125
G1 X297.297 Y71.948 E.02412
G1 X285.703 Y60.353 E.61125
G1 X285.703 Y61 E.02412
G1 X297.297 Y72.595 E.61125
G1 X297.297 Y73.242 E.02412
G1 X285.703 Y61.647 E.61125
G1 X285.703 Y62.294 E.02412
G1 X297.297 Y73.889 E.61125
G1 X297.297 Y74.536 E.02412
G1 X285.703 Y62.941 E.61125
G1 X285.703 Y63.588 E.02412
G1 X297.297 Y75.183 E.61125
G1 X297.297 Y75.829 E.02412
G1 X285.703 Y64.235 E.61125
G1 X285.703 Y64.882 E.02412
G1 X297.297 Y76.476 E.61125
G1 X297.297 Y77.123 E.02412
G1 X285.703 Y65.529 E.61125
G1 X285.703 Y66.176 E.02412
G1 X297.297 Y77.77 E.61125
G1 X297.297 Y78.417 E.02412
G1 X285.703 Y66.823 E.61125
G1 X285.703 Y67.47 E.02412
G1 X297.297 Y79.064 E.61125
G1 X297.297 Y79.711 E.02412
G1 X285.703 Y68.117 E.61125
G1 X285.703 Y68.764 E.02412
G1 X297.297 Y80.358 E.61125
G1 X297.297 Y81.005 E.02412
G1 X285.703 Y69.41 E.61125
G1 X285.703 Y70.057 E.02412
G1 X297.297 Y81.652 E.61125
G1 X297.297 Y82.299 E.02412
G1 X285.703 Y70.704 E.61125
G1 X285.703 Y71.351 E.02412
G1 X297.297 Y82.946 E.61125
G1 X297.297 Y83.593 E.02412
G1 X285.703 Y71.998 E.61125
G1 X285.703 Y72.645 E.02412
G1 X297.297 Y84.24 E.61125
G1 X297.297 Y84.887 E.02412
G1 X285.703 Y73.292 E.61125
G1 X285.703 Y73.939 E.02412
G1 X297.297 Y85.534 E.61125
G1 X297.297 Y86.181 E.02412
G1 X285.703 Y74.586 E.61125
G1 X285.703 Y75.233 E.02412
G1 X297.297 Y86.828 E.61125
G1 X297.297 Y87.475 E.02412
G1 X285.703 Y75.88 E.61125
G1 X285.703 Y76.527 E.02412
G1 X297.297 Y88.122 E.61125
G1 X297.297 Y88.769 E.02412
G1 X285.703 Y77.174 E.61125
G1 X285.703 Y77.821 E.02412
G1 X297.297 Y89.416 E.61125
G1 X297.297 Y90.062 E.02412
G1 X285.703 Y78.468 E.61125
G1 X285.703 Y79.115 E.02412
G1 X297.297 Y90.709 E.61125
G1 X297.297 Y91.356 E.02412
G1 X285.703 Y79.762 E.61125
G1 X285.703 Y80.409 E.02412
