;FLAVOR:Marlin
;TIME:6657
;Filament used: 3.53067m
;Layer height: 0.16
;MINX:129.299
;MINY:125.8
;MINZ:0.2
;MAXX:170.699
;MAXY:174.202
;MAXZ:33.88
;Generated with Cura_SteamEngine 5.2.1
M140 S60
M105
M190 S60
M104 S210
M105
M109 S210
M82 ;absolute extrusion mode
M201 X500.00 Y500.00 Z100.00 E5000.00 ;Setup machine max acceleration
M203 X500.00 Y500.00 Z10.00 E50.00 ;Setup machine max feedrate
M204 P500.00 R1000.00 T500.00 ;Setup Print/Retract/Travel acceleration
M205 X8.00 Y8.00 Z0.40 E5.00 ;Setup Jerk
M220 S100 ;Reset Feedrate
M221 S100 ;Reset Flowrate

G28 ;Home
G29 ;Auto bed Level

G92 E0 ;Reset Extruder
G1 Z2.0 F3000 ;Move Z Axis up
G1 X10.1 Y20 Z0.28 F5000.0 ;Move to start position
G1 X10.1 Y200.0 Z0.28 F1500.0 E15 ;Draw the first line
G1 X10.4 Y200.0 Z0.28 F5000.0 ;Move to side a little
G1 X10.4 Y20 Z0.28 F1500.0 E30 ;Draw the second line
G92 E0 ;Reset Extruder
G1 Z2.0 F3000 ;Move Z Axis up

G92 E0
G92 E0
G1 F2700 E-7
;LAYER_COUNT:190
;LAYER:0
M107
G0 F6000 X132.51 Y129.247 Z0.2
;TYPE:SKIRT
G1 F2700 E0
G1 F1200 X132.704 Y129.052 E0.00915
G1 X133.393 Y128.416 E0.04034
G1 X134.134 Y127.841 E0.07153
G1 X134.921 Y127.331 E0.10272
G1 X135.749 Y126.89 E0.13392
G1 X136.611 Y126.521 E0.16511
G1 X137.502 Y126.227 E0.19632
G1 X138.414 Y126.01 E0.2275
G1 X139.342 Y125.871 E0.25871
G1 X140.305 Y125.812 E0.2908
G1 X141.06 Y125.8 E0.31591
G1 X158.948 Y125.801 E0.91087
G1 X159.65 Y125.811 E0.93422
G1 X160.586 Y125.864 E0.9654
G1 X161.514 Y125.997 E0.99658
G1 X162.428 Y126.209 E1.02779
G1 X163.321 Y126.497 E1.059
G1 X164.185 Y126.861 E1.09018
G1 X165.016 Y127.297 E1.12139
G1 X165.806 Y127.802 E1.15258
G1 X166.55 Y128.372 E1.18375
G1 X167.231 Y128.992 E1.21438
G1 X167.427 Y129.186 E1.22355
G1 X168.065 Y129.874 E1.25476
G1 X168.642 Y130.613 E1.28595
G1 X169.154 Y131.399 E1.31714
G1 X169.597 Y132.226 E1.34835
G1 X169.968 Y133.087 E1.37953
G1 X170.264 Y133.977 E1.41073
G1 X170.484 Y134.889 E1.44193
G1 X170.625 Y135.816 E1.47312
G1 X170.687 Y136.811 E1.50627
G1 X170.699 Y137.574 E1.53166
G1 X170.698 Y162.417 E2.35794
G1 X170.688 Y163.148 E2.38225
G1 X170.635 Y164.085 E2.41347
G1 X170.503 Y165.013 E2.44464
G1 X170.292 Y165.927 E2.47584
G1 X170.004 Y166.82 E2.50705
G1 X169.641 Y167.684 E2.53822
G1 X169.205 Y168.515 E2.56943
G1 X168.701 Y169.306 E2.60063
G1 X168.131 Y170.05 E2.6318
G1 X167.467 Y170.776 E2.66452
G1 X167.273 Y170.97 E2.67365
G1 X166.582 Y171.604 E2.70484
G1 X165.84 Y172.178 E2.73604
G1 X165.051 Y172.685 E2.76723
G1 X164.223 Y173.124 E2.79841
G1 X163.359 Y173.491 E2.82963
G1 X162.468 Y173.783 E2.86081
G1 X161.555 Y173.997 E2.892
G1 X160.627 Y174.134 E2.9232
G1 X159.712 Y174.19 E2.95369
G1 X158.989 Y174.202 E2.97774
G1 X141.048 Y174.201 E3.57446
G1 X140.347 Y174.191 E3.59778
G1 X139.411 Y174.138 E3.62896
G1 X138.482 Y174.005 E3.66018
G1 X137.569 Y173.793 E3.69135
G1 X136.676 Y173.505 E3.72256
G1 X135.812 Y173.141 E3.75374
G1 X134.981 Y172.705 E3.78495
G1 X134.191 Y172.2 E3.81614
G1 X133.447 Y171.63 E3.84731
G1 X132.746 Y170.99 E3.87888
G1 X132.549 Y170.794 E3.88812
G1 X131.913 Y170.105 E3.91931
G1 X131.338 Y169.364 E3.95051
G1 X130.828 Y168.577 E3.9817
G1 X130.387 Y167.749 E4.0129
G1 X130.018 Y166.887 E4.04409
G1 X129.724 Y165.996 E4.07529
G1 X129.507 Y165.084 E4.10647
G1 X129.368 Y164.156 E4.13768
G1 X129.308 Y163.162 E4.1708
G1 X129.299 Y162.564 E4.1907
G1 X129.299 Y137.512 E5.02393
G1 X129.309 Y136.841 E5.04625
G1 X129.363 Y135.905 E5.07743
G1 X129.497 Y134.976 E5.10865
G1 X129.709 Y134.063 E5.13983
G1 X129.998 Y133.171 E5.17101
G1 X130.362 Y132.306 E5.20223
G1 X130.798 Y131.476 E5.23341
G1 X131.304 Y130.686 E5.26461
G1 X131.875 Y129.942 E5.2958
G1 X132.51 Y129.247 E5.32712
G0 F6000 X132.793 Y129.529
G1 F1200 X132.987 Y129.334 E5.33626
G1 X133.664 Y128.71 E5.36689
G1 X134.393 Y128.147 E5.39752
G1 X135.168 Y127.65 E5.42814
G1 X135.983 Y127.222 E5.45876
G1 X136.832 Y126.866 E5.48938
G1 X137.709 Y126.585 E5.52001
G1 X138.606 Y126.381 E5.55061
G1 X139.518 Y126.256 E5.58122
G1 X140.312 Y126.212 E5.60767
G1 X141.06 Y126.2 E5.63256
G1 X158.791 Y126.2 E6.22229
G1 X159.644 Y126.211 E6.25066
G1 X160.563 Y126.264 E6.28128
G1 X161.474 Y126.397 E6.3119
G1 X162.37 Y126.608 E6.34252
G1 X163.245 Y126.896 E6.37316
G1 X164.091 Y127.259 E6.40378
G1 X164.902 Y127.694 E6.43439
G1 X165.673 Y128.198 E6.46502
G1 X166.397 Y128.766 E6.49563
G1 X166.95 Y129.276 E6.52065
G1 X167.146 Y129.47 E6.52982
G1 X167.771 Y130.146 E6.56044
G1 X168.336 Y130.873 E6.59107
G1 X168.835 Y131.646 E6.62167
G1 X169.266 Y132.46 E6.6523
G1 X169.624 Y133.308 E6.68292
G1 X169.907 Y134.184 E6.71354
G1 X170.113 Y135.082 E6.74418
G1 X170.241 Y135.993 E6.77478
G1 X170.287 Y136.818 E6.80226
G1 X170.299 Y137.574 E6.82741
G1 X170.298 Y162.412 E7.65352
G1 X170.288 Y163.143 E7.67784
G1 X170.235 Y164.062 E7.70845
G1 X170.103 Y164.973 E7.73907
G1 X169.893 Y165.869 E7.76968
G1 X169.605 Y166.744 E7.80032
G1 X169.243 Y167.59 E7.83092
G1 X168.808 Y168.402 E7.86156
G1 X168.305 Y169.173 E7.89218
G1 X167.736 Y169.897 E7.92281
G1 X167.184 Y170.493 E7.94983
G1 X166.99 Y170.687 E7.95895
G1 X166.312 Y171.309 E7.98955
G1 X165.582 Y171.87 E8.02018
G1 X164.806 Y172.366 E8.05081
G1 X163.99 Y172.792 E8.08142
G1 X163.14 Y173.146 E8.11205
G1 X162.262 Y173.424 E8.14268
G1 X161.364 Y173.626 E8.17329
G1 X160.451 Y173.749 E8.20393
G1 X159.704 Y173.79 E8.22882
G1 X158.989 Y173.802 E8.2526
G1 X141.054 Y173.801 E8.84912
G1 X140.353 Y173.791 E8.87244
G1 X139.434 Y173.738 E8.90306
G1 X138.523 Y173.605 E8.93368
G1 X137.627 Y173.394 E8.96429
G1 X136.752 Y173.106 E8.99493
G1 X135.906 Y172.743 E9.02555
G1 X135.095 Y172.308 E9.05616
G1 X134.324 Y171.804 E9.0868
G1 X133.6 Y171.235 E9.11742
G1 X133.028 Y170.706 E9.14334
G1 X132.831 Y170.51 E9.15258
G1 X132.207 Y169.833 E9.1832
G1 X131.644 Y169.105 E9.21381
G1 X131.147 Y168.33 E9.24443
G1 X130.719 Y167.515 E9.27505
G1 X130.363 Y166.666 E9.30567
G1 X130.082 Y165.789 E9.3363
G1 X129.878 Y164.891 E9.36693
G1 X129.753 Y163.979 E9.39755
G1 X129.708 Y163.156 E9.42496
G1 X129.699 Y162.558 E9.44485
G1 X129.699 Y137.518 E10.27769
G1 X129.709 Y136.847 E10.30001
G1 X129.763 Y135.928 E10.33063
G1 X129.896 Y135.017 E10.36125
G1 X130.108 Y134.121 E10.39187
G1 X130.397 Y133.247 E10.42249
G1 X130.76 Y132.401 E10.45311
G1 X131.196 Y131.59 E10.48373
G1 X131.7 Y130.82 E10.51434
G1 X132.269 Y130.096 E10.54497
G1 X132.793 Y129.529 E10.57065
G0 F6000 X133.077 Y129.811
G1 F1200 X133.271 Y129.616 E10.5798
G1 X133.936 Y129.005 E10.60983
G1 X134.652 Y128.454 E10.63988
G1 X135.414 Y127.97 E10.66991
G1 X136.216 Y127.554 E10.69996
G1 X137.051 Y127.211 E10.72998
G1 X137.914 Y126.944 E10.76003
G1 X138.797 Y126.754 E10.79007
G1 X139.693 Y126.642 E10.8201
G1 X140.319 Y126.612 E10.84094
G1 X141.06 Y126.6 E10.86559
G1 X158.791 Y126.6 E11.45533
G1 X159.638 Y126.611 E11.4835
G1 X160.54 Y126.664 E11.51355
G1 X161.433 Y126.796 E11.54358
G1 X162.311 Y127.007 E11.57361
G1 X163.167 Y127.295 E11.60365
G1 X163.995 Y127.657 E11.63371
G1 X164.787 Y128.091 E11.66375
G1 X165.537 Y128.594 E11.69378
G1 X166.24 Y129.16 E11.7238
G1 X166.668 Y129.561 E11.74331
G1 X166.864 Y129.755 E11.75248
G1 X167.478 Y130.418 E11.78253
G1 X168.03 Y131.132 E11.81255
G1 X168.516 Y131.893 E11.84258
G1 X168.934 Y132.694 E11.87263
G1 X169.279 Y133.529 E11.90268
G1 X169.548 Y134.391 E11.93272
G1 X169.741 Y135.273 E11.96275
G1 X169.855 Y136.169 E11.99279
G1 X169.887 Y136.825 E12.01463
G1 X169.899 Y137.574 E12.03955
G1 X169.898 Y162.407 E12.8655
G1 X169.888 Y163.138 E12.88981
G1 X169.836 Y164.039 E12.91983
G1 X169.704 Y164.933 E12.94989
G1 X169.493 Y165.811 E12.97992
G1 X169.206 Y166.667 E13.00995
G1 X168.844 Y167.494 E13.03997
G1 X168.411 Y168.287 E13.07003
G1 X167.909 Y169.037 E13.10004
G1 X167.342 Y169.741 E13.13011
G1 X166.901 Y170.21 E13.15152
G1 X166.707 Y170.404 E13.16064
G1 X166.041 Y171.014 E13.19068
G1 X165.324 Y171.563 E13.22072
G1 X164.56 Y172.045 E13.25076
G1 X163.757 Y172.459 E13.28081
G1 X162.921 Y172.799 E13.31083
G1 X162.058 Y173.065 E13.34087
G1 X161.175 Y173.253 E13.37089
G1 X160.278 Y173.362 E13.40095
G1 X159.697 Y173.39 E13.42029
G1 X158.989 Y173.402 E13.44384
G1 X141.06 Y173.401 E14.04017
G1 X140.359 Y173.391 E14.06348
G1 X139.457 Y173.338 E14.09354
G1 X138.564 Y173.206 E14.12356
G1 X137.685 Y172.995 E14.15363
G1 X136.829 Y172.707 E14.18366
G1 X136.002 Y172.345 E14.21369
G1 X135.21 Y171.911 E14.24373
G1 X134.46 Y171.408 E14.27376
G1 X133.757 Y170.841 E14.3038
G1 X133.31 Y170.423 E14.32416
G1 X133.113 Y170.227 E14.3334
G1 X132.501 Y169.562 E14.36346
G1 X131.951 Y168.846 E14.39349
G1 X131.467 Y168.084 E14.42351
G1 X131.051 Y167.282 E14.45356
G1 X130.708 Y166.447 E14.48359
G1 X130.441 Y165.584 E14.51363
G1 X130.251 Y164.701 E14.54367
G1 X130.139 Y163.805 E14.57371
G1 X130.108 Y163.149 E14.59555
G1 X130.099 Y162.551 E14.61544
G1 X130.099 Y137.524 E15.44784
G1 X130.109 Y136.853 E15.47016
G1 X130.163 Y135.951 E15.50022
G1 X130.296 Y135.058 E15.53025
G1 X130.507 Y134.18 E15.56028
G1 X130.795 Y133.324 E15.59032
G1 X131.158 Y132.497 E15.62036
G1 X131.593 Y131.706 E15.65038
G1 X132.096 Y130.956 E15.68042
G1 X132.663 Y130.253 E15.71046
G1 X133.077 Y129.811 E15.7306
G1 F2700 E8.7306
;MESH:SDbox_fixed_loose.stl
G0 F6000 X139.928 Y136.43
G0 X140.712 Y137.214
G0 X141.299 Y162.202
;TYPE:WALL-INNER
G1 F2700 E15.7306
G1 F1200 X158.699 Y162.202 E16.30933
G1 X158.699 Y137.8 E17.12094
G1 X141.299 Y137.8 E17.69967
G1 X141.299 Y162.202 E18.51128
G0 F6000 X140.899 Y162.602
G1 F1200 X159.099 Y162.602 E19.11662
G1 X159.099 Y137.4 E19.95484
G1 X140.899 Y137.4 E20.56017
G1 X140.899 Y162.602 E21.39839
G0 F6000 X140.498 Y162.918
;TYPE:WALL-OUTER
G1 F1200 X140.582 Y163.002 E21.40234
G1 X159.414 Y163.002 E22.0287
G1 X159.499 Y162.917 E22.0327
G1 X159.499 Y137.144 E22.88991
G1 X159.499 Y137.085 E22.89187
G1 X159.414 Y137 E22.89587
G1 X140.582 Y137 E23.52223
G1 X140.498 Y137.084 E23.52618
G1 X140.498 Y162.918 E24.38542
G0 F6000 X141.168 Y162.332
G0 X141.399 Y161.842
G0 X141.659 Y161.842
;TYPE:SKIN
G1 F1200 X158.339 Y161.842 E24.9402
G1 X158.339 Y146.5 E25.45048
G1 X158.339 Y138.16 E25.72787
G1 X141.659 Y138.16 E26.28264
G1 X141.659 Y161.842 E27.07031
G0 F6000 X142.407 Y161.641
G1 F1200 X141.858 Y161.091 E27.09616
G0 F6000 X141.858 Y160.525
G1 F1200 X142.973 Y161.641 E27.14863
G0 F6000 X143.539 Y161.641
G1 F1200 X141.858 Y159.96 E27.2277
G0 F6000 X141.858 Y159.394
G1 F1200 X144.104 Y161.641 E27.33337
G0 F6000 X144.67 Y161.641
G1 F1200 X141.858 Y158.828 E27.46566
G0 F6000 X141.858 Y158.263
G1 F1200 X145.236 Y161.641 E27.62455
G0 F6000 X145.801 Y161.641
G1 F1200 X141.858 Y157.697 E27.81004
G0 F6000 X141.858 Y157.131
G1 F1200 X146.367 Y161.641 E28.02215
G0 F6000 X146.933 Y161.641
G1 F1200 X141.858 Y156.566 E28.26086
G0 F6000 X141.858 Y156
G1 F1200 X147.498 Y161.641 E28.52617
G0 F6000 X148.064 Y161.641
G1 F1200 X141.858 Y155.434 E28.81811
G0 F6000 X141.858 Y154.869
G1 F1200 X148.63 Y161.641 E29.13664
G0 F6000 X149.195 Y161.641
G1 F1200 X141.858 Y154.303 E29.48178
G0 F6000 X141.858 Y153.737
G1 F1200 X149.761 Y161.641 E29.85353
G0 F6000 X150.327 Y161.641
G1 F1200 X141.858 Y153.172 E30.25189
G0 F6000 X141.858 Y152.606
G1 F1200 X150.893 Y161.641 E30.67687
G0 F6000 X151.458 Y161.641
G1 F1200 X141.858 Y152.04 E31.12845
G0 F6000 X141.858 Y151.475
G1 F1200 X152.024 Y161.641 E31.60662
G0 F6000 X152.59 Y161.641
G1 F1200 X141.858 Y150.909 E32.11142
G0 F6000 X141.858 Y150.343
G1 F1200 X153.155 Y161.641 E32.64282
G0 F6000 X153.721 Y161.641
G1 F1200 X141.858 Y149.777 E33.20085
G0 F6000 X141.858 Y149.212
G1 F1200 X154.287 Y161.641 E33.78547
G0 F6000 X154.852 Y161.641
G1 F1200 X141.858 Y148.646 E34.39669
G0 F6000 X141.858 Y148.08
G1 F1200 X155.418 Y161.641 E35.03453
G0 F6000 X155.984 Y161.641
G1 F1200 X141.858 Y147.515 E35.69898
G0 F6000 X141.858 Y146.949
G1 F1200 X156.549 Y161.641 E36.39002
G0 F6000 X157.115 Y161.641
G1 F1200 X141.858 Y146.383 E37.10769
G0 F6000 X141.858 Y145.818
G1 F1200 X157.681 Y161.641 E37.85195
G0 F6000 X158.139 Y161.533
G1 F1200 X141.858 Y145.252 E38.61776
G0 F6000 X141.858 Y144.686
G1 F1200 X158.139 Y160.967 E39.38357
G0 F6000 X158.139 Y160.402
G1 F1200 X141.858 Y144.121 E40.14938
G0 F6000 X141.858 Y143.555
G1 F1200 X158.139 Y159.836 E40.91519
G0 F6000 X158.139 Y159.27
G1 F1200 X141.858 Y142.989 E41.68099
G0 F6000 X141.858 Y142.424
G1 F1200 X158.139 Y158.705 E42.4468
G0 F6000 X158.139 Y158.139
G1 F1200 X141.858 Y141.858 E43.21261
G0 F6000 X141.858 Y141.292
G1 F1200 X158.139 Y157.573 E43.97842
G0 F6000 X158.139 Y157.008
G1 F1200 X141.858 Y140.726 E44.74425
G0 F6000 X141.858 Y140.161
G1 F1200 X158.139 Y156.442 E45.51006
G0 F6000 X158.139 Y155.876
G1 F1200 X141.858 Y139.595 E46.27587
G0 F6000 X141.858 Y139.029
G1 F1200 X158.139 Y155.311 E47.0417
G0 F6000 X158.139 Y154.745
G1 F1200 X141.858 Y138.464 E47.80751
G0 F6000 X142.32 Y138.36
G1 F1200 X158.139 Y154.179 E48.55159
G0 F6000 X158.139 Y153.613
G1 F1200 X142.885 Y138.36 E49.26906
G0 F6000 X143.451 Y138.36
G1 F1200 X158.139 Y153.048 E49.95994
G0 F6000 X158.139 Y152.482
G1 F1200 X144.017 Y138.36 E50.6242
G0 F6000 X144.582 Y138.36
G1 F1200 X158.139 Y151.916 E51.26185
G0 F6000 X158.139 Y151.351
G1 F1200 X145.148 Y138.36 E51.87291
G0 F6000 X145.714 Y138.36
G1 F1200 X158.139 Y150.785 E52.45734
G0 F6000 X158.139 Y150.219
G1 F1200 X146.279 Y138.36 E53.01518
G0 F6000 X146.845 Y138.36
G1 F1200 X158.138 Y149.653 E53.54637
G0 F6000 X158.138 Y149.087
G1 F1200 X147.411 Y138.36 E54.05093
G0 F6000 X147.976 Y138.36
G1 F1200 X158.138 Y148.522 E54.52892
G0 F6000 X158.138 Y147.956
G1 F1200 X148.542 Y138.36 E54.98029
G0 F6000 X149.108 Y138.36
G1 F1200 X158.138 Y147.39 E55.40503
G0 F6000 X158.138 Y146.825
G1 F1200 X149.673 Y138.36 E55.8032
G0 F6000 X150.239 Y138.36
G1 F1200 X158.138 Y146.259 E56.17474
G0 F6000 X158.138 Y145.693
G1 F1200 X150.805 Y138.36 E56.51967
G0 F6000 X151.371 Y138.36
G1 F1200 X158.138 Y145.128 E56.83799
G0 F6000 X158.138 Y144.562
G1 F1200 X151.936 Y138.36 E57.12971
G0 F6000 X152.502 Y138.36
G1 F1200 X158.138 Y143.996 E57.39481
G0 F6000 X158.138 Y143.43
G1 F1200 X153.068 Y138.36 E57.63329
G0 F6000 X153.633 Y138.36
G1 F1200 X158.138 Y142.865 E57.84519
G0 F6000 X158.138 Y142.299
G1 F1200 X154.199 Y138.36 E58.03047
G0 F6000 X154.765 Y138.36
G1 F1200 X158.138 Y141.733 E58.18912
G0 F6000 X158.138 Y141.168
G1 F1200 X155.33 Y138.36 E58.3212
G0 F6000 X155.896 Y138.36
G1 F1200 X158.138 Y140.602 E58.42666
G0 F6000 X158.138 Y140.036
G1 F1200 X156.462 Y138.36 E58.50549
G0 F6000 X157.027 Y138.36
G1 F1200 X158.138 Y139.471 E58.55775
G0 F6000 X158.138 Y138.905
G1 F1200 X157.593 Y138.36 E58.58339
G1 F2700 E51.58339
;MESH:NONMESH
G0 F300 X157.593 Y138.36 Z0.36
G0 F6000 X157.593 Y137.9
G0 X141.471 Y137.972
G0 X141.139 Y162.302
G1 F2700 E58.58339
G0 F6000 X141.139 Y162.362
;TIME_ELAPSED:100.452729
;LAYER:1
M106 S85
;TYPE:WALL-INNER
;MESH:SDbox_fixed_loose.stl
G1 F1350 X158.859 Y162.362 E59.05488
G1 X158.859 Y137.64 E59.71269
G1 X141.139 Y137.64 E60.18418
G1 X141.139 Y162.362 E60.84199
G0 F7500 X140.738 Y162.762
G1 F1350 X159.259 Y162.762 E61.3348
G1 X159.259 Y137.257 E62.01344
G1 X159.249 Y137.24 E62.01396
G1 X140.738 Y137.24 E62.50651
G1 X140.738 Y162.762 E63.1856
G0 F7500 X140.338 Y162.918
;TYPE:WALL-OUTER
G1 F1350 X140.582 Y163.162 E63.19478
G1 X159.414 Y163.162 E63.69586
G1 X159.659 Y162.918 E63.70506
G1 X159.659 Y137.257 E64.38785
G1 X159.659 Y137.084 E64.39246
G1 X159.414 Y136.84 E64.40166
G1 X140.582 Y136.84 E64.90274
G1 X140.338 Y137.084 E64.91192
G1 X140.338 Y162.918 E65.59932
G0 F7500 X141.008 Y162.492
G0 X141.239 Y162.002
G0 X141.499 Y162.002
;TYPE:SKIN
G1 F1350 X158.499 Y162.002 E66.05166
G1 X158.499 Y146.5 E66.46413
G1 X158.499 Y138 E66.6903
G1 X141.499 Y138 E67.14264
G1 X141.499 Y162.002 E67.78129
G0 F7500 X141.239 Y162.002
G0 X157.811 Y162.262
G0 X157.811 Y161.8
G1 F1350 X158.298 Y161.313 E67.79961
G0 F7500 X158.298 Y160.747
G1 F1350 X157.245 Y161.8 E67.83924
G0 F7500 X156.68 Y161.8
G1 F1350 X158.298 Y160.182 E67.90012
G0 F7500 X158.298 Y159.616
G1 F1350 X156.114 Y161.8 E67.98231
G0 F7500 X155.548 Y161.8
G1 F1350 X158.298 Y159.05 E68.08579
G0 F7500 X158.298 Y158.485
G1 F1350 X154.982 Y161.8 E68.21055
G0 F7500 X154.417 Y161.8
G1 F1350 X158.298 Y157.919 E68.35659
