; G-Code generated by Simplify3D(R) Version 4.1.2
; Dec 5, 2021 at 2:50:41 PM
; Settings Summary
;   processName,Process1
;   applyToModels,CardTray
;   profileName,Creality CR-10S Pro (modified)
;   profileVersion,2021-05-02 22:29:37
;   baseProfile,
;   printMaterial,PLA
;   printQuality,High
;   printExtruders,
;   extruderName,Primary Extruder
;   extruderToolheadNumber,0
;   extruderDiameter,0.4
;   extruderAutoWidth,0
;   extruderWidth,0.4
;   extrusionMultiplier,0.9
;   extruderUseRetract,1
;   extruderRetractionDistance,5
;   extruderExtraRestartDistance,0
;   extruderRetractionZLift,0
;   extruderRetractionSpeed,1800
;   extruderUseCoasting,0
;   extruderCoastingDistance,0.2
;   extruderUseWipe,0
;   extruderWipeDistance,5
;   primaryExtruder,0
;   layerHeight,0.1
;   topSolidLayers,4
;   bottomSolidLayers,4
;   perimeterOutlines,2
;   printPerimetersInsideOut,1
;   startPointOption,2
;   startPointOriginX,0
;   startPointOriginY,0
;   sequentialIslands,0
;   spiralVaseMode,0
;   firstLayerHeightPercentage,120
;   firstLayerWidthPercentage,150
;   firstLayerUnderspeed,0.5
;   useRaft,0
;   raftExtruder,0
;   raftTopLayers,3
;   raftBaseLayers,2
;   raftOffset,3
;   raftSeparationDistance,0.14
;   raftTopInfill,100
;   aboveRaftSpeedMultiplier,0.3
;   useSkirt,1
;   skirtExtruder,0
;   skirtLayers,2
;   skirtOutlines,2
;   skirtOffset,4
;   usePrimePillar,0
;   primePillarExtruder,999
;   primePillarWidth,12
;   primePillarLocation,7
;   primePillarSpeedMultiplier,1
;   useOozeShield,0
;   oozeShieldExtruder,999
;   oozeShieldOffset,2
;   oozeShieldOutlines,1
;   oozeShieldSidewallShape,1
;   oozeShieldSidewallAngle,30
;   oozeShieldSpeedMultiplier,1
;   infillExtruder,0
;   internalInfillPattern,Rectilinear
;   externalInfillPattern,Rectilinear
;   infillPercentage,10
;   outlineOverlapPercentage,15
;   infillExtrusionWidthPercentage,100
;   minInfillLength,5
;   infillLayerInterval,1
;   internalInfillAngles,45,-45
;   overlapInternalInfillAngles,0
;   externalInfillAngles,45,-45
;   generateSupport,0
;   supportExtruder,0
;   supportInfillPercentage,40
;   supportExtraInflation,0
;   supportBaseLayers,0
;   denseSupportExtruder,0
;   denseSupportLayers,0
;   denseSupportInfillPercentage,70
;   supportLayerInterval,1
;   supportHorizontalPartOffset,0.3
;   supportUpperSeparationLayers,1
;   supportLowerSeparationLayers,1
;   supportType,0
;   supportGridSpacing,3
;   maxOverhangAngle,45
;   supportAngles,0
;   temperatureName,Primary Extruder,Heated Bed
;   temperatureNumber,0,0
;   temperatureSetpointCount,1,1
;   temperatureSetpointLayers,1,1
;   temperatureSetpointTemperatures,210,60
;   temperatureStabilizeAtStartup,1,1
;   temperatureHeatedBed,0,1
;   fanLayers,1,2
;   fanSpeeds,0,100
;   blipFanToFullPower,0
;   adjustSpeedForCooling,1
;   minSpeedLayerTime,15
;   minCoolingSpeedSlowdown,20
;   increaseFanForCooling,0
;   minFanLayerTime,45
;   maxCoolingFanSpeed,100
;   increaseFanForBridging,0
;   bridgingFanSpeed,100
;   use5D,1
;   relativeEdistances,0
;   allowEaxisZeroing,1
;   independentExtruderAxes,0
;   includeM10123,0
;   stickySupport,1
;   applyToolheadOffsets,0
;   gcodeXoffset,0
;   gcodeYoffset,0
;   gcodeZoffset,0
;   overrideMachineDefinition,1
;   machineTypeOverride,0
;   strokeXoverride,300
;   strokeYoverride,300
;   strokeZoverride,400
;   originOffsetXoverride,0
;   originOffsetYoverride,0
;   originOffsetZoverride,0
;   homeXdirOverride,-1
;   homeYdirOverride,-1
;   homeZdirOverride,-1
;   flipXoverride,1
;   flipYoverride,-1
;   flipZoverride,1
;   toolheadOffsets,0,0|0,0|0,0|0,0|0,0|0,0
;   overrideFirmwareConfiguration,1
;   firmwareTypeOverride,RepRap (Marlin/Repetier/Sprinter)
;   GPXconfigOverride,r2
;   baudRateOverride,115200
;   overridePrinterModels,1
;   printerModelsOverride
;   startingGcode,G28 ; home all axes,G29 ; auto-bed level,G1 Z5 F3000 ; lift,G1 X5 Y10 F1500 ; move to prime,G1 Z0.2 F3000 ; get ready to prime,G92 E0 ; reset extrusion distance,G1 Y80 E10 F600 ; prime nozzle,G1 Y100 F5000 ; quick wipe
;   layerChangeGcode,;G90; Absolute positioning,;G1 F9000 Y100 Z100; Move to photo position;,;M240; Make a photo,
;   retractionGcode,
;   toolChangeGcode,
;   endingGcode,G28 X0 ; home X axis,M106 S0 ; turn off cooling fan,M104 S0 ; turn off extruder,M140 S0 ; turn off bed,M84 ; disable motors
;   exportFileFormat,gcode
;   celebration,0
;   celebrationSong,Random Song
;   postProcessing,
;   defaultSpeed,3600
;   outlineUnderspeed,0.5
;   solidInfillUnderspeed,0.8
;   supportUnderspeed,0.8
;   rapidXYspeed,4800
;   rapidZspeed,1002
;   minBridgingArea,50
;   bridgingExtraInflation,0
;   bridgingExtrusionMultiplier,1
;   bridgingSpeedMultiplier,1
;   useFixedBridgingAngle,0
;   fixedBridgingAngle,0
;   applyBridgingToPerimeters,0
;   filamentDiameters,1.75|1.75|1.75|1.75|1.75|1.75
;   filamentPricesPerKg,46|46|46|46|46|46
;   filamentDensities,1.25|1.25|1.25|1.25|1.25|1.25
;   useMinPrintHeight,0
;   minPrintHeight,26.3
;   useMaxPrintHeight,0
;   maxPrintHeight,0
;   useDiaphragm,0
;   diaphragmLayerInterval,20
;   robustSlicing,1
;   mergeAllIntoSolid,0
;   onlyRetractWhenCrossingOutline,1
;   retractBetweenLayers,1
;   useRetractionMinTravel,0
;   retractionMinTravel,3
;   retractWhileWiping,0
;   onlyWipeOutlines,1
;   avoidCrossingOutline,0
;   maxMovementDetourFactor,3
;   toolChangeRetractionDistance,12
;   toolChangeExtraRestartDistance,-0.5
;   toolChangeRetractionSpeed,600
;   externalThinWallType,0
;   internalThinWallType,2
;   thinWallAllowedOverlapPercentage,10
;   singleExtrusionMinLength,1
;   singleExtrusionMinPrintingWidthPercentage,50
;   singleExtrusionMaxPrintingWidthPercentage,200
;   singleExtrusionEndpointExtension,0.2
;   horizontalSizeCompensation,0
G90
M82
M106 S0
M140 S60
M190 S60
M104 S210 T0
M109 S210 T0
G28 ; home all axes
G29 ; auto-bed level
G1 Z5 F3000 ; lift
G1 X5 Y10 F1500 ; move to prime
G1 Z0.2 F3000 ; get ready to prime
G92 E0 ; reset extrusion distance
G1 Y80 E10 F600 ; prime nozzle
G1 Y100 F5000 ; quick wipe
; process Process1
; layer 1, Z = 0.120
T0
G92 E0.0000
G1 E-5.0000 F1800
;G90; Absolute positioning
;G1 F9000 Y100 Z100; Move to photo position;
;M240; Make a photo
; feature skirt
; tool H0.120 W0.600
G1 Z0.120 F1002
G1 X84.568 Y109.583 F4800
G1 E0.0000 F1800
G92 E0.0000
G1 X85.467 Y109.009 E0.0287 F1800
G1 X86.607 Y108.590 E0.0614
G1 X87.458 Y108.439 E0.0847
G1 X212.231 Y108.430 E3.4462
G1 X212.693 Y108.474 E3.4587
G1 X213.585 Y108.644 E3.4832
G1 X214.383 Y108.947 E3.5062
G1 X215.289 Y109.486 E3.5346
G1 X215.910 Y110.012 E3.5565
G1 X216.528 Y110.743 E3.5823
G1 X216.884 Y111.300 E3.6001
G1 X217.219 Y112.025 E3.6216
G1 X217.413 Y112.652 E3.6393
G1 X217.536 Y113.392 E3.6595
G1 X217.570 Y113.797 E3.6704
G1 X217.570 Y135.691 E4.2603
G1 X216.476 Y137.808 E4.3245
G1 X214.679 Y139.082 E4.3838
G1 X213.321 Y139.542 E4.4224
G1 X211.804 Y139.596 E4.4634
G1 X211.158 Y139.660 E4.4808
G1 X210.501 Y139.766 E4.4988
G1 X210.154 Y139.842 E4.5083
G1 X209.234 Y140.099 E4.5341
G1 X208.631 Y140.317 E4.5513
G1 X208.306 Y140.455 E4.5608
G1 X207.500 Y140.855 E4.5851
G1 X206.545 Y141.446 E4.6154
G1 X205.827 Y141.989 E4.6396
G1 X205.559 Y142.218 E4.6491
G1 X205.095 Y142.661 E4.6664
G1 X204.455 Y143.369 E4.6921
G1 X204.232 Y143.646 E4.7017
G1 X203.843 Y144.188 E4.7196
G1 X203.498 Y144.737 E4.7371
G1 X203.205 Y145.277 E4.7537
G1 X202.810 Y146.156 E4.7796
G1 X202.681 Y146.490 E4.7893
G1 X202.479 Y147.117 E4.8070
G1 X202.319 Y147.746 E4.8245
G1 X202.205 Y148.347 E4.8410
G1 X202.100 Y149.312 E4.8671
G1 X202.077 Y149.674 E4.8769
G1 X202.077 Y150.324 E4.8944
G1 X202.118 Y150.976 E4.9120
G1 X202.162 Y151.335 E4.9218
G1 X202.328 Y152.290 E4.9479
G1 X202.481 Y152.890 E4.9646
G1 X202.590 Y153.233 E4.9743
G1 X202.929 Y154.136 E5.0003
G1 X203.194 Y154.704 E5.0171
G1 X203.363 Y155.019 E5.0268
G1 X203.862 Y155.839 E5.0526
G1 X204.222 Y156.340 E5.0692
G1 X204.632 Y156.842 E5.0867
G1 X205.087 Y157.334 E5.1048
G1 X205.341 Y157.580 E5.1143
G1 X206.024 Y158.167 E5.1386
G1 X206.941 Y158.817 E5.1688
G1 X207.653 Y159.227 E5.1910
G1 X208.673 Y159.696 E5.2212
G1 X209.526 Y159.992 E5.2455
G1 X209.866 Y160.089 E5.2551
G1 X210.487 Y160.230 E5.2722
G1 X211.435 Y160.371 E5.2980
G1 X211.790 Y160.403 E5.3076
G1 X213.321 Y160.458 E5.3489
G1 X214.679 Y160.918 E5.3876
G1 X216.476 Y162.192 E5.4469
G1 X217.570 Y164.309 E5.5111
G1 X217.570 Y186.232 E6.1017
G1 X217.526 Y186.693 E6.1142
G1 X217.356 Y187.585 E6.1386
G1 X217.053 Y188.383 E6.1617
G1 X216.514 Y189.288 E6.1900
G1 X215.988 Y189.910 E6.2120
G1 X215.257 Y190.528 E6.2378
G1 X214.700 Y190.884 E6.2556
G1 X213.975 Y191.219 E6.2771
G1 X213.348 Y191.413 E6.2948
G1 X212.608 Y191.536 E6.3150
G1 X212.203 Y191.570 E6.3259
G1 X87.768 Y191.570 E9.6783
G1 X87.307 Y191.526 E9.6908
G1 X86.415 Y191.356 E9.7152
G1 X85.617 Y191.053 E9.7382
G1 X84.711 Y190.514 E9.7666
G1 X84.090 Y189.988 E9.7886
G1 X83.471 Y189.257 E9.8143
G1 X83.116 Y188.699 E9.8322
G1 X82.781 Y187.974 E9.8537
G1 X82.587 Y187.348 E9.8713
G1 X82.464 Y186.608 E9.8916
G1 X82.430 Y186.203 E9.9025
G1 X82.430 Y164.309 E10.4924
G1 X83.524 Y162.192 E10.5565
G1 X85.321 Y160.918 E10.6159
G1 X86.679 Y160.458 E10.6545
G1 X88.196 Y160.404 E10.6954
G1 X88.842 Y160.340 E10.7129
G1 X89.499 Y160.234 E10.7308
G1 X89.846 Y160.158 E10.7404
G1 X90.766 Y159.901 E10.7661
G1 X91.369 Y159.683 E10.7834
G1 X91.694 Y159.545 E10.7929
G1 X92.500 Y159.145 E10.8172
G1 X93.455 Y158.554 E10.8474
G1 X94.173 Y158.011 E10.8717
G1 X94.441 Y157.782 E10.8812
G1 X94.905 Y157.339 E10.8985
G1 X95.545 Y156.630 E10.9242
G1 X95.768 Y156.354 E10.9337
G1 X96.157 Y155.812 E10.9517
G1 X96.502 Y155.263 E10.9692
G1 X96.812 Y154.693 E10.9867
G1 X97.086 Y154.105 E11.0042
G1 X97.322 Y153.500 E11.0216
G1 X97.521 Y152.883 E11.0391
G1 X97.681 Y152.254 E11.0566
G1 X97.802 Y151.616 E11.0741
G1 X97.882 Y150.972 E11.0916
G1 X97.923 Y150.324 E11.1091
G1 X97.923 Y149.676 E11.1265
G1 X97.882 Y149.028 E11.1440
G1 X97.802 Y148.384 E11.1615
G1 X97.681 Y147.746 E11.1790
G1 X97.521 Y147.117 E11.1965
G1 X97.322 Y146.500 E11.2139
G1 X97.086 Y145.896 E11.2314
G1 X96.812 Y145.307 E11.2489
G1 X96.502 Y144.737 E11.2664
G1 X96.157 Y144.187 E11.2839
G1 X95.768 Y143.646 E11.3018
G1 X95.545 Y143.370 E11.3114
G1 X94.905 Y142.661 E11.3371
G1 X94.441 Y142.218 E11.3544
G1 X94.173 Y141.989 E11.3639
G1 X93.456 Y141.446 E11.3881
G1 X92.477 Y140.840 E11.4192
G1 X91.943 Y140.568 E11.4353
G1 X91.375 Y140.321 E11.4520
G1 X90.474 Y140.008 E11.4777
G1 X90.134 Y139.911 E11.4872
G1 X89.513 Y139.770 E11.5043
G1 X88.565 Y139.629 E11.5302
G1 X88.210 Y139.597 E11.5398
G1 X86.679 Y139.542 E11.5811
G1 X85.321 Y139.082 E11.6197
G1 X83.524 Y137.808 E11.6790
G1 X82.430 Y135.691 E11.7432
G1 X82.430 Y113.797 E12.3331
G1 X82.464 Y113.392 E12.3440
G1 X82.587 Y112.652 E12.3642
G1 X82.781 Y112.025 E12.3819
G1 X83.159 Y111.208 E12.4062
G1 X83.654 Y110.498 E12.4295
G1 X84.568 Y109.583 E12.4643
G92 E0.0000
G1 E-5.0000 F1800
G1 X84.947 Y110.054 F4800
G1 E0.0000 F1800
G92 E0.0000
G1 X85.735 Y109.550 E0.0252 F1800
G1 X86.764 Y109.172 E0.0547
G1 X87.511 Y109.039 E0.0752
G1 X212.203 Y109.030 E3.4345
G1 X212.608 Y109.068 E3.4454
G1 X213.421 Y109.224 E3.4677
G1 X214.121 Y109.490 E3.4879
G1 X214.939 Y109.976 E3.5135
G1 X215.484 Y110.438 E3.5328
G1 X216.044 Y111.099 E3.5561
G1 X216.356 Y111.589 E3.5718
G1 X216.658 Y112.241 E3.5911
G1 X216.827 Y112.790 E3.6066
G1 X216.940 Y113.466 E3.6251
G1 X216.970 Y113.822 E3.6347
G1 X216.970 Y135.545 E4.2199
G1 X216.010 Y137.403 E4.2763
G1 X214.404 Y138.542 E4.3293
G1 X213.212 Y138.945 E4.3632
G1 X211.764 Y138.997 E4.4023
G1 X211.081 Y139.064 E4.4207
G1 X210.388 Y139.176 E4.4396
G1 X210.009 Y139.259 E4.4501
G1 X209.051 Y139.527 E4.4769
G1 X208.412 Y139.758 E4.4952
G1 X208.056 Y139.909 E4.5056
G1 X207.208 Y140.330 E4.5311
G1 X206.205 Y140.950 E4.5629
G1 X205.450 Y141.522 E4.5884
G1 X205.157 Y141.773 E4.5988
G1 X204.665 Y142.242 E4.6171
G1 X203.998 Y142.980 E4.6439
G1 X203.754 Y143.283 E4.6544
G1 X203.345 Y143.853 E4.6733
G1 X202.980 Y144.434 E4.6918
G1 X202.667 Y145.011 E4.7095
G1 X202.256 Y145.924 E4.7365
G1 X202.115 Y146.290 E4.7470
G1 X201.902 Y146.951 E4.7657
G1 X201.733 Y147.616 E4.7842
G1 X201.612 Y148.258 E4.8018
G1 X201.502 Y149.261 E4.8290
G1 X201.477 Y149.655 E4.8397
G1 X201.477 Y150.343 E4.8582
G1 X201.520 Y151.031 E4.8767
G1 X201.569 Y151.423 E4.8874
G1 X201.741 Y152.415 E4.9145
G1 X201.904 Y153.055 E4.9323
G1 X202.023 Y153.430 E4.9429
G1 X202.376 Y154.368 E4.9699
G1 X202.657 Y154.973 E4.9879
G1 X202.842 Y155.317 E4.9984
G1 X203.362 Y156.170 E5.0253
G1 X203.745 Y156.705 E5.0430
G1 X204.179 Y157.236 E5.0615
G1 X204.658 Y157.753 E5.0805
G1 X204.936 Y158.023 E5.0909
G1 X205.654 Y158.641 E5.1165
G1 X206.617 Y159.322 E5.1482
G1 X207.377 Y159.761 E5.1719
G1 X208.449 Y160.253 E5.2037
G1 X209.345 Y160.565 E5.2292
G1 X209.718 Y160.671 E5.2397
G1 X210.376 Y160.820 E5.2579
G1 X211.363 Y160.966 E5.2847
G1 X211.752 Y161.002 E5.2952
G1 X213.212 Y161.055 E5.3346
G1 X214.404 Y161.458 E5.3685
G1 X216.010 Y162.597 E5.4216
G1 X216.970 Y164.455 E5.4779
G1 X216.970 Y186.203 E6.0638
G1 X216.932 Y186.608 E6.0748
G1 X216.776 Y187.420 E6.0971
G1 X216.510 Y188.121 E6.1172
G1 X216.024 Y188.939 E6.1429
G1 X215.562 Y189.484 E6.1621
G1 X214.900 Y190.044 E6.1855
G1 X214.411 Y190.356 E6.2011
G1 X213.759 Y190.658 E6.2205
G1 X213.210 Y190.827 E6.2360
G1 X212.534 Y190.940 E6.2544
G1 X212.178 Y190.970 E6.2640
G1 X87.797 Y190.970 E9.6150
G1 X87.392 Y190.932 E9.6259
G1 X86.580 Y190.776 E9.6482
G1 X85.879 Y190.510 E9.6684
G1 X85.061 Y190.024 E9.6940
G1 X84.516 Y189.562 E9.7133
G1 X83.956 Y188.900 E9.7366
G1 X83.643 Y188.411 E9.7523
G1 X83.342 Y187.759 E9.7716
G1 X83.173 Y187.210 E9.7871
G1 X83.060 Y186.534 E9.8056
G1 X83.030 Y186.178 E9.8152
G1 X83.030 Y164.455 E10.4004
G1 X83.990 Y162.597 E10.4568
G1 X85.596 Y161.458 E10.5098
G1 X86.788 Y161.055 E10.5437
G1 X88.236 Y161.003 E10.5827
G1 X88.919 Y160.936 E10.6012
G1 X89.611 Y160.824 E10.6201
G1 X89.991 Y160.741 E10.6306
G1 X90.949 Y160.473 E10.6574
G1 X91.588 Y160.242 E10.6757
G1 X91.944 Y160.091 E10.6861
G1 X92.792 Y159.670 E10.7116
G1 X93.795 Y159.050 E10.7434
G1 X94.550 Y158.478 E10.7689
G1 X94.843 Y158.227 E10.7793
G1 X95.335 Y157.758 E10.7976
G1 X96.002 Y157.020 E10.8244
G1 X96.246 Y156.717 E10.8349
G1 X96.655 Y156.147 E10.8538
G1 X97.020 Y155.566 E10.8723
G1 X97.348 Y154.963 E10.8908
G1 X97.637 Y154.341 E10.9093
G1 X97.888 Y153.702 E10.9277
G1 X98.098 Y153.048 E10.9462
G1 X98.267 Y152.384 E10.9647
G1 X98.395 Y151.709 E10.9832
G1 X98.480 Y151.028 E11.0017
G1 X98.523 Y150.343 E11.0202
G1 X98.523 Y149.657 E11.0387
G1 X98.480 Y148.972 E11.0572
G1 X98.395 Y148.291 E11.0757
G1 X98.267 Y147.616 E11.0942
G1 X98.098 Y146.952 E11.1126
G1 X97.888 Y146.298 E11.1311
G1 X97.637 Y145.659 E11.1496
G1 X97.348 Y145.037 E11.1681
G1 X97.020 Y144.434 E11.1866
G1 X96.655 Y143.853 E11.2051
G1 X96.246 Y143.283 E11.2240
G1 X96.002 Y142.980 E11.2345
G1 X95.335 Y142.242 E11.2613
G1 X94.843 Y141.773 E11.2796
G1 X94.550 Y141.522 E11.2900
G1 X93.795 Y140.950 E11.3155
G1 X92.771 Y140.317 E11.3479
G1 X92.199 Y140.025 E11.3652
G1 X91.593 Y139.762 E11.3830
G1 X90.655 Y139.435 E11.4098
G1 X90.282 Y139.329 E11.4202
G1 X89.624 Y139.180 E11.4384
G1 X88.637 Y139.034 E11.4653
G1 X88.248 Y138.998 E11.4758
G1 X86.788 Y138.945 E11.5152
G1 X85.596 Y138.542 E11.5491
G1 X83.990 Y137.403 E11.6021
G1 X83.030 Y135.545 E11.6584
G1 X83.030 Y113.822 E12.2437
G1 X83.060 Y113.466 E12.2533
G1 X83.173 Y112.790 E12.2718
G1 X83.342 Y112.241 E12.2873
G1 X83.681 Y111.508 E12.3090
G1 X84.116 Y110.884 E12.3295
G1 X84.947 Y110.054 E12.3611
G92 E0.0000
G1 E-5.0000 F1800
; feature inner perimeter
G1 X88.340 Y114.348 F4800
G1 E0.0000 F1800
G92 E0.0000
G1 X211.660 Y114.340 E3.3223 F1350
G1 X211.660 Y133.674 E3.8432
G1 X210.458 Y133.788 E3.8757
G1 X209.462 Y133.945 E3.9029
G1 X208.589 Y134.136 E3.9270
G1 X207.506 Y134.442 E3.9573
G1 X206.553 Y134.781 E3.9845
G1 X205.730 Y135.129 E4.0086
G1 X204.722 Y135.630 E4.0389
G1 X203.849 Y136.138 E4.0662
G1 X203.104 Y136.632 E4.0902
G1 X202.207 Y137.310 E4.1205
G1 X201.528 Y137.892 E4.1446
G1 X200.800 Y138.593 E4.1718
