; G-Code generated by Simplify3D(R) Version 4.1.2
; Dec 5, 2021 at 2:49:49 PM
; Settings Summary
;   processName,Process1
;   applyToModels,StarterTileTray
;   profileName,Creality CR-10S Pro (modified)
;   profileVersion,2021-05-02 22:29:37
;   baseProfile,
;   printMaterial,PLA
;   printQuality,High
;   printExtruders,
;   extruderName,Primary Extruder
;   extruderToolheadNumber,0
;   extruderDiameter,0.4
;   extruderAutoWidth,0
;   extruderWidth,0.4
;   extrusionMultiplier,0.9
;   extruderUseRetract,1
;   extruderRetractionDistance,5
;   extruderExtraRestartDistance,0
;   extruderRetractionZLift,0
;   extruderRetractionSpeed,1800
;   extruderUseCoasting,0
;   extruderCoastingDistance,0.2
;   extruderUseWipe,0
;   extruderWipeDistance,5
;   primaryExtruder,0
;   layerHeight,0.1
;   topSolidLayers,4
;   bottomSolidLayers,4
;   perimeterOutlines,2
;   printPerimetersInsideOut,1
;   startPointOption,2
;   startPointOriginX,0
;   startPointOriginY,0
;   sequentialIslands,0
;   spiralVaseMode,0
;   firstLayerHeightPercentage,120
;   firstLayerWidthPercentage,150
;   firstLayerUnderspeed,0.5
;   useRaft,0
;   raftExtruder,0
;   raftTopLayers,3
;   raftBaseLayers,2
;   raftOffset,3
;   raftSeparationDistance,0.14
;   raftTopInfill,100
;   aboveRaftSpeedMultiplier,0.3
;   useSkirt,1
;   skirtExtruder,0
;   skirtLayers,2
;   skirtOutlines,2
;   skirtOffset,4
;   usePrimePillar,0
;   primePillarExtruder,999
;   primePillarWidth,12
;   primePillarLocation,7
;   primePillarSpeedMultiplier,1
;   useOozeShield,0
;   oozeShieldExtruder,999
;   oozeShieldOffset,2
;   oozeShieldOutlines,1
;   oozeShieldSidewallShape,1
;   oozeShieldSidewallAngle,30
;   oozeShieldSpeedMultiplier,1
;   infillExtruder,0
;   internalInfillPattern,Rectilinear
;   externalInfillPattern,Rectilinear
;   infillPercentage,10
;   outlineOverlapPercentage,15
;   infillExtrusionWidthPercentage,100
;   minInfillLength,5
;   infillLayerInterval,1
;   internalInfillAngles,45,-45
;   overlapInternalInfillAngles,0
;   externalInfillAngles,45,-45
;   generateSupport,0
;   supportExtruder,0
;   supportInfillPercentage,40
;   supportExtraInflation,0
;   supportBaseLayers,0
;   denseSupportExtruder,0
;   denseSupportLayers,0
;   denseSupportInfillPercentage,70
;   supportLayerInterval,1
;   supportHorizontalPartOffset,0.3
;   supportUpperSeparationLayers,1
;   supportLowerSeparationLayers,1
;   supportType,0
;   supportGridSpacing,3
;   maxOverhangAngle,45
;   supportAngles,0
;   temperatureName,Primary Extruder,Heated Bed
;   temperatureNumber,0,0
;   temperatureSetpointCount,1,1
;   temperatureSetpointLayers,1,1
;   temperatureSetpointTemperatures,210,60
;   temperatureStabilizeAtStartup,1,1
;   temperatureHeatedBed,0,1
;   fanLayers,1,2
;   fanSpeeds,0,100
;   blipFanToFullPower,0
;   adjustSpeedForCooling,1
;   minSpeedLayerTime,15
;   minCoolingSpeedSlowdown,20
;   increaseFanForCooling,0
;   minFanLayerTime,45
;   maxCoolingFanSpeed,100
;   increaseFanForBridging,0
;   bridgingFanSpeed,100
;   use5D,1
;   relativeEdistances,0
;   allowEaxisZeroing,1
;   independentExtruderAxes,0
;   includeM10123,0
;   stickySupport,1
;   applyToolheadOffsets,0
;   gcodeXoffset,0
;   gcodeYoffset,0
;   gcodeZoffset,0
;   overrideMachineDefinition,1
;   machineTypeOverride,0
;   strokeXoverride,300
;   strokeYoverride,300
;   strokeZoverride,400
;   originOffsetXoverride,0
;   originOffsetYoverride,0
;   originOffsetZoverride,0
;   homeXdirOverride,-1
;   homeYdirOverride,-1
;   homeZdirOverride,-1
;   flipXoverride,1
;   flipYoverride,-1
;   flipZoverride,1
;   toolheadOffsets,0,0|0,0|0,0|0,0|0,0|0,0
;   overrideFirmwareConfiguration,1
;   firmwareTypeOverride,RepRap (Marlin/Repetier/Sprinter)
;   GPXconfigOverride,r2
;   baudRateOverride,115200
;   overridePrinterModels,1
;   printerModelsOverride
;   startingGcode,G28 ; home all axes,G29 ; auto-bed level,G1 Z5 F3000 ; lift,G1 X5 Y10 F1500 ; move to prime,G1 Z0.2 F3000 ; get ready to prime,G92 E0 ; reset extrusion distance,G1 Y80 E10 F600 ; prime nozzle,G1 Y100 F5000 ; quick wipe
;   layerChangeGcode,;G90; Absolute positioning,;G1 F9000 Y100 Z100; Move to photo position;,;M240; Make a photo,
;   retractionGcode,
;   toolChangeGcode,
;   endingGcode,G28 X0 ; home X axis,M106 S0 ; turn off cooling fan,M104 S0 ; turn off extruder,M140 S0 ; turn off bed,M84 ; disable motors
;   exportFileFormat,gcode
;   celebration,0
;   celebrationSong,Random Song
;   postProcessing,
;   defaultSpeed,3600
;   outlineUnderspeed,0.5
;   solidInfillUnderspeed,0.8
;   supportUnderspeed,0.8
;   rapidXYspeed,4800
;   rapidZspeed,1002
;   minBridgingArea,50
;   bridgingExtraInflation,0
;   bridgingExtrusionMultiplier,1
;   bridgingSpeedMultiplier,1
;   useFixedBridgingAngle,0
;   fixedBridgingAngle,0
;   applyBridgingToPerimeters,0
;   filamentDiameters,1.75|1.75|1.75|1.75|1.75|1.75
;   filamentPricesPerKg,46|46|46|46|46|46
;   filamentDensities,1.25|1.25|1.25|1.25|1.25|1.25
;   useMinPrintHeight,0
;   minPrintHeight,26.3
;   useMaxPrintHeight,0
;   maxPrintHeight,0
;   useDiaphragm,0
;   diaphragmLayerInterval,20
;   robustSlicing,1
;   mergeAllIntoSolid,0
;   onlyRetractWhenCrossingOutline,1
;   retractBetweenLayers,1
;   useRetractionMinTravel,0
;   retractionMinTravel,3
;   retractWhileWiping,0
;   onlyWipeOutlines,1
;   avoidCrossingOutline,0
;   maxMovementDetourFactor,3
;   toolChangeRetractionDistance,12
;   toolChangeExtraRestartDistance,-0.5
;   toolChangeRetractionSpeed,600
;   externalThinWallType,0
;   internalThinWallType,2
;   thinWallAllowedOverlapPercentage,10
;   singleExtrusionMinLength,1
;   singleExtrusionMinPrintingWidthPercentage,50
;   singleExtrusionMaxPrintingWidthPercentage,200
;   singleExtrusionEndpointExtension,0.2
;   horizontalSizeCompensation,0
G90
M82
M106 S0
M140 S60
M190 S60
M104 S210 T0
M109 S210 T0
G28 ; home all axes
G29 ; auto-bed level
G1 Z5 F3000 ; lift
G1 X5 Y10 F1500 ; move to prime
G1 Z0.2 F3000 ; get ready to prime
G92 E0 ; reset extrusion distance
G1 Y80 E10 F600 ; prime nozzle
G1 Y100 F5000 ; quick wipe
; process Process1
; layer 1, Z = 0.120
T0
G92 E0.0000
G1 E-5.0000 F1800
;G90; Absolute positioning
;G1 F9000 Y100 Z100; Move to photo position;
;M240; Make a photo
; feature skirt
; tool H0.120 W0.600
G1 Z0.120 F1002
G1 X100.088 Y91.256 F4800
G1 E0.0000 F1800
G92 E0.0000
G1 X100.257 Y91.088 E0.0064 F1800
G1 X100.876 Y90.526 E0.0289
G1 X101.059 Y90.375 E0.0353
G1 X101.730 Y89.876 E0.0579
G1 X101.928 Y89.744 E0.0643
G1 X102.648 Y89.309 E0.0869
G1 X102.868 Y89.191 E0.0937
G1 X103.688 Y88.805 E0.1181
G1 X103.917 Y88.710 E0.1248
G1 X104.710 Y88.430 E0.1474
G1 X104.937 Y88.362 E0.1538
G1 X105.748 Y88.161 E0.1763
G1 X105.982 Y88.115 E0.1827
G1 X106.809 Y87.994 E0.2053
G1 X107.046 Y87.971 E0.2117
G1 X107.822 Y87.933 E0.2326
G1 X107.941 Y87.930 E0.2358
G1 X192.059 Y87.930 E2.5020
G1 X192.178 Y87.933 E2.5052
G1 X192.954 Y87.971 E2.5261
G1 X193.191 Y87.994 E2.5326
G1 X194.018 Y88.115 E2.5551
G1 X194.252 Y88.161 E2.5615
G1 X195.069 Y88.363 E2.5842
G1 X195.307 Y88.435 E2.5909
G1 X196.160 Y88.741 E2.6153
G1 X196.388 Y88.837 E2.6220
G1 X197.144 Y89.198 E2.6445
G1 X197.348 Y89.307 E2.6508
G1 X198.007 Y89.702 E2.6715
G1 X198.198 Y89.829 E2.6776
G1 X198.930 Y90.366 E2.7021
G1 X199.142 Y90.541 E2.7095
G1 X199.806 Y91.154 E2.7338
G1 X199.960 Y91.309 E2.7397
G1 X200.475 Y91.877 E2.7604
G1 X200.625 Y92.060 E2.7668
G1 X201.124 Y92.730 E2.7893
G1 X201.256 Y92.927 E2.7957
G1 X201.691 Y93.648 E2.8183
G1 X201.809 Y93.869 E2.8251
G1 X202.196 Y94.688 E2.8495
G1 X202.290 Y94.917 E2.8561
G1 X202.569 Y95.706 E2.8787
G1 X202.636 Y95.928 E2.8849
G1 X202.822 Y96.673 E2.9056
G1 X202.867 Y96.897 E2.9118
G1 X203.004 Y97.785 E2.9360
G1 X203.029 Y98.038 E2.9428
G1 X203.067 Y98.822 E2.9640
G1 X203.070 Y98.941 E2.9672
G1 X203.070 Y201.059 E5.7183
G1 X203.067 Y201.178 E5.7216
G1 X203.029 Y201.954 E5.7425
G1 X203.006 Y202.191 E5.7489
G1 X202.885 Y203.018 E5.7714
G1 X202.839 Y203.251 E5.7778
G1 X202.637 Y204.069 E5.8005
G1 X202.565 Y204.308 E5.8072
G1 X202.259 Y205.160 E5.8316
G1 X202.163 Y205.388 E5.8383
G1 X201.801 Y206.147 E5.8609
G1 X201.688 Y206.357 E5.8674
G1 X201.256 Y207.073 E5.8899
G1 X201.124 Y207.270 E5.8963
G1 X200.625 Y207.941 E5.9188
G1 X200.474 Y208.124 E5.9252
G1 X199.912 Y208.744 E5.9477
G1 X199.744 Y208.912 E5.9541
G1 X199.124 Y209.474 E5.9767
G1 X198.941 Y209.625 E5.9831
G1 X198.270 Y210.124 E6.0056
G1 X198.073 Y210.256 E6.0120
G1 X197.357 Y210.688 E6.0345
G1 X197.147 Y210.801 E6.0409
G1 X196.388 Y211.163 E6.0636
G1 X196.160 Y211.259 E6.0703
G1 X195.307 Y211.565 E6.0947
G1 X195.069 Y211.637 E6.1014
G1 X194.251 Y211.839 E6.1241
G1 X194.018 Y211.885 E6.1305
G1 X193.191 Y212.006 E6.1530
G1 X192.954 Y212.029 E6.1594
G1 X192.178 Y212.067 E6.1803
G1 X192.059 Y212.070 E6.1835
G1 X107.931 Y212.070 E8.4500
G1 X107.794 Y212.066 E8.4537
G1 X106.958 Y212.019 E8.4763
G1 X106.735 Y211.997 E8.4823
G1 X105.976 Y211.884 E8.5030
G1 X105.747 Y211.839 E8.5093
G1 X104.937 Y211.638 E8.5317
G1 X104.709 Y211.570 E8.5382
G1 X103.917 Y211.290 E8.5608
G1 X103.688 Y211.196 E8.5675
G1 X102.869 Y210.809 E8.5919
G1 X102.648 Y210.691 E8.5986
G1 X101.927 Y210.256 E8.6213
G1 X101.730 Y210.124 E8.6277
G1 X101.060 Y209.625 E8.6502
G1 X100.877 Y209.475 E8.6566
G1 X100.309 Y208.960 E8.6772
G1 X100.154 Y208.806 E8.6831
G1 X99.546 Y208.148 E8.7072
G1 X99.381 Y207.949 E8.7142
G1 X98.876 Y207.270 E8.7370
G1 X98.744 Y207.072 E8.7434
G1 X98.312 Y206.357 E8.7659
G1 X98.199 Y206.147 E8.7723
G1 X97.837 Y205.388 E8.7950
G1 X97.741 Y205.160 E8.8017
G1 X97.435 Y204.308 E8.8261
G1 X97.363 Y204.069 E8.8328
G1 X97.161 Y203.253 E8.8554
G1 X97.116 Y203.024 E8.8617
G1 X97.003 Y202.265 E8.8824
G1 X96.981 Y202.042 E8.8884
G1 X96.934 Y201.206 E8.9110
G1 X96.930 Y201.068 E8.9147
G1 X96.933 Y98.880 E11.6677
G1 X96.936 Y98.760 E11.6709
G1 X96.971 Y98.044 E11.6903
G1 X96.994 Y97.808 E11.6966
G1 X97.115 Y96.982 E11.7191
G1 X97.161 Y96.749 E11.7255
G1 X97.363 Y95.932 E11.7482
G1 X97.435 Y95.693 E11.7550
G1 X97.741 Y94.840 E11.7794
G1 X97.837 Y94.612 E11.7860
G1 X98.199 Y93.853 E11.8087
G1 X98.312 Y93.643 E11.8151
G1 X98.744 Y92.927 E11.8376
G1 X98.876 Y92.730 E11.8440
G1 X99.375 Y92.059 E11.8665
G1 X99.527 Y91.876 E11.8730
G1 X100.088 Y91.256 E11.8955
G92 E0.0000
G1 E-5.0000 F1800
G1 X100.523 Y91.670 F4800
G1 E0.0000 F1800
G92 E0.0000
G1 X100.670 Y91.523 E0.0056 F1800
G1 X101.268 Y90.981 E0.0274
G1 X101.429 Y90.848 E0.0330
G1 X102.077 Y90.366 E0.0547
G1 X102.250 Y90.250 E0.0603
G1 X102.945 Y89.831 E0.0822
G1 X103.138 Y89.727 E0.0881
G1 X103.930 Y89.354 E0.1117
G1 X104.131 Y89.271 E0.1176
G1 X104.896 Y89.001 E0.1394
G1 X105.095 Y88.941 E0.1450
G1 X105.878 Y88.747 E0.1668
G1 X106.083 Y88.707 E0.1724
G1 X106.882 Y88.589 E0.1941
G1 X107.090 Y88.569 E0.1998
G1 X107.844 Y88.533 E0.2201
G1 X107.948 Y88.530 E0.2229
G1 X192.052 Y88.530 E2.4887
G1 X192.156 Y88.533 E2.4915
G1 X192.910 Y88.569 E2.5119
G1 X193.118 Y88.589 E2.5175
G1 X193.917 Y88.707 E2.5392
G1 X194.122 Y88.747 E2.5449
G1 X194.910 Y88.942 E2.5667
G1 X195.119 Y89.005 E2.5726
G1 X195.943 Y89.301 E2.5962
G1 X196.144 Y89.385 E2.6021
G1 X196.873 Y89.733 E2.6238
G1 X197.052 Y89.829 E2.6293
G1 X197.687 Y90.210 E2.6493
G1 X197.854 Y90.321 E2.6547
G1 X198.561 Y90.840 E2.6783
G1 X198.747 Y90.993 E2.6848
G1 X199.389 Y91.586 E2.7083
G1 X199.524 Y91.722 E2.7135
G1 X200.020 Y92.269 E2.7334
G1 X200.152 Y92.430 E2.7390
G1 X200.634 Y93.076 E2.7607
G1 X200.750 Y93.250 E2.7663
G1 X201.169 Y93.945 E2.7882
G1 X201.273 Y94.138 E2.7941
G1 X201.646 Y94.930 E2.8177
G1 X201.729 Y95.131 E2.8236
G1 X201.998 Y95.893 E2.8453
G1 X202.057 Y96.087 E2.8508
G1 X202.237 Y96.806 E2.8708
G1 X202.276 Y97.002 E2.8762
G1 X202.408 Y97.861 E2.8996
G1 X202.430 Y98.083 E2.9056
G1 X202.467 Y98.843 E2.9261
G1 X202.470 Y98.948 E2.9289
G1 X202.470 Y201.052 E5.6797
G1 X202.467 Y201.156 E5.6825
G1 X202.431 Y201.910 E5.7028
G1 X202.411 Y202.118 E5.7084
G1 X202.293 Y202.917 E5.7302
G1 X202.253 Y203.121 E5.7358
G1 X202.058 Y203.910 E5.7577
G1 X201.995 Y204.119 E5.7636
G1 X201.699 Y204.943 E5.7872
G1 X201.615 Y205.143 E5.7930
G1 X201.266 Y205.875 E5.8149
G1 X201.167 Y206.059 E5.8205
G1 X200.750 Y206.750 E5.8422
G1 X200.634 Y206.924 E5.8478
G1 X200.152 Y207.571 E5.8696
G1 X200.019 Y207.732 E5.8752
G1 X199.477 Y208.330 E5.8969
G1 X199.330 Y208.477 E5.9026
G1 X198.732 Y209.019 E5.9243
G1 X198.571 Y209.152 E5.9299
G1 X197.923 Y209.634 E5.9517
G1 X197.750 Y209.750 E5.9573
G1 X197.059 Y210.167 E5.9790
G1 X196.875 Y210.266 E5.9847
G1 X196.143 Y210.615 E6.0065
G1 X195.943 Y210.699 E6.0124
G1 X195.119 Y210.995 E6.0359
G1 X194.909 Y211.058 E6.0418
G1 X194.121 Y211.253 E6.0637
G1 X193.916 Y211.294 E6.0693
G1 X193.118 Y211.411 E6.0911
G1 X192.910 Y211.431 E6.0967
G1 X192.157 Y211.467 E6.1170
G1 X192.052 Y211.470 E6.1198
G1 X107.940 Y211.470 E8.3859
G1 X107.820 Y211.467 E8.3891
G1 X107.005 Y211.421 E8.4111
G1 X106.810 Y211.401 E8.4164
G1 X106.078 Y211.293 E8.4363
G1 X105.877 Y211.253 E8.4419
G1 X105.096 Y211.059 E8.4635
G1 X104.895 Y210.999 E8.4692
G1 X104.131 Y210.729 E8.4910
G1 X103.930 Y210.646 E8.4969
G1 X103.138 Y210.273 E8.5205
G1 X102.945 Y210.169 E8.5264
G1 X102.250 Y209.750 E8.5482
G1 X102.076 Y209.634 E8.5539
G1 X101.430 Y209.152 E8.5756
G1 X101.269 Y209.021 E8.5812
G1 X100.722 Y208.525 E8.6011
G1 X100.586 Y208.389 E8.6062
G1 X99.998 Y207.752 E8.6296
G1 X99.853 Y207.578 E8.6357
G1 X99.366 Y206.923 E8.6577
G1 X99.250 Y206.750 E8.6633
G1 X98.833 Y206.059 E8.6850
G1 X98.734 Y205.875 E8.6907
G1 X98.385 Y205.143 E8.7125
G1 X98.301 Y204.943 E8.7184
G1 X98.005 Y204.119 E8.7419
G1 X97.942 Y203.909 E8.7478
G1 X97.747 Y203.123 E8.7697
G1 X97.707 Y202.922 E8.7752
G1 X97.599 Y202.190 E8.7951
G1 X97.579 Y201.995 E8.8004
G1 X97.533 Y201.180 E8.8224
G1 X97.530 Y201.060 E8.8256
G1 X97.533 Y98.888 E11.5782
G1 X97.535 Y98.782 E11.5811
G1 X97.569 Y98.088 E11.5998
G1 X97.589 Y97.881 E11.6054
G1 X97.707 Y97.084 E11.6271
G1 X97.747 Y96.879 E11.6327
G1 X97.942 Y96.091 E11.6546
G1 X98.005 Y95.881 E11.6605
G1 X98.301 Y95.057 E11.6841
G1 X98.385 Y94.857 E11.6899
G1 X98.734 Y94.125 E11.7118
G1 X98.833 Y93.941 E11.7174
G1 X99.250 Y93.250 E11.7392
G1 X99.366 Y93.077 E11.7448
G1 X99.848 Y92.429 E11.7665
G1 X99.981 Y92.268 E11.7722
G1 X100.523 Y91.670 E11.7939
G92 E0.0000
G1 E-5.0000 F1800
; feature inner perimeter
G1 X104.352 Y95.352 F4800
G1 E0.0000 F1800
G92 E0.0000
G1 X104.726 Y95.014 E0.0136 F1350
G1 X105.130 Y94.713 E0.0272
G1 X105.561 Y94.454 E0.0407
G1 X106.035 Y94.230 E0.0548
G1 X106.509 Y94.061 E0.0684
G1 X106.998 Y93.939 E0.0820
G1 X107.497 Y93.866 E0.0955
G1 X108.022 Y93.840 E0.1097
G1 X191.978 Y93.840 E2.3715
G1 X192.503 Y93.866 E2.3857
G1 X193.002 Y93.939 E2.3993
G1 X193.491 Y94.061 E2.4129
G1 X193.965 Y94.230 E2.4264
G1 X194.439 Y94.454 E2.4405
G1 X194.870 Y94.713 E2.4541
G1 X195.273 Y95.013 E2.4676
G1 X195.661 Y95.366 E2.4818
G1 X195.986 Y95.725 E2.4948
G1 X196.287 Y96.130 E2.5084
G1 X196.546 Y96.561 E2.5220
G1 X196.770 Y97.035 E2.5361
G1 X196.939 Y97.509 E2.5496
G1 X197.061 Y97.998 E2.5632
G1 X197.132 Y98.477 E2.5763
G1 X197.160 Y99.023 E2.5910
G1 X197.160 Y200.978 E5.3377
G1 X197.134 Y201.503 E5.3519
G1 X197.061 Y202.002 E5.3655
G1 X196.939 Y202.491 E5.3790
G1 X196.769 Y202.966 E5.3926
G1 X196.555 Y203.421 E5.4062
G1 X196.286 Y203.871 E5.4203
G1 X195.999 Y204.258 E5.4333
G1 X195.633 Y204.662 E5.4480
G1 X195.275 Y204.986 E5.4610
G1 X194.870 Y205.287 E5.4746
G1 X194.439 Y205.546 E5.4881
G1 X193.965 Y205.770 E5.5022
G1 X193.491 Y205.939 E5.5158
G1 X193.002 Y206.061 E5.5294
G1 X192.503 Y206.134 E5.5430
G1 X191.978 Y206.160 E5.5571
G1 X108.023 Y206.160 E7.8189
G1 X107.477 Y206.132 E7.8337
G1 X106.998 Y206.061 E7.8467
G1 X106.509 Y205.939 E7.8603
G1 X106.035 Y205.770 E7.8738
G1 X105.561 Y205.546 E7.8880
G1 X105.130 Y205.287 E7.9015
G1 X104.725 Y204.986 E7.9151
G1 X104.366 Y204.661 E7.9281
G1 X104.013 Y204.273 E7.9423
G1 X103.713 Y203.870 E7.9558
G1 X103.454 Y203.438 E7.9694
G1 X103.238 Y202.983 E7.9830
G1 X103.061 Y202.490 E7.9971
G1 X102.939 Y202.002 E8.0106
G1 X102.868 Y201.523 E8.0237
G1 X102.840 Y200.977 E8.0384
G1 X102.841 Y99.001 E10.7857
G1 X102.866 Y98.497 E10.7993
