; G-Code generated by Simplify3D(R) Version 4.1.2
; Dec 4, 2021 at 9:42:33 PM
; Settings Summary
;   processName,Process1
;   applyToModels,Body3
;   profileName,Creality CR-10S Pro (modified)
;   profileVersion,2021-05-02 22:29:37
;   baseProfile,
;   printMaterial,PLA
;   printQuality,High
;   printExtruders,
;   extruderName,Primary Extruder
;   extruderToolheadNumber,0
;   extruderDiameter,0.4
;   extruderAutoWidth,0
;   extruderWidth,0.4
;   extrusionMultiplier,0.9
;   extruderUseRetract,1
;   extruderRetractionDistance,5
;   extruderExtraRestartDistance,0
;   extruderRetractionZLift,0
;   extruderRetractionSpeed,1800
;   extruderUseCoasting,0
;   extruderCoastingDistance,0.2
;   extruderUseWipe,0
;   extruderWipeDistance,5
;   primaryExtruder,0
;   layerHeight,0.1
;   topSolidLayers,4
;   bottomSolidLayers,4
;   perimeterOutlines,2
;   printPerimetersInsideOut,1
;   startPointOption,2
;   startPointOriginX,0
;   startPointOriginY,0
;   sequentialIslands,0
;   spiralVaseMode,0
;   firstLayerHeightPercentage,120
;   firstLayerWidthPercentage,150
;   firstLayerUnderspeed,0.5
;   useRaft,0
;   raftExtruder,0
;   raftTopLayers,3
;   raftBaseLayers,2
;   raftOffset,3
;   raftSeparationDistance,0.14
;   raftTopInfill,100
;   aboveRaftSpeedMultiplier,0.3
;   useSkirt,1
;   skirtExtruder,0
;   skirtLayers,2
;   skirtOutlines,2
;   skirtOffset,4
;   usePrimePillar,0
;   primePillarExtruder,999
;   primePillarWidth,12
;   primePillarLocation,7
;   primePillarSpeedMultiplier,1
;   useOozeShield,0
;   oozeShieldExtruder,999
;   oozeShieldOffset,2
;   oozeShieldOutlines,1
;   oozeShieldSidewallShape,1
;   oozeShieldSidewallAngle,30
;   oozeShieldSpeedMultiplier,1
;   infillExtruder,0
;   internalInfillPattern,Rectilinear
;   externalInfillPattern,Rectilinear
;   infillPercentage,30
;   outlineOverlapPercentage,15
;   infillExtrusionWidthPercentage,100
;   minInfillLength,5
;   infillLayerInterval,1
;   internalInfillAngles,45,-45
;   overlapInternalInfillAngles,0
;   externalInfillAngles,45,-45
;   generateSupport,0
;   supportExtruder,0
;   supportInfillPercentage,40
;   supportExtraInflation,0
;   supportBaseLayers,0
;   denseSupportExtruder,0
;   denseSupportLayers,0
;   denseSupportInfillPercentage,70
;   supportLayerInterval,1
;   supportHorizontalPartOffset,0.3
;   supportUpperSeparationLayers,1
;   supportLowerSeparationLayers,1
;   supportType,0
;   supportGridSpacing,3
;   maxOverhangAngle,45
;   supportAngles,0
;   temperatureName,Primary Extruder,Heated Bed
;   temperatureNumber,0,0
;   temperatureSetpointCount,1,1
;   temperatureSetpointLayers,1,1
;   temperatureSetpointTemperatures,210,60
;   temperatureStabilizeAtStartup,1,1
;   temperatureHeatedBed,0,1
;   fanLayers,1,2
;   fanSpeeds,0,100
;   blipFanToFullPower,0
;   adjustSpeedForCooling,1
;   minSpeedLayerTime,15
;   minCoolingSpeedSlowdown,20
;   increaseFanForCooling,0
;   minFanLayerTime,45
;   maxCoolingFanSpeed,100
;   increaseFanForBridging,0
;   bridgingFanSpeed,100
;   use5D,1
;   relativeEdistances,0
;   allowEaxisZeroing,1
;   independentExtruderAxes,0
;   includeM10123,0
;   stickySupport,1
;   applyToolheadOffsets,0
;   gcodeXoffset,0
;   gcodeYoffset,0
;   gcodeZoffset,0
;   overrideMachineDefinition,1
;   machineTypeOverride,0
;   strokeXoverride,300
;   strokeYoverride,300
;   strokeZoverride,400
;   originOffsetXoverride,0
;   originOffsetYoverride,0
;   originOffsetZoverride,0
;   homeXdirOverride,-1
;   homeYdirOverride,-1
;   homeZdirOverride,-1
;   flipXoverride,1
;   flipYoverride,-1
;   flipZoverride,1
;   toolheadOffsets,0,0|0,0|0,0|0,0|0,0|0,0
;   overrideFirmwareConfiguration,1
;   firmwareTypeOverride,RepRap (Marlin/Repetier/Sprinter)
;   GPXconfigOverride,r2
;   baudRateOverride,115200
;   overridePrinterModels,1
;   printerModelsOverride
;   startingGcode,G28 ; home all axes,G29 ; auto-bed level,G1 Z5 F3000 ; lift,G1 X5 Y10 F1500 ; move to prime,G1 Z0.2 F3000 ; get ready to prime,G92 E0 ; reset extrusion distance,G1 Y80 E10 F600 ; prime nozzle,G1 Y100 F5000 ; quick wipe
;   layerChangeGcode,;G90; Absolute positioning,;G1 F9000 Y100 Z100; Move to photo position;,;M240; Make a photo,
;   retractionGcode,
;   toolChangeGcode,
;   endingGcode,G28 X0 ; home X axis,M106 S0 ; turn off cooling fan,M104 S0 ; turn off extruder,M140 S0 ; turn off bed,M84 ; disable motors
;   exportFileFormat,gcode
;   celebration,0
;   celebrationSong,Random Song
;   postProcessing,
;   defaultSpeed,3600
;   outlineUnderspeed,0.5
;   solidInfillUnderspeed,0.8
;   supportUnderspeed,0.8
;   rapidXYspeed,4800
;   rapidZspeed,1002
;   minBridgingArea,50
;   bridgingExtraInflation,0
;   bridgingExtrusionMultiplier,1
;   bridgingSpeedMultiplier,1
;   useFixedBridgingAngle,0
;   fixedBridgingAngle,0
;   applyBridgingToPerimeters,0
;   filamentDiameters,1.75|1.75|1.75|1.75|1.75|1.75
;   filamentPricesPerKg,46|46|46|46|46|46
;   filamentDensities,1.25|1.25|1.25|1.25|1.25|1.25
;   useMinPrintHeight,0
;   minPrintHeight,26.3
;   useMaxPrintHeight,0
;   maxPrintHeight,0
;   useDiaphragm,0
;   diaphragmLayerInterval,20
;   robustSlicing,1
;   mergeAllIntoSolid,0
;   onlyRetractWhenCrossingOutline,1
;   retractBetweenLayers,1
;   useRetractionMinTravel,0
;   retractionMinTravel,3
;   retractWhileWiping,0
;   onlyWipeOutlines,1
;   avoidCrossingOutline,0
;   maxMovementDetourFactor,3
;   toolChangeRetractionDistance,12
;   toolChangeExtraRestartDistance,-0.5
;   toolChangeRetractionSpeed,600
;   externalThinWallType,0
;   internalThinWallType,2
;   thinWallAllowedOverlapPercentage,10
;   singleExtrusionMinLength,1
;   singleExtrusionMinPrintingWidthPercentage,50
;   singleExtrusionMaxPrintingWidthPercentage,200
;   singleExtrusionEndpointExtension,0.2
;   horizontalSizeCompensation,0
G90
M82
M106 S0
M140 S60
M190 S60
M104 S210 T0
M109 S210 T0
G28 ; home all axes
G29 ; auto-bed level
G1 Z5 F3000 ; lift
G1 X5 Y10 F1500 ; move to prime
G1 Z0.2 F3000 ; get ready to prime
G92 E0 ; reset extrusion distance
G1 Y80 E10 F600 ; prime nozzle
G1 Y100 F5000 ; quick wipe
; process Process1
; layer 1, Z = 0.120
T0
G92 E0.0000
G1 E-5.0000 F1800
;G90; Absolute positioning
;G1 F9000 Y100 Z100; Move to photo position;
;M240; Make a photo
; feature skirt
; tool H0.120 W0.600
G1 Z0.120 F1002
G1 X137.350 Y123.320 F4800
G1 E0.0000 F1800
G92 E0.0000
G1 X140.220 Y120.449 E0.1094 F1800
G1 X159.780 Y120.449 E0.6363
G1 X162.650 Y123.320 E0.7457
G1 X162.650 Y176.680 E2.1832
G1 X159.780 Y179.551 E2.2926
G1 X140.220 Y179.551 E2.8195
G1 X137.350 Y176.680 E2.9289
G1 X137.350 Y123.320 E4.3665
G92 E0.0000
G1 E-5.0000 F1800
G1 X137.950 Y123.568 F4800
G1 E0.0000 F1800
G92 E0.0000
G1 X140.469 Y121.049 E0.0960 F1800
G1 X159.531 Y121.049 E0.6095
G1 X162.050 Y123.568 E0.7055
G1 X162.050 Y176.432 E2.1297
G1 X159.531 Y178.951 E2.2256
G1 X140.469 Y178.951 E2.7392
G1 X137.950 Y176.432 E2.8352
G1 X137.950 Y123.568 E4.2593
G92 E0.0000
G1 E-5.0000 F1800
; feature inner perimeter
G1 X143.150 Y126.249 F4800
G1 E0.0000 F1800
G92 E0.0000
G1 X156.850 Y126.249 E0.3691 F1350
G1 X156.850 Y173.751 E1.6488
G1 X143.150 Y173.751 E2.0179
G1 X143.150 Y126.249 E3.2976
; feature outer perimeter
G1 X142.550 Y125.649 F4800
G92 E0.0000
G1 X157.450 Y125.649 E0.4014 F900
G1 X157.450 Y174.351 E1.7135
G1 X142.550 Y174.351 E2.1149
G1 X142.550 Y125.649 E3.4269
; feature solid layer
G1 X155.609 Y126.759 F4800
G92 E0.0000
G1 X156.340 Y127.490 E0.0278 F1440
G1 X156.340 Y128.339 E0.0507
G1 X154.761 Y126.759 E0.1109
G1 X153.912 Y126.759 E0.1337
G1 X156.340 Y129.187 E0.2262
G1 X156.340 Y130.036 E0.2491
G1 X153.064 Y126.759 E0.3739
G1 X152.215 Y126.759 E0.3968
G1 X156.340 Y130.884 E0.5539
G1 X156.340 Y131.733 E0.5768
G1 X151.367 Y126.759 E0.7663
G1 X150.518 Y126.759 E0.7891
G1 X156.340 Y132.581 E1.0109
G1 X156.340 Y133.430 E1.0338
G1 X149.670 Y126.759 E1.2879
G1 X148.821 Y126.759 E1.3108
G1 X156.340 Y134.278 E1.5973
G1 X156.340 Y135.127 E1.6201
G1 X147.973 Y126.759 E1.9389
G1 X147.124 Y126.759 E1.9618
G1 X156.340 Y135.975 E2.3129
G1 X156.340 Y136.824 E2.3358
G1 X146.276 Y126.759 E2.7192
G1 X145.427 Y126.759 E2.7421
G1 X156.340 Y137.672 E3.1579
G1 X156.340 Y138.521 E3.1807
G1 X144.578 Y126.759 E3.6288
G1 X143.730 Y126.759 E3.6517
G1 X156.340 Y139.369 E4.1321
G1 X156.340 Y140.218 E4.1550
G1 X143.660 Y127.538 E4.6381
G1 X143.660 Y128.386 E4.6610
G1 X156.340 Y141.066 E5.1441
G1 X156.340 Y141.915 E5.1669
G1 X143.660 Y129.235 E5.6500
G1 X143.660 Y130.084 E5.6729
G1 X156.340 Y142.764 E6.1560
G1 X156.340 Y143.612 E6.1789
G1 X143.660 Y130.932 E6.6620
G1 X143.660 Y131.781 E6.6848
G1 X156.340 Y144.461 E7.1679
G1 X156.340 Y145.309 E7.1908
G1 X143.660 Y132.629 E7.6739
G1 X143.660 Y133.478 E7.6968
G1 X156.340 Y146.158 E8.1799
G1 X156.340 Y147.006 E8.2027
G1 X143.660 Y134.326 E8.6858
G1 X143.660 Y135.175 E8.7087
G1 X156.340 Y147.855 E9.1918
G1 X156.340 Y148.703 E9.2147
G1 X143.660 Y136.023 E9.6978
G1 X143.660 Y136.872 E9.7206
G1 X156.340 Y149.552 E10.2037
G1 X156.340 Y150.400 E10.2266
G1 X143.660 Y137.720 E10.7097
G1 X143.660 Y138.569 E10.7326
G1 X156.340 Y151.249 E11.2157
G1 X156.340 Y152.097 E11.2385
G1 X143.660 Y139.417 E11.7216
G1 X143.660 Y140.266 E11.7445
G1 X156.340 Y152.946 E12.2276
G1 X156.340 Y153.794 E12.2505
G1 X143.660 Y141.114 E12.7336
G1 X143.660 Y141.963 E12.7564
G1 X156.340 Y154.643 E13.2395
G1 X156.340 Y155.491 E13.2624
G1 X143.660 Y142.811 E13.7455
G1 X143.660 Y143.660 E13.7684
G1 X156.340 Y156.340 E14.2515
G1 X156.340 Y157.189 E14.2743
G1 X143.660 Y144.509 E14.7575
G1 X143.660 Y145.357 E14.7803
G1 X156.340 Y158.037 E15.2634
G1 X156.340 Y158.886 E15.2863
G1 X143.660 Y146.206 E15.7694
G1 X143.660 Y147.054 E15.7922
G1 X156.340 Y159.734 E16.2754
G1 X156.340 Y160.583 E16.2982
G1 X143.660 Y147.903 E16.7813
G1 X143.660 Y148.751 E16.8042
G1 X156.340 Y161.431 E17.2873
G1 X156.340 Y162.280 E17.3101
G1 X143.660 Y149.600 E17.7933
G1 X143.660 Y150.448 E17.8161
G1 X156.340 Y163.128 E18.2992
G1 X156.340 Y163.977 E18.3221
G1 X143.660 Y151.297 E18.8052
G1 X143.660 Y152.145 E18.8280
G1 X156.340 Y164.825 E19.3112
G1 X156.340 Y165.674 E19.3340
G1 X143.660 Y152.994 E19.8171
G1 X143.660 Y153.842 E19.8400
G1 X156.340 Y166.522 E20.3231
G1 X156.340 Y167.371 E20.3459
G1 X143.660 Y154.691 E20.8291
G1 X143.660 Y155.539 E20.8519
G1 X156.340 Y168.219 E21.3350
G1 X156.340 Y169.068 E21.3579
G1 X143.660 Y156.388 E21.8410
G1 X143.660 Y157.236 E21.8638
G1 X156.340 Y169.916 E22.3470
G1 X156.340 Y170.765 E22.3698
G1 X143.660 Y158.085 E22.8529
G1 X143.660 Y158.933 E22.8758
G1 X156.340 Y171.613 E23.3589
G1 X156.340 Y172.462 E23.3817
G1 X143.660 Y159.782 E23.8649
G1 X143.660 Y160.631 E23.8877
G1 X156.270 Y173.241 E24.3682
G1 X155.422 Y173.241 E24.3910
G1 X143.660 Y161.479 E24.8391
G1 X143.660 Y162.328 E24.8620
G1 X154.573 Y173.241 E25.2778
G1 X153.724 Y173.241 E25.3006
G1 X143.660 Y163.176 E25.6841
G1 X143.660 Y164.025 E25.7070
G1 X152.876 Y173.241 E26.0581
G1 X152.027 Y173.241 E26.0809
G1 X143.660 Y164.873 E26.3997
G1 X143.660 Y165.722 E26.4226
G1 X151.179 Y173.241 E26.7091
G1 X150.330 Y173.241 E26.7319
G1 X143.660 Y166.570 E26.9861
G1 X143.660 Y167.419 E27.0089
G1 X149.482 Y173.241 E27.2307
G1 X148.633 Y173.241 E27.2536
G1 X143.660 Y168.267 E27.4431
G1 X143.660 Y169.116 E27.4659
G1 X147.785 Y173.241 E27.6231
G1 X146.936 Y173.241 E27.6460
G1 X143.660 Y169.964 E27.7708
G1 X143.660 Y170.813 E27.7936
G1 X146.088 Y173.241 E27.8861
G1 X145.239 Y173.241 E27.9090
G1 X143.660 Y171.661 E27.9692
G1 X143.660 Y172.510 E27.9920
G1 X144.391 Y173.241 E28.0199
G92 E0.0000
G1 E-5.0000 F1800
; layer 2, Z = 0.220
;G90; Absolute positioning
;G1 F9000 Y100 Z100; Move to photo position;
;M240; Make a photo
M106 S255
; feature skirt
; tool H0.100 W0.400
G1 Z0.220 F1002
G1 X140.345 Y179.251 F4800
G1 E0.0000 F1800
G92 E0.0000
G1 X137.650 Y176.556 E0.0570 F3600
G1 X137.650 Y123.444 E0.8520
G1 X140.345 Y120.749 E0.9090
G1 X159.655 Y120.749 E1.1980
G1 X162.350 Y123.444 E1.2551
G1 X162.350 Y176.556 E2.0500
G1 X159.655 Y179.251 E2.1070
G1 X140.345 Y179.251 E2.3961
G92 E0.0000
G1 E-5.0000 F1800
G1 X140.510 Y178.851 F4800
G1 E0.0000 F1800
G92 E0.0000
G1 X138.050 Y176.390 E0.0521 F3600
G1 X138.050 Y123.610 E0.8420
G1 X140.510 Y121.149 E0.8941
G1 X159.490 Y121.149 E1.1782
G1 X161.950 Y123.610 E1.2303
G1 X161.950 Y176.390 E2.0202
G1 X159.490 Y178.851 E2.0723
G1 X140.510 Y178.851 E2.3564
G92 E0.0000
G1 E-5.0000 F1800
; feature inner perimeter
G1 X142.850 Y174.051 F4800
G1 E0.0000 F1800
G92 E0.0000
G1 X142.850 Y125.949 E0.7199 F2700
G1 X157.150 Y125.949 E0.9340
G1 X157.150 Y174.051 E1.6539
G1 X142.850 Y174.051 E1.8679
; feature outer perimeter
G1 X142.450 Y174.451 F4800
G92 E0.0000
G1 X142.450 Y125.549 E0.7319 F1800
G1 X157.550 Y125.549 E0.9579
G1 X157.550 Y174.451 E1.6898
G1 X142.450 Y174.451 E1.9158
; feature solid layer
G1 X156.810 Y173.171 F4800
G92 E0.0000
G1 X156.271 Y173.711 E0.0114 F2880
G1 X155.705 Y173.711 E0.0199
G1 X156.810 Y172.606 E0.0433
G1 X156.810 Y172.040 E0.0517
G1 X155.139 Y173.711 E0.0871
G1 X154.574 Y173.711 E0.0956
G1 X156.810 Y171.474 E0.1429
G1 X156.810 Y170.909 E0.1514
G1 X154.008 Y173.711 E0.2107
G1 X153.442 Y173.711 E0.2191
G1 X156.810 Y170.343 E0.2904
G1 X156.810 Y169.777 E0.2989
G1 X152.877 Y173.711 E0.3821
G1 X152.311 Y173.711 E0.3906
G1 X156.810 Y169.212 E0.4858
G1 X156.810 Y168.646 E0.4943
G1 X151.745 Y173.711 E0.6015
G1 X151.180 Y173.711 E0.6100
G1 X156.810 Y168.080 E0.7292
G1 X156.810 Y167.515 E0.7376
G1 X150.614 Y173.711 E0.8688
G1 X150.048 Y173.711 E0.8772
G1 X156.810 Y166.949 E1.0204
G1 X156.810 Y166.383 E1.0288
G1 X149.483 Y173.711 E1.1839
G1 X148.917 Y173.711 E1.1924
G1 X156.810 Y165.817 E1.3595
G1 X156.810 Y165.252 E1.3679
G1 X148.351 Y173.711 E1.5470
G1 X147.785 Y173.711 E1.5555
G1 X156.810 Y164.686 E1.7465
G1 X156.810 Y164.120 E1.7549
G1 X147.220 Y173.711 E1.9579
G1 X146.654 Y173.711 E1.9664
G1 X156.810 Y163.555 E2.1814
G1 X156.810 Y162.989 E2.1898
G1 X146.088 Y173.711 E2.4168
G1 X145.523 Y173.711 E2.4252
G1 X156.810 Y162.423 E2.6641
G1 X156.810 Y161.858 E2.6726
G1 X144.957 Y173.711 E2.9235
G1 X144.391 Y173.711 E2.9320
G1 X156.810 Y161.292 E3.1948
G1 X156.810 Y160.726 E3.2033
G1 X143.826 Y173.711 E3.4781
G1 X143.260 Y173.711 E3.4866
G1 X156.810 Y160.161 E3.7734
G1 X156.810 Y159.595 E3.7819
G1 X143.190 Y173.215 E4.0702
G1 X143.190 Y172.649 E4.0786
G1 X156.810 Y159.029 E4.3669
G1 X156.810 Y158.464 E4.3754
G1 X143.190 Y172.084 E4.6637
G1 X143.190 Y171.518 E4.6721
G1 X156.810 Y157.898 E4.9604
G1 X156.810 Y157.332 E4.9689
G1 X143.190 Y170.952 E5.2572
G1 X143.190 Y170.386 E5.2657
G1 X156.810 Y156.766 E5.5539
G1 X156.810 Y156.201 E5.5624
G1 X143.190 Y169.821 E5.8507
G1 X143.190 Y169.255 E5.8592
G1 X156.810 Y155.635 E6.1475
G1 X156.810 Y155.069 E6.1559
G1 X143.190 Y168.689 E6.4442
G1 X143.190 Y168.124 E6.4527
G1 X156.810 Y154.504 E6.7410
G1 X156.810 Y153.938 E6.7494
G1 X143.190 Y167.558 E7.0377
G1 X143.190 Y166.992 E7.0462
G1 X156.810 Y153.372 E7.3345
G1 X156.810 Y152.807 E7.3429
G1 X143.190 Y166.427 E7.6312
G1 X143.190 Y165.861 E7.6397
G1 X156.810 Y152.241 E7.9280
G1 X156.810 Y151.675 E7.9365
G1 X143.190 Y165.295 E8.2247
G1 X143.190 Y164.730 E8.2332
G1 X156.810 Y151.110 E8.5215
G1 X156.810 Y150.544 E8.5300
G1 X143.190 Y164.164 E8.8183
G1 X143.190 Y163.598 E8.8267
G1 X156.810 Y149.978 E9.1150
G1 X156.810 Y149.413 E9.1235
G1 X143.190 Y163.033 E9.4118
G1 X143.190 Y162.467 E9.4202
G1 X156.810 Y148.847 E9.7085
G1 X156.810 Y148.281 E9.7170
G1 X143.190 Y161.901 E10.0053
G1 X143.190 Y161.336 E10.0138
G1 X156.810 Y147.716 E10.3020
G1 X156.810 Y147.150 E10.3105
G1 X143.190 Y160.770 E10.5988
G1 X143.190 Y160.204 E10.6073
G1 X156.810 Y146.584 E10.8956
G1 X156.810 Y146.018 E10.9040
G1 X143.190 Y159.638 E11.1923
G1 X143.190 Y159.073 E11.2008
G1 X156.810 Y145.453 E11.4891
G1 X156.810 Y144.887 E11.4975
G1 X143.190 Y158.507 E11.7858
G1 X143.190 Y157.941 E11.7943
G1 X156.810 Y144.321 E12.0826
G1 X156.810 Y143.756 E12.0910
G1 X143.190 Y157.376 E12.3793
G1 X143.190 Y156.810 E12.3878
G1 X156.810 Y143.190 E12.6761
G1 X156.810 Y142.624 E12.6846
G1 X143.190 Y156.244 E12.9728
G1 X143.190 Y155.679 E12.9813
G1 X156.810 Y142.059 E13.2696
G1 X156.810 Y141.493 E13.2781
