; G-Code generated by Simplify3D(R) Version 4.1.2
; Dec 4, 2021 at 8:07:35 PM
; Settings Summary
;   processName,Process1
;   applyToModels,Body1
;   profileName,Creality CR-10S Pro (modified)
;   profileVersion,2021-05-02 22:29:37
;   baseProfile,
;   printMaterial,PLA
;   printQuality,High
;   printExtruders,
;   extruderName,Primary Extruder
;   extruderToolheadNumber,0
;   extruderDiameter,0.4
;   extruderAutoWidth,0
;   extruderWidth,0.4
;   extrusionMultiplier,0.9
;   extruderUseRetract,1
;   extruderRetractionDistance,5
;   extruderExtraRestartDistance,0
;   extruderRetractionZLift,0
;   extruderRetractionSpeed,1800
;   extruderUseCoasting,0
;   extruderCoastingDistance,0.2
;   extruderUseWipe,0
;   extruderWipeDistance,5
;   primaryExtruder,0
;   layerHeight,0.1
;   topSolidLayers,4
;   bottomSolidLayers,4
;   perimeterOutlines,2
;   printPerimetersInsideOut,1
;   startPointOption,2
;   startPointOriginX,0
;   startPointOriginY,0
;   sequentialIslands,0
;   spiralVaseMode,0
;   firstLayerHeightPercentage,120
;   firstLayerWidthPercentage,150
;   firstLayerUnderspeed,0.5
;   useRaft,0
;   raftExtruder,0
;   raftTopLayers,3
;   raftBaseLayers,2
;   raftOffset,3
;   raftSeparationDistance,0.14
;   raftTopInfill,100
;   aboveRaftSpeedMultiplier,0.3
;   useSkirt,1
;   skirtExtruder,0
;   skirtLayers,2
;   skirtOutlines,2
;   skirtOffset,4
;   usePrimePillar,0
;   primePillarExtruder,999
;   primePillarWidth,12
;   primePillarLocation,7
;   primePillarSpeedMultiplier,1
;   useOozeShield,0
;   oozeShieldExtruder,999
;   oozeShieldOffset,2
;   oozeShieldOutlines,1
;   oozeShieldSidewallShape,1
;   oozeShieldSidewallAngle,30
;   oozeShieldSpeedMultiplier,1
;   infillExtruder,0
;   internalInfillPattern,Rectilinear
;   externalInfillPattern,Rectilinear
;   infillPercentage,60
;   outlineOverlapPercentage,15
;   infillExtrusionWidthPercentage,100
;   minInfillLength,5
;   infillLayerInterval,1
;   internalInfillAngles,45,-45
;   overlapInternalInfillAngles,0
;   externalInfillAngles,45,-45
;   generateSupport,0
;   supportExtruder,0
;   supportInfillPercentage,40
;   supportExtraInflation,0
;   supportBaseLayers,0
;   denseSupportExtruder,0
;   denseSupportLayers,0
;   denseSupportInfillPercentage,70
;   supportLayerInterval,1
;   supportHorizontalPartOffset,0.3
;   supportUpperSeparationLayers,1
;   supportLowerSeparationLayers,1
;   supportType,0
;   supportGridSpacing,3
;   maxOverhangAngle,45
;   supportAngles,0
;   temperatureName,Primary Extruder,Heated Bed
;   temperatureNumber,0,0
;   temperatureSetpointCount,1,1
;   temperatureSetpointLayers,1,1
;   temperatureSetpointTemperatures,210,60
;   temperatureStabilizeAtStartup,1,1
;   temperatureHeatedBed,0,1
;   fanLayers,1,2
;   fanSpeeds,0,100
;   blipFanToFullPower,0
;   adjustSpeedForCooling,1
;   minSpeedLayerTime,15
;   minCoolingSpeedSlowdown,20
;   increaseFanForCooling,0
;   minFanLayerTime,45
;   maxCoolingFanSpeed,100
;   increaseFanForBridging,0
;   bridgingFanSpeed,100
;   use5D,1
;   relativeEdistances,0
;   allowEaxisZeroing,1
;   independentExtruderAxes,0
;   includeM10123,0
;   stickySupport,1
;   applyToolheadOffsets,0
;   gcodeXoffset,0
;   gcodeYoffset,0
;   gcodeZoffset,0
;   overrideMachineDefinition,1
;   machineTypeOverride,0
;   strokeXoverride,300
;   strokeYoverride,300
;   strokeZoverride,400
;   originOffsetXoverride,0
;   originOffsetYoverride,0
;   originOffsetZoverride,0
;   homeXdirOverride,-1
;   homeYdirOverride,-1
;   homeZdirOverride,-1
;   flipXoverride,1
;   flipYoverride,-1
;   flipZoverride,1
;   toolheadOffsets,0,0|0,0|0,0|0,0|0,0|0,0
;   overrideFirmwareConfiguration,1
;   firmwareTypeOverride,RepRap (Marlin/Repetier/Sprinter)
;   GPXconfigOverride,r2
;   baudRateOverride,115200
;   overridePrinterModels,1
;   printerModelsOverride
;   startingGcode,G28 ; home all axes,G29 ; auto-bed level,G1 Z5 F3000 ; lift,G1 X5 Y10 F1500 ; move to prime,G1 Z0.2 F3000 ; get ready to prime,G92 E0 ; reset extrusion distance,G1 Y80 E10 F600 ; prime nozzle,G1 Y100 F5000 ; quick wipe
;   layerChangeGcode,;G90; Absolute positioning,;G1 F9000 Y100 Z100; Move to photo position;,;M240; Make a photo,
;   retractionGcode,
;   toolChangeGcode,
;   endingGcode,G28 X0 ; home X axis,M106 S0 ; turn off cooling fan,M104 S0 ; turn off extruder,M140 S0 ; turn off bed,M84 ; disable motors
;   exportFileFormat,gcode
;   celebration,0
;   celebrationSong,Random Song
;   postProcessing,
;   defaultSpeed,3600
;   outlineUnderspeed,0.5
;   solidInfillUnderspeed,0.8
;   supportUnderspeed,0.8
;   rapidXYspeed,4800
;   rapidZspeed,1002
;   minBridgingArea,50
;   bridgingExtraInflation,0
;   bridgingExtrusionMultiplier,1
;   bridgingSpeedMultiplier,1
;   useFixedBridgingAngle,0
;   fixedBridgingAngle,0
;   applyBridgingToPerimeters,0
;   filamentDiameters,1.75|1.75|1.75|1.75|1.75|1.75
;   filamentPricesPerKg,46|46|46|46|46|46
;   filamentDensities,1.25|1.25|1.25|1.25|1.25|1.25
;   useMinPrintHeight,0
;   minPrintHeight,26.3
;   useMaxPrintHeight,0
;   maxPrintHeight,0
;   useDiaphragm,0
;   diaphragmLayerInterval,20
;   robustSlicing,1
;   mergeAllIntoSolid,0
;   onlyRetractWhenCrossingOutline,1
;   retractBetweenLayers,1
;   useRetractionMinTravel,0
;   retractionMinTravel,3
;   retractWhileWiping,0
;   onlyWipeOutlines,1
;   avoidCrossingOutline,0
;   maxMovementDetourFactor,3
;   toolChangeRetractionDistance,12
;   toolChangeExtraRestartDistance,-0.5
;   toolChangeRetractionSpeed,600
;   externalThinWallType,0
;   internalThinWallType,2
;   thinWallAllowedOverlapPercentage,10
;   singleExtrusionMinLength,1
;   singleExtrusionMinPrintingWidthPercentage,50
;   singleExtrusionMaxPrintingWidthPercentage,200
;   singleExtrusionEndpointExtension,0.2
;   horizontalSizeCompensation,0
G90
M82
M106 S0
M140 S60
M190 S60
M104 S210 T0
M109 S210 T0
G28 ; home all axes
G29 ; auto-bed level
G1 Z5 F3000 ; lift
G1 X5 Y10 F1500 ; move to prime
G1 Z0.2 F3000 ; get ready to prime
G92 E0 ; reset extrusion distance
G1 Y80 E10 F600 ; prime nozzle
G1 Y100 F5000 ; quick wipe
; process Process1
; layer 1, Z = 0.120
T0
G92 E0.0000
G1 E-5.0000 F1800
;G90; Absolute positioning
;G1 F9000 Y100 Z100; Move to photo position;
;M240; Make a photo
; feature skirt
; tool H0.120 W0.600
G1 Z0.120 F1002
G1 X143.100 Y123.907 F4800
G1 E0.0000 F1800
G92 E0.0000
G1 X145.970 Y121.036 E0.1094 F1800
G1 X154.030 Y121.036 E0.3265
G1 X156.900 Y123.907 E0.4358
G1 X156.900 Y176.093 E1.8418
G1 X154.030 Y178.964 E1.9511
G1 X145.970 Y178.964 E2.1683
G1 X143.100 Y176.093 E2.2776
G1 X143.100 Y123.907 E3.6836
G92 E0.0000
G1 E-5.0000 F1800
G1 X143.700 Y124.155 F4800
G1 E0.0000 F1800
G92 E0.0000
G1 X146.219 Y121.636 E0.0960 F1800
G1 X153.781 Y121.636 E0.2997
G1 X156.300 Y124.155 E0.3957
G1 X156.300 Y175.845 E1.7882
G1 X153.781 Y178.364 E1.8842
G1 X146.219 Y178.364 E2.0879
G1 X143.700 Y175.845 E2.1839
G1 X143.700 Y124.155 E3.5764
G92 E0.0000
G1 E-5.0000 F1800
; feature inner perimeter
G1 X148.900 Y127.062 F4800
G1 E0.0000 F1800
G92 E0.0000
G1 X151.100 Y127.062 E0.0593 F1350
G1 X151.100 Y172.938 E1.2952
G1 X148.900 Y172.938 E1.3545
G1 X148.900 Y127.062 E2.5904
; feature outer perimeter
G1 X148.300 Y126.462 F4800
G92 E0.0000
G1 X151.700 Y126.462 E0.0916 F900
G1 X151.700 Y173.538 E1.3599
G1 X148.300 Y173.538 E1.4515
G1 X148.300 Y126.462 E2.7197
; feature solid layer
G1 X150.482 Y127.572 F4800
G92 E0.0000
G1 X150.590 Y127.680 E0.0041 F1440
G1 X150.590 Y128.528 E0.0270
G1 X149.634 Y127.572 E0.0634
G1 X149.410 Y127.572 E0.0694
G1 X149.410 Y128.197 E0.0863
G1 X150.590 Y129.377 E0.1312
G1 X150.590 Y130.225 E0.1541
G1 X149.410 Y129.045 E0.1990
G1 X149.410 Y129.894 E0.2219
G1 X150.590 Y131.074 E0.2669
G1 X150.590 Y131.922 E0.2897
G1 X149.410 Y130.742 E0.3347
G1 X149.410 Y131.591 E0.3575
G1 X150.590 Y132.771 E0.4025
G1 X150.590 Y133.619 E0.4254
G1 X149.410 Y132.439 E0.4703
G1 X149.410 Y133.288 E0.4932
G1 X150.590 Y134.468 E0.5381
G1 X150.590 Y135.316 E0.5610
G1 X149.410 Y134.136 E0.6059
G1 X149.410 Y134.985 E0.6288
G1 X150.590 Y136.165 E0.6738
G1 X150.590 Y137.014 E0.6966
G1 X149.410 Y135.834 E0.7416
G1 X149.410 Y136.682 E0.7644
G1 X150.590 Y137.862 E0.8094
G1 X150.590 Y138.711 E0.8323
G1 X149.410 Y137.531 E0.8772
G1 X149.410 Y138.379 E0.9001
G1 X150.590 Y139.559 E0.9450
G1 X150.590 Y140.408 E0.9679
G1 X149.410 Y139.228 E1.0129
G1 X149.410 Y140.076 E1.0357
G1 X150.590 Y141.256 E1.0807
G1 X150.590 Y142.105 E1.1035
G1 X149.410 Y140.925 E1.1485
G1 X149.410 Y141.773 E1.1713
G1 X150.590 Y142.953 E1.2163
G1 X150.590 Y143.802 E1.2392
G1 X149.410 Y142.622 E1.2841
G1 X149.410 Y143.470 E1.3070
G1 X150.590 Y144.650 E1.3519
G1 X150.590 Y145.499 E1.3748
G1 X149.410 Y144.319 E1.4198
G1 X149.410 Y145.167 E1.4426
G1 X150.590 Y146.347 E1.4876
G1 X150.590 Y147.196 E1.5104
G1 X149.410 Y146.016 E1.5554
G1 X149.410 Y146.864 E1.5783
G1 X150.590 Y148.044 E1.6232
G1 X150.590 Y148.893 E1.6461
G1 X149.410 Y147.713 E1.6910
G1 X149.410 Y148.561 E1.7139
G1 X150.590 Y149.741 E1.7588
G1 X150.590 Y150.590 E1.7817
G1 X149.410 Y149.410 E1.8267
G1 X149.410 Y150.259 E1.8495
G1 X150.590 Y151.439 E1.8945
G1 X150.590 Y152.287 E1.9173
G1 X149.410 Y151.107 E1.9623
G1 X149.410 Y151.956 E1.9852
G1 X150.590 Y153.136 E2.0301
G1 X150.590 Y153.984 E2.0530
G1 X149.410 Y152.804 E2.0979
G1 X149.410 Y153.653 E2.1208
G1 X150.590 Y154.833 E2.1658
G1 X150.590 Y155.681 E2.1886
G1 X149.410 Y154.501 E2.2336
G1 X149.410 Y155.350 E2.2564
G1 X150.590 Y156.530 E2.3014
G1 X150.590 Y157.378 E2.3243
G1 X149.410 Y156.198 E2.3692
G1 X149.410 Y157.047 E2.3921
G1 X150.590 Y158.227 E2.4370
G1 X150.590 Y159.075 E2.4599
G1 X149.410 Y157.895 E2.5048
G1 X149.410 Y158.744 E2.5277
G1 X150.590 Y159.924 E2.5727
G1 X150.590 Y160.772 E2.5955
G1 X149.410 Y159.592 E2.6405
G1 X149.410 Y160.441 E2.6633
G1 X150.590 Y161.621 E2.7083
G1 X150.590 Y162.469 E2.7312
G1 X149.410 Y161.289 E2.7761
G1 X149.410 Y162.138 E2.7990
G1 X150.590 Y163.318 E2.8439
G1 X150.590 Y164.166 E2.8668
G1 X149.410 Y162.986 E2.9118
G1 X149.410 Y163.835 E2.9346
G1 X150.590 Y165.015 E2.9796
G1 X150.590 Y165.863 E3.0024
G1 X149.410 Y164.683 E3.0474
G1 X149.410 Y165.532 E3.0702
G1 X150.590 Y166.712 E3.1152
G1 X150.590 Y167.561 E3.1381
G1 X149.410 Y166.381 E3.1830
G1 X149.410 Y167.229 E3.2059
G1 X150.590 Y168.409 E3.2508
G1 X150.590 Y169.258 E3.2737
G1 X149.410 Y168.078 E3.3187
G1 X149.410 Y168.926 E3.3415
G1 X150.590 Y170.106 E3.3865
G1 X150.590 Y170.955 E3.4093
G1 X149.410 Y169.775 E3.4543
G1 X149.410 Y170.623 E3.4772
G1 X150.590 Y171.803 E3.5221
G1 X150.590 Y172.428 E3.5389
G1 X150.366 Y172.428 E3.5450
G1 X149.410 Y171.472 E3.5814
G1 X149.410 Y172.320 E3.6043
G1 X149.518 Y172.428 E3.6084
G92 E0.0000
G1 E-5.0000 F1800
; layer 2, Z = 0.220
;G90; Absolute positioning
;G1 F9000 Y100 Z100; Move to photo position;
;M240; Make a photo
M106 S255
; feature skirt
; tool H0.100 W0.400
G1 Z0.220 F1002
G1 X143.400 Y175.969 F4800
G1 E0.0000 F1800
G92 E0.0000
G1 X143.400 Y124.031 E0.7774 F2816
G1 X146.095 Y121.336 E0.8344
G1 X153.905 Y121.336 E0.9513
G1 X156.600 Y124.031 E1.0083
G1 X156.600 Y175.969 E1.7857
G1 X153.905 Y178.664 E1.8427
G1 X146.095 Y178.664 E1.9596
G1 X143.400 Y175.969 E2.0167
G92 E0.0000
G1 E-5.0000 F1800
G1 X143.800 Y175.803 F4800
G1 E0.0000 F1800
G92 E0.0000
G1 X143.800 Y124.197 E0.7724 F2816
G1 X146.260 Y121.736 E0.8245
G1 X153.740 Y121.736 E0.9364
G1 X156.200 Y124.197 E0.9885
G1 X156.200 Y175.803 E1.7609
G1 X153.740 Y178.264 E1.8130
G1 X146.260 Y178.264 E1.9249
G1 X143.800 Y175.803 E1.9770
G92 E0.0000
G1 E-5.0000 F1800
; feature inner perimeter
G1 X148.600 Y173.464 F4800
G1 E0.0000 F1800
G92 E0.0000
G1 X148.600 Y126.536 E0.7024 F2112
G1 X151.400 Y126.536 E0.7443
G1 X151.400 Y173.464 E1.4466
G1 X148.600 Y173.464 E1.4885
; feature outer perimeter
G1 X148.200 Y173.864 F4800
G92 E0.0000
G1 X148.200 Y126.136 E0.7143 F1408
G1 X151.800 Y126.136 E0.7682
G1 X151.800 Y173.864 E1.4826
G1 X148.200 Y173.864 E1.5364
; feature solid layer
G1 X151.060 Y172.699 F4800
G92 E0.0000
G1 X150.635 Y173.124 E0.0090 F2252
G1 X150.070 Y173.124 E0.0175
G1 X151.060 Y172.133 E0.0384
G1 X151.060 Y171.567 E0.0469
G1 X149.504 Y173.124 E0.0798
G1 X148.940 Y173.124 E0.0883
G1 X151.060 Y171.002 E0.1332
G1 X151.060 Y170.436 E0.1416
G1 X148.940 Y172.556 E0.1865
G1 X148.940 Y171.990 E0.1950
G1 X151.060 Y169.870 E0.2398
G1 X151.060 Y169.305 E0.2483
G1 X148.940 Y171.425 E0.2932
G1 X148.940 Y170.859 E0.3017
G1 X151.060 Y168.739 E0.3465
G1 X151.060 Y168.173 E0.3550
G1 X148.940 Y170.293 E0.3999
G1 X148.940 Y169.728 E0.4083
G1 X151.060 Y167.608 E0.4532
G1 X151.060 Y167.042 E0.4617
G1 X148.940 Y169.162 E0.5065
G1 X148.940 Y168.596 E0.5150
G1 X151.060 Y166.476 E0.5599
G1 X151.060 Y165.911 E0.5684
G1 X148.940 Y168.031 E0.6132
G1 X148.940 Y167.465 E0.6217
G1 X151.060 Y165.345 E0.6666
G1 X151.060 Y164.779 E0.6750
G1 X148.940 Y166.899 E0.7199
G1 X148.940 Y166.334 E0.7284
G1 X151.060 Y164.214 E0.7732
G1 X151.060 Y163.648 E0.7817
G1 X148.940 Y165.768 E0.8266
G1 X148.940 Y165.202 E0.8351
G1 X151.060 Y163.082 E0.8799
G1 X151.060 Y162.516 E0.8884
G1 X148.940 Y164.636 E0.9333
G1 X148.940 Y164.071 E0.9417
G1 X151.060 Y161.951 E0.9866
G1 X151.060 Y161.385 E0.9951
G1 X148.940 Y163.505 E1.0399
G1 X148.940 Y162.939 E1.0484
G1 X151.060 Y160.819 E1.0933
G1 X151.060 Y160.254 E1.1018
G1 X148.940 Y162.374 E1.1466
G1 X148.940 Y161.808 E1.1551
G1 X151.060 Y159.688 E1.2000
G1 X151.060 Y159.122 E1.2084
G1 X148.940 Y161.242 E1.2533
G1 X148.940 Y160.677 E1.2618
G1 X151.060 Y158.557 E1.3066
G1 X151.060 Y157.991 E1.3151
G1 X148.940 Y160.111 E1.3600
G1 X148.940 Y159.545 E1.3685
G1 X151.060 Y157.425 E1.4133
G1 X151.060 Y156.860 E1.4218
G1 X148.940 Y158.980 E1.4667
G1 X148.940 Y158.414 E1.4751
G1 X151.060 Y156.294 E1.5200
G1 X151.060 Y155.728 E1.5285
G1 X148.940 Y157.848 E1.5733
G1 X148.940 Y157.283 E1.5818
G1 X151.060 Y155.163 E1.6267
G1 X151.060 Y154.597 E1.6352
G1 X148.940 Y156.717 E1.6800
G1 X148.940 Y156.151 E1.6885
G1 X151.060 Y154.031 E1.7334
G1 X151.060 Y153.466 E1.7418
G1 X148.940 Y155.586 E1.7867
G1 X148.940 Y155.020 E1.7952
G1 X151.060 Y152.900 E1.8400
G1 X151.060 Y152.334 E1.8485
G1 X148.940 Y154.454 E1.8934
G1 X148.940 Y153.888 E1.9019
G1 X151.060 Y151.768 E1.9467
G1 X151.060 Y151.203 E1.9552
G1 X148.940 Y153.323 E2.0001
G1 X148.940 Y152.757 E2.0085
G1 X151.060 Y150.637 E2.0534
G1 X151.060 Y150.071 E2.0619
G1 X148.940 Y152.191 E2.1067
G1 X148.940 Y151.626 E2.1152
G1 X151.060 Y149.506 E2.1601
G1 X151.060 Y148.940 E2.1686
G1 X148.940 Y151.060 E2.2134
G1 X148.940 Y150.494 E2.2219
G1 X151.060 Y148.374 E2.2668
G1 X151.060 Y147.809 E2.2752
G1 X148.940 Y149.929 E2.3201
G1 X148.940 Y149.363 E2.3286
G1 X151.060 Y147.243 E2.3734
G1 X151.060 Y146.677 E2.3819
G1 X148.940 Y148.797 E2.4268
G1 X148.940 Y148.232 E2.4352
G1 X151.060 Y146.112 E2.4801
G1 X151.060 Y145.546 E2.4886
G1 X148.940 Y147.666 E2.5335
G1 X148.940 Y147.100 E2.5419
G1 X151.060 Y144.980 E2.5868
G1 X151.060 Y144.415 E2.5953
G1 X148.940 Y146.535 E2.6401
G1 X148.940 Y145.969 E2.6486
G1 X151.060 Y143.849 E2.6935
G1 X151.060 Y143.283 E2.7019
G1 X148.940 Y145.403 E2.7468
G1 X148.940 Y144.837 E2.7553
G1 X151.060 Y142.717 E2.8002
G1 X151.060 Y142.152 E2.8086
G1 X148.940 Y144.272 E2.8535
G1 X148.940 Y143.706 E2.8620
G1 X151.060 Y141.586 E2.9068
G1 X151.060 Y141.020 E2.9153
G1 X148.940 Y143.140 E2.9602
G1 X148.940 Y142.575 E2.9686
G1 X151.060 Y140.455 E3.0135
G1 X151.060 Y139.889 E3.0220
G1 X148.940 Y142.009 E3.0669
G1 X148.940 Y141.443 E3.0753
G1 X151.060 Y139.323 E3.1202
G1 X151.060 Y138.758 E3.1287
G1 X148.940 Y140.878 E3.1735
G1 X148.940 Y140.312 E3.1820
G1 X151.060 Y138.192 E3.2269
G1 X151.060 Y137.626 E3.2353
G1 X148.940 Y139.746 E3.2802
G1 X148.940 Y139.181 E3.2887
G1 X151.060 Y137.061 E3.3336
G1 X151.060 Y136.495 E3.3420
G1 X148.940 Y138.615 E3.3869
G1 X148.940 Y138.049 E3.3954
G1 X151.060 Y135.929 E3.4402
G1 X151.060 Y135.364 E3.4487
G1 X148.940 Y137.484 E3.4936
G1 X148.940 Y136.918 E3.5020
G1 X151.060 Y134.798 E3.5469
G1 X151.060 Y134.232 E3.5554
G1 X148.940 Y136.352 E3.6003
G1 X148.940 Y135.787 E3.6087
G1 X151.060 Y133.667 E3.6536
G1 X151.060 Y133.101 E3.6621
G1 X148.940 Y135.221 E3.7069
G1 X148.940 Y134.655 E3.7154
