; G-Code generated by Simplify3D(R) Version 4.1.2
; Dec 5, 2021 at 2:51:16 PM
; Settings Summary
;   processName,Process1
;   applyToModels,TokenTray
;   profileName,Creality CR-10S Pro (modified)
;   profileVersion,2021-05-02 22:29:37
;   baseProfile,
;   printMaterial,PLA
;   printQuality,High
;   printExtruders,
;   extruderName,Primary Extruder
;   extruderToolheadNumber,0
;   extruderDiameter,0.4
;   extruderAutoWidth,0
;   extruderWidth,0.4
;   extrusionMultiplier,0.9
;   extruderUseRetract,1
;   extruderRetractionDistance,5
;   extruderExtraRestartDistance,0
;   extruderRetractionZLift,0
;   extruderRetractionSpeed,1800
;   extruderUseCoasting,0
;   extruderCoastingDistance,0.2
;   extruderUseWipe,0
;   extruderWipeDistance,5
;   primaryExtruder,0
;   layerHeight,0.1
;   topSolidLayers,4
;   bottomSolidLayers,4
;   perimeterOutlines,2
;   printPerimetersInsideOut,1
;   startPointOption,2
;   startPointOriginX,0
;   startPointOriginY,0
;   sequentialIslands,0
;   spiralVaseMode,0
;   firstLayerHeightPercentage,120
;   firstLayerWidthPercentage,150
;   firstLayerUnderspeed,0.5
;   useRaft,0
;   raftExtruder,0
;   raftTopLayers,3
;   raftBaseLayers,2
;   raftOffset,3
;   raftSeparationDistance,0.14
;   raftTopInfill,100
;   aboveRaftSpeedMultiplier,0.3
;   useSkirt,1
;   skirtExtruder,0
;   skirtLayers,2
;   skirtOutlines,2
;   skirtOffset,4
;   usePrimePillar,0
;   primePillarExtruder,999
;   primePillarWidth,12
;   primePillarLocation,7
;   primePillarSpeedMultiplier,1
;   useOozeShield,0
;   oozeShieldExtruder,999
;   oozeShieldOffset,2
;   oozeShieldOutlines,1
;   oozeShieldSidewallShape,1
;   oozeShieldSidewallAngle,30
;   oozeShieldSpeedMultiplier,1
;   infillExtruder,0
;   internalInfillPattern,Rectilinear
;   externalInfillPattern,Rectilinear
;   infillPercentage,10
;   outlineOverlapPercentage,15
;   infillExtrusionWidthPercentage,100
;   minInfillLength,5
;   infillLayerInterval,1
;   internalInfillAngles,45,-45
;   overlapInternalInfillAngles,0
;   externalInfillAngles,45,-45
;   generateSupport,0
;   supportExtruder,0
;   supportInfillPercentage,40
;   supportExtraInflation,0
;   supportBaseLayers,0
;   denseSupportExtruder,0
;   denseSupportLayers,0
;   denseSupportInfillPercentage,70
;   supportLayerInterval,1
;   supportHorizontalPartOffset,0.3
;   supportUpperSeparationLayers,1
;   supportLowerSeparationLayers,1
;   supportType,0
;   supportGridSpacing,3
;   maxOverhangAngle,45
;   supportAngles,0
;   temperatureName,Primary Extruder,Heated Bed
;   temperatureNumber,0,0
;   temperatureSetpointCount,1,1
;   temperatureSetpointLayers,1,1
;   temperatureSetpointTemperatures,210,60
;   temperatureStabilizeAtStartup,1,1
;   temperatureHeatedBed,0,1
;   fanLayers,1,2
;   fanSpeeds,0,100
;   blipFanToFullPower,0
;   adjustSpeedForCooling,1
;   minSpeedLayerTime,15
;   minCoolingSpeedSlowdown,20
;   increaseFanForCooling,0
;   minFanLayerTime,45
;   maxCoolingFanSpeed,100
;   increaseFanForBridging,0
;   bridgingFanSpeed,100
;   use5D,1
;   relativeEdistances,0
;   allowEaxisZeroing,1
;   independentExtruderAxes,0
;   includeM10123,0
;   stickySupport,1
;   applyToolheadOffsets,0
;   gcodeXoffset,0
;   gcodeYoffset,0
;   gcodeZoffset,0
;   overrideMachineDefinition,1
;   machineTypeOverride,0
;   strokeXoverride,300
;   strokeYoverride,300
;   strokeZoverride,400
;   originOffsetXoverride,0
;   originOffsetYoverride,0
;   originOffsetZoverride,0
;   homeXdirOverride,-1
;   homeYdirOverride,-1
;   homeZdirOverride,-1
;   flipXoverride,1
;   flipYoverride,-1
;   flipZoverride,1
;   toolheadOffsets,0,0|0,0|0,0|0,0|0,0|0,0
;   overrideFirmwareConfiguration,1
;   firmwareTypeOverride,RepRap (Marlin/Repetier/Sprinter)
;   GPXconfigOverride,r2
;   baudRateOverride,115200
;   overridePrinterModels,1
;   printerModelsOverride
;   startingGcode,G28 ; home all axes,G29 ; auto-bed level,G1 Z5 F3000 ; lift,G1 X5 Y10 F1500 ; move to prime,G1 Z0.2 F3000 ; get ready to prime,G92 E0 ; reset extrusion distance,G1 Y80 E10 F600 ; prime nozzle,G1 Y100 F5000 ; quick wipe
;   layerChangeGcode,;G90; Absolute positioning,;G1 F9000 Y100 Z100; Move to photo position;,;M240; Make a photo,
;   retractionGcode,
;   toolChangeGcode,
;   endingGcode,G28 X0 ; home X axis,M106 S0 ; turn off cooling fan,M104 S0 ; turn off extruder,M140 S0 ; turn off bed,M84 ; disable motors
;   exportFileFormat,gcode
;   celebration,0
;   celebrationSong,Random Song
;   postProcessing,
;   defaultSpeed,3600
;   outlineUnderspeed,0.5
;   solidInfillUnderspeed,0.8
;   supportUnderspeed,0.8
;   rapidXYspeed,4800
;   rapidZspeed,1002
;   minBridgingArea,50
;   bridgingExtraInflation,0
;   bridgingExtrusionMultiplier,1
;   bridgingSpeedMultiplier,1
;   useFixedBridgingAngle,0
;   fixedBridgingAngle,0
;   applyBridgingToPerimeters,0
;   filamentDiameters,1.75|1.75|1.75|1.75|1.75|1.75
;   filamentPricesPerKg,46|46|46|46|46|46
;   filamentDensities,1.25|1.25|1.25|1.25|1.25|1.25
;   useMinPrintHeight,0
;   minPrintHeight,26.3
;   useMaxPrintHeight,0
;   maxPrintHeight,0
;   useDiaphragm,0
;   diaphragmLayerInterval,20
;   robustSlicing,1
;   mergeAllIntoSolid,0
;   onlyRetractWhenCrossingOutline,1
;   retractBetweenLayers,1
;   useRetractionMinTravel,0
;   retractionMinTravel,3
;   retractWhileWiping,0
;   onlyWipeOutlines,1
;   avoidCrossingOutline,0
;   maxMovementDetourFactor,3
;   toolChangeRetractionDistance,12
;   toolChangeExtraRestartDistance,-0.5
;   toolChangeRetractionSpeed,600
;   externalThinWallType,0
;   internalThinWallType,2
;   thinWallAllowedOverlapPercentage,10
;   singleExtrusionMinLength,1
;   singleExtrusionMinPrintingWidthPercentage,50
;   singleExtrusionMaxPrintingWidthPercentage,200
;   singleExtrusionEndpointExtension,0.2
;   horizontalSizeCompensation,0
G90
M82
M106 S0
M140 S60
M190 S60
M104 S210 T0
M109 S210 T0
G28 ; home all axes
G29 ; auto-bed level
G1 Z5 F3000 ; lift
G1 X5 Y10 F1500 ; move to prime
G1 Z0.2 F3000 ; get ready to prime
G92 E0 ; reset extrusion distance
G1 Y80 E10 F600 ; prime nozzle
G1 Y100 F5000 ; quick wipe
; process Process1
; layer 1, Z = 0.120
T0
G92 E0.0000
G1 E-5.0000 F1800
;G90; Absolute positioning
;G1 F9000 Y100 Z100; Move to photo position;
;M240; Make a photo
; feature skirt
; tool H0.120 W0.600
G1 Z0.120 F1002
G1 X87.559 Y128.159 F4800
G1 E0.0000 F1800
G92 E0.0000
G1 X87.746 Y128.043 E0.0059 F1800
G1 X88.435 Y127.656 E0.0272
G1 X88.645 Y127.551 E0.0335
G1 X89.426 Y127.207 E0.0565
G1 X89.644 Y127.123 E0.0628
G1 X90.396 Y126.874 E0.0842
G1 X90.611 Y126.813 E0.0902
G1 X91.378 Y126.635 E0.1114
G1 X91.599 Y126.594 E0.1174
G1 X92.378 Y126.486 E0.1386
G1 X92.601 Y126.466 E0.1447
G1 X93.332 Y126.433 E0.1644
G1 X93.444 Y126.430 E0.1674
G1 X206.556 Y126.430 E3.2147
G1 X206.668 Y126.433 E3.2177
G1 X207.399 Y126.466 E3.2374
G1 X207.622 Y126.486 E3.2435
G1 X208.401 Y126.594 E3.2647
G1 X208.622 Y126.635 E3.2707
G1 X209.389 Y126.813 E3.2919
G1 X209.604 Y126.874 E3.2980
G1 X210.356 Y127.123 E3.3193
G1 X210.574 Y127.207 E3.3256
G1 X211.355 Y127.551 E3.3486
G1 X211.565 Y127.656 E3.3549
G1 X212.257 Y128.044 E3.3763
G1 X212.447 Y128.162 E3.3823
G1 X213.094 Y128.608 E3.4035
G1 X213.271 Y128.742 E3.4095
G1 X213.834 Y129.209 E3.4292
G1 X214.001 Y129.361 E3.4353
G1 X214.639 Y129.999 E3.4596
G1 X214.791 Y130.166 E3.4657
G1 X215.263 Y130.734 E3.4855
G1 X215.405 Y130.923 E3.4919
G1 X215.880 Y131.623 E3.5147
G1 X215.994 Y131.807 E3.5205
G1 X216.349 Y132.444 E3.5402
G1 X216.450 Y132.648 E3.5463
G1 X216.793 Y133.426 E3.5692
G1 X216.877 Y133.644 E3.5755
G1 X217.126 Y134.396 E3.5968
G1 X217.187 Y134.611 E3.6029
G1 X217.365 Y135.378 E3.6241
G1 X217.406 Y135.598 E3.6301
G1 X217.514 Y136.378 E3.6513
G1 X217.534 Y136.601 E3.6574
G1 X217.567 Y137.332 E3.6771
G1 X217.570 Y137.444 E3.6801
G1 X217.570 Y162.556 E4.3566
G1 X217.567 Y162.668 E4.3596
G1 X217.534 Y163.399 E4.3793
G1 X217.514 Y163.622 E4.3854
G1 X217.406 Y164.402 E4.4066
G1 X217.365 Y164.622 E4.4126
G1 X217.187 Y165.389 E4.4338
G1 X217.126 Y165.604 E4.4399
G1 X216.877 Y166.356 E4.4612
G1 X216.793 Y166.574 E4.4675
G1 X216.448 Y167.355 E4.4905
G1 X216.344 Y167.565 E4.4968
G1 X215.957 Y168.254 E4.5181
G1 X215.841 Y168.441 E4.5240
G1 X215.433 Y169.037 E4.5435
G1 X215.305 Y169.207 E4.5492
G1 X214.769 Y169.861 E4.5720
G1 X214.607 Y170.039 E4.5785
G1 X214.045 Y170.601 E4.5999
G1 X213.879 Y170.752 E4.6060
G1 X213.274 Y171.256 E4.6272
G1 X213.095 Y171.391 E4.6332
G1 X212.447 Y171.838 E4.6544
G1 X212.257 Y171.956 E4.6604
G1 X211.565 Y172.344 E4.6818
G1 X211.355 Y172.449 E4.6881
G1 X210.574 Y172.793 E4.7111
G1 X210.356 Y172.877 E4.7174
G1 X209.604 Y173.126 E4.7388
G1 X209.389 Y173.187 E4.7448
G1 X208.622 Y173.365 E4.7660
G1 X208.402 Y173.406 E4.7720
G1 X207.622 Y173.514 E4.7932
G1 X207.399 Y173.534 E4.7993
G1 X206.668 Y173.567 E4.8190
G1 X206.556 Y173.570 E4.8220
G1 X93.444 Y173.570 E7.8693
G1 X93.332 Y173.567 E7.8723
G1 X92.601 Y173.534 E7.8920
G1 X92.378 Y173.514 E7.8981
G1 X91.598 Y173.406 E7.9193
G1 X91.378 Y173.365 E7.9253
G1 X90.611 Y173.187 E7.9465
G1 X90.396 Y173.126 E7.9526
G1 X89.644 Y172.877 E7.9739
G1 X89.426 Y172.793 E7.9802
G1 X88.645 Y172.449 E8.0032
G1 X88.435 Y172.344 E8.0095
G1 X87.743 Y171.956 E8.0309
G1 X87.553 Y171.838 E8.0369
G1 X86.905 Y171.391 E8.0581
G1 X86.726 Y171.256 E8.0642
G1 X86.121 Y170.753 E8.0854
G1 X85.955 Y170.601 E8.0914
G1 X85.399 Y170.045 E8.1126
G1 X85.248 Y169.879 E8.1186
G1 X84.744 Y169.274 E8.1399
G1 X84.609 Y169.095 E8.1459
G1 X84.162 Y168.447 E8.1671
G1 X84.044 Y168.256 E8.1731
G1 X83.659 Y167.570 E8.1944
G1 X83.558 Y167.370 E8.2004
G1 X83.236 Y166.647 E8.2217
G1 X83.151 Y166.430 E8.2280
G1 X82.879 Y165.621 E8.2510
G1 X82.815 Y165.394 E8.2573
G1 X82.635 Y164.622 E8.2787
G1 X82.594 Y164.402 E8.2847
G1 X82.487 Y163.622 E8.3059
G1 X82.466 Y163.400 E8.3119
G1 X82.435 Y162.726 E8.3301
G1 X82.432 Y162.613 E8.3332
G1 X82.430 Y137.444 E9.0112
G1 X82.433 Y137.332 E9.0142
G1 X82.466 Y136.601 E9.0340
G1 X82.486 Y136.378 E9.0400
G1 X82.594 Y135.598 E9.0612
G1 X82.635 Y135.378 E9.0672
G1 X82.813 Y134.611 E9.0884
G1 X82.874 Y134.396 E9.0945
G1 X83.123 Y133.644 E9.1158
G1 X83.207 Y133.426 E9.1221
G1 X83.551 Y132.645 E9.1451
G1 X83.656 Y132.435 E9.1514
G1 X84.044 Y131.743 E9.1728
G1 X84.162 Y131.553 E9.1788
G1 X84.609 Y130.905 E9.2000
G1 X84.744 Y130.726 E9.2061
G1 X85.247 Y130.121 E9.2273
G1 X85.399 Y129.955 E9.2333
G1 X85.961 Y129.393 E9.2548
G1 X86.139 Y129.231 E9.2612
G1 X86.793 Y128.695 E9.2840
G1 X86.963 Y128.567 E9.2897
G1 X87.559 Y128.159 E9.3092
G92 E0.0000
G1 E-5.0000 F1800
G1 X87.887 Y128.661 F4800
G1 E0.0000 F1800
G92 E0.0000
G1 X88.051 Y128.560 E0.0052 F1800
G1 X88.716 Y128.187 E0.0257
G1 X88.900 Y128.095 E0.0313
G1 X89.655 Y127.762 E0.0535
G1 X89.846 Y127.688 E0.0590
G1 X90.571 Y127.448 E0.0796
G1 X90.761 Y127.395 E0.0849
G1 X91.501 Y127.222 E0.1054
G1 X91.694 Y127.187 E0.1107
G1 X92.447 Y127.083 E0.1311
G1 X92.643 Y127.065 E0.1364
G1 X93.352 Y127.032 E0.1556
G1 X93.451 Y127.030 E0.1582
G1 X206.549 Y127.030 E3.2052
G1 X206.648 Y127.032 E3.2078
G1 X207.357 Y127.065 E3.2270
G1 X207.553 Y127.083 E3.2323
G1 X208.306 Y127.187 E3.2527
G1 X208.499 Y127.222 E3.2580
G1 X209.239 Y127.395 E3.2785
G1 X209.429 Y127.448 E3.2838
G1 X210.154 Y127.688 E3.3044
G1 X210.345 Y127.762 E3.3099
G1 X211.100 Y128.095 E3.3321
G1 X211.284 Y128.187 E3.3377
G1 X211.951 Y128.561 E3.3583
G1 X212.118 Y128.665 E3.3636
G1 X212.743 Y129.095 E3.3840
G1 X212.898 Y129.212 E3.3893
G1 X213.440 Y129.661 E3.4082
G1 X213.587 Y129.795 E3.4136
G1 X214.205 Y130.413 E3.4371
G1 X214.338 Y130.560 E3.4425
G1 X214.792 Y131.107 E3.4616
G1 X214.917 Y131.272 E3.4672
G1 X215.376 Y131.949 E3.4892
G1 X215.476 Y132.111 E3.4944
G1 X215.818 Y132.724 E3.5133
G1 X215.907 Y132.903 E3.5186
G1 X216.238 Y133.655 E3.5408
G1 X216.312 Y133.846 E3.5463
G1 X216.552 Y134.571 E3.5669
G1 X216.605 Y134.761 E3.5722
G1 X216.778 Y135.501 E3.5927
G1 X216.813 Y135.694 E3.5980
G1 X216.917 Y136.447 E3.6184
G1 X216.935 Y136.643 E3.6237
G1 X216.968 Y137.353 E3.6429
G1 X216.970 Y137.451 E3.6455
G1 X216.970 Y162.549 E4.3217
G1 X216.968 Y162.647 E4.3243
G1 X216.935 Y163.357 E4.3435
G1 X216.917 Y163.553 E4.3488
G1 X216.813 Y164.306 E4.3693
G1 X216.778 Y164.499 E4.3746
G1 X216.605 Y165.239 E4.3950
G1 X216.552 Y165.429 E4.4003
G1 X216.312 Y166.154 E4.4209
G1 X216.238 Y166.345 E4.4264
G1 X215.905 Y167.100 E4.4487
G1 X215.813 Y167.284 E4.4542
G1 X215.440 Y167.949 E4.4747
G1 X215.339 Y168.113 E4.4799
G1 X214.945 Y168.687 E4.4987
G1 X214.833 Y168.836 E4.5037
G1 X214.314 Y169.469 E4.5258
G1 X214.173 Y169.625 E4.5314
G1 X213.630 Y170.168 E4.5521
G1 X213.485 Y170.300 E4.5574
G1 X212.901 Y170.786 E4.5779
G1 X212.744 Y170.905 E4.5832
G1 X212.118 Y171.335 E4.6036
G1 X211.951 Y171.439 E4.6089
G1 X211.284 Y171.813 E4.6295
G1 X211.100 Y171.905 E4.6351
G1 X210.345 Y172.238 E4.6573
G1 X210.154 Y172.312 E4.6628
G1 X209.429 Y172.552 E4.6834
G1 X209.239 Y172.605 E4.6887
G1 X208.499 Y172.778 E4.7092
G1 X208.306 Y172.813 E4.7145
G1 X207.553 Y172.917 E4.7350
G1 X207.357 Y172.935 E4.7403
G1 X206.647 Y172.968 E4.7594
G1 X206.549 Y172.970 E4.7620
G1 X93.451 Y172.970 E7.8090
G1 X93.353 Y172.968 E7.8116
G1 X92.643 Y172.935 E7.8308
G1 X92.447 Y172.917 E7.8361
G1 X91.694 Y172.813 E7.8566
G1 X91.501 Y172.778 E7.8619
G1 X90.761 Y172.605 E7.8823
G1 X90.571 Y172.552 E7.8876
G1 X89.846 Y172.312 E7.9082
G1 X89.655 Y172.238 E7.9137
G1 X88.900 Y171.905 E7.9360
G1 X88.716 Y171.813 E7.9415
G1 X88.049 Y171.439 E7.9621
G1 X87.882 Y171.335 E7.9674
G1 X87.256 Y170.905 E7.9879
G1 X87.099 Y170.786 E7.9932
G1 X86.515 Y170.300 E8.0136
G1 X86.370 Y170.168 E8.0189
G1 X85.832 Y169.630 E8.0394
G1 X85.700 Y169.485 E8.0447
G1 X85.214 Y168.901 E8.0652
G1 X85.095 Y168.744 E8.0705
G1 X84.665 Y168.118 E8.0909
G1 X84.561 Y167.951 E8.0962
G1 X84.189 Y167.288 E8.1167
G1 X84.101 Y167.113 E8.1220
G1 X83.790 Y166.415 E8.1426
G1 X83.715 Y166.225 E8.1481
G1 X83.452 Y165.443 E8.1703
G1 X83.396 Y165.244 E8.1759
G1 X83.222 Y164.499 E8.1965
G1 X83.187 Y164.306 E8.2018
G1 X83.083 Y163.554 E8.2222
G1 X83.065 Y163.359 E8.2275
G1 X83.035 Y162.705 E8.2451
G1 X83.032 Y162.606 E8.2478
G1 X83.030 Y137.451 E8.9255
G1 X83.032 Y137.353 E8.9282
G1 X83.065 Y136.643 E8.9473
G1 X83.083 Y136.447 E8.9526
G1 X83.187 Y135.694 E8.9731
G1 X83.222 Y135.501 E8.9784
G1 X83.394 Y134.761 E8.9988
G1 X83.448 Y134.571 E9.0041
G1 X83.688 Y133.846 E9.0247
G1 X83.762 Y133.655 E9.0303
G1 X84.095 Y132.900 E9.0525
G1 X84.187 Y132.716 E9.0580
G1 X84.561 Y132.049 E9.0786
G1 X84.665 Y131.882 E9.0839
G1 X85.095 Y131.256 E9.1044
G1 X85.214 Y131.099 E9.1097
G1 X85.700 Y130.515 E9.1302
G1 X85.833 Y130.370 E9.1355
G1 X86.375 Y129.827 E9.1561
G1 X86.531 Y129.686 E9.1618
G1 X87.164 Y129.167 E9.1838
G1 X87.313 Y129.055 E9.1889
G1 X87.887 Y128.661 E9.2076
G92 E0.0000
G1 E-5.0000 F1800
; feature inner perimeter
G1 X90.780 Y133.117 F4800
G1 E0.0000 F1800
G92 E0.0000
G1 X91.193 Y132.885 E0.0128 F1350
G1 X91.645 Y132.686 E0.0261
G1 X92.094 Y132.536 E0.0388
G1 X92.556 Y132.428 E0.0516
G1 X93.026 Y132.363 E0.0644
G1 X93.521 Y132.340 E0.0777
G1 X206.479 Y132.340 E3.1209
G1 X206.974 Y132.363 E3.1343
G1 X207.444 Y132.428 E3.1470
G1 X207.906 Y132.536 E3.1598
G1 X208.355 Y132.686 E3.1726
G1 X208.807 Y132.885 E3.1859
G1 X209.220 Y133.116 E3.1986
G1 X209.611 Y133.385 E3.2114
G1 X209.961 Y133.675 E3.2237
G1 X210.325 Y134.039 E3.2375
G1 X210.614 Y134.388 E3.2497
G1 X210.893 Y134.796 E3.2630
G1 X211.114 Y135.193 E3.2753
G1 X211.314 Y135.645 E3.2886
G1 X211.464 Y136.094 E3.3014
G1 X211.572 Y136.556 E3.3141
G1 X211.637 Y137.026 E3.3269
G1 X211.660 Y137.521 E3.3403
G1 X211.660 Y162.479 E4.0127
G1 X211.637 Y162.974 E4.0260
G1 X211.572 Y163.444 E4.0388
G1 X211.464 Y163.906 E4.0516
G1 X211.314 Y164.355 E4.0643
G1 X211.115 Y164.806 E4.0776
G1 X210.883 Y165.220 E4.0904
G1 X210.626 Y165.596 E4.1027
G1 X210.311 Y165.977 E4.1160
G1 X209.976 Y166.312 E4.1287
G1 X209.611 Y166.615 E4.1415
G1 X209.220 Y166.884 E4.1543
G1 X208.807 Y167.115 E4.1671
G1 X208.355 Y167.314 E4.1804
G1 X207.906 Y167.464 E4.1931
G1 X207.444 Y167.572 E4.2059
G1 X206.974 Y167.637 E4.2187
G1 X206.479 Y167.660 E4.2320
G1 X93.521 Y167.660 E7.2752
G1 X93.026 Y167.637 E7.2886
