; G-Code generated by Simplify3D(R) Version 4.1.2
; Mar 28, 2021 at 12:49:16 PM
; Settings Summary
;   processName,Precise
;   applyToModels,Root_Items_Holder_Magnet_Top
;   profileName,FlashForge Creator Pro (modified)
;   profileVersion,2020-10-11 13:46:27
;   baseProfile,
;   printMaterial,PLA
;   printQuality,High
;   printExtruders,Right Extruder Only
;   extruderName,Right Extruder,Left Extruder
;   extruderToolheadNumber,0,1
;   extruderDiameter,0.4,0.4
;   extruderAutoWidth,0,0
;   extruderWidth,0.4,0.4
;   extrusionMultiplier,0.9,0.9
;   extruderUseRetract,1,1
;   extruderRetractionDistance,1.5,1.5
;   extruderExtraRestartDistance,0,0
;   extruderRetractionZLift,0,0
;   extruderRetractionSpeed,1200,1200
;   extruderUseCoasting,0,0
;   extruderCoastingDistance,0.2,0.2
;   extruderUseWipe,0,0
;   extruderWipeDistance,5,5
;   primaryExtruder,0
;   layerHeight,0.1
;   topSolidLayers,6
;   bottomSolidLayers,4
;   perimeterOutlines,2
;   printPerimetersInsideOut,1
;   startPointOption,2
;   startPointOriginX,0
;   startPointOriginY,0
;   sequentialIslands,0
;   spiralVaseMode,0
;   firstLayerHeightPercentage,90
;   firstLayerWidthPercentage,100
;   firstLayerUnderspeed,0.5
;   useRaft,0
;   raftExtruder,0
;   raftTopLayers,3
;   raftBaseLayers,2
;   raftOffset,3
;   raftSeparationDistance,0.14
;   raftTopInfill,100
;   aboveRaftSpeedMultiplier,0.3
;   useSkirt,1
;   skirtExtruder,0
;   skirtLayers,1
;   skirtOutlines,3
;   skirtOffset,4
;   usePrimePillar,0
;   primePillarExtruder,999
;   primePillarWidth,2
;   primePillarLocation,7
;   primePillarSpeedMultiplier,1
;   useOozeShield,0
;   oozeShieldExtruder,999
;   oozeShieldOffset,2
;   oozeShieldOutlines,1
;   oozeShieldSidewallShape,1
;   oozeShieldSidewallAngle,30
;   oozeShieldSpeedMultiplier,1
;   infillExtruder,0
;   internalInfillPattern,Rectilinear
;   externalInfillPattern,Rectilinear
;   infillPercentage,30
;   outlineOverlapPercentage,20
;   infillExtrusionWidthPercentage,100
;   minInfillLength,5
;   infillLayerInterval,1
;   internalInfillAngles,45,-45
;   overlapInternalInfillAngles,0
;   externalInfillAngles,45,-45
;   generateSupport,0
;   supportExtruder,0
;   supportInfillPercentage,40
;   supportExtraInflation,0
;   supportBaseLayers,0
;   denseSupportExtruder,0
;   denseSupportLayers,0
;   denseSupportInfillPercentage,70
;   supportLayerInterval,1
;   supportHorizontalPartOffset,0.3
;   supportUpperSeparationLayers,1
;   supportLowerSeparationLayers,1
;   supportType,0
;   supportGridSpacing,4
;   maxOverhangAngle,45
;   supportAngles,0
;   temperatureName,Right Extruder,Left Extruder,Heated Build Platform
;   temperatureNumber,0,1,0
;   temperatureSetpointCount,1,1,1
;   temperatureSetpointLayers,1,1,1
;   temperatureSetpointTemperatures,210,0,60
;   temperatureStabilizeAtStartup,0,0,0
;   temperatureHeatedBed,0,0,1
;   fanLayers,1,2
;   fanSpeeds,0,100
;   blipFanToFullPower,0
;   adjustSpeedForCooling,1
;   minSpeedLayerTime,15
;   minCoolingSpeedSlowdown,20
;   increaseFanForCooling,0
;   minFanLayerTime,45
;   maxCoolingFanSpeed,100
;   increaseFanForBridging,1
;   bridgingFanSpeed,100
;   use5D,1
;   relativeEdistances,1
;   allowEaxisZeroing,0
;   independentExtruderAxes,1
;   includeM10123,0
;   stickySupport,1
;   applyToolheadOffsets,0
;   gcodeXoffset,0
;   gcodeYoffset,0
;   gcodeZoffset,0
;   overrideMachineDefinition,1
;   machineTypeOverride,0
;   strokeXoverride,225
;   strokeYoverride,145
;   strokeZoverride,150
;   originOffsetXoverride,112.5
;   originOffsetYoverride,72.5
;   originOffsetZoverride,0
;   homeXdirOverride,1
;   homeYdirOverride,1
;   homeZdirOverride,-1
;   flipXoverride,1
;   flipYoverride,-1
;   flipZoverride,1
;   toolheadOffsets,0,0|34,0|0,0|0,0|0,0|0,0
;   overrideFirmwareConfiguration,1
;   firmwareTypeOverride,MakerBot/Sailfish Firmware
;   GPXconfigOverride,r1d
;   baudRateOverride,115200
;   overridePrinterModels,1
;   printerModelsOverride,FlashForge_CreatorPro.stl
;   startingGcode,; **** Replicator 1 dual start.gcode ****,M73 P0 ; enable build progress,G162 X Y F3000 ; home XY maximum,G161 Z F1200 ; home Z minimum,G92 Z-5 ; set Z to -5,G1 Z0 ; move Z to 0,G161 Z F100 ; home Z slowly,M132 X Y Z A B ; recall home offsets,M135 T0 ; load right extruder offsets,G1 X150 Y-70 Z30 F9000 ; move to wait position right hand side of the table,G130 X20 Y20 Z20 A20 B20 ; lower stepper Vrefs while heating,M126 S[fan_speed_pwm],M140 S[bed0_temperature] T0,M134 T0 ; stabilize bed temperature,M104 S[extruder0_temperature] T0,M133 T0 ; stabilize right extruder temperature,G130 X127 Y127 Z40 A127 B127 ; default stepper Vrefs,G92 A0 B0 ; zero extruders,G1 Z0.4 ; position nozzle,G1 X110 Y-70 E25 F300 ; purge nozzle,G1 X120 Y-70 Z0.15 F1200 ; slow wipe,G1 X110 Y-70 Z0.5 F1200 ; lift,G92 A0 B0 ; zero extruders,M73 P1 ;@body (notify GPX body has started),; **** end of start.gcode ****
;   layerChangeGcode,
;   retractionGcode,
;   toolChangeGcode,
;   endingGcode,; **** Replicator 1 dual end.gcode ****,M73 P100 ; end build progress,G1 Z150 F1000 ; send Z axis to bottom of machine,M140 S0 T0 ; cool down HBP,M104 S0 T0 ; cool down right extruder,M104 S0 T1 ; cool down left extruder,M127 ; stop blower fan,G162 X Y F3000 ; home XY maximum,M18 ; disable stepper,M72 P1 ; play Ta-Da song,; **** end of end.gcode ****
;   exportFileFormat,x3g
;   celebration,0
;   celebrationSong,Random Song
;   postProcessing,
;   defaultSpeed,3600
;   outlineUnderspeed,0.5
;   solidInfillUnderspeed,0.8
;   supportUnderspeed,0.8
;   rapidXYspeed,4200
;   rapidZspeed,1200
;   minBridgingArea,50
;   bridgingExtraInflation,0
;   bridgingExtrusionMultiplier,1
;   bridgingSpeedMultiplier,0.8
;   useFixedBridgingAngle,0
;   fixedBridgingAngle,0
;   applyBridgingToPerimeters,0
;   filamentDiameters,1.75|1.75|1.75|1.75|1.75|1.75
;   filamentPricesPerKg,46|46|46|46|46|46
;   filamentDensities,1.25|1.25|1.25|1.25|1.25|1.25
;   useMinPrintHeight,0
;   minPrintHeight,0
;   useMaxPrintHeight,0
;   maxPrintHeight,0
;   useDiaphragm,0
;   diaphragmLayerInterval,20
;   robustSlicing,1
;   mergeAllIntoSolid,0
;   onlyRetractWhenCrossingOutline,1
;   retractBetweenLayers,1
;   useRetractionMinTravel,0
;   retractionMinTravel,3
;   retractWhileWiping,0
;   onlyWipeOutlines,1
;   avoidCrossingOutline,0
;   maxMovementDetourFactor,3
;   toolChangeRetractionDistance,12
;   toolChangeExtraRestartDistance,-0.5
;   toolChangeRetractionSpeed,600
;   externalThinWallType,0
;   internalThinWallType,2
;   thinWallAllowedOverlapPercentage,10
;   singleExtrusionMinLength,1
;   singleExtrusionMinPrintingWidthPercentage,50
;   singleExtrusionMaxPrintingWidthPercentage,200
;   singleExtrusionEndpointExtension,0.2
;   horizontalSizeCompensation,0
G90
M83
; **** Replicator 1 dual start.gcode ****
M73 P0 ; enable build progress
G162 X Y F3000 ; home XY maximum
G161 Z F1200 ; home Z minimum
G92 Z-5 ; set Z to -5
G1 Z0 ; move Z to 0
G161 Z F100 ; home Z slowly
M132 X Y Z A B ; recall home offsets
M135 T0 ; load right extruder offsets
G1 X150 Y-70 Z30 F9000 ; move to wait position right hand side of the table
G130 X20 Y20 Z20 A20 B20 ; lower stepper Vrefs while heating
M127
M140 S60 T0
M134 T0 ; stabilize bed temperature
M104 S210 T0
M133 T0 ; stabilize right extruder temperature
G130 X127 Y127 Z40 A127 B127 ; default stepper Vrefs
G92 A0 B0 ; zero extruders
G1 Z0.4 ; position nozzle
G1 X110 Y-70 E25 F300 ; purge nozzle
G1 X120 Y-70 Z0.15 F1200 ; slow wipe
G1 X110 Y-70 Z0.5 F1200 ; lift
G92 A0 B0 ; zero extruders
M73 P1 ;@body (notify GPX body has started)
; **** end of start.gcode ****
; process Precise
; layer 1, Z = 0.090
M135 T0
G1 E-1.5000 F1200
; feature skirt
; tool H0.090 W0.400
G1 Z0.090 F1200
G1 X65.210 Y27.500 F4200
G1 E1.5000 F1200
G1 X-66.226 Y27.500 E1.7705 F1800
G1 X-66.771 Y27.440 E0.0074
G1 X-67.803 Y27.210 E0.0143
G1 X-68.133 Y27.113 E0.0046
G1 X-69.137 Y26.739 E0.0144
G1 X-69.464 Y26.589 E0.0048
G1 X-70.415 Y26.069 E0.0146
G1 X-70.710 Y25.880 E0.0047
G1 X-71.519 Y25.277 E0.0136
G1 X-71.770 Y25.063 E0.0044
G1 X-72.472 Y24.380 E0.0132
G1 X-72.695 Y24.131 E0.0045
G1 X-73.337 Y23.311 E0.0140
G1 X-73.533 Y23.022 E0.0047
G1 X-74.056 Y22.118 E0.0141
G1 X-74.210 Y21.805 E0.0047
G1 X-74.599 Y20.845 E0.0140
G1 X-74.700 Y20.544 E0.0043
G1 X-74.967 Y19.533 E0.0141
G1 X-75.050 Y18.891 E0.0087
G1 X-75.050 Y13.617 E0.0710
G1 X-75.116 Y13.590 E0.0010
G1 X-75.365 Y13.468 E0.0037
G1 X-76.356 Y12.917 E0.0153
G1 X-76.580 Y12.776 E0.0036
G1 X-77.509 Y12.121 E0.0153
G1 X-77.713 Y11.961 E0.0035
G1 X-78.574 Y11.208 E0.0154
G1 X-78.754 Y11.035 E0.0034
G1 X-79.540 Y10.197 E0.0155
G1 X-79.697 Y10.012 E0.0033
G1 X-80.403 Y9.096 E0.0156
G1 X-80.537 Y8.904 E0.0032
G1 X-81.157 Y7.921 E0.0157
G1 X-81.270 Y7.722 E0.0031
G1 X-81.801 Y6.679 E0.0158
G1 X-81.893 Y6.478 E0.0030
G1 X-82.332 Y5.386 E0.0158
G1 X-82.405 Y5.180 E0.0029
G1 X-82.749 Y4.050 E0.0159
G1 X-82.802 Y3.844 E0.0029
G1 X-83.049 Y2.684 E0.0160
G1 X-83.085 Y2.474 E0.0029
G1 X-83.233 Y1.294 E0.0160
G1 X-83.250 Y1.087 E0.0028
G1 X-83.300 Y-0.101 E0.0160
G1 X-83.300 Y-0.311 E0.0028
G1 X-83.250 Y-1.499 E0.0160
G1 X-83.233 Y-1.706 E0.0028
G1 X-83.085 Y-2.886 E0.0160
G1 X-83.049 Y-3.096 E0.0029
G1 X-82.802 Y-4.256 E0.0160
G1 X-82.749 Y-4.462 E0.0029
G1 X-82.405 Y-5.592 E0.0159
G1 X-82.332 Y-5.798 E0.0029
G1 X-81.893 Y-6.890 E0.0158
G1 X-81.801 Y-7.091 E0.0030
G1 X-81.270 Y-8.134 E0.0158
G1 X-81.157 Y-8.333 E0.0031
G1 X-80.537 Y-9.316 E0.0157
G1 X-80.403 Y-9.508 E0.0032
G1 X-79.697 Y-10.424 E0.0156
G1 X-79.540 Y-10.609 E0.0033
G1 X-78.752 Y-11.449 E0.0155
G1 X-78.568 Y-11.626 E0.0034
G1 X-77.690 Y-12.389 E0.0157
G1 X-77.490 Y-12.546 E0.0034
G1 X-76.580 Y-13.188 E0.0150
G1 X-76.356 Y-13.329 E0.0036
G1 X-75.365 Y-13.880 E0.0153
G1 X-75.116 Y-14.002 E0.0037
G1 X-75.050 Y-14.029 E0.0010
G1 X-75.050 Y-19.319 E0.0712
G1 X-74.937 Y-20.064 E0.0102
G1 X-74.746 Y-20.678 E0.0087
G1 X-74.677 Y-20.873 E0.0028
G1 X-74.324 Y-21.746 E0.0127
G1 X-74.174 Y-22.055 E0.0046
G1 X-73.654 Y-22.962 E0.0141
G1 X-73.463 Y-23.247 E0.0046
G1 X-72.849 Y-24.041 E0.0135
G1 X-72.614 Y-24.305 E0.0048
G1 X-71.801 Y-25.095 E0.0153
G1 X-71.510 Y-25.338 E0.0051
G1 X-70.641 Y-25.959 E0.0144
G1 X-70.405 Y-26.108 E0.0038
G1 X-69.817 Y-26.436 E0.0091
G1 X-69.576 Y-26.554 E0.0036
G1 X-68.693 Y-26.928 E0.0129
G1 X-68.367 Y-27.041 E0.0046
G1 X-67.372 Y-27.309 E0.0139
G1 X-67.114 Y-27.364 E0.0036
G1 X-66.455 Y-27.469 E0.0090
G1 X-66.062 Y-27.500 E0.0053
G1 X66.138 Y-27.500 E1.7808
G1 X66.663 Y-27.444 E0.0071
G1 X67.333 Y-27.301 E0.0092
G1 X67.574 Y-27.237 E0.0034
G1 X68.438 Y-26.959 E0.0122
G1 X68.678 Y-26.869 E0.0035
G1 X69.262 Y-26.612 E0.0086
G1 X69.505 Y-26.490 E0.0037
G1 X70.378 Y-25.987 E0.0136
G1 X70.658 Y-25.800 E0.0045
G1 X71.446 Y-25.193 E0.0134
G1 X71.702 Y-24.966 E0.0046
G1 X72.436 Y-24.220 E0.0141
G1 X72.660 Y-23.958 E0.0046
G1 X73.275 Y-23.132 E0.0139
G1 X73.460 Y-22.843 E0.0046
G1 X73.950 Y-21.951 E0.0137
G1 X74.085 Y-21.662 E0.0043
G1 X74.420 Y-20.810 E0.0123
G1 X74.519 Y-20.498 E0.0044
G1 X74.774 Y-19.471 E0.0143
G1 X74.834 Y-19.132 E0.0046
G1 X74.935 Y-18.179 E0.0129
G1 X74.949 Y-17.916 E0.0036
G1 X74.949 Y-14.066 E0.0519
G1 X75.119 Y-13.994 E0.0025
G1 X75.363 Y-13.875 E0.0037
G1 X76.353 Y-13.325 E0.0153
G1 X76.582 Y-13.182 E0.0036
G1 X77.511 Y-12.525 E0.0153
G1 X77.711 Y-12.368 E0.0034
G1 X78.572 Y-11.618 E0.0154
G1 X78.753 Y-11.443 E0.0034
G1 X79.539 Y-10.605 E0.0155
G1 X79.695 Y-10.422 E0.0032
G1 X80.403 Y-9.505 E0.0156
G1 X80.540 Y-9.308 E0.0032
G1 X81.160 Y-8.322 E0.0157
G1 X81.270 Y-8.128 E0.0030
G1 X81.801 Y-7.087 E0.0157
G1 X81.893 Y-6.884 E0.0030
G1 X82.333 Y-5.791 E0.0159
G1 X82.405 Y-5.586 E0.0029
G1 X82.749 Y-4.456 E0.0159
G1 X82.802 Y-4.251 E0.0029
G1 X83.049 Y-3.092 E0.0160
G1 X83.085 Y-2.881 E0.0029
G1 X83.233 Y-1.701 E0.0160
G1 X83.250 Y-1.494 E0.0028
G1 X83.300 Y-0.306 E0.0160
G1 X83.300 Y-0.097 E0.0028
G1 X83.250 Y1.093 E0.0160
G1 X83.233 Y1.301 E0.0028
G1 X83.085 Y2.479 E0.0160
G1 X83.049 Y2.689 E0.0029
G1 X82.802 Y3.849 E0.0160
G1 X82.749 Y4.055 E0.0029
G1 X82.405 Y5.185 E0.0159
G1 X82.332 Y5.391 E0.0029
G1 X81.893 Y6.483 E0.0158
G1 X81.801 Y6.684 E0.0030
G1 X81.271 Y7.726 E0.0157
G1 X81.159 Y7.923 E0.0031
G1 X80.539 Y8.907 E0.0157
G1 X80.402 Y9.103 E0.0032
G1 X79.695 Y10.020 E0.0156
G1 X79.539 Y10.203 E0.0032
G1 X78.754 Y11.040 E0.0155
G1 X78.574 Y11.213 E0.0034
G1 X77.714 Y11.965 E0.0154
G1 X77.512 Y12.124 E0.0035
G1 X76.582 Y12.781 E0.0153
G1 X76.353 Y12.924 E0.0036
G1 X75.363 Y13.475 E0.0153
G1 X75.119 Y13.593 E0.0037
G1 X74.950 Y13.664 E0.0025
G1 X74.950 Y17.628 E0.0534
G1 X74.944 Y17.804 E0.0024
G1 X74.876 Y18.755 E0.0128
G1 X74.816 Y19.150 E0.0054
G1 X74.526 Y20.389 E0.0171
G1 X74.410 Y20.754 E0.0052
G1 X74.024 Y21.710 E0.0139
G1 X73.874 Y22.019 E0.0046
G1 X73.354 Y22.926 E0.0141
G1 X73.163 Y23.211 E0.0046
G1 X72.555 Y23.998 E0.0134
G1 X72.331 Y24.250 E0.0045
G1 X71.587 Y24.984 E0.0141
G1 X71.321 Y25.212 E0.0047
G1 X70.487 Y25.831 E0.0140
G1 X70.187 Y26.022 E0.0048
G1 X69.224 Y26.544 E0.0148
G1 X68.897 Y26.691 E0.0048
G1 X67.920 Y27.052 E0.0140
G1 X67.594 Y27.147 E0.0046
G1 X66.622 Y27.363 E0.0134
G1 X66.306 Y27.412 E0.0043
G1 X65.434 Y27.490 E0.0118
G1 X65.210 Y27.500 E0.0030
G1 E-1.5000 F1200
G1 X65.201 Y27.100 F4200
G1 E1.5000 F1200
G1 X-66.204 Y27.100 E1.7701 F1800
G1 X-66.705 Y27.045 E0.0068
G1 X-67.703 Y26.823 E0.0138
G1 X-68.006 Y26.733 E0.0043
G1 X-68.984 Y26.369 E0.0140
G1 X-69.285 Y26.231 E0.0045
G1 X-70.211 Y25.725 E0.0142
G1 X-70.482 Y25.551 E0.0043
G1 X-71.270 Y24.964 E0.0132
G1 X-71.501 Y24.767 E0.0041
G1 X-72.183 Y24.103 E0.0128
G1 X-72.389 Y23.873 E0.0041
G1 X-73.014 Y23.076 E0.0137
G1 X-73.194 Y22.809 E0.0043
G1 X-73.703 Y21.930 E0.0137
G1 X-73.844 Y21.642 E0.0043
G1 X-74.224 Y20.706 E0.0136
G1 X-74.316 Y20.429 E0.0039
G1 X-74.573 Y19.455 E0.0136
G1 X-74.650 Y18.865 E0.0080
G1 X-74.650 Y13.351 E0.0743
G1 X-74.951 Y13.225 E0.0044
G1 X-75.180 Y13.114 E0.0034
G1 X-76.152 Y12.572 E0.0150
G1 X-76.358 Y12.443 E0.0033
G1 X-77.270 Y11.800 E0.0150
G1 X-77.458 Y11.653 E0.0032
G1 X-78.304 Y10.914 E0.0151
G1 X-78.469 Y10.754 E0.0031
G1 X-79.242 Y9.930 E0.0152
G1 X-79.386 Y9.760 E0.0030
G1 X-80.080 Y8.860 E0.0153
G1 X-80.203 Y8.683 E0.0029
G1 X-80.814 Y7.715 E0.0154
G1 X-80.918 Y7.532 E0.0028
G1 X-81.441 Y6.505 E0.0155
G1 X-81.525 Y6.320 E0.0027
G1 X-81.958 Y5.245 E0.0156
G1 X-82.025 Y5.056 E0.0027
G1 X-82.363 Y3.942 E0.0157
G1 X-82.412 Y3.752 E0.0026
G1 X-82.656 Y2.609 E0.0157
G1 X-82.689 Y2.416 E0.0026
G1 X-82.835 Y1.253 E0.0158
G1 X-82.851 Y1.062 E0.0026
G1 X-82.900 Y-0.110 E0.0158
G1 X-82.900 Y-0.302 E0.0026
G1 X-82.851 Y-1.474 E0.0158
G1 X-82.835 Y-1.665 E0.0026
G1 X-82.689 Y-2.828 E0.0158
G1 X-82.656 Y-3.021 E0.0026
G1 X-82.412 Y-4.164 E0.0157
G1 X-82.363 Y-4.354 E0.0026
G1 X-82.025 Y-5.468 E0.0157
G1 X-81.958 Y-5.657 E0.0027
G1 X-81.525 Y-6.732 E0.0156
G1 X-81.441 Y-6.917 E0.0027
G1 X-80.918 Y-7.944 E0.0155
G1 X-80.814 Y-8.127 E0.0028
G1 X-80.203 Y-9.095 E0.0154
G1 X-80.080 Y-9.272 E0.0029
G1 X-79.386 Y-10.172 E0.0153
G1 X-79.242 Y-10.342 E0.0030
G1 X-78.467 Y-11.168 E0.0153
G1 X-78.298 Y-11.331 E0.0032
G1 X-77.435 Y-12.081 E0.0154
G1 X-77.252 Y-12.225 E0.0031
G1 X-76.358 Y-12.855 E0.0147
G1 X-76.152 Y-12.984 E0.0033
G1 X-75.180 Y-13.526 E0.0150
G1 X-74.951 Y-13.637 E0.0034
G1 X-74.650 Y-13.763 E0.0044
G1 X-74.650 Y-19.288 E0.0744
G1 X-74.546 Y-19.975 E0.0093
G1 X-74.367 Y-20.551 E0.0081
G1 X-74.303 Y-20.730 E0.0026
G1 X-73.958 Y-21.584 E0.0124
G1 X-73.820 Y-21.867 E0.0042
G1 X-73.314 Y-22.751 E0.0137
G1 X-73.138 Y-23.013 E0.0042
G1 X-72.542 Y-23.785 E0.0131
G1 X-72.325 Y-24.028 E0.0044
G1 X-71.533 Y-24.798 E0.0149
G1 X-71.265 Y-25.022 E0.0047
G1 X-70.418 Y-25.627 E0.0140
G1 X-70.201 Y-25.764 E0.0035
G1 X-69.631 Y-26.081 E0.0088
G1 X-69.410 Y-26.189 E0.0033
G1 X-68.550 Y-26.555 E0.0126
G1 X-68.250 Y-26.658 E0.0043
G1 X-67.278 Y-26.920 E0.0136
G1 X-67.040 Y-26.971 E0.0033
G1 X-66.408 Y-27.071 E0.0086
G1 X-66.046 Y-27.100 E0.0049
G1 X66.117 Y-27.100 E1.7803
G1 X66.600 Y-27.049 E0.0065
G1 X67.239 Y-26.912 E0.0088
G1 X67.461 Y-26.853 E0.0031
G1 X68.305 Y-26.582 E0.0119
G1 X68.526 Y-26.498 E0.0032
