; G-Code generated by Simplify3D(R) Version 4.1.2
; Mar 28, 2021 at 12:49:53 PM
; Settings Summary
;   processName,Precise
;   applyToModels,Root_Items_Holder_Magnet_Bottom
;   profileName,FlashForge Creator Pro (modified)
;   profileVersion,2020-10-11 13:46:27
;   baseProfile,
;   printMaterial,PLA
;   printQuality,High
;   printExtruders,Right Extruder Only
;   extruderName,Right Extruder,Left Extruder
;   extruderToolheadNumber,0,1
;   extruderDiameter,0.4,0.4
;   extruderAutoWidth,0,0
;   extruderWidth,0.4,0.4
;   extrusionMultiplier,0.9,0.9
;   extruderUseRetract,1,1
;   extruderRetractionDistance,1.5,1.5
;   extruderExtraRestartDistance,0,0
;   extruderRetractionZLift,0,0
;   extruderRetractionSpeed,1200,1200
;   extruderUseCoasting,0,0
;   extruderCoastingDistance,0.2,0.2
;   extruderUseWipe,0,0
;   extruderWipeDistance,5,5
;   primaryExtruder,0
;   layerHeight,0.1
;   topSolidLayers,6
;   bottomSolidLayers,4
;   perimeterOutlines,2
;   printPerimetersInsideOut,1
;   startPointOption,2
;   startPointOriginX,0
;   startPointOriginY,0
;   sequentialIslands,0
;   spiralVaseMode,0
;   firstLayerHeightPercentage,90
;   firstLayerWidthPercentage,100
;   firstLayerUnderspeed,0.5
;   useRaft,0
;   raftExtruder,0
;   raftTopLayers,3
;   raftBaseLayers,2
;   raftOffset,3
;   raftSeparationDistance,0.14
;   raftTopInfill,100
;   aboveRaftSpeedMultiplier,0.3
;   useSkirt,1
;   skirtExtruder,0
;   skirtLayers,1
;   skirtOutlines,3
;   skirtOffset,4
;   usePrimePillar,0
;   primePillarExtruder,999
;   primePillarWidth,2
;   primePillarLocation,7
;   primePillarSpeedMultiplier,1
;   useOozeShield,0
;   oozeShieldExtruder,999
;   oozeShieldOffset,2
;   oozeShieldOutlines,1
;   oozeShieldSidewallShape,1
;   oozeShieldSidewallAngle,30
;   oozeShieldSpeedMultiplier,1
;   infillExtruder,0
;   internalInfillPattern,Rectilinear
;   externalInfillPattern,Rectilinear
;   infillPercentage,30
;   outlineOverlapPercentage,20
;   infillExtrusionWidthPercentage,100
;   minInfillLength,5
;   infillLayerInterval,1
;   internalInfillAngles,45,-45
;   overlapInternalInfillAngles,0
;   externalInfillAngles,45,-45
;   generateSupport,0
;   supportExtruder,0
;   supportInfillPercentage,40
;   supportExtraInflation,0
;   supportBaseLayers,0
;   denseSupportExtruder,0
;   denseSupportLayers,0
;   denseSupportInfillPercentage,70
;   supportLayerInterval,1
;   supportHorizontalPartOffset,0.3
;   supportUpperSeparationLayers,1
;   supportLowerSeparationLayers,1
;   supportType,0
;   supportGridSpacing,4
;   maxOverhangAngle,45
;   supportAngles,0
;   temperatureName,Right Extruder,Left Extruder,Heated Build Platform
;   temperatureNumber,0,1,0
;   temperatureSetpointCount,1,1,1
;   temperatureSetpointLayers,1,1,1
;   temperatureSetpointTemperatures,210,0,60
;   temperatureStabilizeAtStartup,0,0,0
;   temperatureHeatedBed,0,0,1
;   fanLayers,1,2
;   fanSpeeds,0,100
;   blipFanToFullPower,0
;   adjustSpeedForCooling,1
;   minSpeedLayerTime,15
;   minCoolingSpeedSlowdown,20
;   increaseFanForCooling,0
;   minFanLayerTime,45
;   maxCoolingFanSpeed,100
;   increaseFanForBridging,1
;   bridgingFanSpeed,100
;   use5D,1
;   relativeEdistances,1
;   allowEaxisZeroing,0
;   independentExtruderAxes,1
;   includeM10123,0
;   stickySupport,1
;   applyToolheadOffsets,0
;   gcodeXoffset,0
;   gcodeYoffset,0
;   gcodeZoffset,0
;   overrideMachineDefinition,1
;   machineTypeOverride,0
;   strokeXoverride,225
;   strokeYoverride,145
;   strokeZoverride,150
;   originOffsetXoverride,112.5
;   originOffsetYoverride,72.5
;   originOffsetZoverride,0
;   homeXdirOverride,1
;   homeYdirOverride,1
;   homeZdirOverride,-1
;   flipXoverride,1
;   flipYoverride,-1
;   flipZoverride,1
;   toolheadOffsets,0,0|34,0|0,0|0,0|0,0|0,0
;   overrideFirmwareConfiguration,1
;   firmwareTypeOverride,MakerBot/Sailfish Firmware
;   GPXconfigOverride,r1d
;   baudRateOverride,115200
;   overridePrinterModels,1
;   printerModelsOverride,FlashForge_CreatorPro.stl
;   startingGcode,; **** Replicator 1 dual start.gcode ****,M73 P0 ; enable build progress,G162 X Y F3000 ; home XY maximum,G161 Z F1200 ; home Z minimum,G92 Z-5 ; set Z to -5,G1 Z0 ; move Z to 0,G161 Z F100 ; home Z slowly,M132 X Y Z A B ; recall home offsets,M135 T0 ; load right extruder offsets,G1 X150 Y-70 Z30 F9000 ; move to wait position right hand side of the table,G130 X20 Y20 Z20 A20 B20 ; lower stepper Vrefs while heating,M126 S[fan_speed_pwm],M140 S[bed0_temperature] T0,M134 T0 ; stabilize bed temperature,M104 S[extruder0_temperature] T0,M133 T0 ; stabilize right extruder temperature,G130 X127 Y127 Z40 A127 B127 ; default stepper Vrefs,G92 A0 B0 ; zero extruders,G1 Z0.4 ; position nozzle,G1 X110 Y-70 E25 F300 ; purge nozzle,G1 X120 Y-70 Z0.15 F1200 ; slow wipe,G1 X110 Y-70 Z0.5 F1200 ; lift,G92 A0 B0 ; zero extruders,M73 P1 ;@body (notify GPX body has started),; **** end of start.gcode ****
;   layerChangeGcode,
;   retractionGcode,
;   toolChangeGcode,
;   endingGcode,; **** Replicator 1 dual end.gcode ****,M73 P100 ; end build progress,G1 Z150 F1000 ; send Z axis to bottom of machine,M140 S0 T0 ; cool down HBP,M104 S0 T0 ; cool down right extruder,M104 S0 T1 ; cool down left extruder,M127 ; stop blower fan,G162 X Y F3000 ; home XY maximum,M18 ; disable stepper,M72 P1 ; play Ta-Da song,; **** end of end.gcode ****
;   exportFileFormat,x3g
;   celebration,0
;   celebrationSong,Random Song
;   postProcessing,
;   defaultSpeed,3600
;   outlineUnderspeed,0.5
;   solidInfillUnderspeed,0.8
;   supportUnderspeed,0.8
;   rapidXYspeed,4200
;   rapidZspeed,1200
;   minBridgingArea,50
;   bridgingExtraInflation,0
;   bridgingExtrusionMultiplier,1
;   bridgingSpeedMultiplier,0.8
;   useFixedBridgingAngle,0
;   fixedBridgingAngle,0
;   applyBridgingToPerimeters,0
;   filamentDiameters,1.75|1.75|1.75|1.75|1.75|1.75
;   filamentPricesPerKg,46|46|46|46|46|46
;   filamentDensities,1.25|1.25|1.25|1.25|1.25|1.25
;   useMinPrintHeight,0
;   minPrintHeight,0
;   useMaxPrintHeight,0
;   maxPrintHeight,0
;   useDiaphragm,0
;   diaphragmLayerInterval,20
;   robustSlicing,1
;   mergeAllIntoSolid,0
;   onlyRetractWhenCrossingOutline,1
;   retractBetweenLayers,1
;   useRetractionMinTravel,0
;   retractionMinTravel,3
;   retractWhileWiping,0
;   onlyWipeOutlines,1
;   avoidCrossingOutline,0
;   maxMovementDetourFactor,3
;   toolChangeRetractionDistance,12
;   toolChangeExtraRestartDistance,-0.5
;   toolChangeRetractionSpeed,600
;   externalThinWallType,0
;   internalThinWallType,2
;   thinWallAllowedOverlapPercentage,10
;   singleExtrusionMinLength,1
;   singleExtrusionMinPrintingWidthPercentage,50
;   singleExtrusionMaxPrintingWidthPercentage,200
;   singleExtrusionEndpointExtension,0.2
;   horizontalSizeCompensation,0
G90
M83
; **** Replicator 1 dual start.gcode ****
M73 P0 ; enable build progress
G162 X Y F3000 ; home XY maximum
G161 Z F1200 ; home Z minimum
G92 Z-5 ; set Z to -5
G1 Z0 ; move Z to 0
G161 Z F100 ; home Z slowly
M132 X Y Z A B ; recall home offsets
M135 T0 ; load right extruder offsets
G1 X150 Y-70 Z30 F9000 ; move to wait position right hand side of the table
G130 X20 Y20 Z20 A20 B20 ; lower stepper Vrefs while heating
M127
M140 S60 T0
M134 T0 ; stabilize bed temperature
M104 S210 T0
M133 T0 ; stabilize right extruder temperature
G130 X127 Y127 Z40 A127 B127 ; default stepper Vrefs
G92 A0 B0 ; zero extruders
G1 Z0.4 ; position nozzle
G1 X110 Y-70 E25 F300 ; purge nozzle
G1 X120 Y-70 Z0.15 F1200 ; slow wipe
G1 X110 Y-70 Z0.5 F1200 ; lift
G92 A0 B0 ; zero extruders
M73 P1 ;@body (notify GPX body has started)
; **** end of start.gcode ****
; process Precise
; layer 1, Z = 0.090
M135 T0
G1 E-1.5000 F1200
; feature skirt
; tool H0.090 W0.400
G1 Z0.090 F1200
G1 X7.947 Y-25.290 F4200
G1 E1.5000 F1200
G1 X13.739 Y-25.290 E0.0780 F1800
G1 X14.373 Y-25.969 E0.0125
G1 X14.869 Y-26.380 E0.0087
G1 X16.022 Y-27.107 E0.0184
G1 X17.382 Y-27.500 E0.0191
G1 X26.461 Y-27.500 E0.1223
G1 X27.821 Y-27.107 E0.0191
G1 X28.974 Y-26.380 E0.0184
G1 X29.470 Y-25.969 E0.0087
G1 X30.104 Y-25.290 E0.0125
G1 X35.898 Y-25.290 E0.0780
G1 X36.531 Y-25.969 E0.0125
G1 X37.026 Y-26.378 E0.0087
G1 X38.179 Y-27.106 E0.0184
G1 X39.540 Y-27.500 E0.0191
G1 X48.720 Y-27.500 E0.1236
G1 X50.081 Y-27.106 E0.0191
G1 X51.232 Y-26.380 E0.0183
G1 X51.724 Y-25.973 E0.0086
G1 X52.364 Y-25.290 E0.0126
G1 X58.148 Y-25.290 E0.0779
G1 X58.478 Y-25.667 E0.0068
G1 X59.235 Y-26.333 E0.0136
G1 X59.662 Y-26.636 E0.0070
G1 X60.616 Y-27.173 E0.0148
G1 X61.863 Y-27.500 E0.0174
G1 X66.185 Y-27.500 E0.0582
G1 X66.804 Y-27.422 E0.0084
G1 X67.906 Y-27.142 E0.0153
G1 X68.226 Y-27.037 E0.0045
G1 X69.162 Y-26.659 E0.0136
G1 X69.473 Y-26.508 E0.0047
G1 X70.378 Y-25.987 E0.0141
G1 X70.658 Y-25.800 E0.0045
G1 X71.446 Y-25.193 E0.0134
G1 X71.702 Y-24.966 E0.0046
G1 X72.436 Y-24.220 E0.0141
G1 X72.660 Y-23.958 E0.0046
G1 X73.275 Y-23.132 E0.0139
G1 X73.460 Y-22.843 E0.0046
G1 X73.950 Y-21.951 E0.0137
G1 X74.085 Y-21.662 E0.0043
G1 X74.420 Y-20.810 E0.0123
G1 X74.519 Y-20.498 E0.0044
G1 X74.774 Y-19.471 E0.0143
G1 X74.834 Y-19.132 E0.0046
G1 X74.935 Y-18.179 E0.0129
G1 X74.949 Y-17.916 E0.0036
G1 X74.949 Y-14.066 E0.0519
G1 X75.119 Y-13.994 E0.0025
G1 X75.363 Y-13.876 E0.0037
G1 X76.353 Y-13.325 E0.0153
G1 X76.582 Y-13.182 E0.0036
G1 X77.511 Y-12.525 E0.0153
G1 X77.711 Y-12.368 E0.0034
G1 X78.572 Y-11.618 E0.0154
G1 X78.753 Y-11.443 E0.0034
G1 X79.539 Y-10.605 E0.0155
G1 X79.695 Y-10.422 E0.0032
G1 X80.403 Y-9.505 E0.0156
G1 X80.540 Y-9.308 E0.0032
G1 X81.160 Y-8.322 E0.0157
G1 X81.270 Y-8.128 E0.0030
G1 X81.801 Y-7.088 E0.0157
G1 X81.893 Y-6.885 E0.0030
G1 X82.332 Y-5.793 E0.0159
G1 X82.405 Y-5.587 E0.0029
G1 X82.749 Y-4.457 E0.0159
G1 X82.802 Y-4.251 E0.0029
G1 X83.049 Y-3.091 E0.0160
G1 X83.085 Y-2.881 E0.0029
G1 X83.233 Y-1.701 E0.0160
G1 X83.250 Y-1.494 E0.0028
G1 X83.300 Y-0.306 E0.0160
G1 X83.300 Y-0.096 E0.0028
G1 X83.250 Y1.092 E0.0160
G1 X83.233 Y1.299 E0.0028
G1 X83.085 Y2.479 E0.0160
G1 X83.049 Y2.689 E0.0029
G1 X82.802 Y3.849 E0.0160
G1 X82.749 Y4.055 E0.0029
G1 X82.405 Y5.185 E0.0159
G1 X82.332 Y5.391 E0.0029
G1 X81.893 Y6.483 E0.0158
G1 X81.801 Y6.684 E0.0030
G1 X81.271 Y7.726 E0.0157
G1 X81.159 Y7.923 E0.0031
G1 X80.539 Y8.907 E0.0157
G1 X80.402 Y9.103 E0.0032
G1 X79.695 Y10.020 E0.0156
G1 X79.539 Y10.203 E0.0032
G1 X78.754 Y11.040 E0.0155
G1 X78.574 Y11.213 E0.0034
G1 X77.714 Y11.965 E0.0154
G1 X77.512 Y12.124 E0.0035
G1 X76.582 Y12.781 E0.0153
G1 X76.353 Y12.924 E0.0036
G1 X75.363 Y13.474 E0.0153
G1 X75.119 Y13.593 E0.0037
G1 X74.950 Y13.664 E0.0025
G1 X74.950 Y17.614 E0.0532
G1 X74.944 Y17.790 E0.0024
G1 X74.875 Y18.754 E0.0130
G1 X74.816 Y19.146 E0.0053
G1 X74.527 Y20.385 E0.0171
G1 X74.411 Y20.753 E0.0052
G1 X74.024 Y21.710 E0.0139
G1 X73.874 Y22.019 E0.0046
G1 X73.354 Y22.926 E0.0141
G1 X73.163 Y23.210 E0.0046
G1 X72.555 Y23.998 E0.0134
G1 X72.331 Y24.250 E0.0045
G1 X71.587 Y24.984 E0.0141
G1 X71.322 Y25.212 E0.0047
G1 X70.487 Y25.831 E0.0140
G1 X70.187 Y26.022 E0.0048
G1 X69.224 Y26.544 E0.0148
G1 X68.897 Y26.691 E0.0048
G1 X67.919 Y27.052 E0.0140
G1 X67.594 Y27.147 E0.0046
G1 X66.622 Y27.363 E0.0134
G1 X66.306 Y27.412 E0.0043
G1 X65.434 Y27.490 E0.0118
G1 X65.210 Y27.500 E0.0030
G1 X61.953 Y27.500 E0.0439
G1 X60.755 Y27.199 E0.0166
G1 X59.772 Y26.673 E0.0150
G1 X59.393 Y26.423 E0.0061
G1 X58.747 Y25.907 E0.0111
G1 X58.309 Y25.457 E0.0085
G1 X58.156 Y25.255 E0.0034
G1 X52.354 Y25.255 E0.0782
G1 X51.704 Y25.953 E0.0128
G1 X51.153 Y26.399 E0.0095
G1 X49.913 Y27.140 E0.0195
G1 X48.607 Y27.500 E0.0182
G1 X40.086 Y27.500 E0.1148
G1 X38.780 Y27.140 E0.0182
G1 X37.540 Y26.399 E0.0195
G1 X36.989 Y25.953 E0.0095
G1 X36.339 Y25.255 E0.0128
G1 X30.546 Y25.255 E0.0780
G1 X29.891 Y25.957 E0.0129
G1 X29.345 Y26.398 E0.0094
G1 X28.108 Y27.138 E0.0194
G1 X26.800 Y27.500 E0.0183
G1 X17.676 Y27.500 E0.1229
G1 X16.368 Y27.138 E0.0183
G1 X15.129 Y26.396 E0.0195
G1 X14.580 Y25.952 E0.0095
G1 X13.931 Y25.255 E0.0128
G1 X8.137 Y25.255 E0.0780
G1 X7.488 Y25.952 E0.0128
G1 X6.939 Y26.396 E0.0095
G1 X5.700 Y27.138 E0.0195
G1 X4.392 Y27.500 E0.0183
G1 X-4.481 Y27.500 E0.1195
G1 X-5.787 Y27.140 E0.0182
G1 X-7.027 Y26.399 E0.0195
G1 X-7.578 Y25.953 E0.0095
G1 X-8.228 Y25.255 E0.0128
G1 X-14.021 Y25.255 E0.0780
G1 X-14.676 Y25.957 E0.0129
G1 X-15.222 Y26.398 E0.0094
G1 X-16.459 Y27.138 E0.0194
G1 X-17.767 Y27.500 E0.0183
G1 X-26.641 Y27.500 E0.1195
G1 X-27.949 Y27.138 E0.0183
G1 X-29.188 Y26.396 E0.0195
G1 X-29.737 Y25.952 E0.0095
G1 X-30.386 Y25.255 E0.0128
G1 X-36.180 Y25.255 E0.0780
G1 X-36.829 Y25.952 E0.0128
G1 X-37.378 Y26.396 E0.0095
G1 X-38.617 Y27.138 E0.0195
G1 X-39.925 Y27.500 E0.0183
G1 X-48.548 Y27.500 E0.1162
G1 X-49.854 Y27.140 E0.0182
G1 X-51.094 Y26.399 E0.0195
G1 X-51.645 Y25.953 E0.0095
G1 X-52.295 Y25.255 E0.0128
G1 X-58.079 Y25.255 E0.0779
G1 X-58.414 Y25.637 E0.0069
G1 X-59.192 Y26.320 E0.0139
G1 X-59.661 Y26.645 E0.0077
G1 X-60.694 Y27.199 E0.0158
G1 X-61.894 Y27.500 E0.0167
G1 X-66.226 Y27.500 E0.0584
G1 X-66.771 Y27.440 E0.0074
G1 X-67.804 Y27.210 E0.0142
G1 X-68.133 Y27.113 E0.0046
G1 X-69.137 Y26.739 E0.0144
G1 X-69.464 Y26.589 E0.0048
G1 X-70.415 Y26.069 E0.0146
G1 X-70.710 Y25.880 E0.0047
G1 X-71.525 Y25.273 E0.0137
G1 X-71.788 Y25.047 E0.0047
G1 X-72.539 Y24.306 E0.0142
G1 X-72.763 Y24.054 E0.0045
G1 X-73.353 Y23.289 E0.0130
G1 X-73.538 Y23.014 E0.0045
G1 X-74.056 Y22.118 E0.0139
G1 X-74.210 Y21.805 E0.0047
G1 X-74.599 Y20.845 E0.0140
G1 X-74.700 Y20.544 E0.0043
G1 X-74.967 Y19.533 E0.0141
G1 X-75.050 Y18.891 E0.0087
G1 X-75.050 Y13.617 E0.0710
G1 X-75.116 Y13.590 E0.0010
G1 X-75.365 Y13.468 E0.0037
G1 X-76.356 Y12.917 E0.0153
G1 X-76.580 Y12.776 E0.0036
G1 X-77.509 Y12.121 E0.0153
G1 X-77.713 Y11.961 E0.0035
G1 X-78.574 Y11.208 E0.0154
G1 X-78.754 Y11.035 E0.0034
G1 X-79.539 Y10.198 E0.0155
G1 X-79.695 Y10.015 E0.0032
G1 X-80.402 Y9.098 E0.0156
G1 X-80.539 Y8.902 E0.0032
G1 X-81.159 Y7.918 E0.0157
G1 X-81.271 Y7.721 E0.0031
G1 X-81.801 Y6.679 E0.0157
G1 X-81.893 Y6.478 E0.0030
G1 X-82.332 Y5.386 E0.0158
G1 X-82.405 Y5.180 E0.0029
G1 X-82.749 Y4.050 E0.0159
G1 X-82.802 Y3.844 E0.0029
G1 X-83.049 Y2.684 E0.0160
G1 X-83.085 Y2.474 E0.0029
G1 X-83.233 Y1.294 E0.0160
G1 X-83.250 Y1.087 E0.0028
G1 X-83.300 Y-0.101 E0.0160
G1 X-83.300 Y-0.311 E0.0028
G1 X-83.250 Y-1.499 E0.0160
G1 X-83.233 Y-1.706 E0.0028
G1 X-83.085 Y-2.886 E0.0160
G1 X-83.049 Y-3.096 E0.0029
G1 X-82.802 Y-4.256 E0.0160
G1 X-82.749 Y-4.462 E0.0029
G1 X-82.405 Y-5.592 E0.0159
G1 X-82.332 Y-5.798 E0.0029
G1 X-81.893 Y-6.890 E0.0158
G1 X-81.801 Y-7.091 E0.0030
G1 X-81.271 Y-8.133 E0.0157
G1 X-81.159 Y-8.330 E0.0031
G1 X-80.539 Y-9.315 E0.0157
G1 X-80.402 Y-9.510 E0.0032
G1 X-79.695 Y-10.427 E0.0156
G1 X-79.539 Y-10.610 E0.0032
G1 X-78.754 Y-11.447 E0.0155
G1 X-78.574 Y-11.620 E0.0034
G1 X-77.713 Y-12.373 E0.0154
G1 X-77.509 Y-12.533 E0.0035
G1 X-76.580 Y-13.188 E0.0153
G1 X-76.356 Y-13.329 E0.0036
G1 X-75.365 Y-13.880 E0.0153
G1 X-75.116 Y-14.002 E0.0037
G1 X-75.050 Y-14.029 E0.0010
G1 X-75.050 Y-19.402 E0.0724
G1 X-74.881 Y-20.309 E0.0124
G1 X-74.349 Y-21.691 E0.0200
G1 X-74.184 Y-22.037 E0.0052
G1 X-73.672 Y-22.929 E0.0139
G1 X-73.527 Y-23.153 E0.0036
G1 X-73.170 Y-23.646 E0.0082
G1 X-73.002 Y-23.853 E0.0036
G1 X-72.285 Y-24.648 E0.0144
G1 X-72.008 Y-24.911 E0.0051
G1 X-71.090 Y-25.660 E0.0160
G1 X-70.727 Y-25.906 E0.0059
G1 X-69.498 Y-26.591 E0.0189
G1 X-69.108 Y-26.767 E0.0058
G1 X-68.035 Y-27.144 E0.0153
G1 X-67.687 Y-27.238 E0.0049
G1 X-66.588 Y-27.453 E0.0151
G1 X-66.107 Y-27.500 E0.0065
G1 X-61.913 Y-27.500 E0.0565
G1 X-60.447 Y-27.039 E0.0207
G1 X-59.107 Y-26.102 E0.0220
G1 X-58.539 Y-25.555 E0.0106
G1 X-58.339 Y-25.290 E0.0045
G1 X-52.536 Y-25.290 E0.0782
G1 X-51.903 Y-25.969 E0.0125
G1 X-51.408 Y-26.379 E0.0087
G1 X-50.255 Y-27.106 E0.0184
G1 X-48.894 Y-27.500 E0.0191
G1 X-39.814 Y-27.500 E0.1223
G1 X-38.453 Y-27.106 E0.0191
G1 X-37.302 Y-26.380 E0.0183
G1 X-36.810 Y-25.973 E0.0086
G1 X-36.170 Y-25.290 E0.0126
G1 X-30.378 Y-25.290 E0.0780
G1 X-29.744 Y-25.969 E0.0125
G1 X-29.248 Y-26.380 E0.0087
G1 X-28.095 Y-27.107 E0.0184
G1 X-26.735 Y-27.500 E0.0191
G1 X-17.756 Y-27.500 E0.1209
