; G-Code generated by Simplify3D(R) Version 4.1.2
; Mar 25, 2021 at 5:41:38 PM
; Settings Summary
;   processName,Normal Quick
;   applyToModels,Marquise_Lizard_Top
;   profileName,FlashForge Creator Pro (modified)
;   profileVersion,2020-10-11 13:46:27
;   baseProfile,
;   printMaterial,PLA
;   printQuality,Medium
;   printExtruders,Left Extruder Only
;   extruderName,Right Extruder,Left Extruder
;   extruderToolheadNumber,0,1
;   extruderDiameter,0.4,0.4
;   extruderAutoWidth,0,0
;   extruderWidth,0.4,0.4
;   extrusionMultiplier,0.9,0.9
;   extruderUseRetract,1,1
;   extruderRetractionDistance,1.5,1.5
;   extruderExtraRestartDistance,0,0
;   extruderRetractionZLift,0,0
;   extruderRetractionSpeed,1200,1200
;   extruderUseCoasting,0,0
;   extruderCoastingDistance,0.2,0.2
;   extruderUseWipe,0,0
;   extruderWipeDistance,5,5
;   primaryExtruder,1
;   layerHeight,0.2
;   topSolidLayers,6
;   bottomSolidLayers,3
;   perimeterOutlines,2
;   printPerimetersInsideOut,1
;   startPointOption,2
;   startPointOriginX,0
;   startPointOriginY,0
;   sequentialIslands,0
;   spiralVaseMode,0
;   firstLayerHeightPercentage,90
;   firstLayerWidthPercentage,100
;   firstLayerUnderspeed,0.4
;   useRaft,0
;   raftExtruder,1
;   raftTopLayers,3
;   raftBaseLayers,2
;   raftOffset,3
;   raftSeparationDistance,0.14
;   raftTopInfill,100
;   aboveRaftSpeedMultiplier,0.3
;   useSkirt,1
;   skirtExtruder,1
;   skirtLayers,1
;   skirtOutlines,6
;   skirtOffset,4
;   usePrimePillar,0
;   primePillarExtruder,999
;   primePillarWidth,2
;   primePillarLocation,7
;   primePillarSpeedMultiplier,1
;   useOozeShield,0
;   oozeShieldExtruder,999
;   oozeShieldOffset,2
;   oozeShieldOutlines,1
;   oozeShieldSidewallShape,1
;   oozeShieldSidewallAngle,30
;   oozeShieldSpeedMultiplier,1
;   infillExtruder,1
;   internalInfillPattern,Rectilinear
;   externalInfillPattern,Rectilinear
;   infillPercentage,20
;   outlineOverlapPercentage,20
;   infillExtrusionWidthPercentage,100
;   minInfillLength,5
;   infillLayerInterval,1
;   internalInfillAngles,45,-45
;   overlapInternalInfillAngles,0
;   externalInfillAngles,45,-45
;   generateSupport,1
;   supportExtruder,1
;   supportInfillPercentage,30
;   supportExtraInflation,0
;   supportBaseLayers,0
;   denseSupportExtruder,1
;   denseSupportLayers,0
;   denseSupportInfillPercentage,70
;   supportLayerInterval,1
;   supportHorizontalPartOffset,0.3
;   supportUpperSeparationLayers,1
;   supportLowerSeparationLayers,1
;   supportType,0
;   supportGridSpacing,1.5
;   maxOverhangAngle,45
;   supportAngles,0
;   temperatureName,Right Extruder,Left Extruder,Heated Build Platform
;   temperatureNumber,0,1,0
;   temperatureSetpointCount,1,1,1
;   temperatureSetpointLayers,1,1,1
;   temperatureSetpointTemperatures,0,210,60
;   temperatureStabilizeAtStartup,0,0,0
;   temperatureHeatedBed,0,0,1
;   fanLayers,1,2
;   fanSpeeds,0,100
;   blipFanToFullPower,0
;   adjustSpeedForCooling,1
;   minSpeedLayerTime,15
;   minCoolingSpeedSlowdown,20
;   increaseFanForCooling,0
;   minFanLayerTime,45
;   maxCoolingFanSpeed,100
;   increaseFanForBridging,1
;   bridgingFanSpeed,100
;   use5D,1
;   relativeEdistances,1
;   allowEaxisZeroing,0
;   independentExtruderAxes,1
;   includeM10123,0
;   stickySupport,1
;   applyToolheadOffsets,0
;   gcodeXoffset,0
;   gcodeYoffset,0
;   gcodeZoffset,0
;   overrideMachineDefinition,1
;   machineTypeOverride,0
;   strokeXoverride,225
;   strokeYoverride,145
;   strokeZoverride,150
;   originOffsetXoverride,112.5
;   originOffsetYoverride,72.5
;   originOffsetZoverride,0
;   homeXdirOverride,1
;   homeYdirOverride,1
;   homeZdirOverride,-1
;   flipXoverride,1
;   flipYoverride,-1
;   flipZoverride,1
;   toolheadOffsets,0,0|34,0|0,0|0,0|0,0|0,0
;   overrideFirmwareConfiguration,1
;   firmwareTypeOverride,MakerBot/Sailfish Firmware
;   GPXconfigOverride,r1d
;   baudRateOverride,115200
;   overridePrinterModels,1
;   printerModelsOverride,FlashForge_CreatorPro.stl
;   startingGcode,; **** Replicator 1 dual start.gcode ****,M73 P0 ; enable build progress,G162 X Y F3000 ; home XY maximum,G161 Z F1200 ; home Z minimum,G92 Z-5 ; set Z to -5,G1 Z0 ; move Z to 0,G161 Z F100 ; home Z slowly,M132 X Y Z A B ; recall home offsets,M135 T0 ; load right extruder offsets,G1 X-110 Y-70 Z30 F9000 ; move to wait position left hand side of the table,G130 X20 Y20 Z20 A20 B20 ; lower stepper Vrefs while heating,M126 S[fan_speed_pwm],M140 S[bed0_temperature] T0,M134 T0 ; stabilize bed temperature,M104 S[extruder1_temperature] T1,M133 T1 ; stabilize left extruder temperature,G130 X127 Y127 Z40 A127 B127 ; default stepper Vrefs,G92 A0 B0 ; zero extruders,G1 Z0.4 ; position nozzle,M135 T1 ; left tool,G1 X-140 Y-70 F9000 ; reposition nozzle,G1 X-100 Y-70 E25 F300 ; purge nozzle,G1 X-110 Y-70 Z0.15 F1200 ; slow wipe,G1 X-100 Y-70 Z0.5 F1200 ; lift,G92 A0 B0 ; zero extruders,M73 P1 ;@body (notify GPX body has started),; **** end of start.gcode ****
;   layerChangeGcode,
;   retractionGcode,
;   toolChangeGcode,
;   endingGcode,; **** Replicator 1 dual end.gcode ****,M73 P100 ; end build progress,G1 Z150 F1000 ; send Z axis to bottom of machine,M140 S0 T0 ; cool down HBP,M104 S0 T0 ; cool down right extruder,M104 S0 T1 ; cool down left extruder,M127 ; stop blower fan,G162 X Y F3000 ; home XY maximum,M18 ; disable stepper,M72 P1 ; play Ta-Da song,; **** end of end.gcode ****
;   exportFileFormat,x3g
;   celebration,0
;   celebrationSong,Random Song
;   postProcessing,
;   defaultSpeed,5400
;   outlineUnderspeed,0.5
;   solidInfillUnderspeed,0.8
;   supportUnderspeed,0.8
;   rapidXYspeed,4200
;   rapidZspeed,1200
;   minBridgingArea,50
;   bridgingExtraInflation,0
;   bridgingExtrusionMultiplier,1
;   bridgingSpeedMultiplier,0.8
;   useFixedBridgingAngle,0
;   fixedBridgingAngle,0
;   applyBridgingToPerimeters,0
;   filamentDiameters,1.75|1.75|1.75|1.75|1.75|1.75
;   filamentPricesPerKg,46|46|46|46|46|46
;   filamentDensities,1.25|1.25|1.25|1.25|1.25|1.25
;   useMinPrintHeight,0
;   minPrintHeight,0
;   useMaxPrintHeight,0
;   maxPrintHeight,0
;   useDiaphragm,0
;   diaphragmLayerInterval,20
;   robustSlicing,1
;   mergeAllIntoSolid,0
;   onlyRetractWhenCrossingOutline,1
;   retractBetweenLayers,1
;   useRetractionMinTravel,0
;   retractionMinTravel,3
;   retractWhileWiping,0
;   onlyWipeOutlines,1
;   avoidCrossingOutline,0
;   maxMovementDetourFactor,3
;   toolChangeRetractionDistance,12
;   toolChangeExtraRestartDistance,-0.5
;   toolChangeRetractionSpeed,600
;   externalThinWallType,0
;   internalThinWallType,2
;   thinWallAllowedOverlapPercentage,10
;   singleExtrusionMinLength,1
;   singleExtrusionMinPrintingWidthPercentage,50
;   singleExtrusionMaxPrintingWidthPercentage,200
;   singleExtrusionEndpointExtension,0.2
;   horizontalSizeCompensation,0
G90
M83
; **** Replicator 1 dual start.gcode ****
M73 P0 ; enable build progress
G162 X Y F3000 ; home XY maximum
G161 Z F1200 ; home Z minimum
G92 Z-5 ; set Z to -5
G1 Z0 ; move Z to 0
G161 Z F100 ; home Z slowly
M132 X Y Z A B ; recall home offsets
M135 T0 ; load right extruder offsets
G1 X-110 Y-70 Z30 F9000 ; move to wait position left hand side of the table
G130 X20 Y20 Z20 A20 B20 ; lower stepper Vrefs while heating
M127
M140 S60 T0
M134 T0 ; stabilize bed temperature
M104 S210 T1
M133 T1 ; stabilize left extruder temperature
G130 X127 Y127 Z40 A127 B127 ; default stepper Vrefs
G92 A0 B0 ; zero extruders
G1 Z0.4 ; position nozzle
M135 T1 ; left tool
G1 X-140 Y-70 F9000 ; reposition nozzle
G1 X-100 Y-70 E25 F300 ; purge nozzle
G1 X-110 Y-70 Z0.15 F1200 ; slow wipe
G1 X-100 Y-70 Z0.5 F1200 ; lift
G92 A0 B0 ; zero extruders
M73 P1 ;@body (notify GPX body has started)
; **** end of start.gcode ****
; process Normal Quick
; layer 1, Z = 0.180
M135 T1
G1 E-1.5000 F1200
; feature skirt
; tool H0.180 W0.400
G1 Z0.180 F1200
G1 X34.200 Y-40.673 F4200
G1 E1.5000 F1200
G1 X34.200 Y40.673 E2.1915 F2160
G1 X34.181 Y41.020 E0.0093
G1 X34.072 Y41.985 E0.0262
G1 X33.915 Y42.672 E0.0190
G1 X33.532 Y43.758 E0.0310
G1 X33.232 Y44.379 E0.0186
G1 X32.628 Y45.340 E0.0306
G1 X32.194 Y45.885 E0.0188
G1 X31.385 Y46.694 E0.0308
G1 X30.840 Y47.128 E0.0188
G1 X29.879 Y47.732 E0.0306
G1 X29.258 Y48.032 E0.0186
G1 X28.172 Y48.415 E0.0310
G1 X27.485 Y48.572 E0.0190
G1 X26.520 Y48.681 E0.0262
G1 X26.173 Y48.700 E0.0093
G1 X-26.173 Y48.700 E1.4103
G1 X-26.520 Y48.681 E0.0093
G1 X-27.481 Y48.573 E0.0260
G1 X-28.158 Y48.418 E0.0187
G1 X-29.239 Y48.041 E0.0308
G1 X-29.868 Y47.739 E0.0188
G1 X-30.838 Y47.130 E0.0309
G1 X-31.384 Y46.695 E0.0188
G1 X-32.195 Y45.884 E0.0309
G1 X-32.629 Y45.339 E0.0188
G1 X-33.238 Y44.369 E0.0308
G1 X-33.540 Y43.742 E0.0187
G1 X-33.914 Y42.672 E0.0305
G1 X-34.068 Y42.000 E0.0186
G1 X-34.180 Y41.032 E0.0263
G1 X-34.200 Y40.677 E0.0096
G1 X-34.200 Y-40.677 E2.1918
G1 X-34.180 Y-41.032 E0.0096
G1 X-34.068 Y-42.000 E0.0263
G1 X-33.914 Y-42.672 E0.0186
G1 X-33.540 Y-43.742 E0.0305
G1 X-33.238 Y-44.369 E0.0187
G1 X-32.629 Y-45.339 E0.0308
G1 X-32.195 Y-45.884 E0.0188
G1 X-31.385 Y-46.694 E0.0309
G1 X-30.840 Y-47.128 E0.0188
G1 X-29.879 Y-47.732 E0.0306
G1 X-29.258 Y-48.032 E0.0186
G1 X-28.172 Y-48.415 E0.0310
G1 X-27.487 Y-48.572 E0.0189
G1 X-26.526 Y-48.680 E0.0261
G1 X-26.178 Y-48.700 E0.0094
G1 X26.173 Y-48.700 E1.4104
G1 X26.520 Y-48.681 E0.0093
G1 X27.485 Y-48.572 E0.0262
G1 X28.172 Y-48.415 E0.0190
G1 X29.258 Y-48.032 E0.0310
G1 X29.879 Y-47.732 E0.0186
G1 X30.840 Y-47.128 E0.0306
G1 X31.385 Y-46.694 E0.0188
G1 X32.194 Y-45.885 E0.0308
G1 X32.628 Y-45.340 E0.0188
G1 X33.232 Y-44.379 E0.0306
G1 X33.532 Y-43.758 E0.0186
G1 X33.915 Y-42.672 E0.0310
G1 X34.072 Y-41.985 E0.0190
G1 X34.181 Y-41.020 E0.0262
G1 X34.200 Y-40.673 E0.0093
G1 E-1.5000 F1200
G1 X33.800 Y-40.662 F4200
G1 E1.5000 F1200
G1 X33.800 Y40.662 E2.1909 F2160
G1 X33.782 Y40.986 E0.0087
G1 X33.677 Y41.918 E0.0253
G1 X33.530 Y42.560 E0.0177
G1 X33.162 Y43.604 E0.0298
G1 X32.882 Y44.185 E0.0174
G1 X32.302 Y45.108 E0.0294
G1 X31.895 Y45.618 E0.0176
G1 X31.118 Y46.395 E0.0296
G1 X30.608 Y46.802 E0.0176
G1 X29.685 Y47.382 E0.0294
G1 X29.104 Y47.662 E0.0174
G1 X28.060 Y48.030 E0.0298
G1 X27.418 Y48.177 E0.0177
G1 X26.486 Y48.282 E0.0253
G1 X26.162 Y48.300 E0.0087
G1 X-26.162 Y48.300 E1.4097
G1 X-26.486 Y48.282 E0.0087
G1 X-27.414 Y48.178 E0.0251
G1 X-28.047 Y48.033 E0.0175
G1 X-29.086 Y47.671 E0.0296
G1 X-29.674 Y47.388 E0.0176
G1 X-30.607 Y46.803 E0.0297
G1 X-31.117 Y46.396 E0.0176
G1 X-31.896 Y45.617 E0.0297
G1 X-32.303 Y45.107 E0.0176
G1 X-32.888 Y44.175 E0.0296
G1 X-33.170 Y43.589 E0.0175
G1 X-33.529 Y42.561 E0.0293
G1 X-33.673 Y41.933 E0.0174
G1 X-33.781 Y40.998 E0.0254
G1 X-33.800 Y40.666 E0.0089
G1 X-33.800 Y-40.666 E2.1911
G1 X-33.781 Y-40.998 E0.0089
G1 X-33.673 Y-41.933 E0.0254
G1 X-33.529 Y-42.561 E0.0174
G1 X-33.170 Y-43.589 E0.0293
G1 X-32.888 Y-44.175 E0.0175
G1 X-32.303 Y-45.107 E0.0296
G1 X-31.896 Y-45.617 E0.0176
G1 X-31.118 Y-46.395 E0.0297
G1 X-30.608 Y-46.802 E0.0176
G1 X-29.685 Y-47.382 E0.0294
G1 X-29.104 Y-47.662 E0.0174
G1 X-28.061 Y-48.030 E0.0298
G1 X-27.419 Y-48.177 E0.0177
G1 X-26.492 Y-48.281 E0.0251
G1 X-26.167 Y-48.300 E0.0088
G1 X26.162 Y-48.300 E1.4098
G1 X26.486 Y-48.282 E0.0087
G1 X27.418 Y-48.177 E0.0253
G1 X28.060 Y-48.030 E0.0177
G1 X29.104 Y-47.662 E0.0298
G1 X29.685 Y-47.382 E0.0174
G1 X30.608 Y-46.802 E0.0294
G1 X31.118 Y-46.395 E0.0176
G1 X31.895 Y-45.618 E0.0296
G1 X32.302 Y-45.108 E0.0176
G1 X32.882 Y-44.185 E0.0294
G1 X33.162 Y-43.604 E0.0174
G1 X33.530 Y-42.560 E0.0298
G1 X33.677 Y-41.918 E0.0177
G1 X33.782 Y-40.986 E0.0253
G1 X33.800 Y-40.662 E0.0087
G1 E-1.5000 F1200
G1 X33.400 Y-40.651 F4200
G1 E1.5000 F1200
G1 X33.400 Y40.651 E2.1903 F2160
G1 X33.383 Y40.953 E0.0081
G1 X33.282 Y41.851 E0.0243
G1 X33.145 Y42.449 E0.0165
G1 X32.792 Y43.450 E0.0286
G1 X32.531 Y43.991 E0.0162
G1 X31.975 Y44.876 E0.0282
G1 X31.597 Y45.351 E0.0163
G1 X30.851 Y46.097 E0.0284
G1 X30.376 Y46.475 E0.0163
G1 X29.491 Y47.031 E0.0282
G1 X28.951 Y47.292 E0.0162
G1 X27.949 Y47.645 E0.0286
G1 X27.351 Y47.782 E0.0165
G1 X26.453 Y47.883 E0.0243
G1 X26.151 Y47.900 E0.0081
G1 X-26.151 Y47.900 E1.4091
G1 X-26.453 Y47.883 E0.0081
G1 X-27.347 Y47.783 E0.0242
G1 X-27.937 Y47.648 E0.0163
G1 X-28.933 Y47.301 E0.0284
G1 X-29.480 Y47.037 E0.0164
G1 X-30.375 Y46.476 E0.0285
G1 X-30.850 Y46.097 E0.0164
G1 X-31.597 Y45.350 E0.0285
G1 X-31.976 Y44.875 E0.0164
G1 X-32.537 Y43.981 E0.0284
G1 X-32.799 Y43.436 E0.0163
G1 X-33.144 Y42.450 E0.0281
G1 X-33.279 Y41.865 E0.0162
G1 X-33.382 Y40.963 E0.0245
G1 X-33.400 Y40.655 E0.0083
G1 X-33.400 Y-40.655 E2.1905
G1 X-33.382 Y-40.963 E0.0083
G1 X-33.279 Y-41.865 E0.0245
G1 X-33.144 Y-42.450 E0.0162
G1 X-32.799 Y-43.436 E0.0281
G1 X-32.537 Y-43.981 E0.0163
G1 X-31.976 Y-44.875 E0.0284
G1 X-31.597 Y-45.350 E0.0164
G1 X-30.851 Y-46.097 E0.0284
G1 X-30.376 Y-46.475 E0.0163
G1 X-29.491 Y-47.031 E0.0282
G1 X-28.951 Y-47.292 E0.0162
G1 X-27.949 Y-47.645 E0.0286
G1 X-27.352 Y-47.782 E0.0165
G1 X-26.458 Y-47.883 E0.0242
G1 X-26.156 Y-47.900 E0.0082
G1 X26.151 Y-47.900 E1.4092
G1 X26.453 Y-47.883 E0.0081
G1 X27.351 Y-47.782 E0.0243
G1 X27.949 Y-47.645 E0.0165
G1 X28.951 Y-47.292 E0.0286
G1 X29.491 Y-47.031 E0.0162
G1 X30.376 Y-46.475 E0.0282
G1 X30.851 Y-46.097 E0.0163
G1 X31.597 Y-45.351 E0.0284
G1 X31.975 Y-44.876 E0.0163
G1 X32.531 Y-43.991 E0.0282
G1 X32.792 Y-43.450 E0.0162
G1 X33.145 Y-42.449 E0.0286
G1 X33.282 Y-41.851 E0.0165
G1 X33.383 Y-40.953 E0.0243
G1 X33.400 Y-40.651 E0.0081
G1 E-1.5000 F1200
G1 X33.000 Y-40.640 F4200
G1 E1.5000 F1200
G1 X33.000 Y40.640 E2.1897 F2160
G1 X32.984 Y40.919 E0.0075
G1 X32.887 Y41.784 E0.0234
G1 X32.760 Y42.337 E0.0153
G1 X32.422 Y43.297 E0.0274
G1 X32.180 Y43.797 E0.0150
G1 X31.648 Y44.645 E0.0270
G1 X31.298 Y45.084 E0.0151
G1 X30.584 Y45.798 E0.0272
G1 X30.145 Y46.148 E0.0151
G1 X29.297 Y46.680 E0.0270
G1 X28.797 Y46.922 E0.0150
G1 X27.837 Y47.260 E0.0274
G1 X27.284 Y47.387 E0.0153
G1 X26.419 Y47.484 E0.0234
G1 X26.140 Y47.500 E0.0075
G1 X-26.140 Y47.500 E1.4085
G1 X-26.419 Y47.484 E0.0075
G1 X-27.280 Y47.388 E0.0233
G1 X-27.826 Y47.263 E0.0151
G1 X-28.780 Y46.930 E0.0272
G1 X-29.287 Y46.687 E0.0152
G1 X-30.143 Y46.149 E0.0272
G1 X-30.583 Y45.798 E0.0152
G1 X-31.298 Y45.083 E0.0272
G1 X-31.649 Y44.643 E0.0152
G1 X-32.186 Y43.788 E0.0272
G1 X-32.429 Y43.283 E0.0151
G1 X-32.759 Y42.339 E0.0269
G1 X-32.884 Y41.797 E0.0150
G1 X-32.984 Y40.929 E0.0235
G1 X-33.000 Y40.643 E0.0077
G1 X-33.000 Y-40.643 E2.1899
G1 X-32.984 Y-40.929 E0.0077
G1 X-32.884 Y-41.797 E0.0235
G1 X-32.759 Y-42.339 E0.0150
G1 X-32.429 Y-43.283 E0.0269
G1 X-32.186 Y-43.788 E0.0151
G1 X-31.649 Y-44.643 E0.0272
G1 X-31.298 Y-45.083 E0.0152
G1 X-30.584 Y-45.798 E0.0272
G1 X-30.145 Y-46.148 E0.0151
G1 X-29.297 Y-46.680 E0.0270
G1 X-28.797 Y-46.922 E0.0150
G1 X-27.837 Y-47.260 E0.0274
G1 X-27.285 Y-47.387 E0.0153
G1 X-26.425 Y-47.484 E0.0233
G1 X-26.145 Y-47.500 E0.0076
G1 X26.140 Y-47.500 E1.4086
G1 X26.419 Y-47.484 E0.0075
G1 X27.284 Y-47.387 E0.0234
G1 X27.837 Y-47.260 E0.0153
G1 X28.797 Y-46.922 E0.0274
G1 X29.297 Y-46.680 E0.0150
G1 X30.145 Y-46.148 E0.0270
G1 X30.584 Y-45.798 E0.0151
G1 X31.298 Y-45.084 E0.0272
G1 X31.648 Y-44.645 E0.0151
G1 X32.180 Y-43.797 E0.0270
G1 X32.422 Y-43.297 E0.0150
G1 X32.760 Y-42.337 E0.0274
G1 X32.887 Y-41.784 E0.0153
G1 X32.984 Y-40.919 E0.0234
G1 X33.000 Y-40.640 E0.0075
G1 E-1.5000 F1200
G1 X32.600 Y-40.629 F4200
G1 E1.5000 F1200
G1 X32.600 Y40.629 E2.1891 F2160
G1 X32.586 Y40.886 E0.0069
G1 X32.492 Y41.716 E0.0225
G1 X32.376 Y42.226 E0.0141
G1 X32.052 Y43.143 E0.0262
G1 X31.830 Y43.603 E0.0138
G1 X31.321 Y44.413 E0.0258
G1 X30.999 Y44.817 E0.0139
G1 X30.317 Y45.499 E0.0260
G1 X29.913 Y45.821 E0.0139
G1 X29.103 Y46.330 E0.0258
G1 X28.643 Y46.552 E0.0138
G1 X27.726 Y46.876 E0.0262
G1 X27.216 Y46.992 E0.0141
G1 X26.386 Y47.086 E0.0225
G1 X26.129 Y47.100 E0.0069
G1 X-26.129 Y47.100 E1.4079
G1 X-26.386 Y47.086 E0.0069
G1 X-27.213 Y46.993 E0.0224
G1 X-27.716 Y46.878 E0.0139
G1 X-28.627 Y46.560 E0.0260
G1 X-29.093 Y46.336 E0.0139
G1 X-29.912 Y45.822 E0.0260
G1 X-30.316 Y45.500 E0.0139
G1 X-31.000 Y44.816 E0.0260
