; G-Code generated by Simplify3D(R) Version 4.1.2
; Mar 25, 2021 at 5:40:46 PM
; Settings Summary
;   processName,Normal Quick
;   applyToModels,Marquise_Lizard_Bottom
;   profileName,FlashForge Creator Pro (modified)
;   profileVersion,2020-10-11 13:46:27
;   baseProfile,
;   printMaterial,PLA
;   printQuality,Medium
;   printExtruders,Left Extruder Only
;   extruderName,Right Extruder,Left Extruder
;   extruderToolheadNumber,0,1
;   extruderDiameter,0.4,0.4
;   extruderAutoWidth,0,0
;   extruderWidth,0.4,0.4
;   extrusionMultiplier,0.9,0.9
;   extruderUseRetract,1,1
;   extruderRetractionDistance,1.5,1.5
;   extruderExtraRestartDistance,0,0
;   extruderRetractionZLift,0,0
;   extruderRetractionSpeed,1200,1200
;   extruderUseCoasting,0,0
;   extruderCoastingDistance,0.2,0.2
;   extruderUseWipe,0,0
;   extruderWipeDistance,5,5
;   primaryExtruder,1
;   layerHeight,0.2
;   topSolidLayers,6
;   bottomSolidLayers,3
;   perimeterOutlines,2
;   printPerimetersInsideOut,1
;   startPointOption,2
;   startPointOriginX,0
;   startPointOriginY,0
;   sequentialIslands,0
;   spiralVaseMode,0
;   firstLayerHeightPercentage,90
;   firstLayerWidthPercentage,100
;   firstLayerUnderspeed,0.4
;   useRaft,0
;   raftExtruder,1
;   raftTopLayers,3
;   raftBaseLayers,2
;   raftOffset,3
;   raftSeparationDistance,0.14
;   raftTopInfill,100
;   aboveRaftSpeedMultiplier,0.3
;   useSkirt,1
;   skirtExtruder,1
;   skirtLayers,1
;   skirtOutlines,6
;   skirtOffset,4
;   usePrimePillar,0
;   primePillarExtruder,999
;   primePillarWidth,2
;   primePillarLocation,7
;   primePillarSpeedMultiplier,1
;   useOozeShield,0
;   oozeShieldExtruder,999
;   oozeShieldOffset,2
;   oozeShieldOutlines,1
;   oozeShieldSidewallShape,1
;   oozeShieldSidewallAngle,30
;   oozeShieldSpeedMultiplier,1
;   infillExtruder,1
;   internalInfillPattern,Rectilinear
;   externalInfillPattern,Rectilinear
;   infillPercentage,20
;   outlineOverlapPercentage,20
;   infillExtrusionWidthPercentage,100
;   minInfillLength,5
;   infillLayerInterval,1
;   internalInfillAngles,45,-45
;   overlapInternalInfillAngles,0
;   externalInfillAngles,45,-45
;   generateSupport,1
;   supportExtruder,1
;   supportInfillPercentage,30
;   supportExtraInflation,0
;   supportBaseLayers,0
;   denseSupportExtruder,1
;   denseSupportLayers,0
;   denseSupportInfillPercentage,70
;   supportLayerInterval,1
;   supportHorizontalPartOffset,0.3
;   supportUpperSeparationLayers,1
;   supportLowerSeparationLayers,1
;   supportType,0
;   supportGridSpacing,1.5
;   maxOverhangAngle,45
;   supportAngles,0
;   temperatureName,Right Extruder,Left Extruder,Heated Build Platform
;   temperatureNumber,0,1,0
;   temperatureSetpointCount,1,1,1
;   temperatureSetpointLayers,1,1,1
;   temperatureSetpointTemperatures,0,210,60
;   temperatureStabilizeAtStartup,0,0,0
;   temperatureHeatedBed,0,0,1
;   fanLayers,1,2
;   fanSpeeds,0,100
;   blipFanToFullPower,0
;   adjustSpeedForCooling,1
;   minSpeedLayerTime,15
;   minCoolingSpeedSlowdown,20
;   increaseFanForCooling,0
;   minFanLayerTime,45
;   maxCoolingFanSpeed,100
;   increaseFanForBridging,1
;   bridgingFanSpeed,100
;   use5D,1
;   relativeEdistances,1
;   allowEaxisZeroing,0
;   independentExtruderAxes,1
;   includeM10123,0
;   stickySupport,1
;   applyToolheadOffsets,0
;   gcodeXoffset,0
;   gcodeYoffset,0
;   gcodeZoffset,0
;   overrideMachineDefinition,1
;   machineTypeOverride,0
;   strokeXoverride,225
;   strokeYoverride,145
;   strokeZoverride,150
;   originOffsetXoverride,112.5
;   originOffsetYoverride,72.5
;   originOffsetZoverride,0
;   homeXdirOverride,1
;   homeYdirOverride,1
;   homeZdirOverride,-1
;   flipXoverride,1
;   flipYoverride,-1
;   flipZoverride,1
;   toolheadOffsets,0,0|34,0|0,0|0,0|0,0|0,0
;   overrideFirmwareConfiguration,1
;   firmwareTypeOverride,MakerBot/Sailfish Firmware
;   GPXconfigOverride,r1d
;   baudRateOverride,115200
;   overridePrinterModels,1
;   printerModelsOverride,FlashForge_CreatorPro.stl
;   startingGcode,; **** Replicator 1 dual start.gcode ****,M73 P0 ; enable build progress,G162 X Y F3000 ; home XY maximum,G161 Z F1200 ; home Z minimum,G92 Z-5 ; set Z to -5,G1 Z0 ; move Z to 0,G161 Z F100 ; home Z slowly,M132 X Y Z A B ; recall home offsets,M135 T0 ; load right extruder offsets,G1 X-110 Y-70 Z30 F9000 ; move to wait position left hand side of the table,G130 X20 Y20 Z20 A20 B20 ; lower stepper Vrefs while heating,M126 S[fan_speed_pwm],M140 S[bed0_temperature] T0,M134 T0 ; stabilize bed temperature,M104 S[extruder1_temperature] T1,M133 T1 ; stabilize left extruder temperature,G130 X127 Y127 Z40 A127 B127 ; default stepper Vrefs,G92 A0 B0 ; zero extruders,G1 Z0.4 ; position nozzle,M135 T1 ; left tool,G1 X-140 Y-70 F9000 ; reposition nozzle,G1 X-100 Y-70 E25 F300 ; purge nozzle,G1 X-110 Y-70 Z0.15 F1200 ; slow wipe,G1 X-100 Y-70 Z0.5 F1200 ; lift,G92 A0 B0 ; zero extruders,M73 P1 ;@body (notify GPX body has started),; **** end of start.gcode ****
;   layerChangeGcode,
;   retractionGcode,
;   toolChangeGcode,
;   endingGcode,; **** Replicator 1 dual end.gcode ****,M73 P100 ; end build progress,G1 Z150 F1000 ; send Z axis to bottom of machine,M140 S0 T0 ; cool down HBP,M104 S0 T0 ; cool down right extruder,M104 S0 T1 ; cool down left extruder,M127 ; stop blower fan,G162 X Y F3000 ; home XY maximum,M18 ; disable stepper,M72 P1 ; play Ta-Da song,; **** end of end.gcode ****
;   exportFileFormat,x3g
;   celebration,0
;   celebrationSong,Random Song
;   postProcessing,
;   defaultSpeed,5400
;   outlineUnderspeed,0.5
;   solidInfillUnderspeed,0.8
;   supportUnderspeed,0.8
;   rapidXYspeed,4200
;   rapidZspeed,1200
;   minBridgingArea,50
;   bridgingExtraInflation,0
;   bridgingExtrusionMultiplier,1
;   bridgingSpeedMultiplier,0.8
;   useFixedBridgingAngle,0
;   fixedBridgingAngle,0
;   applyBridgingToPerimeters,0
;   filamentDiameters,1.75|1.75|1.75|1.75|1.75|1.75
;   filamentPricesPerKg,46|46|46|46|46|46
;   filamentDensities,1.25|1.25|1.25|1.25|1.25|1.25
;   useMinPrintHeight,0
;   minPrintHeight,0
;   useMaxPrintHeight,0
;   maxPrintHeight,0
;   useDiaphragm,0
;   diaphragmLayerInterval,20
;   robustSlicing,1
;   mergeAllIntoSolid,0
;   onlyRetractWhenCrossingOutline,1
;   retractBetweenLayers,1
;   useRetractionMinTravel,0
;   retractionMinTravel,3
;   retractWhileWiping,0
;   onlyWipeOutlines,1
;   avoidCrossingOutline,0
;   maxMovementDetourFactor,3
;   toolChangeRetractionDistance,12
;   toolChangeExtraRestartDistance,-0.5
;   toolChangeRetractionSpeed,600
;   externalThinWallType,0
;   internalThinWallType,2
;   thinWallAllowedOverlapPercentage,10
;   singleExtrusionMinLength,1
;   singleExtrusionMinPrintingWidthPercentage,50
;   singleExtrusionMaxPrintingWidthPercentage,200
;   singleExtrusionEndpointExtension,0.2
;   horizontalSizeCompensation,0
G90
M83
; **** Replicator 1 dual start.gcode ****
M73 P0 ; enable build progress
G162 X Y F3000 ; home XY maximum
G161 Z F1200 ; home Z minimum
G92 Z-5 ; set Z to -5
G1 Z0 ; move Z to 0
G161 Z F100 ; home Z slowly
M132 X Y Z A B ; recall home offsets
M135 T0 ; load right extruder offsets
G1 X-110 Y-70 Z30 F9000 ; move to wait position left hand side of the table
G130 X20 Y20 Z20 A20 B20 ; lower stepper Vrefs while heating
M127
M140 S60 T0
M134 T0 ; stabilize bed temperature
M104 S210 T1
M133 T1 ; stabilize left extruder temperature
G130 X127 Y127 Z40 A127 B127 ; default stepper Vrefs
G92 A0 B0 ; zero extruders
G1 Z0.4 ; position nozzle
M135 T1 ; left tool
G1 X-140 Y-70 F9000 ; reposition nozzle
G1 X-100 Y-70 E25 F300 ; purge nozzle
G1 X-110 Y-70 Z0.15 F1200 ; slow wipe
G1 X-100 Y-70 Z0.5 F1200 ; lift
G92 A0 B0 ; zero extruders
M73 P1 ;@body (notify GPX body has started)
; **** end of start.gcode ****
; process Normal Quick
; layer 1, Z = 0.180
M135 T1
G1 E-1.5000 F1200
; feature skirt
; tool H0.180 W0.400
G1 Z0.180 F1200
G1 X47.568 Y36.200 F4200
G1 E1.5000 F1200
G1 X-47.568 Y36.200 E2.5630 F2160
G1 X-51.200 Y32.568 E0.1384
G1 X-51.200 Y-32.568 E1.7548
G1 X-47.568 Y-36.200 E0.1384
G1 X47.568 Y-36.200 E2.5630
G1 X51.200 Y-32.568 E0.1384
G1 X51.200 Y32.568 E1.7548
G1 X47.568 Y36.200 E0.1384
G1 E-1.5000 F1200
G1 X47.402 Y35.800 F4200
G1 E1.5000 F1200
G1 X-47.402 Y35.800 E2.5541 F2160
G1 X-50.800 Y32.402 E0.1294
G1 X-50.800 Y-32.402 E1.7459
G1 X-47.402 Y-35.800 E0.1294
G1 X47.402 Y-35.800 E2.5541
G1 X50.800 Y-32.402 E0.1294
G1 X50.800 Y32.402 E1.7459
G1 X47.402 Y35.800 E0.1294
G1 E-1.5000 F1200
G1 X47.237 Y35.400 F4200
G1 E1.5000 F1200
G1 X-47.237 Y35.400 E2.5452 F2160
G1 X-50.400 Y32.237 E0.1205
G1 X-50.400 Y-32.237 E1.7370
G1 X-47.237 Y-35.400 E0.1205
G1 X47.237 Y-35.400 E2.5452
G1 X50.400 Y-32.237 E0.1205
G1 X50.400 Y32.237 E1.7370
G1 X47.237 Y35.400 E0.1205
G1 E-1.5000 F1200
G1 X47.071 Y35.000 F4200
G1 E1.5000 F1200
G1 X-47.071 Y35.000 E2.5363 F2160
G1 X-50.000 Y32.071 E0.1116
G1 X-50.000 Y-32.071 E1.7280
G1 X-47.071 Y-35.000 E0.1116
G1 X47.071 Y-35.000 E2.5363
G1 X50.000 Y-32.071 E0.1116
G1 X50.000 Y32.071 E1.7280
G1 X47.071 Y35.000 E0.1116
G1 E-1.5000 F1200
G1 X46.905 Y34.600 F4200
G1 E1.5000 F1200
G1 X-46.905 Y34.600 E2.5273 F2160
G1 X-49.600 Y31.905 E0.1027
G1 X-49.600 Y-31.905 E1.7191
G1 X-46.905 Y-34.600 E0.1027
G1 X46.905 Y-34.600 E2.5273
G1 X49.600 Y-31.905 E0.1027
G1 X49.600 Y31.905 E1.7191
G1 X46.905 Y34.600 E0.1027
G1 E-1.5000 F1200
G1 X46.740 Y34.200 F4200
G1 E1.5000 F1200
G1 X-46.740 Y34.200 E2.5184 F2160
G1 X-49.200 Y31.740 E0.0937
G1 X-49.200 Y-31.740 E1.7102
G1 X-46.740 Y-34.200 E0.0937
G1 X46.740 Y-34.200 E2.5184
G1 X49.200 Y-31.740 E0.0937
G1 X49.200 Y31.740 E1.7102
G1 X46.740 Y34.200 E0.0937
G1 E-1.5000 F1200
; feature inner perimeter
G1 X44.400 Y29.400 F4200
G1 E1.5000 F1200
G1 X-44.400 Y29.400 E2.3923 F1620
G1 X-44.400 Y-29.400 E1.5841
G1 X44.400 Y-29.400 E2.3923
G1 X44.400 Y29.400 E1.5841
; feature outer perimeter
G1 X44.800 Y29.800 F4200
G1 X-44.800 Y29.800 E2.4139 F1080
G1 X-44.800 Y-29.800 E1.6057
G1 X44.800 Y-29.800 E2.4139
G1 X44.800 Y29.800 E1.6057
; feature solid layer
G1 X43.893 Y-29.080 F4200
G1 X44.080 Y-28.893 E0.0071 F1728
G1 X44.080 Y-28.328 E0.0152
G1 X43.328 Y-29.080 E0.0287
G1 X42.762 Y-29.080 E0.0152
G1 X44.080 Y-27.762 E0.0502
G1 X44.080 Y-27.196 E0.0152
G1 X42.196 Y-29.080 E0.0718
G1 X41.631 Y-29.080 E0.0152
G1 X44.080 Y-26.631 E0.0933
G1 X44.080 Y-26.065 E0.0152
G1 X41.065 Y-29.080 E0.1149
G1 X40.499 Y-29.080 E0.0152
G1 X44.080 Y-25.499 E0.1364
G1 X44.080 Y-24.934 E0.0152
G1 X39.934 Y-29.080 E0.1580
G1 X39.368 Y-29.080 E0.0152
G1 X44.080 Y-24.368 E0.1795
G1 X44.080 Y-23.802 E0.0152
G1 X38.802 Y-29.080 E0.2011
G1 X38.237 Y-29.080 E0.0152
G1 X44.080 Y-23.237 E0.2226
G1 X44.080 Y-22.671 E0.0152
G1 X37.671 Y-29.080 E0.2442
G1 X37.105 Y-29.080 E0.0152
G1 X44.080 Y-22.105 E0.2657
G1 X44.080 Y-21.540 E0.0152
G1 X36.540 Y-29.080 E0.2873
G1 X35.974 Y-29.080 E0.0152
G1 X44.080 Y-20.974 E0.3088
G1 X44.080 Y-20.408 E0.0152
G1 X35.408 Y-29.080 E0.3304
G1 X34.842 Y-29.080 E0.0152
G1 X44.080 Y-19.842 E0.3519
G1 X44.080 Y-19.277 E0.0152
G1 X34.277 Y-29.080 E0.3735
G1 X33.711 Y-29.080 E0.0152
G1 X44.080 Y-18.711 E0.3951
G1 X44.080 Y-18.145 E0.0152
G1 X33.145 Y-29.080 E0.4166
G1 X32.580 Y-29.080 E0.0152
G1 X44.080 Y-17.580 E0.4382
G1 X44.080 Y-17.014 E0.0152
G1 X32.014 Y-29.080 E0.4597
G1 X31.448 Y-29.080 E0.0152
G1 X44.080 Y-16.448 E0.4813
G1 X44.080 Y-15.883 E0.0152
G1 X30.883 Y-29.080 E0.5028
G1 X30.317 Y-29.080 E0.0152
G1 X44.080 Y-15.317 E0.5244
G1 X44.080 Y-14.751 E0.0152
G1 X29.751 Y-29.080 E0.5459
G1 X29.186 Y-29.080 E0.0152
G1 X44.080 Y-14.186 E0.5675
G1 X44.080 Y-13.620 E0.0152
G1 X28.620 Y-29.080 E0.5890
G1 X28.054 Y-29.080 E0.0152
G1 X44.080 Y-13.054 E0.6106
G1 X44.080 Y-12.489 E0.0152
G1 X27.489 Y-29.080 E0.6321
G1 X26.923 Y-29.080 E0.0152
G1 X44.080 Y-11.923 E0.6537
G1 X44.080 Y-11.357 E0.0152
G1 X26.357 Y-29.080 E0.6752
G1 X25.791 Y-29.080 E0.0152
G1 X44.080 Y-10.792 E0.6968
G1 X44.080 Y-10.226 E0.0152
G1 X25.226 Y-29.080 E0.7183
G1 X24.660 Y-29.080 E0.0152
G1 X44.080 Y-9.660 E0.7399
G1 X44.080 Y-9.094 E0.0152
G1 X24.094 Y-29.080 E0.7614
G1 X23.529 Y-29.080 E0.0152
G1 X44.080 Y-8.529 E0.7830
G1 X44.080 Y-7.963 E0.0152
G1 X22.963 Y-29.080 E0.8046
G1 X22.397 Y-29.080 E0.0152
G1 X44.080 Y-7.397 E0.8261
G1 X44.080 Y-6.832 E0.0152
G1 X21.832 Y-29.080 E0.8477
G1 X21.266 Y-29.080 E0.0152
G1 X44.080 Y-6.266 E0.8692
G1 X44.080 Y-5.700 E0.0152
G1 X20.700 Y-29.080 E0.8908
G1 X20.135 Y-29.080 E0.0152
G1 X44.080 Y-5.135 E0.9123
G1 X44.080 Y-4.569 E0.0152
G1 X19.569 Y-29.080 E0.9339
G1 X19.003 Y-29.080 E0.0152
G1 X44.080 Y-4.003 E0.9554
G1 X44.080 Y-3.438 E0.0152
G1 X18.438 Y-29.080 E0.9770
G1 X17.872 Y-29.080 E0.0152
G1 X44.080 Y-2.872 E0.9985
G1 X44.080 Y-2.306 E0.0152
G1 X17.306 Y-29.080 E1.0201
G1 X16.741 Y-29.080 E0.0152
G1 X44.080 Y-1.741 E1.0416
G1 X44.080 Y-1.175 E0.0152
G1 X16.175 Y-29.080 E1.0632
G1 X15.609 Y-29.080 E0.0152
G1 X44.080 Y-0.609 E1.0847
G1 X44.080 Y-0.043 E0.0152
G1 X15.043 Y-29.080 E1.1063
G1 X14.478 Y-29.080 E0.0152
G1 X44.080 Y0.522 E1.1278
G1 X44.080 Y1.088 E0.0152
G1 X13.912 Y-29.080 E1.1494
G1 X13.346 Y-29.080 E0.0152
G1 X44.080 Y1.654 E1.1709
G1 X44.080 Y2.219 E0.0152
G1 X12.781 Y-29.080 E1.1925
G1 X12.215 Y-29.080 E0.0152
G1 X44.080 Y2.785 E1.2141
G1 X44.080 Y3.351 E0.0152
G1 X11.649 Y-29.080 E1.2356
G1 X11.084 Y-29.080 E0.0152
G1 X44.080 Y3.916 E1.2572
G1 X44.080 Y4.482 E0.0152
G1 X10.518 Y-29.080 E1.2787
G1 X9.952 Y-29.080 E0.0152
G1 X44.080 Y5.048 E1.3003
G1 X44.080 Y5.613 E0.0152
G1 X9.387 Y-29.080 E1.3218
G1 X8.821 Y-29.080 E0.0152
G1 X44.080 Y6.179 E1.3434
G1 X44.080 Y6.745 E0.0152
G1 X8.255 Y-29.080 E1.3649
G1 X7.690 Y-29.080 E0.0152
G1 X44.080 Y7.310 E1.3865
G1 X44.080 Y7.876 E0.0152
G1 X7.124 Y-29.080 E1.4080
G1 X6.558 Y-29.080 E0.0152
G1 X44.080 Y8.442 E1.4296
G1 X44.080 Y9.007 E0.0152
G1 X5.993 Y-29.080 E1.4511
G1 X5.427 Y-29.080 E0.0152
G1 X44.080 Y9.573 E1.4727
G1 X44.080 Y10.139 E0.0152
G1 X4.861 Y-29.080 E1.4942
G1 X4.295 Y-29.080 E0.0152
G1 X44.080 Y10.705 E1.5158
G1 X44.080 Y11.270 E0.0152
G1 X3.730 Y-29.080 E1.5373
G1 X3.164 Y-29.080 E0.0152
G1 X44.080 Y11.836 E1.5589
G1 X44.080 Y12.402 E0.0152
G1 X2.598 Y-29.080 E1.5804
G1 X2.033 Y-29.080 E0.0152
G1 X44.080 Y12.967 E1.6020
G1 X44.080 Y13.533 E0.0152
G1 X1.467 Y-29.080 E1.6236
G1 X0.901 Y-29.080 E0.0152
G1 X44.080 Y14.099 E1.6451
G1 X44.080 Y14.664 E0.0152
G1 X0.336 Y-29.080 E1.6667
G1 X-0.230 Y-29.080 E0.0152
G1 X44.080 Y15.230 E1.6882
G1 X44.080 Y15.796 E0.0152
G1 X-0.796 Y-29.080 E1.7098
G1 X-1.361 Y-29.080 E0.0152
G1 X44.080 Y16.361 E1.7313
G1 X44.080 Y16.927 E0.0152
G1 X-1.927 Y-29.080 E1.7529
G1 X-2.493 Y-29.080 E0.0152
G1 X44.080 Y17.493 E1.7744
G1 X44.080 Y18.058 E0.0152
G1 X-3.058 Y-29.080 E1.7960
G1 X-3.624 Y-29.080 E0.0152
G1 X44.080 Y18.624 E1.8175
G1 X44.080 Y19.190 E0.0152
G1 X-4.190 Y-29.080 E1.8391
G1 X-4.756 Y-29.080 E0.0152
G1 X44.080 Y19.756 E1.8606
G1 X44.080 Y20.321 E0.0152
G1 X-5.321 Y-29.080 E1.8822
G1 X-5.887 Y-29.080 E0.0152
G1 X44.080 Y20.887 E1.9037
G1 X44.080 Y21.453 E0.0152
G1 X-6.453 Y-29.080 E1.9253
G1 X-7.018 Y-29.080 E0.0152
G1 X44.080 Y22.018 E1.9468
G1 X44.080 Y22.584 E0.0152
G1 X-7.584 Y-29.080 E1.9684
G1 X-8.150 Y-29.080 E0.0152
G1 X44.080 Y23.150 E1.9899
G1 X44.080 Y23.715 E0.0152
G1 X-8.715 Y-29.080 E2.0115
G1 X-9.281 Y-29.080 E0.0152
G1 X44.080 Y24.281 E2.0330
G1 X44.080 Y24.847 E0.0152
G1 X-9.847 Y-29.080 E2.0546
G1 X-10.412 Y-29.080 E0.0152
G1 X44.080 Y25.412 E2.0762
G1 X44.080 Y25.978 E0.0152
G1 X-10.978 Y-29.080 E2.0977
G1 X-11.544 Y-29.080 E0.0152
G1 X44.080 Y26.544 E2.1193
G1 X44.080 Y27.109 E0.0152
G1 X-12.109 Y-29.080 E2.1408
G1 X-12.675 Y-29.080 E0.0152
G1 X44.080 Y27.675 E2.1624
G1 X44.080 Y28.241 E0.0152
G1 X-13.241 Y-29.080 E2.1839
G1 X-13.806 Y-29.080 E0.0152
G1 X44.080 Y28.806 E2.2055
G1 X44.080 Y29.080 E0.0074
G1 X43.788 Y29.080 E0.0079
G1 X-14.372 Y-29.080 E2.2159
G1 X-14.938 Y-29.080 E0.0152
G1 X43.222 Y29.080 E2.2159
G1 X42.656 Y29.080 E0.0152
G1 X-15.504 Y-29.080 E2.2159
G1 X-16.069 Y-29.080 E0.0152
G1 X42.091 Y29.080 E2.2159
G1 X41.525 Y29.080 E0.0152
G1 X-16.635 Y-29.080 E2.2159
G1 X-17.201 Y-29.080 E0.0152
G1 X40.959 Y29.080 E2.2159
G1 X40.394 Y29.080 E0.0152
