; G-Code generated by Simplify3D(R) Version 4.1.2
; Apr 9, 2021 at 9:52:34 AM
; Settings Summary
;   processName,Fast
;   applyToModels,Marquise_Lizard_Bottom
;   profileName,FlashForge Creator Pro (modified)
;   profileVersion,2021-03-29 18:58:04
;   baseProfile,
;   printMaterial,PLA
;   printQuality,Medium
;   printExtruders,Left Extruder Only
;   extruderName,Right Extruder,Left Extruder
;   extruderToolheadNumber,0,1
;   extruderDiameter,0.4,0.4
;   extruderAutoWidth,0,0
;   extruderWidth,0.4,0.4
;   extrusionMultiplier,0.9,0.9
;   extruderUseRetract,1,1
;   extruderRetractionDistance,1.5,1.5
;   extruderExtraRestartDistance,0,0
;   extruderRetractionZLift,0,0
;   extruderRetractionSpeed,1200,1200
;   extruderUseCoasting,0,0
;   extruderCoastingDistance,0.2,0.2
;   extruderUseWipe,0,0
;   extruderWipeDistance,5,5
;   primaryExtruder,1
;   layerHeight,0.2
;   topSolidLayers,6
;   bottomSolidLayers,3
;   perimeterOutlines,2
;   printPerimetersInsideOut,1
;   startPointOption,2
;   startPointOriginX,0
;   startPointOriginY,0
;   sequentialIslands,0
;   spiralVaseMode,0
;   firstLayerHeightPercentage,90
;   firstLayerWidthPercentage,100
;   firstLayerUnderspeed,0.4
;   useRaft,0
;   raftExtruder,1
;   raftTopLayers,3
;   raftBaseLayers,2
;   raftOffset,3
;   raftSeparationDistance,0.14
;   raftTopInfill,100
;   aboveRaftSpeedMultiplier,0.3
;   useSkirt,1
;   skirtExtruder,1
;   skirtLayers,1
;   skirtOutlines,3
;   skirtOffset,4
;   usePrimePillar,0
;   primePillarExtruder,999
;   primePillarWidth,2
;   primePillarLocation,7
;   primePillarSpeedMultiplier,1
;   useOozeShield,0
;   oozeShieldExtruder,999
;   oozeShieldOffset,2
;   oozeShieldOutlines,1
;   oozeShieldSidewallShape,1
;   oozeShieldSidewallAngle,30
;   oozeShieldSpeedMultiplier,1
;   infillExtruder,1
;   internalInfillPattern,Rectilinear
;   externalInfillPattern,Rectilinear
;   infillPercentage,5
;   outlineOverlapPercentage,20
;   infillExtrusionWidthPercentage,100
;   minInfillLength,5
;   infillLayerInterval,1
;   internalInfillAngles,45,-45
;   overlapInternalInfillAngles,0
;   externalInfillAngles,45,-45
;   generateSupport,1
;   supportExtruder,1
;   supportInfillPercentage,30
;   supportExtraInflation,0
;   supportBaseLayers,0
;   denseSupportExtruder,1
;   denseSupportLayers,0
;   denseSupportInfillPercentage,70
;   supportLayerInterval,1
;   supportHorizontalPartOffset,0.3
;   supportUpperSeparationLayers,1
;   supportLowerSeparationLayers,1
;   supportType,0
;   supportGridSpacing,5
;   maxOverhangAngle,45
;   supportAngles,0
;   temperatureName,Right Extruder,Left Extruder,Heated Build Platform
;   temperatureNumber,0,1,0
;   temperatureSetpointCount,1,1,1
;   temperatureSetpointLayers,1,1,1
;   temperatureSetpointTemperatures,0,210,60
;   temperatureStabilizeAtStartup,0,0,0
;   temperatureHeatedBed,0,0,1
;   fanLayers,1,2
;   fanSpeeds,0,100
;   blipFanToFullPower,0
;   adjustSpeedForCooling,1
;   minSpeedLayerTime,15
;   minCoolingSpeedSlowdown,20
;   increaseFanForCooling,0
;   minFanLayerTime,45
;   maxCoolingFanSpeed,100
;   increaseFanForBridging,1
;   bridgingFanSpeed,100
;   use5D,1
;   relativeEdistances,1
;   allowEaxisZeroing,0
;   independentExtruderAxes,1
;   includeM10123,0
;   stickySupport,1
;   applyToolheadOffsets,0
;   gcodeXoffset,0
;   gcodeYoffset,0
;   gcodeZoffset,0
;   overrideMachineDefinition,1
;   machineTypeOverride,0
;   strokeXoverride,225
;   strokeYoverride,145
;   strokeZoverride,150
;   originOffsetXoverride,112.5
;   originOffsetYoverride,72.5
;   originOffsetZoverride,0
;   homeXdirOverride,1
;   homeYdirOverride,1
;   homeZdirOverride,-1
;   flipXoverride,1
;   flipYoverride,-1
;   flipZoverride,1
;   toolheadOffsets,0,0|34,0|0,0|0,0|0,0|0,0
;   overrideFirmwareConfiguration,1
;   firmwareTypeOverride,MakerBot/Sailfish Firmware
;   GPXconfigOverride,r1d
;   baudRateOverride,115200
;   overridePrinterModels,1
;   printerModelsOverride,FlashForge_CreatorPro.stl
;   startingGcode,; **** Replicator 1 dual start.gcode ****,M73 P0 ; enable build progress,G162 X Y F3000 ; home XY maximum,G161 Z F1200 ; home Z minimum,G92 Z-5 ; set Z to -5,G1 Z0 ; move Z to 0,G161 Z F100 ; home Z slowly,M132 X Y Z A B ; recall home offsets,M135 T0 ; load right extruder offsets,G1 X-110 Y-70 Z30 F9000 ; move to wait position left hand side of the table,G130 X20 Y20 Z20 A20 B20 ; lower stepper Vrefs while heating,M126 S[fan_speed_pwm],M140 S[bed0_temperature] T0,M134 T0 ; stabilize bed temperature,M104 S[extruder1_temperature] T1,M133 T1 ; stabilize left extruder temperature,G130 X127 Y127 Z40 A127 B127 ; default stepper Vrefs,G92 A0 B0 ; zero extruders,G1 Z0.4 ; position nozzle,M135 T1 ; left tool,G1 X-140 Y-70 F9000 ; reposition nozzle,G1 X-100 Y-70 E25 F300 ; purge nozzle,G1 X-110 Y-70 Z0.15 F1200 ; slow wipe,G1 X-100 Y-70 Z0.5 F1200 ; lift,G92 A0 B0 ; zero extruders,M73 P1 ;@body (notify GPX body has started),; **** end of start.gcode ****
;   layerChangeGcode,
;   retractionGcode,
;   toolChangeGcode,
;   endingGcode,; **** Replicator 1 dual end.gcode ****,M73 P100 ; end build progress,G1 Z150 F1000 ; send Z axis to bottom of machine,M140 S0 T0 ; cool down HBP,M104 S0 T0 ; cool down right extruder,M104 S0 T1 ; cool down left extruder,M127 ; stop blower fan,G162 X Y F3000 ; home XY maximum,M18 ; disable stepper,M72 P1 ; play Ta-Da song,; **** end of end.gcode ****
;   exportFileFormat,x3g
;   celebration,0
;   celebrationSong,Random Song
;   postProcessing,
;   defaultSpeed,7200
;   outlineUnderspeed,0.5
;   solidInfillUnderspeed,0.8
;   supportUnderspeed,0.8
;   rapidXYspeed,4200
;   rapidZspeed,1200
;   minBridgingArea,50
;   bridgingExtraInflation,0
;   bridgingExtrusionMultiplier,1
;   bridgingSpeedMultiplier,0.8
;   useFixedBridgingAngle,0
;   fixedBridgingAngle,0
;   applyBridgingToPerimeters,0
;   filamentDiameters,1.75|1.75|1.75|1.75|1.75|1.75
;   filamentPricesPerKg,46|46|46|46|46|46
;   filamentDensities,1.25|1.25|1.25|1.25|1.25|1.25
;   useMinPrintHeight,0
;   minPrintHeight,0
;   useMaxPrintHeight,0
;   maxPrintHeight,0
;   useDiaphragm,0
;   diaphragmLayerInterval,20
;   robustSlicing,1
;   mergeAllIntoSolid,0
;   onlyRetractWhenCrossingOutline,1
;   retractBetweenLayers,1
;   useRetractionMinTravel,0
;   retractionMinTravel,3
;   retractWhileWiping,0
;   onlyWipeOutlines,1
;   avoidCrossingOutline,0
;   maxMovementDetourFactor,3
;   toolChangeRetractionDistance,12
;   toolChangeExtraRestartDistance,-0.5
;   toolChangeRetractionSpeed,600
;   externalThinWallType,0
;   internalThinWallType,2
;   thinWallAllowedOverlapPercentage,10
;   singleExtrusionMinLength,1
;   singleExtrusionMinPrintingWidthPercentage,50
;   singleExtrusionMaxPrintingWidthPercentage,200
;   singleExtrusionEndpointExtension,0.2
;   horizontalSizeCompensation,0
G90
M83
; **** Replicator 1 dual start.gcode ****
M73 P0 ; enable build progress
G162 X Y F3000 ; home XY maximum
G161 Z F1200 ; home Z minimum
G92 Z-5 ; set Z to -5
G1 Z0 ; move Z to 0
G161 Z F100 ; home Z slowly
M132 X Y Z A B ; recall home offsets
M135 T0 ; load right extruder offsets
G1 X-110 Y-70 Z30 F9000 ; move to wait position left hand side of the table
G130 X20 Y20 Z20 A20 B20 ; lower stepper Vrefs while heating
M127
M140 S60 T0
M134 T0 ; stabilize bed temperature
M104 S210 T1
M133 T1 ; stabilize left extruder temperature
G130 X127 Y127 Z40 A127 B127 ; default stepper Vrefs
G92 A0 B0 ; zero extruders
G1 Z0.4 ; position nozzle
M135 T1 ; left tool
G1 X-140 Y-70 F9000 ; reposition nozzle
G1 X-100 Y-70 E25 F300 ; purge nozzle
G1 X-110 Y-70 Z0.15 F1200 ; slow wipe
G1 X-100 Y-70 Z0.5 F1200 ; lift
G92 A0 B0 ; zero extruders
M73 P1 ;@body (notify GPX body has started)
; **** end of start.gcode ****
; process Fast
; layer 1, Z = 0.180
M135 T1
G1 E-1.5000 F1200
; feature skirt
; tool H0.180 W0.400
G1 Z0.180 F1200
G1 X35.000 Y-47.071 F4200
G1 E1.5000 F1200
G1 X35.000 Y47.071 E2.5363 F2880
G1 X32.071 Y50.000 E0.1116
G1 X-32.071 Y50.000 E1.7280
G1 X-35.000 Y47.071 E0.1116
G1 X-35.000 Y-47.071 E2.5363
G1 X-32.071 Y-50.000 E0.1116
G1 X32.071 Y-50.000 E1.7280
G1 X35.000 Y-47.071 E0.1116
G1 E-1.5000 F1200
G1 X34.600 Y-46.905 F4200
G1 E1.5000 F1200
G1 X34.600 Y46.905 E2.5273 F2880
G1 X31.905 Y49.600 E0.1027
G1 X-31.905 Y49.600 E1.7191
G1 X-34.600 Y46.905 E0.1027
G1 X-34.600 Y-46.905 E2.5273
G1 X-31.905 Y-49.600 E0.1027
G1 X31.905 Y-49.600 E1.7191
G1 X34.600 Y-46.905 E0.1027
G1 E-1.5000 F1200
G1 X34.200 Y-46.740 F4200
G1 E1.5000 F1200
G1 X34.200 Y46.740 E2.5184 F2880
G1 X31.740 Y49.200 E0.0937
G1 X-31.740 Y49.200 E1.7102
G1 X-34.200 Y46.740 E0.0937
G1 X-34.200 Y-46.740 E2.5184
G1 X-31.740 Y-49.200 E0.0937
G1 X31.740 Y-49.200 E1.7102
G1 X34.200 Y-46.740 E0.0937
G1 E-1.5000 F1200
; feature inner perimeter
G1 X29.400 Y-44.400 F4200
G1 E1.5000 F1200
G1 X29.400 Y44.400 E2.3923 F2160
G1 X-29.400 Y44.400 E1.5841
G1 X-29.400 Y-44.400 E2.3923
G1 X29.400 Y-44.400 E1.5841
; feature outer perimeter
G1 X29.800 Y-44.800 F4200
G1 X29.800 Y44.800 E2.4139 F1440
G1 X-29.800 Y44.800 E1.6057
G1 X-29.800 Y-44.800 E2.4139
G1 X29.800 Y-44.800 E1.6057
; feature solid layer
G1 X28.893 Y-44.080 F4200
G1 X29.080 Y-43.893 E0.0071 F2304
G1 X29.080 Y-43.328 E0.0152
G1 X28.328 Y-44.080 E0.0287
G1 X27.762 Y-44.080 E0.0152
G1 X29.080 Y-42.762 E0.0502
G1 X29.080 Y-42.196 E0.0152
G1 X27.196 Y-44.080 E0.0718
G1 X26.631 Y-44.080 E0.0152
G1 X29.080 Y-41.631 E0.0933
G1 X29.080 Y-41.065 E0.0152
G1 X26.065 Y-44.080 E0.1149
G1 X25.499 Y-44.080 E0.0152
G1 X29.080 Y-40.499 E0.1364
G1 X29.080 Y-39.934 E0.0152
G1 X24.934 Y-44.080 E0.1580
G1 X24.368 Y-44.080 E0.0152
G1 X29.080 Y-39.368 E0.1795
G1 X29.080 Y-38.802 E0.0152
G1 X23.802 Y-44.080 E0.2011
G1 X23.237 Y-44.080 E0.0152
G1 X29.080 Y-38.237 E0.2226
G1 X29.080 Y-37.671 E0.0152
G1 X22.671 Y-44.080 E0.2442
G1 X22.105 Y-44.080 E0.0152
G1 X29.080 Y-37.105 E0.2657
G1 X29.080 Y-36.540 E0.0152
G1 X21.540 Y-44.080 E0.2873
G1 X20.974 Y-44.080 E0.0152
G1 X29.080 Y-35.974 E0.3088
G1 X29.080 Y-35.408 E0.0152
G1 X20.408 Y-44.080 E0.3304
G1 X19.842 Y-44.080 E0.0152
G1 X29.080 Y-34.842 E0.3519
G1 X29.080 Y-34.277 E0.0152
G1 X19.277 Y-44.080 E0.3735
G1 X18.711 Y-44.080 E0.0152
G1 X29.080 Y-33.711 E0.3951
G1 X29.080 Y-33.145 E0.0152
G1 X18.145 Y-44.080 E0.4166
G1 X17.580 Y-44.080 E0.0152
G1 X29.080 Y-32.580 E0.4382
G1 X29.080 Y-32.014 E0.0152
G1 X17.014 Y-44.080 E0.4597
G1 X16.448 Y-44.080 E0.0152
G1 X29.080 Y-31.448 E0.4813
G1 X29.080 Y-30.883 E0.0152
G1 X15.883 Y-44.080 E0.5028
G1 X15.317 Y-44.080 E0.0152
G1 X29.080 Y-30.317 E0.5244
G1 X29.080 Y-29.751 E0.0152
G1 X14.751 Y-44.080 E0.5459
G1 X14.186 Y-44.080 E0.0152
G1 X29.080 Y-29.186 E0.5675
G1 X29.080 Y-28.620 E0.0152
G1 X13.620 Y-44.080 E0.5890
G1 X13.054 Y-44.080 E0.0152
G1 X29.080 Y-28.054 E0.6106
G1 X29.080 Y-27.489 E0.0152
G1 X12.489 Y-44.080 E0.6321
G1 X11.923 Y-44.080 E0.0152
G1 X29.080 Y-26.923 E0.6537
G1 X29.080 Y-26.357 E0.0152
G1 X11.357 Y-44.080 E0.6752
G1 X10.792 Y-44.080 E0.0152
G1 X29.080 Y-25.791 E0.6968
G1 X29.080 Y-25.226 E0.0152
G1 X10.226 Y-44.080 E0.7183
G1 X9.660 Y-44.080 E0.0152
G1 X29.080 Y-24.660 E0.7399
G1 X29.080 Y-24.094 E0.0152
G1 X9.094 Y-44.080 E0.7614
G1 X8.529 Y-44.080 E0.0152
G1 X29.080 Y-23.529 E0.7830
G1 X29.080 Y-22.963 E0.0152
G1 X7.963 Y-44.080 E0.8046
G1 X7.397 Y-44.080 E0.0152
G1 X29.080 Y-22.397 E0.8261
G1 X29.080 Y-21.832 E0.0152
G1 X6.832 Y-44.080 E0.8477
G1 X6.266 Y-44.080 E0.0152
G1 X29.080 Y-21.266 E0.8692
G1 X29.080 Y-20.700 E0.0152
G1 X5.700 Y-44.080 E0.8908
G1 X5.135 Y-44.080 E0.0152
G1 X29.080 Y-20.135 E0.9123
G1 X29.080 Y-19.569 E0.0152
G1 X4.569 Y-44.080 E0.9339
G1 X4.003 Y-44.080 E0.0152
G1 X29.080 Y-19.003 E0.9554
G1 X29.080 Y-18.438 E0.0152
G1 X3.438 Y-44.080 E0.9770
G1 X2.872 Y-44.080 E0.0152
G1 X29.080 Y-17.872 E0.9985
G1 X29.080 Y-17.306 E0.0152
G1 X2.306 Y-44.080 E1.0201
G1 X1.741 Y-44.080 E0.0152
G1 X29.080 Y-16.741 E1.0416
G1 X29.080 Y-16.175 E0.0152
G1 X1.175 Y-44.080 E1.0632
G1 X0.609 Y-44.080 E0.0152
G1 X29.080 Y-15.609 E1.0847
G1 X29.080 Y-15.043 E0.0152
G1 X0.043 Y-44.080 E1.1063
G1 X-0.522 Y-44.080 E0.0152
G1 X29.080 Y-14.478 E1.1278
G1 X29.080 Y-13.912 E0.0152
G1 X-1.088 Y-44.080 E1.1494
G1 X-1.654 Y-44.080 E0.0152
G1 X29.080 Y-13.346 E1.1709
G1 X29.080 Y-12.781 E0.0152
G1 X-2.219 Y-44.080 E1.1925
G1 X-2.785 Y-44.080 E0.0152
G1 X29.080 Y-12.215 E1.2141
G1 X29.080 Y-11.649 E0.0152
G1 X-3.351 Y-44.080 E1.2356
G1 X-3.916 Y-44.080 E0.0152
G1 X29.080 Y-11.084 E1.2572
G1 X29.080 Y-10.518 E0.0152
G1 X-4.482 Y-44.080 E1.2787
G1 X-5.048 Y-44.080 E0.0152
G1 X29.080 Y-9.952 E1.3003
G1 X29.080 Y-9.387 E0.0152
G1 X-5.613 Y-44.080 E1.3218
G1 X-6.179 Y-44.080 E0.0152
G1 X29.080 Y-8.821 E1.3434
G1 X29.080 Y-8.255 E0.0152
G1 X-6.745 Y-44.080 E1.3649
G1 X-7.310 Y-44.080 E0.0152
G1 X29.080 Y-7.690 E1.3865
G1 X29.080 Y-7.124 E0.0152
G1 X-7.876 Y-44.080 E1.4080
G1 X-8.442 Y-44.080 E0.0152
G1 X29.080 Y-6.558 E1.4296
G1 X29.080 Y-5.993 E0.0152
G1 X-9.007 Y-44.080 E1.4511
G1 X-9.573 Y-44.080 E0.0152
G1 X29.080 Y-5.427 E1.4727
G1 X29.080 Y-4.861 E0.0152
G1 X-10.139 Y-44.080 E1.4942
G1 X-10.705 Y-44.080 E0.0152
G1 X29.080 Y-4.295 E1.5158
G1 X29.080 Y-3.730 E0.0152
G1 X-11.270 Y-44.080 E1.5373
G1 X-11.836 Y-44.080 E0.0152
G1 X29.080 Y-3.164 E1.5589
G1 X29.080 Y-2.598 E0.0152
G1 X-12.402 Y-44.080 E1.5804
G1 X-12.967 Y-44.080 E0.0152
G1 X29.080 Y-2.033 E1.6020
G1 X29.080 Y-1.467 E0.0152
G1 X-13.533 Y-44.080 E1.6236
G1 X-14.099 Y-44.080 E0.0152
G1 X29.080 Y-0.901 E1.6451
G1 X29.080 Y-0.336 E0.0152
G1 X-14.664 Y-44.080 E1.6667
G1 X-15.230 Y-44.080 E0.0152
G1 X29.080 Y0.230 E1.6882
G1 X29.080 Y0.796 E0.0152
G1 X-15.796 Y-44.080 E1.7098
G1 X-16.361 Y-44.080 E0.0152
G1 X29.080 Y1.361 E1.7313
G1 X29.080 Y1.927 E0.0152
G1 X-16.927 Y-44.080 E1.7529
G1 X-17.493 Y-44.080 E0.0152
G1 X29.080 Y2.493 E1.7744
G1 X29.080 Y3.058 E0.0152
G1 X-18.058 Y-44.080 E1.7960
G1 X-18.624 Y-44.080 E0.0152
G1 X29.080 Y3.624 E1.8175
G1 X29.080 Y4.190 E0.0152
G1 X-19.190 Y-44.080 E1.8391
G1 X-19.756 Y-44.080 E0.0152
G1 X29.080 Y4.756 E1.8606
G1 X29.080 Y5.321 E0.0152
G1 X-20.321 Y-44.080 E1.8822
G1 X-20.887 Y-44.080 E0.0152
G1 X29.080 Y5.887 E1.9037
G1 X29.080 Y6.453 E0.0152
G1 X-21.453 Y-44.080 E1.9253
G1 X-22.018 Y-44.080 E0.0152
G1 X29.080 Y7.018 E1.9468
G1 X29.080 Y7.584 E0.0152
G1 X-22.584 Y-44.080 E1.9684
G1 X-23.150 Y-44.080 E0.0152
G1 X29.080 Y8.150 E1.9899
G1 X29.080 Y8.715 E0.0152
G1 X-23.715 Y-44.080 E2.0115
G1 X-24.281 Y-44.080 E0.0152
G1 X29.080 Y9.281 E2.0330
G1 X29.080 Y9.847 E0.0152
G1 X-24.847 Y-44.080 E2.0546
G1 X-25.412 Y-44.080 E0.0152
G1 X29.080 Y10.412 E2.0762
G1 X29.080 Y10.978 E0.0152
G1 X-25.978 Y-44.080 E2.0977
G1 X-26.544 Y-44.080 E0.0152
G1 X29.080 Y11.544 E2.1193
G1 X29.080 Y12.109 E0.0152
G1 X-27.109 Y-44.080 E2.1408
G1 X-27.675 Y-44.080 E0.0152
G1 X29.080 Y12.675 E2.1624
G1 X29.080 Y13.241 E0.0152
G1 X-28.241 Y-44.080 E2.1839
G1 X-28.806 Y-44.080 E0.0152
G1 X29.080 Y13.806 E2.2055
G1 X29.080 Y14.372 E0.0152
G1 X-29.080 Y-43.788 E2.2159
G1 X-29.080 Y-43.222 E0.0152
G1 X29.080 Y14.938 E2.2159
G1 X29.080 Y15.504 E0.0152
G1 X-29.080 Y-42.656 E2.2159
G1 X-29.080 Y-42.091 E0.0152
G1 X29.080 Y16.069 E2.2159
G1 X29.080 Y16.635 E0.0152
G1 X-29.080 Y-41.525 E2.2159
G1 X-29.080 Y-40.959 E0.0152
G1 X29.080 Y17.201 E2.2159
G1 X29.080 Y17.766 E0.0152
G1 X-29.080 Y-40.394 E2.2159
G1 X-29.080 Y-39.828 E0.0152
G1 X29.080 Y18.332 E2.2159
G1 X29.080 Y18.898 E0.0152
G1 X-29.080 Y-39.262 E2.2159
G1 X-29.080 Y-38.697 E0.0152
G1 X29.080 Y19.463 E2.2159
G1 X29.080 Y20.029 E0.0152
G1 X-29.080 Y-38.131 E2.2159
G1 X-29.080 Y-37.565 E0.0152
G1 X29.080 Y20.595 E2.2159
G1 X29.080 Y21.160 E0.0152
G1 X-29.080 Y-37.000 E2.2159
G1 X-29.080 Y-36.434 E0.0152
G1 X29.080 Y21.726 E2.2159
G1 X29.080 Y22.292 E0.0152
G1 X-29.080 Y-35.868 E2.2159
G1 X-29.080 Y-35.303 E0.0152
G1 X29.080 Y22.857 E2.2159
G1 X29.080 Y23.423 E0.0152
G1 X-29.080 Y-34.737 E2.2159
G1 X-29.080 Y-34.171 E0.0152
G1 X29.080 Y23.989 E2.2159
G1 X29.080 Y24.555 E0.0152
G1 X-29.080 Y-33.605 E2.2159
G1 X-29.080 Y-33.040 E0.0152
G1 X29.080 Y25.120 E2.2159
G1 X29.080 Y25.686 E0.0152
G1 X-29.080 Y-32.474 E2.2159
G1 X-29.080 Y-31.908 E0.0152
G1 X29.080 Y26.252 E2.2159
