; G-Code generated by Simplify3D(R) Version 4.1.2
; Mar 25, 2021 at 12:19:34 PM
; Settings Summary
;   processName,Normal Quick
;   applyToModels,Riverfolk_Woodland_Base
;   profileName,FlashForge Creator Pro (modified)
;   profileVersion,2020-10-11 13:46:27
;   baseProfile,
;   printMaterial,PLA
;   printQuality,Medium
;   printExtruders,Left Extruder Only
;   extruderName,Right Extruder,Left Extruder
;   extruderToolheadNumber,0,1
;   extruderDiameter,0.4,0.4
;   extruderAutoWidth,0,0
;   extruderWidth,0.4,0.4
;   extrusionMultiplier,0.9,0.9
;   extruderUseRetract,1,1
;   extruderRetractionDistance,1.5,1.5
;   extruderExtraRestartDistance,0,0
;   extruderRetractionZLift,0,0
;   extruderRetractionSpeed,1200,1200
;   extruderUseCoasting,0,0
;   extruderCoastingDistance,0.2,0.2
;   extruderUseWipe,0,0
;   extruderWipeDistance,5,5
;   primaryExtruder,1
;   layerHeight,0.2
;   topSolidLayers,6
;   bottomSolidLayers,3
;   perimeterOutlines,2
;   printPerimetersInsideOut,1
;   startPointOption,2
;   startPointOriginX,0
;   startPointOriginY,0
;   sequentialIslands,0
;   spiralVaseMode,0
;   firstLayerHeightPercentage,90
;   firstLayerWidthPercentage,100
;   firstLayerUnderspeed,0.4
;   useRaft,0
;   raftExtruder,1
;   raftTopLayers,3
;   raftBaseLayers,2
;   raftOffset,3
;   raftSeparationDistance,0.14
;   raftTopInfill,100
;   aboveRaftSpeedMultiplier,0.3
;   useSkirt,1
;   skirtExtruder,1
;   skirtLayers,1
;   skirtOutlines,6
;   skirtOffset,4
;   usePrimePillar,0
;   primePillarExtruder,999
;   primePillarWidth,2
;   primePillarLocation,7
;   primePillarSpeedMultiplier,1
;   useOozeShield,0
;   oozeShieldExtruder,999
;   oozeShieldOffset,2
;   oozeShieldOutlines,1
;   oozeShieldSidewallShape,1
;   oozeShieldSidewallAngle,30
;   oozeShieldSpeedMultiplier,1
;   infillExtruder,1
;   internalInfillPattern,Rectilinear
;   externalInfillPattern,Rectilinear
;   infillPercentage,20
;   outlineOverlapPercentage,20
;   infillExtrusionWidthPercentage,100
;   minInfillLength,5
;   infillLayerInterval,1
;   internalInfillAngles,45,-45
;   overlapInternalInfillAngles,0
;   externalInfillAngles,45,-45
;   generateSupport,1
;   supportExtruder,1
;   supportInfillPercentage,30
;   supportExtraInflation,0
;   supportBaseLayers,0
;   denseSupportExtruder,1
;   denseSupportLayers,0
;   denseSupportInfillPercentage,70
;   supportLayerInterval,1
;   supportHorizontalPartOffset,0.3
;   supportUpperSeparationLayers,1
;   supportLowerSeparationLayers,1
;   supportType,0
;   supportGridSpacing,1.5
;   maxOverhangAngle,45
;   supportAngles,0
;   temperatureName,Right Extruder,Left Extruder,Heated Build Platform
;   temperatureNumber,0,1,0
;   temperatureSetpointCount,1,1,1
;   temperatureSetpointLayers,1,1,1
;   temperatureSetpointTemperatures,0,210,60
;   temperatureStabilizeAtStartup,0,0,0
;   temperatureHeatedBed,0,0,1
;   fanLayers,1,2
;   fanSpeeds,0,100
;   blipFanToFullPower,0
;   adjustSpeedForCooling,1
;   minSpeedLayerTime,15
;   minCoolingSpeedSlowdown,20
;   increaseFanForCooling,0
;   minFanLayerTime,45
;   maxCoolingFanSpeed,100
;   increaseFanForBridging,1
;   bridgingFanSpeed,100
;   use5D,1
;   relativeEdistances,1
;   allowEaxisZeroing,0
;   independentExtruderAxes,1
;   includeM10123,0
;   stickySupport,1
;   applyToolheadOffsets,0
;   gcodeXoffset,0
;   gcodeYoffset,0
;   gcodeZoffset,0
;   overrideMachineDefinition,1
;   machineTypeOverride,0
;   strokeXoverride,225
;   strokeYoverride,145
;   strokeZoverride,150
;   originOffsetXoverride,112.5
;   originOffsetYoverride,72.5
;   originOffsetZoverride,0
;   homeXdirOverride,1
;   homeYdirOverride,1
;   homeZdirOverride,-1
;   flipXoverride,1
;   flipYoverride,-1
;   flipZoverride,1
;   toolheadOffsets,0,0|34,0|0,0|0,0|0,0|0,0
;   overrideFirmwareConfiguration,1
;   firmwareTypeOverride,MakerBot/Sailfish Firmware
;   GPXconfigOverride,r1d
;   baudRateOverride,115200
;   overridePrinterModels,1
;   printerModelsOverride,FlashForge_CreatorPro.stl
;   startingGcode,; **** Replicator 1 dual start.gcode ****,M73 P0 ; enable build progress,G162 X Y F3000 ; home XY maximum,G161 Z F1200 ; home Z minimum,G92 Z-5 ; set Z to -5,G1 Z0 ; move Z to 0,G161 Z F100 ; home Z slowly,M132 X Y Z A B ; recall home offsets,M135 T0 ; load right extruder offsets,G1 X-110 Y-70 Z30 F9000 ; move to wait position left hand side of the table,G130 X20 Y20 Z20 A20 B20 ; lower stepper Vrefs while heating,M126 S[fan_speed_pwm],M140 S[bed0_temperature] T0,M134 T0 ; stabilize bed temperature,M104 S[extruder1_temperature] T1,M133 T1 ; stabilize left extruder temperature,G130 X127 Y127 Z40 A127 B127 ; default stepper Vrefs,G92 A0 B0 ; zero extruders,G1 Z0.4 ; position nozzle,M135 T1 ; left tool,G1 X-140 Y-70 F9000 ; reposition nozzle,G1 X-100 Y-70 E25 F300 ; purge nozzle,G1 X-110 Y-70 Z0.15 F1200 ; slow wipe,G1 X-100 Y-70 Z0.5 F1200 ; lift,G92 A0 B0 ; zero extruders,M73 P1 ;@body (notify GPX body has started),; **** end of start.gcode ****
;   layerChangeGcode,
;   retractionGcode,
;   toolChangeGcode,
;   endingGcode,; **** Replicator 1 dual end.gcode ****,M73 P100 ; end build progress,G1 Z150 F1000 ; send Z axis to bottom of machine,M140 S0 T0 ; cool down HBP,M104 S0 T0 ; cool down right extruder,M104 S0 T1 ; cool down left extruder,M127 ; stop blower fan,G162 X Y F3000 ; home XY maximum,M18 ; disable stepper,M72 P1 ; play Ta-Da song,; **** end of end.gcode ****
;   exportFileFormat,x3g
;   celebration,0
;   celebrationSong,Random Song
;   postProcessing,
;   defaultSpeed,5400
;   outlineUnderspeed,0.5
;   solidInfillUnderspeed,0.8
;   supportUnderspeed,0.8
;   rapidXYspeed,4200
;   rapidZspeed,1200
;   minBridgingArea,50
;   bridgingExtraInflation,0
;   bridgingExtrusionMultiplier,1
;   bridgingSpeedMultiplier,0.8
;   useFixedBridgingAngle,0
;   fixedBridgingAngle,0
;   applyBridgingToPerimeters,0
;   filamentDiameters,1.75|1.75|1.75|1.75|1.75|1.75
;   filamentPricesPerKg,46|46|46|46|46|46
;   filamentDensities,1.25|1.25|1.25|1.25|1.25|1.25
;   useMinPrintHeight,0
;   minPrintHeight,0
;   useMaxPrintHeight,0
;   maxPrintHeight,0
;   useDiaphragm,0
;   diaphragmLayerInterval,20
;   robustSlicing,1
;   mergeAllIntoSolid,0
;   onlyRetractWhenCrossingOutline,1
;   retractBetweenLayers,1
;   useRetractionMinTravel,0
;   retractionMinTravel,3
;   retractWhileWiping,0
;   onlyWipeOutlines,1
;   avoidCrossingOutline,0
;   maxMovementDetourFactor,3
;   toolChangeRetractionDistance,12
;   toolChangeExtraRestartDistance,-0.5
;   toolChangeRetractionSpeed,600
;   externalThinWallType,0
;   internalThinWallType,2
;   thinWallAllowedOverlapPercentage,10
;   singleExtrusionMinLength,1
;   singleExtrusionMinPrintingWidthPercentage,50
;   singleExtrusionMaxPrintingWidthPercentage,200
;   singleExtrusionEndpointExtension,0.2
;   horizontalSizeCompensation,0
G90
M83
; **** Replicator 1 dual start.gcode ****
M73 P0 ; enable build progress
G162 X Y F3000 ; home XY maximum
G161 Z F1200 ; home Z minimum
G92 Z-5 ; set Z to -5
G1 Z0 ; move Z to 0
G161 Z F100 ; home Z slowly
M132 X Y Z A B ; recall home offsets
M135 T0 ; load right extruder offsets
G1 X-110 Y-70 Z30 F9000 ; move to wait position left hand side of the table
G130 X20 Y20 Z20 A20 B20 ; lower stepper Vrefs while heating
M127
M140 S60 T0
M134 T0 ; stabilize bed temperature
M104 S210 T1
M133 T1 ; stabilize left extruder temperature
G130 X127 Y127 Z40 A127 B127 ; default stepper Vrefs
G92 A0 B0 ; zero extruders
G1 Z0.4 ; position nozzle
M135 T1 ; left tool
G1 X-140 Y-70 F9000 ; reposition nozzle
G1 X-100 Y-70 E25 F300 ; purge nozzle
G1 X-110 Y-70 Z0.15 F1200 ; slow wipe
G1 X-100 Y-70 Z0.5 F1200 ; lift
G92 A0 B0 ; zero extruders
M73 P1 ;@body (notify GPX body has started)
; **** end of start.gcode ****
; process Normal Quick
; layer 1, Z = 0.180
M135 T1
G1 E-1.5000 F1200
; feature skirt
; tool H0.180 W0.400
G1 Z0.180 F1200
G1 X36.200 Y-32.568 F4200
G1 E1.5000 F1200
G1 X36.200 Y32.568 E1.7548 F2160
G1 X32.568 Y36.200 E0.1384
G1 X-32.568 Y36.200 E1.7548
G1 X-36.200 Y32.568 E0.1384
G1 X-36.200 Y-32.568 E1.7548
G1 X-32.568 Y-36.200 E0.1384
G1 X32.568 Y-36.200 E1.7548
G1 X36.200 Y-32.568 E0.1384
G1 E-1.5000 F1200
G1 X35.800 Y-32.402 F4200
G1 E1.5000 F1200
G1 X35.800 Y32.402 E1.7459 F2160
G1 X32.402 Y35.800 E0.1294
G1 X-32.402 Y35.800 E1.7459
G1 X-35.800 Y32.402 E0.1294
G1 X-35.800 Y-32.402 E1.7459
G1 X-32.402 Y-35.800 E0.1294
G1 X32.402 Y-35.800 E1.7459
G1 X35.800 Y-32.402 E0.1294
G1 E-1.5000 F1200
G1 X35.400 Y-32.237 F4200
G1 E1.5000 F1200
G1 X35.400 Y32.237 E1.7370 F2160
G1 X32.237 Y35.400 E0.1205
G1 X-32.237 Y35.400 E1.7370
G1 X-35.400 Y32.237 E0.1205
G1 X-35.400 Y-32.237 E1.7370
G1 X-32.237 Y-35.400 E0.1205
G1 X32.237 Y-35.400 E1.7370
G1 X35.400 Y-32.237 E0.1205
G1 E-1.5000 F1200
G1 X35.000 Y-32.071 F4200
G1 E1.5000 F1200
G1 X35.000 Y32.071 E1.7280 F2160
G1 X32.071 Y35.000 E0.1116
G1 X-32.071 Y35.000 E1.7280
G1 X-35.000 Y32.071 E0.1116
G1 X-35.000 Y-32.071 E1.7280
G1 X-32.071 Y-35.000 E0.1116
G1 X32.071 Y-35.000 E1.7280
G1 X35.000 Y-32.071 E0.1116
G1 E-1.5000 F1200
G1 X34.600 Y-31.905 F4200
G1 E1.5000 F1200
G1 X34.600 Y31.905 E1.7191 F2160
G1 X31.905 Y34.600 E0.1027
G1 X-31.905 Y34.600 E1.7191
G1 X-34.600 Y31.905 E0.1027
G1 X-34.600 Y-31.905 E1.7191
G1 X-31.905 Y-34.600 E0.1027
G1 X31.905 Y-34.600 E1.7191
G1 X34.600 Y-31.905 E0.1027
G1 E-1.5000 F1200
G1 X34.200 Y-31.740 F4200
G1 E1.5000 F1200
G1 X34.200 Y31.740 E1.7102 F2160
G1 X31.740 Y34.200 E0.0937
G1 X-31.740 Y34.200 E1.7102
G1 X-34.200 Y31.740 E0.0937
G1 X-34.200 Y-31.740 E1.7102
G1 X-31.740 Y-34.200 E0.0937
G1 X31.740 Y-34.200 E1.7102
G1 X34.200 Y-31.740 E0.0937
G1 E-1.5000 F1200
; feature inner perimeter
G1 X29.400 Y-29.400 F4200
G1 E1.5000 F1200
G1 X29.400 Y29.400 E1.5841 F1620
G1 X-29.400 Y29.400 E1.5841
G1 X-29.400 Y-29.400 E1.5841
G1 X29.400 Y-29.400 E1.5841
; feature outer perimeter
G1 X29.800 Y-29.800 F4200
G1 X29.800 Y29.800 E1.6057 F1080
G1 X-29.800 Y29.800 E1.6057
G1 X-29.800 Y-29.800 E1.6057
G1 X29.800 Y-29.800 E1.6057
; feature solid layer
G1 X28.620 Y-29.080 F4200
G1 X29.080 Y-28.620 E0.0175 F1728
G1 X29.080 Y-28.054 E0.0152
G1 X28.054 Y-29.080 E0.0391
G1 X27.489 Y-29.080 E0.0152
G1 X29.080 Y-27.489 E0.0606
G1 X29.080 Y-26.923 E0.0152
G1 X26.923 Y-29.080 E0.0822
G1 X26.357 Y-29.080 E0.0152
G1 X29.080 Y-26.357 E0.1037
G1 X29.080 Y-25.791 E0.0152
G1 X25.792 Y-29.080 E0.1253
G1 X25.226 Y-29.080 E0.0152
G1 X29.080 Y-25.226 E0.1468
G1 X29.080 Y-24.660 E0.0152
G1 X24.660 Y-29.080 E0.1684
G1 X24.094 Y-29.080 E0.0152
G1 X29.080 Y-24.094 E0.1899
G1 X29.080 Y-23.529 E0.0152
G1 X23.529 Y-29.080 E0.2115
G1 X22.963 Y-29.080 E0.0152
G1 X29.080 Y-22.963 E0.2331
G1 X29.080 Y-22.397 E0.0152
G1 X22.397 Y-29.080 E0.2546
G1 X21.832 Y-29.080 E0.0152
G1 X29.080 Y-21.832 E0.2762
G1 X29.080 Y-21.266 E0.0152
G1 X21.266 Y-29.080 E0.2977
G1 X20.700 Y-29.080 E0.0152
G1 X29.080 Y-20.700 E0.3193
G1 X29.080 Y-20.135 E0.0152
G1 X20.135 Y-29.080 E0.3408
G1 X19.569 Y-29.080 E0.0152
G1 X29.080 Y-19.569 E0.3624
G1 X29.080 Y-19.003 E0.0152
G1 X19.003 Y-29.080 E0.3839
G1 X18.438 Y-29.080 E0.0152
G1 X29.080 Y-18.438 E0.4055
G1 X29.080 Y-17.872 E0.0152
G1 X17.872 Y-29.080 E0.4270
G1 X17.306 Y-29.080 E0.0152
G1 X29.080 Y-17.306 E0.4486
G1 X29.080 Y-16.741 E0.0152
G1 X16.741 Y-29.080 E0.4701
G1 X16.175 Y-29.080 E0.0152
G1 X29.080 Y-16.175 E0.4917
G1 X29.080 Y-15.609 E0.0152
G1 X15.609 Y-29.080 E0.5132
G1 X15.043 Y-29.080 E0.0152
G1 X29.080 Y-15.043 E0.5348
G1 X29.080 Y-14.478 E0.0152
G1 X14.478 Y-29.080 E0.5563
G1 X13.912 Y-29.080 E0.0152
G1 X29.080 Y-13.912 E0.5779
G1 X29.080 Y-13.346 E0.0152
G1 X13.346 Y-29.080 E0.5994
G1 X12.781 Y-29.080 E0.0152
G1 X29.080 Y-12.781 E0.6210
G1 X29.080 Y-12.215 E0.0152
G1 X12.215 Y-29.080 E0.6426
G1 X11.649 Y-29.080 E0.0152
G1 X29.080 Y-11.649 E0.6641
G1 X29.080 Y-11.084 E0.0152
G1 X11.084 Y-29.080 E0.6857
G1 X10.518 Y-29.080 E0.0152
G1 X29.080 Y-10.518 E0.7072
G1 X29.080 Y-9.952 E0.0152
G1 X9.952 Y-29.080 E0.7288
G1 X9.387 Y-29.080 E0.0152
G1 X29.080 Y-9.387 E0.7503
G1 X29.080 Y-8.821 E0.0152
G1 X8.821 Y-29.080 E0.7719
G1 X8.255 Y-29.080 E0.0152
G1 X29.080 Y-8.255 E0.7934
G1 X29.080 Y-7.690 E0.0152
G1 X7.690 Y-29.080 E0.8150
G1 X7.124 Y-29.080 E0.0152
G1 X29.080 Y-7.124 E0.8365
G1 X29.080 Y-6.558 E0.0152
G1 X6.558 Y-29.080 E0.8581
G1 X5.993 Y-29.080 E0.0152
G1 X29.080 Y-5.993 E0.8796
G1 X29.080 Y-5.427 E0.0152
G1 X5.427 Y-29.080 E0.9012
G1 X4.861 Y-29.080 E0.0152
G1 X29.080 Y-4.861 E0.9227
G1 X29.080 Y-4.295 E0.0152
G1 X4.295 Y-29.080 E0.9443
G1 X3.730 Y-29.080 E0.0152
G1 X29.080 Y-3.730 E0.9658
G1 X29.080 Y-3.164 E0.0152
G1 X3.164 Y-29.080 E0.9874
G1 X2.598 Y-29.080 E0.0152
G1 X29.080 Y-2.598 E1.0089
G1 X29.080 Y-2.033 E0.0152
G1 X2.033 Y-29.080 E1.0305
G1 X1.467 Y-29.080 E0.0152
G1 X29.080 Y-1.467 E1.0521
G1 X29.080 Y-0.901 E0.0152
G1 X0.901 Y-29.080 E1.0736
G1 X0.336 Y-29.080 E0.0152
G1 X29.080 Y-0.336 E1.0952
G1 X29.080 Y0.230 E0.0152
G1 X-0.230 Y-29.080 E1.1167
G1 X-0.796 Y-29.080 E0.0152
G1 X29.080 Y0.796 E1.1383
G1 X29.080 Y1.361 E0.0152
G1 X-1.361 Y-29.080 E1.1598
G1 X-1.927 Y-29.080 E0.0152
G1 X29.080 Y1.927 E1.1814
G1 X29.080 Y2.493 E0.0152
G1 X-2.493 Y-29.080 E1.2029
G1 X-3.058 Y-29.080 E0.0152
G1 X29.080 Y3.058 E1.2245
G1 X29.080 Y3.624 E0.0152
G1 X-3.624 Y-29.080 E1.2460
G1 X-4.190 Y-29.080 E0.0152
G1 X29.080 Y4.190 E1.2676
G1 X29.080 Y4.756 E0.0152
G1 X-4.756 Y-29.080 E1.2891
G1 X-5.321 Y-29.080 E0.0152
G1 X29.080 Y5.321 E1.3107
G1 X29.080 Y5.887 E0.0152
G1 X-5.887 Y-29.080 E1.3322
G1 X-6.453 Y-29.080 E0.0152
G1 X29.080 Y6.453 E1.3538
G1 X29.080 Y7.018 E0.0152
G1 X-7.018 Y-29.080 E1.3753
G1 X-7.584 Y-29.080 E0.0152
G1 X29.080 Y7.584 E1.3969
G1 X29.080 Y8.150 E0.0152
G1 X-8.150 Y-29.080 E1.4184
G1 X-8.715 Y-29.080 E0.0152
G1 X29.080 Y8.715 E1.4400
G1 X29.080 Y9.281 E0.0152
G1 X-9.281 Y-29.080 E1.4616
G1 X-9.847 Y-29.080 E0.0152
G1 X29.080 Y9.847 E1.4831
G1 X29.080 Y10.412 E0.0152
G1 X-10.412 Y-29.080 E1.5047
G1 X-10.978 Y-29.080 E0.0152
G1 X29.080 Y10.978 E1.5262
G1 X29.080 Y11.544 E0.0152
G1 X-11.544 Y-29.080 E1.5478
G1 X-12.109 Y-29.080 E0.0152
G1 X29.080 Y12.109 E1.5693
G1 X29.080 Y12.675 E0.0152
G1 X-12.675 Y-29.080 E1.5909
G1 X-13.241 Y-29.080 E0.0152
G1 X29.080 Y13.241 E1.6124
G1 X29.080 Y13.806 E0.0152
G1 X-13.806 Y-29.080 E1.6340
G1 X-14.372 Y-29.080 E0.0152
G1 X29.080 Y14.372 E1.6555
G1 X29.080 Y14.938 E0.0152
G1 X-14.938 Y-29.080 E1.6771
G1 X-15.504 Y-29.080 E0.0152
G1 X29.080 Y15.504 E1.6986
G1 X29.080 Y16.069 E0.0152
G1 X-16.069 Y-29.080 E1.7202
G1 X-16.635 Y-29.080 E0.0152
G1 X29.080 Y16.635 E1.7417
G1 X29.080 Y17.201 E0.0152
G1 X-17.201 Y-29.080 E1.7633
G1 X-17.766 Y-29.080 E0.0152
G1 X29.080 Y17.766 E1.7848
G1 X29.080 Y18.332 E0.0152
G1 X-18.332 Y-29.080 E1.8064
G1 X-18.898 Y-29.080 E0.0152
G1 X29.080 Y18.898 E1.8279
G1 X29.080 Y19.463 E0.0152
G1 X-19.463 Y-29.080 E1.8495
G1 X-20.029 Y-29.080 E0.0152
G1 X29.080 Y20.029 E1.8710
G1 X29.080 Y20.595 E0.0152
G1 X-20.595 Y-29.080 E1.8926
G1 X-21.160 Y-29.080 E0.0152
G1 X29.080 Y21.160 E1.9142
G1 X29.080 Y21.726 E0.0152
G1 X-21.726 Y-29.080 E1.9357
G1 X-22.292 Y-29.080 E0.0152
G1 X29.080 Y22.292 E1.9573
G1 X29.080 Y22.857 E0.0152
G1 X-22.857 Y-29.080 E1.9788
G1 X-23.423 Y-29.080 E0.0152
G1 X29.080 Y23.423 E2.0004
G1 X29.080 Y23.989 E0.0152
G1 X-23.989 Y-29.080 E2.0219
G1 X-24.554 Y-29.080 E0.0152
G1 X29.080 Y24.555 E2.0435
G1 X29.080 Y25.120 E0.0152
G1 X-25.120 Y-29.080 E2.0650
G1 X-25.686 Y-29.080 E0.0152
G1 X29.080 Y25.686 E2.0866
G1 X29.080 Y26.252 E0.0152
G1 X-26.252 Y-29.080 E2.1081
G1 X-26.817 Y-29.080 E0.0152
G1 X29.080 Y26.817 E2.1297
G1 X29.080 Y27.383 E0.0152
G1 X-27.383 Y-29.080 E2.1512
G1 X-27.949 Y-29.080 E0.0152
G1 X29.080 Y27.949 E2.1728
G1 X29.080 Y28.514 E0.0152
G1 X-28.514 Y-29.080 E2.1943
G1 X-29.080 Y-29.080 E0.0152
G1 X29.080 Y29.080 E2.2159
G1 X28.514 Y29.080 E0.0152
G1 X-29.080 Y-28.514 E2.1943
G1 X-29.080 Y-27.949 E0.0152
G1 X27.949 Y29.080 E2.1728
G1 X27.383 Y29.080 E0.0152
G1 X-29.080 Y-27.383 E2.1512
G1 X-29.080 Y-26.817 E0.0152
G1 X26.817 Y29.080 E2.1297
G1 X26.252 Y29.080 E0.0152
G1 X-29.080 Y-26.252 E2.1081
G1 X-29.080 Y-25.686 E0.0152
G1 X25.686 Y29.080 E2.0866
G1 X25.120 Y29.080 E0.0152
