; G-Code generated by Simplify3D(R) Version 4.1.2
; Mar 29, 2021 at 1:44:09 PM
; Settings Summary
;   processName,Normal Quick
;   applyToModels,Riverfolk_Top
;   profileName,FlashForge Creator Pro (modified)
;   profileVersion,2020-10-11 13:46:27
;   baseProfile,
;   printMaterial,PLA
;   printQuality,Medium
;   printExtruders,Right Extruder Only
;   extruderName,Right Extruder,Left Extruder
;   extruderToolheadNumber,0,1
;   extruderDiameter,0.4,0.4
;   extruderAutoWidth,0,0
;   extruderWidth,0.4,0.4
;   extrusionMultiplier,0.9,0.9
;   extruderUseRetract,1,1
;   extruderRetractionDistance,1.5,1.5
;   extruderExtraRestartDistance,0,0
;   extruderRetractionZLift,0,0
;   extruderRetractionSpeed,1200,1200
;   extruderUseCoasting,0,0
;   extruderCoastingDistance,0.2,0.2
;   extruderUseWipe,0,0
;   extruderWipeDistance,5,5
;   primaryExtruder,0
;   layerHeight,0.2
;   topSolidLayers,6
;   bottomSolidLayers,3
;   perimeterOutlines,2
;   printPerimetersInsideOut,1
;   startPointOption,2
;   startPointOriginX,0
;   startPointOriginY,0
;   sequentialIslands,0
;   spiralVaseMode,0
;   firstLayerHeightPercentage,90
;   firstLayerWidthPercentage,100
;   firstLayerUnderspeed,0.4
;   useRaft,0
;   raftExtruder,0
;   raftTopLayers,3
;   raftBaseLayers,2
;   raftOffset,3
;   raftSeparationDistance,0.14
;   raftTopInfill,100
;   aboveRaftSpeedMultiplier,0.3
;   useSkirt,1
;   skirtExtruder,0
;   skirtLayers,1
;   skirtOutlines,3
;   skirtOffset,4
;   usePrimePillar,0
;   primePillarExtruder,999
;   primePillarWidth,2
;   primePillarLocation,7
;   primePillarSpeedMultiplier,1
;   useOozeShield,0
;   oozeShieldExtruder,999
;   oozeShieldOffset,2
;   oozeShieldOutlines,1
;   oozeShieldSidewallShape,1
;   oozeShieldSidewallAngle,30
;   oozeShieldSpeedMultiplier,1
;   infillExtruder,0
;   internalInfillPattern,Rectilinear
;   externalInfillPattern,Rectilinear
;   infillPercentage,20
;   outlineOverlapPercentage,20
;   infillExtrusionWidthPercentage,100
;   minInfillLength,5
;   infillLayerInterval,1
;   internalInfillAngles,45,-45
;   overlapInternalInfillAngles,0
;   externalInfillAngles,45,-45
;   generateSupport,1
;   supportExtruder,0
;   supportInfillPercentage,30
;   supportExtraInflation,0
;   supportBaseLayers,0
;   denseSupportExtruder,0
;   denseSupportLayers,0
;   denseSupportInfillPercentage,70
;   supportLayerInterval,1
;   supportHorizontalPartOffset,0.3
;   supportUpperSeparationLayers,1
;   supportLowerSeparationLayers,1
;   supportType,0
;   supportGridSpacing,1.5
;   maxOverhangAngle,45
;   supportAngles,0
;   temperatureName,Right Extruder,Left Extruder,Heated Build Platform
;   temperatureNumber,0,1,0
;   temperatureSetpointCount,1,1,1
;   temperatureSetpointLayers,1,1,1
;   temperatureSetpointTemperatures,210,0,60
;   temperatureStabilizeAtStartup,0,0,0
;   temperatureHeatedBed,0,0,1
;   fanLayers,1,2
;   fanSpeeds,0,100
;   blipFanToFullPower,0
;   adjustSpeedForCooling,1
;   minSpeedLayerTime,15
;   minCoolingSpeedSlowdown,20
;   increaseFanForCooling,0
;   minFanLayerTime,45
;   maxCoolingFanSpeed,100
;   increaseFanForBridging,1
;   bridgingFanSpeed,100
;   use5D,1
;   relativeEdistances,1
;   allowEaxisZeroing,0
;   independentExtruderAxes,1
;   includeM10123,0
;   stickySupport,1
;   applyToolheadOffsets,0
;   gcodeXoffset,0
;   gcodeYoffset,0
;   gcodeZoffset,0
;   overrideMachineDefinition,1
;   machineTypeOverride,0
;   strokeXoverride,225
;   strokeYoverride,145
;   strokeZoverride,150
;   originOffsetXoverride,112.5
;   originOffsetYoverride,72.5
;   originOffsetZoverride,0
;   homeXdirOverride,1
;   homeYdirOverride,1
;   homeZdirOverride,-1
;   flipXoverride,1
;   flipYoverride,-1
;   flipZoverride,1
;   toolheadOffsets,0,0|34,0|0,0|0,0|0,0|0,0
;   overrideFirmwareConfiguration,1
;   firmwareTypeOverride,MakerBot/Sailfish Firmware
;   GPXconfigOverride,r1d
;   baudRateOverride,115200
;   overridePrinterModels,1
;   printerModelsOverride,FlashForge_CreatorPro.stl
;   startingGcode,; **** Replicator 1 dual start.gcode ****,M73 P0 ; enable build progress,G162 X Y F3000 ; home XY maximum,G161 Z F1200 ; home Z minimum,G92 Z-5 ; set Z to -5,G1 Z0 ; move Z to 0,G161 Z F100 ; home Z slowly,M132 X Y Z A B ; recall home offsets,M135 T0 ; load right extruder offsets,G1 X150 Y-70 Z30 F9000 ; move to wait position right hand side of the table,G130 X20 Y20 Z20 A20 B20 ; lower stepper Vrefs while heating,M126 S[fan_speed_pwm],M140 S[bed0_temperature] T0,M134 T0 ; stabilize bed temperature,M104 S[extruder0_temperature] T0,M133 T0 ; stabilize right extruder temperature,G130 X127 Y127 Z40 A127 B127 ; default stepper Vrefs,G92 A0 B0 ; zero extruders,G1 Z0.4 ; position nozzle,G1 X110 Y-70 E25 F300 ; purge nozzle,G1 X120 Y-70 Z0.15 F1200 ; slow wipe,G1 X110 Y-70 Z0.5 F1200 ; lift,G92 A0 B0 ; zero extruders,M73 P1 ;@body (notify GPX body has started),; **** end of start.gcode ****
;   layerChangeGcode,
;   retractionGcode,
;   toolChangeGcode,
;   endingGcode,; **** Replicator 1 dual end.gcode ****,M73 P100 ; end build progress,G1 Z150 F1000 ; send Z axis to bottom of machine,M140 S0 T0 ; cool down HBP,M104 S0 T0 ; cool down right extruder,M104 S0 T1 ; cool down left extruder,M127 ; stop blower fan,G162 X Y F3000 ; home XY maximum,M18 ; disable stepper,M72 P1 ; play Ta-Da song,; **** end of end.gcode ****
;   exportFileFormat,x3g
;   celebration,0
;   celebrationSong,Random Song
;   postProcessing,
;   defaultSpeed,5400
;   outlineUnderspeed,0.5
;   solidInfillUnderspeed,0.8
;   supportUnderspeed,0.8
;   rapidXYspeed,4200
;   rapidZspeed,1200
;   minBridgingArea,50
;   bridgingExtraInflation,0
;   bridgingExtrusionMultiplier,1
;   bridgingSpeedMultiplier,0.8
;   useFixedBridgingAngle,0
;   fixedBridgingAngle,0
;   applyBridgingToPerimeters,0
;   filamentDiameters,1.75|1.75|1.75|1.75|1.75|1.75
;   filamentPricesPerKg,46|46|46|46|46|46
;   filamentDensities,1.25|1.25|1.25|1.25|1.25|1.25
;   useMinPrintHeight,0
;   minPrintHeight,0
;   useMaxPrintHeight,0
;   maxPrintHeight,0
;   useDiaphragm,0
;   diaphragmLayerInterval,20
;   robustSlicing,1
;   mergeAllIntoSolid,0
;   onlyRetractWhenCrossingOutline,1
;   retractBetweenLayers,1
;   useRetractionMinTravel,0
;   retractionMinTravel,3
;   retractWhileWiping,0
;   onlyWipeOutlines,1
;   avoidCrossingOutline,0
;   maxMovementDetourFactor,3
;   toolChangeRetractionDistance,12
;   toolChangeExtraRestartDistance,-0.5
;   toolChangeRetractionSpeed,600
;   externalThinWallType,0
;   internalThinWallType,2
;   thinWallAllowedOverlapPercentage,10
;   singleExtrusionMinLength,1
;   singleExtrusionMinPrintingWidthPercentage,50
;   singleExtrusionMaxPrintingWidthPercentage,200
;   singleExtrusionEndpointExtension,0.2
;   horizontalSizeCompensation,0
G90
M83
; **** Replicator 1 dual start.gcode ****
M73 P0 ; enable build progress
G162 X Y F3000 ; home XY maximum
G161 Z F1200 ; home Z minimum
G92 Z-5 ; set Z to -5
G1 Z0 ; move Z to 0
G161 Z F100 ; home Z slowly
M132 X Y Z A B ; recall home offsets
M135 T0 ; load right extruder offsets
G1 X150 Y-70 Z30 F9000 ; move to wait position right hand side of the table
G130 X20 Y20 Z20 A20 B20 ; lower stepper Vrefs while heating
M127
M140 S60 T0
M134 T0 ; stabilize bed temperature
M104 S210 T0
M133 T0 ; stabilize right extruder temperature
G130 X127 Y127 Z40 A127 B127 ; default stepper Vrefs
G92 A0 B0 ; zero extruders
G1 Z0.4 ; position nozzle
G1 X110 Y-70 E25 F300 ; purge nozzle
G1 X120 Y-70 Z0.15 F1200 ; slow wipe
G1 X110 Y-70 Z0.5 F1200 ; lift
G92 A0 B0 ; zero extruders
M73 P1 ;@body (notify GPX body has started)
; **** end of start.gcode ****
; process Normal Quick
; layer 1, Z = 0.180
M135 T0
G1 E-1.5000 F1200
; feature skirt
; tool H0.180 W0.400
G1 Z0.180 F1200
G1 X25.890 Y32.750 F4200
G1 E1.5000 F1200
G1 X-25.890 Y32.750 E1.3950 F2160
G1 X-26.169 Y32.734 E0.0075
G1 X-27.028 Y32.638 E0.0233
G1 X-27.572 Y32.514 E0.0151
G1 X-28.526 Y32.182 E0.0272
G1 X-29.036 Y31.937 E0.0152
G1 X-29.899 Y31.395 E0.0275
G1 X-30.341 Y31.042 E0.0152
G1 X-31.053 Y30.327 E0.0272
G1 X-31.401 Y29.891 E0.0150
G1 X-31.933 Y29.043 E0.0270
G1 X-32.177 Y28.537 E0.0151
G1 X-32.513 Y27.578 E0.0274
G1 X-32.638 Y27.029 E0.0152
G1 X-32.734 Y26.169 E0.0233
G1 X-32.750 Y25.890 E0.0075
G1 X-32.750 Y-25.890 E1.3950
G1 X-32.734 Y-26.169 E0.0075
G1 X-32.638 Y-27.027 E0.0233
G1 X-32.514 Y-27.572 E0.0151
G1 X-32.183 Y-28.524 E0.0272
G1 X-31.940 Y-29.030 E0.0151
G1 X-31.404 Y-29.886 E0.0272
G1 X-31.055 Y-30.326 E0.0151
G1 X-30.341 Y-31.042 E0.0272
G1 X-29.899 Y-31.395 E0.0152
G1 X-29.036 Y-31.937 E0.0275
G1 X-28.526 Y-32.182 E0.0152
G1 X-27.572 Y-32.514 E0.0272
G1 X-27.028 Y-32.638 E0.0151
G1 X-26.169 Y-32.734 E0.0233
G1 X-25.890 Y-32.750 E0.0075
G1 X25.890 Y-32.750 E1.3950
G1 X26.169 Y-32.734 E0.0075
G1 X27.028 Y-32.638 E0.0233
G1 X27.572 Y-32.514 E0.0151
G1 X28.524 Y-32.183 E0.0272
G1 X29.030 Y-31.940 E0.0151
G1 X29.886 Y-31.404 E0.0272
G1 X30.326 Y-31.055 E0.0151
G1 X31.042 Y-30.341 E0.0272
G1 X31.395 Y-29.899 E0.0152
G1 X31.937 Y-29.036 E0.0275
G1 X32.182 Y-28.526 E0.0152
G1 X32.514 Y-27.572 E0.0272
G1 X32.638 Y-27.027 E0.0151
G1 X32.734 Y-26.169 E0.0233
G1 X32.750 Y-25.890 E0.0075
G1 X32.750 Y25.890 E1.3950
G1 X32.734 Y26.169 E0.0075
G1 X32.638 Y27.027 E0.0233
G1 X32.514 Y27.572 E0.0151
G1 X32.183 Y28.524 E0.0272
G1 X31.940 Y29.030 E0.0151
G1 X31.404 Y29.886 E0.0272
G1 X31.055 Y30.326 E0.0151
G1 X30.341 Y31.042 E0.0272
G1 X29.899 Y31.395 E0.0152
G1 X29.036 Y31.937 E0.0275
G1 X28.526 Y32.182 E0.0152
G1 X27.572 Y32.514 E0.0272
G1 X27.028 Y32.638 E0.0151
G1 X26.169 Y32.734 E0.0233
G1 X25.890 Y32.750 E0.0075
G1 E-1.5000 F1200
G1 X25.879 Y32.350 F4200
G1 E1.5000 F1200
G1 X-25.879 Y32.350 E1.3944 F2160
G1 X-26.135 Y32.336 E0.0069
G1 X-26.961 Y32.243 E0.0224
G1 X-27.462 Y32.129 E0.0138
G1 X-28.373 Y31.812 E0.0260
G1 X-28.842 Y31.586 E0.0140
G1 X-29.667 Y31.068 E0.0262
G1 X-30.073 Y30.743 E0.0140
G1 X-30.754 Y30.060 E0.0260
G1 X-31.074 Y29.659 E0.0138
G1 X-31.583 Y28.849 E0.0258
G1 X-31.807 Y28.384 E0.0139
G1 X-32.128 Y27.467 E0.0262
G1 X-32.243 Y26.962 E0.0139
G1 X-32.336 Y26.135 E0.0224
G1 X-32.350 Y25.879 E0.0069
G1 X-32.350 Y-25.879 E1.3944
G1 X-32.336 Y-26.135 E0.0069
G1 X-32.243 Y-26.961 E0.0224
G1 X-32.129 Y-27.462 E0.0138
G1 X-31.812 Y-28.371 E0.0259
G1 X-31.589 Y-28.837 E0.0139
G1 X-31.077 Y-29.655 E0.0260
G1 X-30.756 Y-30.059 E0.0139
G1 X-30.073 Y-30.743 E0.0260
G1 X-29.667 Y-31.068 E0.0140
G1 X-28.842 Y-31.586 E0.0262
G1 X-28.373 Y-31.812 E0.0140
G1 X-27.462 Y-32.129 E0.0260
G1 X-26.961 Y-32.243 E0.0138
G1 X-26.135 Y-32.336 E0.0224
G1 X-25.879 Y-32.350 E0.0069
G1 X25.879 Y-32.350 E1.3944
G1 X26.135 Y-32.336 E0.0069
G1 X26.961 Y-32.243 E0.0224
G1 X27.462 Y-32.129 E0.0138
G1 X28.371 Y-31.812 E0.0259
G1 X28.837 Y-31.589 E0.0139
G1 X29.655 Y-31.077 E0.0260
G1 X30.059 Y-30.756 E0.0139
G1 X30.743 Y-30.073 E0.0260
G1 X31.068 Y-29.667 E0.0140
G1 X31.586 Y-28.842 E0.0262
G1 X31.812 Y-28.373 E0.0140
G1 X32.129 Y-27.462 E0.0260
G1 X32.243 Y-26.961 E0.0138
G1 X32.336 Y-26.135 E0.0224
G1 X32.350 Y-25.879 E0.0069
G1 X32.350 Y25.879 E1.3944
G1 X32.336 Y26.135 E0.0069
G1 X32.243 Y26.961 E0.0224
G1 X32.129 Y27.462 E0.0138
G1 X31.812 Y28.371 E0.0259
G1 X31.589 Y28.837 E0.0139
G1 X31.077 Y29.655 E0.0260
G1 X30.756 Y30.059 E0.0139
G1 X30.073 Y30.743 E0.0260
G1 X29.667 Y31.068 E0.0140
G1 X28.842 Y31.586 E0.0262
G1 X28.373 Y31.812 E0.0140
G1 X27.462 Y32.129 E0.0260
G1 X26.961 Y32.243 E0.0138
G1 X26.135 Y32.336 E0.0224
G1 X25.879 Y32.350 E0.0069
G1 E-1.5000 F1200
G1 X25.867 Y31.950 F4200
G1 E1.5000 F1200
G1 X-25.867 Y31.950 E1.3938 F2160
G1 X-26.102 Y31.937 E0.0063
G1 X-26.894 Y31.848 E0.0215
G1 X-27.351 Y31.744 E0.0126
G1 X-28.220 Y31.441 E0.0248
G1 X-28.648 Y31.236 E0.0128
G1 X-29.435 Y30.741 E0.0250
G1 X-29.806 Y30.445 E0.0128
G1 X-30.455 Y29.794 E0.0248
G1 X-30.747 Y29.427 E0.0126
G1 X-31.232 Y28.655 E0.0246
G1 X-31.437 Y28.230 E0.0127
G1 X-31.743 Y27.356 E0.0249
G1 X-31.848 Y26.895 E0.0127
G1 X-31.937 Y26.102 E0.0215
G1 X-31.950 Y25.867 E0.0063
G1 X-31.950 Y-25.867 E1.3938
G1 X-31.937 Y-26.102 E0.0063
G1 X-31.848 Y-26.894 E0.0215
G1 X-31.744 Y-27.351 E0.0126
G1 X-31.442 Y-28.219 E0.0247
G1 X-31.238 Y-28.644 E0.0127
G1 X-30.750 Y-29.423 E0.0248
G1 X-30.456 Y-29.793 E0.0127
G1 X-29.806 Y-30.445 E0.0248
G1 X-29.435 Y-30.741 E0.0128
G1 X-28.648 Y-31.236 E0.0250
G1 X-28.220 Y-31.441 E0.0128
G1 X-27.351 Y-31.744 E0.0248
G1 X-26.894 Y-31.848 E0.0126
G1 X-26.102 Y-31.937 E0.0215
G1 X-25.867 Y-31.950 E0.0063
G1 X25.867 Y-31.950 E1.3938
G1 X26.102 Y-31.937 E0.0063
G1 X26.894 Y-31.848 E0.0215
G1 X27.351 Y-31.744 E0.0126
G1 X28.219 Y-31.442 E0.0247
G1 X28.644 Y-31.238 E0.0127
G1 X29.423 Y-30.750 E0.0248
G1 X29.793 Y-30.456 E0.0127
G1 X30.445 Y-29.806 E0.0248
G1 X30.741 Y-29.435 E0.0128
G1 X31.236 Y-28.648 E0.0250
G1 X31.441 Y-28.220 E0.0128
G1 X31.744 Y-27.351 E0.0248
G1 X31.848 Y-26.894 E0.0126
G1 X31.937 Y-26.102 E0.0215
G1 X31.950 Y-25.867 E0.0063
G1 X31.950 Y25.867 E1.3938
G1 X31.937 Y26.102 E0.0063
G1 X31.848 Y26.894 E0.0215
G1 X31.744 Y27.351 E0.0126
G1 X31.442 Y28.219 E0.0247
G1 X31.238 Y28.644 E0.0127
G1 X30.750 Y29.423 E0.0248
G1 X30.456 Y29.793 E0.0127
G1 X29.806 Y30.445 E0.0248
G1 X29.435 Y30.741 E0.0128
G1 X28.648 Y31.236 E0.0250
G1 X28.220 Y31.441 E0.0128
G1 X27.351 Y31.744 E0.0248
G1 X26.894 Y31.848 E0.0126
G1 X26.102 Y31.937 E0.0215
G1 X25.867 Y31.950 E0.0063
G1 E-1.5000 F1200
; feature inner perimeter
G1 X25.716 Y27.150 F4200
G1 E1.5000 F1200
G1 X-25.716 Y27.150 E1.3856 F1620
G1 X-26.058 Y27.112 E0.0093
G1 X-26.353 Y27.009 E0.0084
G1 X-26.622 Y26.840 E0.0086
G1 X-26.843 Y26.618 E0.0084
G1 X-27.006 Y26.358 E0.0083
G1 X-27.112 Y26.058 E0.0086
G1 X-27.150 Y25.716 E0.0093
G1 X-27.150 Y-25.716 E1.3856
G1 X-27.112 Y-26.058 E0.0093
G1 X-27.009 Y-26.354 E0.0084
G1 X-26.843 Y-26.619 E0.0084
G1 X-26.622 Y-26.840 E0.0084
G1 X-26.353 Y-27.009 E0.0086
G1 X-26.058 Y-27.112 E0.0084
G1 X-25.716 Y-27.150 E0.0093
G1 X25.716 Y-27.150 E1.3856
G1 X26.058 Y-27.112 E0.0093
G1 X26.354 Y-27.009 E0.0084
G1 X26.619 Y-26.843 E0.0084
G1 X26.840 Y-26.622 E0.0084
G1 X27.009 Y-26.353 E0.0086
G1 X27.112 Y-26.058 E0.0084
G1 X27.150 Y-25.716 E0.0093
G1 X27.150 Y25.716 E1.3856
G1 X27.112 Y26.058 E0.0093
G1 X27.009 Y26.354 E0.0084
G1 X26.843 Y26.619 E0.0084
G1 X26.622 Y26.840 E0.0084
G1 X26.353 Y27.009 E0.0086
G1 X26.058 Y27.112 E0.0084
G1 X25.716 Y27.150 E0.0093
; feature outer perimeter
G1 X25.739 Y27.550 F4200
G1 X-25.739 Y27.550 E1.3868 F1080
G1 X-26.147 Y27.504 E0.0111
G1 X-26.528 Y27.372 E0.0108
G1 X-26.874 Y27.154 E0.0110
G1 X-27.158 Y26.869 E0.0108
G1 X-27.369 Y26.533 E0.0107
G1 X-27.504 Y26.147 E0.0110
G1 X-27.550 Y25.739 E0.0111
G1 X-27.550 Y-25.739 E1.3868
G1 X-27.504 Y-26.147 E0.0111
G1 X-27.372 Y-26.528 E0.0109
G1 X-27.158 Y-26.869 E0.0109
G1 X-26.874 Y-27.154 E0.0108
G1 X-26.528 Y-27.372 E0.0110
G1 X-26.147 Y-27.504 E0.0108
G1 X-25.739 Y-27.550 E0.0111
G1 X25.739 Y-27.550 E1.3868
G1 X26.147 Y-27.504 E0.0111
G1 X26.528 Y-27.372 E0.0109
G1 X26.869 Y-27.158 E0.0109
G1 X27.154 Y-26.874 E0.0108
G1 X27.372 Y-26.528 E0.0110
G1 X27.504 Y-26.147 E0.0108
G1 X27.550 Y-25.739 E0.0111
G1 X27.550 Y25.739 E1.3868
G1 X27.504 Y26.147 E0.0111
G1 X27.372 Y26.528 E0.0109
G1 X27.158 Y26.869 E0.0109
G1 X26.874 Y27.154 E0.0108
G1 X26.528 Y27.372 E0.0110
G1 X26.147 Y27.504 E0.0108
G1 X25.739 Y27.550 E0.0111
; feature solid layer
G1 X-25.789 Y26.820 F4200
G1 X-26.820 Y25.789 E0.0393 F1728
G1 X-26.830 Y25.699 E0.0024
G1 X-26.830 Y25.213 E0.0131
G1 X-25.213 Y26.830 E0.0616
G1 X-24.647 Y26.830 E0.0152
G1 X-26.830 Y24.647 E0.0832
G1 X-26.830 Y24.082 E0.0152
G1 X-24.082 Y26.830 E0.1047
G1 X-23.516 Y26.830 E0.0152
G1 X-26.830 Y23.516 E0.1263
G1 X-26.830 Y22.950 E0.0152
G1 X-22.950 Y26.830 E0.1478
G1 X-22.385 Y26.830 E0.0152
G1 X-26.830 Y22.385 E0.1694
G1 X-26.830 Y21.819 E0.0152
G1 X-21.819 Y26.830 E0.1909
G1 X-21.253 Y26.830 E0.0152
G1 X-26.830 Y21.253 E0.2125
G1 X-26.830 Y20.688 E0.0152
G1 X-20.688 Y26.830 E0.2340
G1 X-20.122 Y26.830 E0.0152
G1 X-26.830 Y20.122 E0.2556
G1 X-26.830 Y19.556 E0.0152
G1 X-19.556 Y26.830 E0.2771
G1 X-18.991 Y26.830 E0.0152
G1 X-26.830 Y18.991 E0.2987
G1 X-26.830 Y18.425 E0.0152
