; G-Code generated by Simplify3D(R) Version 4.1.2
; Mar 28, 2021 at 11:43:26 AM
; Settings Summary
;   processName,Normal Quick
;   applyToModels,RootUW_VagabondV2
;   profileName,FlashForge Creator Pro (modified)
;   profileVersion,2020-10-11 13:46:27
;   baseProfile,
;   printMaterial,PLA
;   printQuality,Medium
;   printExtruders,Right Extruder Only
;   extruderName,Right Extruder,Left Extruder
;   extruderToolheadNumber,0,1
;   extruderDiameter,0.4,0.4
;   extruderAutoWidth,0,0
;   extruderWidth,0.4,0.4
;   extrusionMultiplier,0.9,0.9
;   extruderUseRetract,1,1
;   extruderRetractionDistance,1.5,1.5
;   extruderExtraRestartDistance,0,0
;   extruderRetractionZLift,0,0
;   extruderRetractionSpeed,1200,1200
;   extruderUseCoasting,0,0
;   extruderCoastingDistance,0.2,0.2
;   extruderUseWipe,0,0
;   extruderWipeDistance,5,5
;   primaryExtruder,0
;   layerHeight,0.2
;   topSolidLayers,6
;   bottomSolidLayers,3
;   perimeterOutlines,2
;   printPerimetersInsideOut,1
;   startPointOption,2
;   startPointOriginX,0
;   startPointOriginY,0
;   sequentialIslands,0
;   spiralVaseMode,0
;   firstLayerHeightPercentage,90
;   firstLayerWidthPercentage,100
;   firstLayerUnderspeed,0.4
;   useRaft,0
;   raftExtruder,0
;   raftTopLayers,3
;   raftBaseLayers,2
;   raftOffset,3
;   raftSeparationDistance,0.14
;   raftTopInfill,100
;   aboveRaftSpeedMultiplier,0.3
;   useSkirt,1
;   skirtExtruder,0
;   skirtLayers,1
;   skirtOutlines,3
;   skirtOffset,4
;   usePrimePillar,0
;   primePillarExtruder,999
;   primePillarWidth,2
;   primePillarLocation,7
;   primePillarSpeedMultiplier,1
;   useOozeShield,0
;   oozeShieldExtruder,999
;   oozeShieldOffset,2
;   oozeShieldOutlines,1
;   oozeShieldSidewallShape,1
;   oozeShieldSidewallAngle,30
;   oozeShieldSpeedMultiplier,1
;   infillExtruder,0
;   internalInfillPattern,Rectilinear
;   externalInfillPattern,Rectilinear
;   infillPercentage,20
;   outlineOverlapPercentage,20
;   infillExtrusionWidthPercentage,100
;   minInfillLength,5
;   infillLayerInterval,1
;   internalInfillAngles,45,-45
;   overlapInternalInfillAngles,0
;   externalInfillAngles,45,-45
;   generateSupport,1
;   supportExtruder,0
;   supportInfillPercentage,30
;   supportExtraInflation,0
;   supportBaseLayers,0
;   denseSupportExtruder,0
;   denseSupportLayers,0
;   denseSupportInfillPercentage,70
;   supportLayerInterval,1
;   supportHorizontalPartOffset,0.3
;   supportUpperSeparationLayers,1
;   supportLowerSeparationLayers,1
;   supportType,0
;   supportGridSpacing,1.5
;   maxOverhangAngle,45
;   supportAngles,0
;   temperatureName,Right Extruder,Left Extruder,Heated Build Platform
;   temperatureNumber,0,1,0
;   temperatureSetpointCount,1,1,1
;   temperatureSetpointLayers,1,1,1
;   temperatureSetpointTemperatures,210,0,60
;   temperatureStabilizeAtStartup,0,0,0
;   temperatureHeatedBed,0,0,1
;   fanLayers,1,2
;   fanSpeeds,0,100
;   blipFanToFullPower,0
;   adjustSpeedForCooling,1
;   minSpeedLayerTime,15
;   minCoolingSpeedSlowdown,20
;   increaseFanForCooling,0
;   minFanLayerTime,45
;   maxCoolingFanSpeed,100
;   increaseFanForBridging,1
;   bridgingFanSpeed,100
;   use5D,1
;   relativeEdistances,1
;   allowEaxisZeroing,0
;   independentExtruderAxes,1
;   includeM10123,0
;   stickySupport,1
;   applyToolheadOffsets,0
;   gcodeXoffset,0
;   gcodeYoffset,0
;   gcodeZoffset,0
;   overrideMachineDefinition,1
;   machineTypeOverride,0
;   strokeXoverride,225
;   strokeYoverride,145
;   strokeZoverride,150
;   originOffsetXoverride,112.5
;   originOffsetYoverride,72.5
;   originOffsetZoverride,0
;   homeXdirOverride,1
;   homeYdirOverride,1
;   homeZdirOverride,-1
;   flipXoverride,1
;   flipYoverride,-1
;   flipZoverride,1
;   toolheadOffsets,0,0|34,0|0,0|0,0|0,0|0,0
;   overrideFirmwareConfiguration,1
;   firmwareTypeOverride,MakerBot/Sailfish Firmware
;   GPXconfigOverride,r1d
;   baudRateOverride,115200
;   overridePrinterModels,1
;   printerModelsOverride,FlashForge_CreatorPro.stl
;   startingGcode,; **** Replicator 1 dual start.gcode ****,M73 P0 ; enable build progress,G162 X Y F3000 ; home XY maximum,G161 Z F1200 ; home Z minimum,G92 Z-5 ; set Z to -5,G1 Z0 ; move Z to 0,G161 Z F100 ; home Z slowly,M132 X Y Z A B ; recall home offsets,M135 T0 ; load right extruder offsets,G1 X150 Y-70 Z30 F9000 ; move to wait position right hand side of the table,G130 X20 Y20 Z20 A20 B20 ; lower stepper Vrefs while heating,M126 S[fan_speed_pwm],M140 S[bed0_temperature] T0,M134 T0 ; stabilize bed temperature,M104 S[extruder0_temperature] T0,M133 T0 ; stabilize right extruder temperature,G130 X127 Y127 Z40 A127 B127 ; default stepper Vrefs,G92 A0 B0 ; zero extruders,G1 Z0.4 ; position nozzle,G1 X110 Y-70 E25 F300 ; purge nozzle,G1 X120 Y-70 Z0.15 F1200 ; slow wipe,G1 X110 Y-70 Z0.5 F1200 ; lift,G92 A0 B0 ; zero extruders,M73 P1 ;@body (notify GPX body has started),; **** end of start.gcode ****
;   layerChangeGcode,
;   retractionGcode,
;   toolChangeGcode,
;   endingGcode,; **** Replicator 1 dual end.gcode ****,M73 P100 ; end build progress,G1 Z150 F1000 ; send Z axis to bottom of machine,M140 S0 T0 ; cool down HBP,M104 S0 T0 ; cool down right extruder,M104 S0 T1 ; cool down left extruder,M127 ; stop blower fan,G162 X Y F3000 ; home XY maximum,M18 ; disable stepper,M72 P1 ; play Ta-Da song,; **** end of end.gcode ****
;   exportFileFormat,x3g
;   celebration,0
;   celebrationSong,Random Song
;   postProcessing,
;   defaultSpeed,5400
;   outlineUnderspeed,0.5
;   solidInfillUnderspeed,0.8
;   supportUnderspeed,0.8
;   rapidXYspeed,4200
;   rapidZspeed,1200
;   minBridgingArea,50
;   bridgingExtraInflation,0
;   bridgingExtrusionMultiplier,1
;   bridgingSpeedMultiplier,0.8
;   useFixedBridgingAngle,0
;   fixedBridgingAngle,0
;   applyBridgingToPerimeters,0
;   filamentDiameters,1.75|1.75|1.75|1.75|1.75|1.75
;   filamentPricesPerKg,46|46|46|46|46|46
;   filamentDensities,1.25|1.25|1.25|1.25|1.25|1.25
;   useMinPrintHeight,0
;   minPrintHeight,0
;   useMaxPrintHeight,0
;   maxPrintHeight,0
;   useDiaphragm,0
;   diaphragmLayerInterval,20
;   robustSlicing,1
;   mergeAllIntoSolid,0
;   onlyRetractWhenCrossingOutline,1
;   retractBetweenLayers,1
;   useRetractionMinTravel,0
;   retractionMinTravel,3
;   retractWhileWiping,0
;   onlyWipeOutlines,1
;   avoidCrossingOutline,0
;   maxMovementDetourFactor,3
;   toolChangeRetractionDistance,12
;   toolChangeExtraRestartDistance,-0.5
;   toolChangeRetractionSpeed,600
;   externalThinWallType,0
;   internalThinWallType,2
;   thinWallAllowedOverlapPercentage,10
;   singleExtrusionMinLength,1
;   singleExtrusionMinPrintingWidthPercentage,50
;   singleExtrusionMaxPrintingWidthPercentage,200
;   singleExtrusionEndpointExtension,0.2
;   horizontalSizeCompensation,0
G90
M83
; **** Replicator 1 dual start.gcode ****
M73 P0 ; enable build progress
G162 X Y F3000 ; home XY maximum
G161 Z F1200 ; home Z minimum
G92 Z-5 ; set Z to -5
G1 Z0 ; move Z to 0
G161 Z F100 ; home Z slowly
M132 X Y Z A B ; recall home offsets
M135 T0 ; load right extruder offsets
G1 X150 Y-70 Z30 F9000 ; move to wait position right hand side of the table
G130 X20 Y20 Z20 A20 B20 ; lower stepper Vrefs while heating
M127
M140 S60 T0
M134 T0 ; stabilize bed temperature
M104 S210 T0
M133 T0 ; stabilize right extruder temperature
G130 X127 Y127 Z40 A127 B127 ; default stepper Vrefs
G92 A0 B0 ; zero extruders
G1 Z0.4 ; position nozzle
G1 X110 Y-70 E25 F300 ; purge nozzle
G1 X120 Y-70 Z0.15 F1200 ; slow wipe
G1 X110 Y-70 Z0.5 F1200 ; lift
G92 A0 B0 ; zero extruders
M73 P1 ;@body (notify GPX body has started)
; **** end of start.gcode ****
; process Normal Quick
; layer 1, Z = 0.180
M135 T0
G1 E-1.5000 F1200
; feature skirt
; tool H0.180 W0.400
G1 Z0.180 F1200
G1 X32.000 Y-27.623 F4200
G1 E1.5000 F1200
G1 X32.000 Y27.623 E1.4884 F2160
G1 X31.988 Y27.870 E0.0067
G1 X31.903 Y28.727 E0.0232
G1 X31.807 Y29.210 E0.0133
G1 X31.521 Y30.149 E0.0265
G1 X31.332 Y30.603 E0.0132
G1 X30.869 Y31.467 E0.0264
G1 X30.597 Y31.874 E0.0132
G1 X29.979 Y32.627 E0.0263
G1 X29.634 Y32.973 E0.0132
G1 X28.877 Y33.595 E0.0264
G1 X28.468 Y33.869 E0.0132
G1 X27.603 Y34.332 E0.0264
G1 X27.149 Y34.521 E0.0132
G1 X26.210 Y34.807 E0.0265
G1 X25.727 Y34.903 E0.0133
G1 X24.870 Y34.988 E0.0232
G1 X24.623 Y35.000 E0.0067
G1 X-24.623 Y35.000 E1.3267
G1 X-24.870 Y34.988 E0.0067
G1 X-25.728 Y34.903 E0.0232
G1 X-26.210 Y34.806 E0.0133
G1 X-27.149 Y34.521 E0.0265
G1 X-27.603 Y34.332 E0.0132
G1 X-28.467 Y33.869 E0.0264
G1 X-28.874 Y33.597 E0.0132
G1 X-29.627 Y32.979 E0.0262
G1 X-29.972 Y32.634 E0.0132
G1 X-30.595 Y31.877 E0.0264
G1 X-30.869 Y31.469 E0.0132
G1 X-31.332 Y30.603 E0.0264
G1 X-31.521 Y30.149 E0.0132
G1 X-31.807 Y29.210 E0.0265
G1 X-31.903 Y28.728 E0.0133
G1 X-31.988 Y27.870 E0.0232
G1 X-32.000 Y27.623 E0.0067
G1 X-32.000 Y-27.623 E1.4884
G1 X-31.988 Y-27.870 E0.0067
G1 X-31.903 Y-28.727 E0.0232
G1 X-31.807 Y-29.210 E0.0133
G1 X-31.521 Y-30.149 E0.0265
G1 X-31.332 Y-30.603 E0.0132
G1 X-30.869 Y-31.467 E0.0264
G1 X-30.597 Y-31.874 E0.0132
G1 X-29.979 Y-32.627 E0.0262
G1 X-29.634 Y-32.972 E0.0132
G1 X-28.877 Y-33.595 E0.0264
G1 X-28.469 Y-33.869 E0.0132
G1 X-27.603 Y-34.332 E0.0264
G1 X-27.149 Y-34.521 E0.0132
G1 X-26.210 Y-34.807 E0.0265
G1 X-25.727 Y-34.903 E0.0133
G1 X-24.870 Y-34.988 E0.0232
G1 X-24.623 Y-35.000 E0.0067
G1 X24.622 Y-35.000 E1.3267
G1 X24.867 Y-34.988 E0.0066
G1 X25.718 Y-34.904 E0.0230
G1 X26.200 Y-34.809 E0.0132
G1 X27.145 Y-34.522 E0.0266
G1 X27.602 Y-34.333 E0.0133
G1 X28.468 Y-33.869 E0.0265
G1 X28.877 Y-33.595 E0.0132
G1 X29.634 Y-32.973 E0.0264
G1 X29.979 Y-32.627 E0.0132
G1 X30.597 Y-31.874 E0.0263
G1 X30.869 Y-31.467 E0.0132
G1 X31.332 Y-30.603 E0.0264
G1 X31.521 Y-30.149 E0.0132
G1 X31.807 Y-29.210 E0.0265
G1 X31.903 Y-28.727 E0.0133
G1 X31.988 Y-27.870 E0.0232
G1 X32.000 Y-27.623 E0.0067
G1 E-1.5000 F1200
G1 X31.600 Y-27.614 F4200
G1 E1.5000 F1200
G1 X31.600 Y27.614 E1.4879 F2160
G1 X31.589 Y27.840 E0.0061
G1 X31.507 Y28.668 E0.0224
G1 X31.418 Y29.112 E0.0122
G1 X31.144 Y30.014 E0.0254
G1 X30.970 Y30.431 E0.0122
G1 X30.526 Y31.261 E0.0254
G1 X30.276 Y31.635 E0.0121
G1 X29.683 Y32.358 E0.0252
G1 X29.365 Y32.676 E0.0121
G1 X28.638 Y33.274 E0.0254
G1 X28.262 Y33.525 E0.0122
G1 X27.431 Y33.970 E0.0254
G1 X27.014 Y34.144 E0.0122
G1 X26.112 Y34.418 E0.0254
G1 X25.668 Y34.507 E0.0122
G1 X24.840 Y34.589 E0.0224
G1 X24.614 Y34.600 E0.0061
G1 X-24.614 Y34.600 E1.3262
G1 X-24.840 Y34.589 E0.0061
G1 X-25.669 Y34.507 E0.0224
G1 X-26.112 Y34.418 E0.0122
G1 X-27.014 Y34.144 E0.0254
G1 X-27.432 Y33.970 E0.0122
G1 X-28.261 Y33.526 E0.0254
G1 X-28.635 Y33.276 E0.0121
G1 X-29.358 Y32.683 E0.0252
G1 X-29.676 Y32.365 E0.0121
G1 X-30.274 Y31.638 E0.0254
G1 X-30.525 Y31.262 E0.0122
G1 X-30.970 Y30.432 E0.0254
G1 X-31.144 Y30.014 E0.0122
G1 X-31.418 Y29.112 E0.0254
G1 X-31.507 Y28.668 E0.0122
G1 X-31.589 Y27.840 E0.0224
G1 X-31.600 Y27.614 E0.0061
G1 X-31.600 Y-27.614 E1.4879
G1 X-31.589 Y-27.840 E0.0061
G1 X-31.507 Y-28.668 E0.0224
G1 X-31.418 Y-29.112 E0.0122
G1 X-31.144 Y-30.014 E0.0254
G1 X-30.970 Y-30.432 E0.0122
G1 X-30.526 Y-31.261 E0.0254
G1 X-30.276 Y-31.635 E0.0121
G1 X-29.683 Y-32.358 E0.0252
G1 X-29.365 Y-32.676 E0.0121
G1 X-28.638 Y-33.274 E0.0254
G1 X-28.262 Y-33.525 E0.0122
G1 X-27.432 Y-33.970 E0.0254
G1 X-27.014 Y-34.144 E0.0122
G1 X-26.112 Y-34.418 E0.0254
G1 X-25.668 Y-34.507 E0.0122
G1 X-24.840 Y-34.589 E0.0224
G1 X-24.614 Y-34.600 E0.0061
G1 X24.613 Y-34.600 E1.3262
G1 X24.838 Y-34.589 E0.0061
G1 X25.660 Y-34.508 E0.0222
G1 X26.103 Y-34.420 E0.0122
G1 X27.010 Y-34.145 E0.0255
G1 X27.430 Y-33.971 E0.0123
G1 X28.262 Y-33.525 E0.0254
G1 X28.638 Y-33.274 E0.0122
G1 X29.365 Y-32.676 E0.0254
G1 X29.683 Y-32.358 E0.0121
G1 X30.276 Y-31.635 E0.0252
G1 X30.526 Y-31.261 E0.0121
G1 X30.970 Y-30.431 E0.0254
G1 X31.144 Y-30.014 E0.0122
G1 X31.418 Y-29.112 E0.0254
G1 X31.507 Y-28.668 E0.0122
G1 X31.589 Y-27.840 E0.0224
G1 X31.600 Y-27.614 E0.0061
G1 E-1.5000 F1200
G1 X31.200 Y-27.604 F4200
G1 E1.5000 F1200
G1 X31.200 Y27.604 E1.4873 F2160
G1 X31.190 Y27.811 E0.0056
G1 X31.111 Y28.609 E0.0216
G1 X31.030 Y29.015 E0.0111
G1 X30.767 Y29.879 E0.0243
G1 X30.609 Y30.260 E0.0111
G1 X30.183 Y31.055 E0.0243
G1 X29.954 Y31.396 E0.0111
G1 X29.386 Y32.089 E0.0241
G1 X29.096 Y32.380 E0.0111
G1 X28.399 Y32.952 E0.0243
G1 X28.056 Y33.182 E0.0111
G1 X27.260 Y33.609 E0.0243
G1 X26.879 Y33.767 E0.0111
G1 X26.015 Y34.030 E0.0243
G1 X25.609 Y34.111 E0.0111
G1 X24.811 Y34.190 E0.0216
G1 X24.604 Y34.200 E0.0056
G1 X-24.604 Y34.200 E1.3257
G1 X-24.811 Y34.190 E0.0056
G1 X-25.609 Y34.111 E0.0216
G1 X-26.015 Y34.030 E0.0111
G1 X-26.879 Y33.767 E0.0243
G1 X-27.260 Y33.608 E0.0111
G1 X-28.055 Y33.182 E0.0243
G1 X-28.397 Y32.954 E0.0111
G1 X-29.089 Y32.386 E0.0241
G1 X-29.379 Y32.096 E0.0111
G1 X-29.952 Y31.399 E0.0243
G1 X-30.182 Y31.056 E0.0111
G1 X-30.608 Y30.260 E0.0243
G1 X-30.767 Y29.879 E0.0111
G1 X-31.030 Y29.015 E0.0243
G1 X-31.111 Y28.609 E0.0111
G1 X-31.190 Y27.811 E0.0216
G1 X-31.200 Y27.604 E0.0056
G1 X-31.200 Y-27.604 E1.4873
G1 X-31.190 Y-27.811 E0.0056
G1 X-31.111 Y-28.609 E0.0216
G1 X-31.030 Y-29.015 E0.0111
G1 X-30.767 Y-29.879 E0.0243
G1 X-30.608 Y-30.260 E0.0111
G1 X-30.182 Y-31.055 E0.0243
G1 X-29.954 Y-31.397 E0.0111
G1 X-29.386 Y-32.089 E0.0241
G1 X-29.096 Y-32.379 E0.0111
G1 X-28.399 Y-32.952 E0.0243
G1 X-28.056 Y-33.182 E0.0111
G1 X-27.260 Y-33.608 E0.0243
G1 X-26.879 Y-33.767 E0.0111
G1 X-26.015 Y-34.030 E0.0243
G1 X-25.609 Y-34.111 E0.0111
G1 X-24.811 Y-34.190 E0.0216
G1 X-24.604 Y-34.200 E0.0056
G1 X24.603 Y-34.200 E1.3257
G1 X24.808 Y-34.190 E0.0055
G1 X25.601 Y-34.112 E0.0215
G1 X26.005 Y-34.032 E0.0111
G1 X26.875 Y-33.768 E0.0245
G1 X27.259 Y-33.609 E0.0112
G1 X28.056 Y-33.182 E0.0244
G1 X28.399 Y-32.952 E0.0111
G1 X29.096 Y-32.380 E0.0243
G1 X29.386 Y-32.089 E0.0111
G1 X29.954 Y-31.396 E0.0241
G1 X30.183 Y-31.055 E0.0111
G1 X30.609 Y-30.260 E0.0243
G1 X30.767 Y-29.879 E0.0111
G1 X31.030 Y-29.015 E0.0243
G1 X31.111 Y-28.609 E0.0111
G1 X31.190 Y-27.811 E0.0216
G1 X31.200 Y-27.604 E0.0056
G1 E-1.5000 F1200
; feature inner perimeter
G1 X26.400 Y-27.470 F4200
G1 E1.5000 F1200
G1 X26.400 Y27.470 E1.4801 F1620
G1 X26.360 Y27.872 E0.0109
G1 X26.252 Y28.227 E0.0100
G1 X26.076 Y28.556 E0.0100
G1 X25.843 Y28.840 E0.0099
G1 X25.555 Y29.076 E0.0100
G1 X25.227 Y29.252 E0.0100
G1 X24.872 Y29.360 E0.0100
G1 X24.470 Y29.400 E0.0109
G1 X-24.470 Y29.400 E1.3185
G1 X-24.872 Y29.360 E0.0109
G1 X-25.228 Y29.252 E0.0100
G1 X-25.556 Y29.076 E0.0100
G1 X-25.840 Y28.843 E0.0099
G1 X-26.076 Y28.555 E0.0100
G1 X-26.252 Y28.227 E0.0100
G1 X-26.360 Y27.872 E0.0100
G1 X-26.400 Y27.470 E0.0109
G1 X-26.400 Y-27.470 E1.4801
G1 X-26.360 Y-27.872 E0.0109
G1 X-26.252 Y-28.227 E0.0100
G1 X-26.076 Y-28.556 E0.0100
G1 X-25.843 Y-28.840 E0.0099
G1 X-25.555 Y-29.076 E0.0100
G1 X-25.227 Y-29.252 E0.0100
G1 X-24.872 Y-29.360 E0.0100
G1 X-24.470 Y-29.400 E0.0109
G1 X24.471 Y-29.400 E1.3185
G1 X24.867 Y-29.361 E0.0107
G1 X25.228 Y-29.252 E0.0101
G1 X25.555 Y-29.076 E0.0100
G1 X25.843 Y-28.840 E0.0100
G1 X26.076 Y-28.556 E0.0099
G1 X26.252 Y-28.227 E0.0100
G1 X26.360 Y-27.872 E0.0100
G1 X26.400 Y-27.470 E0.0109
; feature outer perimeter
G1 X26.800 Y-27.490 F4200
G1 X26.800 Y27.490 E1.4812 F1080
G1 X26.754 Y27.950 E0.0125
G1 X26.623 Y28.382 E0.0121
G1 X26.410 Y28.779 E0.0121
G1 X26.127 Y29.124 E0.0120
G1 X25.779 Y29.410 E0.0121
G1 X25.382 Y29.623 E0.0121
G1 X24.950 Y29.754 E0.0121
G1 X24.490 Y29.800 E0.0125
G1 X-24.490 Y29.800 E1.3196
G1 X-24.950 Y29.754 E0.0125
G1 X-25.382 Y29.623 E0.0121
G1 X-25.779 Y29.410 E0.0121
G1 X-26.124 Y29.127 E0.0120
G1 X-26.410 Y28.779 E0.0121
G1 X-26.623 Y28.382 E0.0121
G1 X-26.754 Y27.950 E0.0121
G1 X-26.800 Y27.490 E0.0125
G1 X-26.800 Y-27.490 E1.4812
G1 X-26.754 Y-27.950 E0.0125
G1 X-26.623 Y-28.382 E0.0121
G1 X-26.410 Y-28.779 E0.0121
G1 X-26.127 Y-29.124 E0.0120
G1 X-25.779 Y-29.410 E0.0121
G1 X-25.382 Y-29.623 E0.0121
G1 X-24.950 Y-29.754 E0.0121
G1 X-24.490 Y-29.800 E0.0125
G1 X24.490 Y-29.800 E1.3196
G1 X24.946 Y-29.755 E0.0123
G1 X25.382 Y-29.623 E0.0123
G1 X25.779 Y-29.410 E0.0121
G1 X26.127 Y-29.124 E0.0121
G1 X26.410 Y-28.779 E0.0120
