; G-Code generated by Simplify3D(R) Version 4.1.2
; Mar 27, 2021 at 7:16:46 PM
; Settings Summary
;   processName,Normal Quick
;   applyToModels,RootUW_MoleTop
;   profileName,FlashForge Creator Pro (modified)
;   profileVersion,2020-10-11 13:46:27
;   baseProfile,
;   printMaterial,PLA
;   printQuality,Medium
;   printExtruders,Right Extruder Only
;   extruderName,Right Extruder,Left Extruder
;   extruderToolheadNumber,0,1
;   extruderDiameter,0.4,0.4
;   extruderAutoWidth,0,0
;   extruderWidth,0.4,0.4
;   extrusionMultiplier,0.9,0.9
;   extruderUseRetract,1,1
;   extruderRetractionDistance,1.5,1.5
;   extruderExtraRestartDistance,0,0
;   extruderRetractionZLift,0,0
;   extruderRetractionSpeed,1200,1200
;   extruderUseCoasting,0,0
;   extruderCoastingDistance,0.2,0.2
;   extruderUseWipe,0,0
;   extruderWipeDistance,5,5
;   primaryExtruder,0
;   layerHeight,0.2
;   topSolidLayers,6
;   bottomSolidLayers,3
;   perimeterOutlines,2
;   printPerimetersInsideOut,1
;   startPointOption,2
;   startPointOriginX,0
;   startPointOriginY,0
;   sequentialIslands,0
;   spiralVaseMode,0
;   firstLayerHeightPercentage,90
;   firstLayerWidthPercentage,100
;   firstLayerUnderspeed,0.4
;   useRaft,0
;   raftExtruder,0
;   raftTopLayers,3
;   raftBaseLayers,2
;   raftOffset,3
;   raftSeparationDistance,0.14
;   raftTopInfill,100
;   aboveRaftSpeedMultiplier,0.3
;   useSkirt,1
;   skirtExtruder,0
;   skirtLayers,1
;   skirtOutlines,3
;   skirtOffset,4
;   usePrimePillar,0
;   primePillarExtruder,999
;   primePillarWidth,2
;   primePillarLocation,7
;   primePillarSpeedMultiplier,1
;   useOozeShield,0
;   oozeShieldExtruder,999
;   oozeShieldOffset,2
;   oozeShieldOutlines,1
;   oozeShieldSidewallShape,1
;   oozeShieldSidewallAngle,30
;   oozeShieldSpeedMultiplier,1
;   infillExtruder,0
;   internalInfillPattern,Rectilinear
;   externalInfillPattern,Rectilinear
;   infillPercentage,20
;   outlineOverlapPercentage,20
;   infillExtrusionWidthPercentage,100
;   minInfillLength,5
;   infillLayerInterval,1
;   internalInfillAngles,45,-45
;   overlapInternalInfillAngles,0
;   externalInfillAngles,45,-45
;   generateSupport,1
;   supportExtruder,0
;   supportInfillPercentage,30
;   supportExtraInflation,0
;   supportBaseLayers,0
;   denseSupportExtruder,0
;   denseSupportLayers,0
;   denseSupportInfillPercentage,70
;   supportLayerInterval,1
;   supportHorizontalPartOffset,0.3
;   supportUpperSeparationLayers,1
;   supportLowerSeparationLayers,1
;   supportType,0
;   supportGridSpacing,1.5
;   maxOverhangAngle,45
;   supportAngles,0
;   temperatureName,Right Extruder,Left Extruder,Heated Build Platform
;   temperatureNumber,0,1,0
;   temperatureSetpointCount,1,1,1
;   temperatureSetpointLayers,1,1,1
;   temperatureSetpointTemperatures,210,0,60
;   temperatureStabilizeAtStartup,0,0,0
;   temperatureHeatedBed,0,0,1
;   fanLayers,1,2
;   fanSpeeds,0,100
;   blipFanToFullPower,0
;   adjustSpeedForCooling,1
;   minSpeedLayerTime,15
;   minCoolingSpeedSlowdown,20
;   increaseFanForCooling,0
;   minFanLayerTime,45
;   maxCoolingFanSpeed,100
;   increaseFanForBridging,1
;   bridgingFanSpeed,100
;   use5D,1
;   relativeEdistances,1
;   allowEaxisZeroing,0
;   independentExtruderAxes,1
;   includeM10123,0
;   stickySupport,1
;   applyToolheadOffsets,0
;   gcodeXoffset,0
;   gcodeYoffset,0
;   gcodeZoffset,0
;   overrideMachineDefinition,1
;   machineTypeOverride,0
;   strokeXoverride,225
;   strokeYoverride,145
;   strokeZoverride,150
;   originOffsetXoverride,112.5
;   originOffsetYoverride,72.5
;   originOffsetZoverride,0
;   homeXdirOverride,1
;   homeYdirOverride,1
;   homeZdirOverride,-1
;   flipXoverride,1
;   flipYoverride,-1
;   flipZoverride,1
;   toolheadOffsets,0,0|34,0|0,0|0,0|0,0|0,0
;   overrideFirmwareConfiguration,1
;   firmwareTypeOverride,MakerBot/Sailfish Firmware
;   GPXconfigOverride,r1d
;   baudRateOverride,115200
;   overridePrinterModels,1
;   printerModelsOverride,FlashForge_CreatorPro.stl
;   startingGcode,; **** Replicator 1 dual start.gcode ****,M73 P0 ; enable build progress,G162 X Y F3000 ; home XY maximum,G161 Z F1200 ; home Z minimum,G92 Z-5 ; set Z to -5,G1 Z0 ; move Z to 0,G161 Z F100 ; home Z slowly,M132 X Y Z A B ; recall home offsets,M135 T0 ; load right extruder offsets,G1 X150 Y-70 Z30 F9000 ; move to wait position right hand side of the table,G130 X20 Y20 Z20 A20 B20 ; lower stepper Vrefs while heating,M126 S[fan_speed_pwm],M140 S[bed0_temperature] T0,M134 T0 ; stabilize bed temperature,M104 S[extruder0_temperature] T0,M133 T0 ; stabilize right extruder temperature,G130 X127 Y127 Z40 A127 B127 ; default stepper Vrefs,G92 A0 B0 ; zero extruders,G1 Z0.4 ; position nozzle,G1 X110 Y-70 E25 F300 ; purge nozzle,G1 X120 Y-70 Z0.15 F1200 ; slow wipe,G1 X110 Y-70 Z0.5 F1200 ; lift,G92 A0 B0 ; zero extruders,M73 P1 ;@body (notify GPX body has started),; **** end of start.gcode ****
;   layerChangeGcode,
;   retractionGcode,
;   toolChangeGcode,
;   endingGcode,; **** Replicator 1 dual end.gcode ****,M73 P100 ; end build progress,G1 Z150 F1000 ; send Z axis to bottom of machine,M140 S0 T0 ; cool down HBP,M104 S0 T0 ; cool down right extruder,M104 S0 T1 ; cool down left extruder,M127 ; stop blower fan,G162 X Y F3000 ; home XY maximum,M18 ; disable stepper,M72 P1 ; play Ta-Da song,; **** end of end.gcode ****
;   exportFileFormat,x3g
;   celebration,0
;   celebrationSong,Random Song
;   postProcessing,
;   defaultSpeed,5400
;   outlineUnderspeed,0.5
;   solidInfillUnderspeed,0.8
;   supportUnderspeed,0.8
;   rapidXYspeed,4200
;   rapidZspeed,1200
;   minBridgingArea,50
;   bridgingExtraInflation,0
;   bridgingExtrusionMultiplier,1
;   bridgingSpeedMultiplier,0.8
;   useFixedBridgingAngle,0
;   fixedBridgingAngle,0
;   applyBridgingToPerimeters,0
;   filamentDiameters,1.75|1.75|1.75|1.75|1.75|1.75
;   filamentPricesPerKg,46|46|46|46|46|46
;   filamentDensities,1.25|1.25|1.25|1.25|1.25|1.25
;   useMinPrintHeight,0
;   minPrintHeight,0
;   useMaxPrintHeight,0
;   maxPrintHeight,0
;   useDiaphragm,0
;   diaphragmLayerInterval,20
;   robustSlicing,1
;   mergeAllIntoSolid,0
;   onlyRetractWhenCrossingOutline,1
;   retractBetweenLayers,1
;   useRetractionMinTravel,0
;   retractionMinTravel,3
;   retractWhileWiping,0
;   onlyWipeOutlines,1
;   avoidCrossingOutline,0
;   maxMovementDetourFactor,3
;   toolChangeRetractionDistance,12
;   toolChangeExtraRestartDistance,-0.5
;   toolChangeRetractionSpeed,600
;   externalThinWallType,0
;   internalThinWallType,2
;   thinWallAllowedOverlapPercentage,10
;   singleExtrusionMinLength,1
;   singleExtrusionMinPrintingWidthPercentage,50
;   singleExtrusionMaxPrintingWidthPercentage,200
;   singleExtrusionEndpointExtension,0.2
;   horizontalSizeCompensation,0
G90
M83
; **** Replicator 1 dual start.gcode ****
M73 P0 ; enable build progress
G162 X Y F3000 ; home XY maximum
G161 Z F1200 ; home Z minimum
G92 Z-5 ; set Z to -5
G1 Z0 ; move Z to 0
G161 Z F100 ; home Z slowly
M132 X Y Z A B ; recall home offsets
M135 T0 ; load right extruder offsets
G1 X150 Y-70 Z30 F9000 ; move to wait position right hand side of the table
G130 X20 Y20 Z20 A20 B20 ; lower stepper Vrefs while heating
M127
M140 S60 T0
M134 T0 ; stabilize bed temperature
M104 S210 T0
M133 T0 ; stabilize right extruder temperature
G130 X127 Y127 Z40 A127 B127 ; default stepper Vrefs
G92 A0 B0 ; zero extruders
G1 Z0.4 ; position nozzle
G1 X110 Y-70 E25 F300 ; purge nozzle
G1 X120 Y-70 Z0.15 F1200 ; slow wipe
G1 X110 Y-70 Z0.5 F1200 ; lift
G92 A0 B0 ; zero extruders
M73 P1 ;@body (notify GPX body has started)
; **** end of start.gcode ****
; process Normal Quick
; layer 1, Z = 0.180
M135 T0
G1 E-1.5000 F1200
; feature skirt
; tool H0.180 W0.400
G1 Z0.180 F1200
G1 X4.339 Y32.660 F4200
G1 E1.5000 F1200
G1 X-4.339 Y32.660 E0.2338 F2160
G1 X-4.429 Y32.750 E0.0034
G1 X-18.321 Y32.750 E0.3743
G1 X-18.411 Y32.660 E0.0034
G1 X-29.089 Y32.660 E0.2877
G1 X-29.179 Y32.750 E0.0034
G1 X-32.872 Y32.750 E0.0995
G1 X-33.117 Y32.738 E0.0066
G1 X-33.970 Y32.654 E0.0231
G1 X-34.451 Y32.559 E0.0132
G1 X-35.391 Y32.274 E0.0264
G1 X-35.845 Y32.086 E0.0132
G1 X-36.711 Y31.623 E0.0265
G1 X-37.120 Y31.350 E0.0132
G1 X-37.879 Y30.727 E0.0265
G1 X-38.227 Y30.379 E0.0132
G1 X-38.850 Y29.620 E0.0265
G1 X-39.123 Y29.211 E0.0132
G1 X-39.586 Y28.345 E0.0265
G1 X-39.774 Y27.891 E0.0132
G1 X-40.059 Y26.951 E0.0264
G1 X-40.154 Y26.470 E0.0132
G1 X-40.238 Y25.623 E0.0229
G1 X-40.250 Y25.378 E0.0066
G1 X-40.250 Y-25.375 E1.3673
G1 X-40.237 Y-25.625 E0.0068
G1 X-40.151 Y-26.485 E0.0233
G1 X-40.056 Y-26.962 E0.0131
G1 X-39.774 Y-27.892 E0.0262
G1 X-39.586 Y-28.345 E0.0132
G1 X-39.123 Y-29.211 E0.0264
G1 X-38.850 Y-29.620 E0.0132
G1 X-38.227 Y-30.379 E0.0265
G1 X-37.879 Y-30.727 E0.0132
G1 X-37.120 Y-31.350 E0.0265
G1 X-36.711 Y-31.623 E0.0132
G1 X-35.845 Y-32.086 E0.0264
G1 X-35.392 Y-32.273 E0.0132
G1 X-34.462 Y-32.556 E0.0262
G1 X-33.985 Y-32.651 E0.0131
G1 X-33.125 Y-32.737 E0.0233
G1 X-32.875 Y-32.750 E0.0067
G1 X32.875 Y-32.750 E1.7714
G1 X33.125 Y-32.737 E0.0067
G1 X33.985 Y-32.651 E0.0233
G1 X34.462 Y-32.556 E0.0131
G1 X35.392 Y-32.273 E0.0262
G1 X35.845 Y-32.086 E0.0132
G1 X36.711 Y-31.623 E0.0264
G1 X37.120 Y-31.350 E0.0132
G1 X37.879 Y-30.727 E0.0265
G1 X38.227 Y-30.379 E0.0132
G1 X38.850 Y-29.620 E0.0265
G1 X39.123 Y-29.211 E0.0132
G1 X39.586 Y-28.345 E0.0264
G1 X39.773 Y-27.892 E0.0132
G1 X40.056 Y-26.962 E0.0262
G1 X40.151 Y-26.485 E0.0131
G1 X40.237 Y-25.626 E0.0233
G1 X40.250 Y-25.375 E0.0067
G1 X40.250 Y25.375 E1.3673
G1 X40.237 Y25.626 E0.0067
G1 X40.151 Y26.485 E0.0233
G1 X40.056 Y26.962 E0.0131
G1 X39.773 Y27.892 E0.0262
G1 X39.586 Y28.345 E0.0132
G1 X39.123 Y29.211 E0.0264
G1 X38.850 Y29.620 E0.0132
G1 X38.227 Y30.379 E0.0265
G1 X37.879 Y30.727 E0.0132
G1 X37.120 Y31.350 E0.0265
G1 X36.711 Y31.623 E0.0132
G1 X35.845 Y32.086 E0.0264
G1 X35.392 Y32.273 E0.0132
G1 X34.462 Y32.556 E0.0262
G1 X33.985 Y32.651 E0.0131
G1 X33.126 Y32.737 E0.0233
G1 X32.875 Y32.750 E0.0067
G1 X29.228 Y32.750 E0.0983
G1 X29.135 Y32.660 E0.0035
G1 X18.411 Y32.660 E0.2889
G1 X18.321 Y32.750 E0.0034
G1 X4.429 Y32.750 E0.3743
G1 X4.339 Y32.660 E0.0034
G1 E-1.5000 F1200
G1 X4.595 Y32.350 F4200
G1 E1.5000 F1200
G1 X4.505 Y32.260 E0.0034 F2160
G1 X-4.505 Y32.260 E0.2427
G1 X-4.595 Y32.350 E0.0034
G1 X-18.155 Y32.350 E0.3653
G1 X-18.245 Y32.260 E0.0034
G1 X-29.255 Y32.260 E0.2966
G1 X-29.345 Y32.350 E0.0034
G1 X-32.863 Y32.350 E0.0948
G1 X-33.088 Y32.339 E0.0061
G1 X-33.911 Y32.258 E0.0223
G1 X-34.354 Y32.170 E0.0122
G1 X-35.256 Y31.897 E0.0254
G1 X-35.674 Y31.724 E0.0122
G1 X-36.505 Y31.280 E0.0254
G1 X-36.882 Y31.028 E0.0122
G1 X-37.611 Y30.430 E0.0254
G1 X-37.930 Y30.110 E0.0122
G1 X-38.528 Y29.382 E0.0254
G1 X-38.780 Y29.005 E0.0122
G1 X-39.224 Y28.174 E0.0254
G1 X-39.397 Y27.756 E0.0122
G1 X-39.670 Y26.854 E0.0254
G1 X-39.758 Y26.412 E0.0121
G1 X-39.839 Y25.594 E0.0222
G1 X-39.850 Y25.368 E0.0061
G1 X-39.850 Y-25.365 E1.3668
G1 X-39.838 Y-25.595 E0.0062
G1 X-39.755 Y-26.426 E0.0225
G1 X-39.667 Y-26.864 E0.0121
G1 X-39.396 Y-27.757 E0.0251
G1 X-39.224 Y-28.174 E0.0122
G1 X-38.780 Y-29.005 E0.0254
G1 X-38.528 Y-29.382 E0.0122
G1 X-37.930 Y-30.110 E0.0254
G1 X-37.611 Y-30.430 E0.0122
G1 X-36.882 Y-31.028 E0.0254
G1 X-36.505 Y-31.280 E0.0122
G1 X-35.674 Y-31.724 E0.0254
G1 X-35.257 Y-31.896 E0.0122
G1 X-34.364 Y-32.167 E0.0251
G1 X-33.926 Y-32.255 E0.0121
G1 X-33.095 Y-32.338 E0.0225
G1 X-32.865 Y-32.350 E0.0062
G1 X32.865 Y-32.350 E1.7708
G1 X33.095 Y-32.338 E0.0062
G1 X33.926 Y-32.255 E0.0225
G1 X34.364 Y-32.167 E0.0121
G1 X35.257 Y-31.896 E0.0251
G1 X35.674 Y-31.724 E0.0122
G1 X36.505 Y-31.280 E0.0254
G1 X36.882 Y-31.029 E0.0122
G1 X37.611 Y-30.430 E0.0254
G1 X37.930 Y-30.110 E0.0122
G1 X38.529 Y-29.382 E0.0254
G1 X38.780 Y-29.005 E0.0122
G1 X39.224 Y-28.174 E0.0254
G1 X39.396 Y-27.757 E0.0122
G1 X39.667 Y-26.864 E0.0251
G1 X39.755 Y-26.426 E0.0121
G1 X39.838 Y-25.595 E0.0225
G1 X39.850 Y-25.365 E0.0062
G1 X39.850 Y25.365 E1.3667
G1 X39.838 Y25.595 E0.0062
G1 X39.755 Y26.426 E0.0225
G1 X39.667 Y26.864 E0.0121
G1 X39.396 Y27.757 E0.0251
G1 X39.224 Y28.174 E0.0122
G1 X38.780 Y29.005 E0.0254
G1 X38.529 Y29.382 E0.0122
G1 X37.930 Y30.110 E0.0254
G1 X37.610 Y30.430 E0.0122
G1 X36.882 Y31.029 E0.0254
G1 X36.505 Y31.280 E0.0122
G1 X35.674 Y31.724 E0.0254
G1 X35.257 Y31.896 E0.0122
G1 X34.364 Y32.167 E0.0251
G1 X33.926 Y32.255 E0.0121
G1 X33.095 Y32.338 E0.0225
G1 X32.865 Y32.350 E0.0062
G1 X29.390 Y32.350 E0.0936
G1 X29.297 Y32.260 E0.0035
G1 X18.245 Y32.260 E0.2977
G1 X18.155 Y32.350 E0.0034
G1 X4.595 Y32.350 E0.3653
G1 E-1.5000 F1200
G1 X4.760 Y31.950 F4200
G1 E1.5000 F1200
G1 X4.670 Y31.860 E0.0034 F2160
G1 X-4.670 Y31.860 E0.2516
G1 X-4.760 Y31.950 E0.0034
G1 X-17.990 Y31.950 E0.3564
G1 X-18.080 Y31.860 E0.0034
G1 X-29.420 Y31.860 E0.3055
G1 X-29.510 Y31.950 E0.0034
G1 X-32.853 Y31.950 E0.0901
G1 X-33.058 Y31.940 E0.0055
G1 X-33.852 Y31.862 E0.0215
G1 X-34.257 Y31.782 E0.0111
G1 X-35.121 Y31.520 E0.0243
G1 X-35.503 Y31.362 E0.0111
G1 X-36.300 Y30.936 E0.0243
G1 X-36.643 Y30.707 E0.0111
G1 X-37.342 Y30.134 E0.0243
G1 X-37.634 Y29.842 E0.0111
G1 X-38.207 Y29.143 E0.0243
G1 X-38.436 Y28.800 E0.0111
G1 X-38.862 Y28.003 E0.0243
G1 X-39.020 Y27.621 E0.0111
G1 X-39.282 Y26.757 E0.0243
G1 X-39.362 Y26.353 E0.0111
G1 X-39.439 Y25.564 E0.0214
G1 X-39.450 Y25.358 E0.0056
G1 X-39.450 Y-25.355 E1.3663
G1 X-39.439 Y-25.565 E0.0057
G1 X-39.359 Y-26.366 E0.0217
G1 X-39.279 Y-26.767 E0.0110
G1 X-39.019 Y-27.622 E0.0241
G1 X-38.862 Y-28.003 E0.0111
G1 X-38.436 Y-28.800 E0.0243
G1 X-38.207 Y-29.143 E0.0111
G1 X-37.634 Y-29.842 E0.0243
G1 X-37.342 Y-30.134 E0.0111
G1 X-36.643 Y-30.707 E0.0243
G1 X-36.300 Y-30.936 E0.0111
G1 X-35.503 Y-31.362 E0.0243
G1 X-35.122 Y-31.519 E0.0111
G1 X-34.267 Y-31.779 E0.0241
G1 X-33.866 Y-31.859 E0.0110
G1 X-33.065 Y-31.939 E0.0217
G1 X-32.855 Y-31.950 E0.0057
G1 X32.855 Y-31.950 E1.7703
G1 X33.065 Y-31.939 E0.0057
G1 X33.866 Y-31.859 E0.0217
G1 X34.267 Y-31.779 E0.0110
G1 X35.122 Y-31.519 E0.0241
G1 X35.503 Y-31.362 E0.0111
G1 X36.300 Y-30.936 E0.0243
G1 X36.643 Y-30.707 E0.0111
G1 X37.342 Y-30.134 E0.0243
G1 X37.634 Y-29.842 E0.0111
G1 X38.207 Y-29.143 E0.0243
G1 X38.436 Y-28.800 E0.0111
G1 X38.862 Y-28.003 E0.0243
G1 X39.019 Y-27.622 E0.0111
G1 X39.279 Y-26.767 E0.0241
G1 X39.359 Y-26.366 E0.0110
G1 X39.439 Y-25.565 E0.0217
G1 X39.450 Y-25.355 E0.0057
G1 X39.450 Y25.355 E1.3662
G1 X39.439 Y25.565 E0.0057
G1 X39.359 Y26.366 E0.0217
G1 X39.279 Y26.767 E0.0110
G1 X39.019 Y27.622 E0.0241
G1 X38.862 Y28.003 E0.0111
G1 X38.436 Y28.800 E0.0243
G1 X38.207 Y29.143 E0.0111
G1 X37.634 Y29.842 E0.0243
G1 X37.342 Y30.134 E0.0111
G1 X36.643 Y30.707 E0.0243
G1 X36.300 Y30.936 E0.0111
G1 X35.503 Y31.362 E0.0243
G1 X35.122 Y31.519 E0.0111
G1 X34.267 Y31.779 E0.0241
G1 X33.866 Y31.859 E0.0110
G1 X33.065 Y31.939 E0.0217
G1 X32.855 Y31.950 E0.0057
G1 X29.552 Y31.950 E0.0890
G1 X29.459 Y31.860 E0.0035
G1 X18.080 Y31.860 E0.3066
G1 X17.990 Y31.950 E0.0034
G1 X4.760 Y31.950 E0.3564
G1 E-1.5000 F1200
; feature inner perimeter
G1 X7.100 Y27.150 F4200
G1 E1.5000 F1200
G1 X7.100 Y27.060 E0.0024 F1620
G1 X-7.100 Y27.060 E0.3826
G1 X-7.100 Y27.150 E0.0024
G1 X-15.650 Y27.150 E0.2303
G1 X-15.650 Y27.060 E0.0024
G1 X-31.850 Y27.060 E0.4364
G1 X-31.850 Y27.150 E0.0024
G1 X-32.721 Y27.150 E0.0235
G1 X-33.119 Y27.111 E0.0108
G1 X-33.475 Y27.003 E0.0100
G1 X-33.804 Y26.828 E0.0100
G1 X-34.091 Y26.591 E0.0100
G1 X-34.328 Y26.304 E0.0100
G1 X-34.503 Y25.975 E0.0100
G1 X-34.611 Y25.619 E0.0100
G1 X-34.650 Y25.226 E0.0106
G1 X-34.650 Y-25.220 E1.3590
G1 X-34.609 Y-25.625 E0.0110
G1 X-34.503 Y-25.975 E0.0099
G1 X-34.328 Y-26.304 E0.0100
G1 X-34.091 Y-26.591 E0.0100
G1 X-33.804 Y-26.828 E0.0100
G1 X-33.475 Y-27.003 E0.0100
G1 X-33.125 Y-27.109 E0.0099
G1 X-32.720 Y-27.150 E0.0110
G1 X32.720 Y-27.150 E1.7630
G1 X33.125 Y-27.109 E0.0110
G1 X33.475 Y-27.003 E0.0099
G1 X33.804 Y-26.828 E0.0100
G1 X34.091 Y-26.591 E0.0100
G1 X34.328 Y-26.304 E0.0100
G1 X34.503 Y-25.975 E0.0100
G1 X34.609 Y-25.625 E0.0099
G1 X34.650 Y-25.220 E0.0110
G1 X34.650 Y25.220 E1.3589
G1 X34.609 Y25.625 E0.0110
