; G-Code generated by Simplify3D(R) Version 4.1.2
; Mar 28, 2021 at 4:17:51 PM
; Settings Summary
;   processName,Normal Quick
;   applyToModels,RootUW__DiceBottomNoStep
;   profileName,FlashForge Creator Pro (modified)
;   profileVersion,2020-10-11 13:46:27
;   baseProfile,
;   printMaterial,PLA
;   printQuality,Medium
;   printExtruders,Left Extruder Only
;   extruderName,Right Extruder,Left Extruder
;   extruderToolheadNumber,0,1
;   extruderDiameter,0.4,0.4
;   extruderAutoWidth,0,0
;   extruderWidth,0.4,0.4
;   extrusionMultiplier,0.9,0.9
;   extruderUseRetract,1,1
;   extruderRetractionDistance,1.5,1.5
;   extruderExtraRestartDistance,0,0
;   extruderRetractionZLift,0,0
;   extruderRetractionSpeed,1200,1200
;   extruderUseCoasting,0,0
;   extruderCoastingDistance,0.2,0.2
;   extruderUseWipe,0,0
;   extruderWipeDistance,5,5
;   primaryExtruder,1
;   layerHeight,0.2
;   topSolidLayers,6
;   bottomSolidLayers,3
;   perimeterOutlines,2
;   printPerimetersInsideOut,1
;   startPointOption,2
;   startPointOriginX,0
;   startPointOriginY,0
;   sequentialIslands,0
;   spiralVaseMode,0
;   firstLayerHeightPercentage,90
;   firstLayerWidthPercentage,100
;   firstLayerUnderspeed,0.4
;   useRaft,0
;   raftExtruder,1
;   raftTopLayers,3
;   raftBaseLayers,2
;   raftOffset,3
;   raftSeparationDistance,0.14
;   raftTopInfill,100
;   aboveRaftSpeedMultiplier,0.3
;   useSkirt,1
;   skirtExtruder,1
;   skirtLayers,1
;   skirtOutlines,3
;   skirtOffset,4
;   usePrimePillar,0
;   primePillarExtruder,999
;   primePillarWidth,2
;   primePillarLocation,7
;   primePillarSpeedMultiplier,1
;   useOozeShield,0
;   oozeShieldExtruder,999
;   oozeShieldOffset,2
;   oozeShieldOutlines,1
;   oozeShieldSidewallShape,1
;   oozeShieldSidewallAngle,30
;   oozeShieldSpeedMultiplier,1
;   infillExtruder,1
;   internalInfillPattern,Rectilinear
;   externalInfillPattern,Rectilinear
;   infillPercentage,20
;   outlineOverlapPercentage,20
;   infillExtrusionWidthPercentage,100
;   minInfillLength,5
;   infillLayerInterval,1
;   internalInfillAngles,45,-45
;   overlapInternalInfillAngles,0
;   externalInfillAngles,45,-45
;   generateSupport,1
;   supportExtruder,1
;   supportInfillPercentage,30
;   supportExtraInflation,0
;   supportBaseLayers,0
;   denseSupportExtruder,1
;   denseSupportLayers,0
;   denseSupportInfillPercentage,70
;   supportLayerInterval,1
;   supportHorizontalPartOffset,0.3
;   supportUpperSeparationLayers,1
;   supportLowerSeparationLayers,1
;   supportType,0
;   supportGridSpacing,1.5
;   maxOverhangAngle,45
;   supportAngles,0
;   temperatureName,Right Extruder,Left Extruder,Heated Build Platform
;   temperatureNumber,0,1,0
;   temperatureSetpointCount,1,1,1
;   temperatureSetpointLayers,1,1,1
;   temperatureSetpointTemperatures,0,210,60
;   temperatureStabilizeAtStartup,0,0,0
;   temperatureHeatedBed,0,0,1
;   fanLayers,1,2
;   fanSpeeds,0,100
;   blipFanToFullPower,0
;   adjustSpeedForCooling,1
;   minSpeedLayerTime,15
;   minCoolingSpeedSlowdown,20
;   increaseFanForCooling,0
;   minFanLayerTime,45
;   maxCoolingFanSpeed,100
;   increaseFanForBridging,1
;   bridgingFanSpeed,100
;   use5D,1
;   relativeEdistances,1
;   allowEaxisZeroing,0
;   independentExtruderAxes,1
;   includeM10123,0
;   stickySupport,1
;   applyToolheadOffsets,0
;   gcodeXoffset,0
;   gcodeYoffset,0
;   gcodeZoffset,0
;   overrideMachineDefinition,1
;   machineTypeOverride,0
;   strokeXoverride,225
;   strokeYoverride,145
;   strokeZoverride,150
;   originOffsetXoverride,112.5
;   originOffsetYoverride,72.5
;   originOffsetZoverride,0
;   homeXdirOverride,1
;   homeYdirOverride,1
;   homeZdirOverride,-1
;   flipXoverride,1
;   flipYoverride,-1
;   flipZoverride,1
;   toolheadOffsets,0,0|34,0|0,0|0,0|0,0|0,0
;   overrideFirmwareConfiguration,1
;   firmwareTypeOverride,MakerBot/Sailfish Firmware
;   GPXconfigOverride,r1d
;   baudRateOverride,115200
;   overridePrinterModels,1
;   printerModelsOverride,FlashForge_CreatorPro.stl
;   startingGcode,; **** Replicator 1 dual start.gcode ****,M73 P0 ; enable build progress,G162 X Y F3000 ; home XY maximum,G161 Z F1200 ; home Z minimum,G92 Z-5 ; set Z to -5,G1 Z0 ; move Z to 0,G161 Z F100 ; home Z slowly,M132 X Y Z A B ; recall home offsets,M135 T0 ; load right extruder offsets,G1 X-110 Y-70 Z30 F9000 ; move to wait position left hand side of the table,G130 X20 Y20 Z20 A20 B20 ; lower stepper Vrefs while heating,M126 S[fan_speed_pwm],M140 S[bed0_temperature] T0,M134 T0 ; stabilize bed temperature,M104 S[extruder1_temperature] T1,M133 T1 ; stabilize left extruder temperature,G130 X127 Y127 Z40 A127 B127 ; default stepper Vrefs,G92 A0 B0 ; zero extruders,G1 Z0.4 ; position nozzle,M135 T1 ; left tool,G1 X-140 Y-70 F9000 ; reposition nozzle,G1 X-100 Y-70 E25 F300 ; purge nozzle,G1 X-110 Y-70 Z0.15 F1200 ; slow wipe,G1 X-100 Y-70 Z0.5 F1200 ; lift,G92 A0 B0 ; zero extruders,M73 P1 ;@body (notify GPX body has started),; **** end of start.gcode ****
;   layerChangeGcode,
;   retractionGcode,
;   toolChangeGcode,
;   endingGcode,; **** Replicator 1 dual end.gcode ****,M73 P100 ; end build progress,G1 Z150 F1000 ; send Z axis to bottom of machine,M140 S0 T0 ; cool down HBP,M104 S0 T0 ; cool down right extruder,M104 S0 T1 ; cool down left extruder,M127 ; stop blower fan,G162 X Y F3000 ; home XY maximum,M18 ; disable stepper,M72 P1 ; play Ta-Da song,; **** end of end.gcode ****
;   exportFileFormat,x3g
;   celebration,0
;   celebrationSong,Random Song
;   postProcessing,
;   defaultSpeed,5400
;   outlineUnderspeed,0.5
;   solidInfillUnderspeed,0.8
;   supportUnderspeed,0.8
;   rapidXYspeed,4200
;   rapidZspeed,1200
;   minBridgingArea,50
;   bridgingExtraInflation,0
;   bridgingExtrusionMultiplier,1
;   bridgingSpeedMultiplier,0.8
;   useFixedBridgingAngle,0
;   fixedBridgingAngle,0
;   applyBridgingToPerimeters,0
;   filamentDiameters,1.75|1.75|1.75|1.75|1.75|1.75
;   filamentPricesPerKg,46|46|46|46|46|46
;   filamentDensities,1.25|1.25|1.25|1.25|1.25|1.25
;   useMinPrintHeight,0
;   minPrintHeight,0
;   useMaxPrintHeight,0
;   maxPrintHeight,0
;   useDiaphragm,0
;   diaphragmLayerInterval,20
;   robustSlicing,1
;   mergeAllIntoSolid,0
;   onlyRetractWhenCrossingOutline,1
;   retractBetweenLayers,1
;   useRetractionMinTravel,0
;   retractionMinTravel,3
;   retractWhileWiping,0
;   onlyWipeOutlines,1
;   avoidCrossingOutline,0
;   maxMovementDetourFactor,3
;   toolChangeRetractionDistance,12
;   toolChangeExtraRestartDistance,-0.5
;   toolChangeRetractionSpeed,600
;   externalThinWallType,0
;   internalThinWallType,2
;   thinWallAllowedOverlapPercentage,10
;   singleExtrusionMinLength,1
;   singleExtrusionMinPrintingWidthPercentage,50
;   singleExtrusionMaxPrintingWidthPercentage,200
;   singleExtrusionEndpointExtension,0.2
;   horizontalSizeCompensation,0
G90
M83
; **** Replicator 1 dual start.gcode ****
M73 P0 ; enable build progress
G162 X Y F3000 ; home XY maximum
G161 Z F1200 ; home Z minimum
G92 Z-5 ; set Z to -5
G1 Z0 ; move Z to 0
G161 Z F100 ; home Z slowly
M132 X Y Z A B ; recall home offsets
M135 T0 ; load right extruder offsets
G1 X-110 Y-70 Z30 F9000 ; move to wait position left hand side of the table
G130 X20 Y20 Z20 A20 B20 ; lower stepper Vrefs while heating
M127
M140 S60 T0
M134 T0 ; stabilize bed temperature
M104 S210 T1
M133 T1 ; stabilize left extruder temperature
G130 X127 Y127 Z40 A127 B127 ; default stepper Vrefs
G92 A0 B0 ; zero extruders
G1 Z0.4 ; position nozzle
M135 T1 ; left tool
G1 X-140 Y-70 F9000 ; reposition nozzle
G1 X-100 Y-70 E25 F300 ; purge nozzle
G1 X-110 Y-70 Z0.15 F1200 ; slow wipe
G1 X-100 Y-70 Z0.5 F1200 ; lift
G92 A0 B0 ; zero extruders
M73 P1 ;@body (notify GPX body has started)
; **** end of start.gcode ****
; process Normal Quick
; layer 1, Z = 0.180
M135 T1
G1 E-1.5000 F1200
; feature skirt
; tool H0.180 W0.400
G1 Z0.180 F1200
G1 X32.000 Y-32.071 F4200
G1 E1.5000 F1200
G1 X32.000 Y32.071 E1.7280 F2160
G1 X29.071 Y35.000 E0.1116
G1 X-29.071 Y35.000 E1.5664
G1 X-32.000 Y32.071 E0.1116
G1 X-32.000 Y-32.071 E1.7280
G1 X-29.071 Y-35.000 E0.1116
G1 X29.071 Y-35.000 E1.5664
G1 X32.000 Y-32.071 E0.1116
G1 E-1.5000 F1200
G1 X31.600 Y-31.905 F4200
G1 E1.5000 F1200
G1 X31.600 Y31.905 E1.7191 F2160
G1 X28.905 Y34.600 E0.1027
G1 X-28.905 Y34.600 E1.5575
G1 X-31.600 Y31.905 E0.1027
G1 X-31.600 Y-31.905 E1.7191
G1 X-28.905 Y-34.600 E0.1027
G1 X28.905 Y-34.600 E1.5575
G1 X31.600 Y-31.905 E0.1027
G1 E-1.5000 F1200
G1 X31.200 Y-31.740 F4200
G1 E1.5000 F1200
G1 X31.200 Y31.740 E1.7102 F2160
G1 X28.740 Y34.200 E0.0937
G1 X-28.740 Y34.200 E1.5485
G1 X-31.200 Y31.740 E0.0937
G1 X-31.200 Y-31.740 E1.7102
G1 X-28.740 Y-34.200 E0.0937
G1 X28.740 Y-34.200 E1.5485
G1 X31.200 Y-31.740 E0.0937
G1 E-1.5000 F1200
; feature inner perimeter
G1 X26.400 Y-29.400 F4200
G1 E1.5000 F1200
G1 X26.400 Y29.400 E1.5841 F1620
G1 X-26.400 Y29.400 E1.4225
G1 X-26.400 Y-29.400 E1.5841
G1 X26.400 Y-29.400 E1.4225
; feature outer perimeter
G1 X26.800 Y-29.800 F4200
G1 X26.800 Y29.800 E1.6057 F1080
G1 X-26.800 Y29.800 E1.4440
G1 X-26.800 Y-29.800 E1.6057
G1 X26.800 Y-29.800 E1.4440
; feature solid layer
G1 X25.791 Y-29.080 F4200
G1 X26.080 Y-28.791 E0.0110 F1728
G1 X26.080 Y-28.226 E0.0152
G1 X25.226 Y-29.080 E0.0325
G1 X24.660 Y-29.080 E0.0152
G1 X26.080 Y-27.660 E0.0541
G1 X26.080 Y-27.094 E0.0152
G1 X24.094 Y-29.080 E0.0756
G1 X23.529 Y-29.080 E0.0152
G1 X26.080 Y-26.529 E0.0972
G1 X26.080 Y-25.963 E0.0152
G1 X22.963 Y-29.080 E0.1188
G1 X22.397 Y-29.080 E0.0152
G1 X26.080 Y-25.397 E0.1403
G1 X26.080 Y-24.832 E0.0152
G1 X21.832 Y-29.080 E0.1619
G1 X21.266 Y-29.080 E0.0152
G1 X26.080 Y-24.266 E0.1834
G1 X26.080 Y-23.700 E0.0152
G1 X20.700 Y-29.080 E0.2050
G1 X20.135 Y-29.080 E0.0152
G1 X26.080 Y-23.135 E0.2265
G1 X26.080 Y-22.569 E0.0152
G1 X19.569 Y-29.080 E0.2481
G1 X19.003 Y-29.080 E0.0152
G1 X26.080 Y-22.003 E0.2696
G1 X26.080 Y-21.438 E0.0152
G1 X18.438 Y-29.080 E0.2912
G1 X17.872 Y-29.080 E0.0152
G1 X26.080 Y-20.872 E0.3127
G1 X26.080 Y-20.306 E0.0152
G1 X17.306 Y-29.080 E0.3343
G1 X16.741 Y-29.080 E0.0152
G1 X26.080 Y-19.741 E0.3558
G1 X26.080 Y-19.175 E0.0152
G1 X16.175 Y-29.080 E0.3774
G1 X15.609 Y-29.080 E0.0152
G1 X26.080 Y-18.609 E0.3989
G1 X26.080 Y-18.043 E0.0152
G1 X15.043 Y-29.080 E0.4205
G1 X14.478 Y-29.080 E0.0152
G1 X26.080 Y-17.478 E0.4420
G1 X26.080 Y-16.912 E0.0152
G1 X13.912 Y-29.080 E0.4636
G1 X13.346 Y-29.080 E0.0152
G1 X26.080 Y-16.346 E0.4851
G1 X26.080 Y-15.781 E0.0152
G1 X12.781 Y-29.080 E0.5067
G1 X12.215 Y-29.080 E0.0152
G1 X26.080 Y-15.215 E0.5283
G1 X26.080 Y-14.649 E0.0152
G1 X11.649 Y-29.080 E0.5498
G1 X11.084 Y-29.080 E0.0152
G1 X26.080 Y-14.084 E0.5714
G1 X26.080 Y-13.518 E0.0152
G1 X10.518 Y-29.080 E0.5929
G1 X9.952 Y-29.080 E0.0152
G1 X26.080 Y-12.952 E0.6145
G1 X26.080 Y-12.387 E0.0152
G1 X9.387 Y-29.080 E0.6360
G1 X8.821 Y-29.080 E0.0152
G1 X26.080 Y-11.821 E0.6576
G1 X26.080 Y-11.255 E0.0152
G1 X8.255 Y-29.080 E0.6791
G1 X7.690 Y-29.080 E0.0152
G1 X26.080 Y-10.690 E0.7007
G1 X26.080 Y-10.124 E0.0152
G1 X7.124 Y-29.080 E0.7222
G1 X6.558 Y-29.080 E0.0152
G1 X26.080 Y-9.558 E0.7438
G1 X26.080 Y-8.993 E0.0152
G1 X5.993 Y-29.080 E0.7653
G1 X5.427 Y-29.080 E0.0152
G1 X26.080 Y-8.427 E0.7869
G1 X26.080 Y-7.861 E0.0152
G1 X4.861 Y-29.080 E0.8084
G1 X4.295 Y-29.080 E0.0152
G1 X26.080 Y-7.295 E0.8300
G1 X26.080 Y-6.730 E0.0152
G1 X3.730 Y-29.080 E0.8515
G1 X3.164 Y-29.080 E0.0152
G1 X26.080 Y-6.164 E0.8731
G1 X26.080 Y-5.598 E0.0152
G1 X2.598 Y-29.080 E0.8946
G1 X2.033 Y-29.080 E0.0152
G1 X26.080 Y-5.033 E0.9162
G1 X26.080 Y-4.467 E0.0152
G1 X1.467 Y-29.080 E0.9378
G1 X0.901 Y-29.080 E0.0152
G1 X26.080 Y-3.901 E0.9593
G1 X26.080 Y-3.336 E0.0152
G1 X0.336 Y-29.080 E0.9809
G1 X-0.230 Y-29.080 E0.0152
G1 X26.080 Y-2.770 E1.0024
G1 X26.080 Y-2.204 E0.0152
G1 X-0.796 Y-29.080 E1.0240
G1 X-1.361 Y-29.080 E0.0152
G1 X26.080 Y-1.639 E1.0455
G1 X26.080 Y-1.073 E0.0152
G1 X-1.927 Y-29.080 E1.0671
G1 X-2.493 Y-29.080 E0.0152
G1 X26.080 Y-0.507 E1.0886
G1 X26.080 Y0.058 E0.0152
G1 X-3.058 Y-29.080 E1.1102
G1 X-3.624 Y-29.080 E0.0152
G1 X26.080 Y0.624 E1.1317
G1 X26.080 Y1.190 E0.0152
G1 X-4.190 Y-29.080 E1.1533
G1 X-4.756 Y-29.080 E0.0152
G1 X26.080 Y1.756 E1.1748
G1 X26.080 Y2.321 E0.0152
G1 X-5.321 Y-29.080 E1.1964
G1 X-5.887 Y-29.080 E0.0152
G1 X26.080 Y2.887 E1.2179
G1 X26.080 Y3.453 E0.0152
G1 X-6.453 Y-29.080 E1.2395
G1 X-7.018 Y-29.080 E0.0152
G1 X26.080 Y4.018 E1.2610
G1 X26.080 Y4.584 E0.0152
G1 X-7.584 Y-29.080 E1.2826
G1 X-8.150 Y-29.080 E0.0152
G1 X26.080 Y5.150 E1.3041
G1 X26.080 Y5.715 E0.0152
G1 X-8.715 Y-29.080 E1.3257
G1 X-9.281 Y-29.080 E0.0152
G1 X26.080 Y6.281 E1.3473
G1 X26.080 Y6.847 E0.0152
G1 X-9.847 Y-29.080 E1.3688
G1 X-10.412 Y-29.080 E0.0152
G1 X26.080 Y7.412 E1.3904
G1 X26.080 Y7.978 E0.0152
G1 X-10.978 Y-29.080 E1.4119
G1 X-11.544 Y-29.080 E0.0152
G1 X26.080 Y8.544 E1.4335
G1 X26.080 Y9.109 E0.0152
G1 X-12.109 Y-29.080 E1.4550
G1 X-12.675 Y-29.080 E0.0152
G1 X26.080 Y9.675 E1.4766
G1 X26.080 Y10.241 E0.0152
G1 X-13.241 Y-29.080 E1.4981
G1 X-13.806 Y-29.080 E0.0152
G1 X26.080 Y10.806 E1.5197
G1 X26.080 Y11.372 E0.0152
G1 X-14.372 Y-29.080 E1.5412
G1 X-14.938 Y-29.080 E0.0152
G1 X26.080 Y11.938 E1.5628
G1 X26.080 Y12.504 E0.0152
G1 X-15.504 Y-29.080 E1.5843
G1 X-16.069 Y-29.080 E0.0152
G1 X26.080 Y13.069 E1.6059
G1 X26.080 Y13.635 E0.0152
G1 X-16.635 Y-29.080 E1.6274
G1 X-17.201 Y-29.080 E0.0152
G1 X26.080 Y14.201 E1.6490
G1 X26.080 Y14.766 E0.0152
G1 X-17.766 Y-29.080 E1.6705
G1 X-18.332 Y-29.080 E0.0152
G1 X26.080 Y15.332 E1.6921
G1 X26.080 Y15.898 E0.0152
G1 X-18.898 Y-29.080 E1.7136
G1 X-19.463 Y-29.080 E0.0152
G1 X26.080 Y16.463 E1.7352
G1 X26.080 Y17.029 E0.0152
G1 X-20.029 Y-29.080 E1.7567
G1 X-20.595 Y-29.080 E0.0152
G1 X26.080 Y17.595 E1.7783
G1 X26.080 Y18.160 E0.0152
G1 X-21.160 Y-29.080 E1.7999
G1 X-21.726 Y-29.080 E0.0152
G1 X26.080 Y18.726 E1.8214
G1 X26.080 Y19.292 E0.0152
G1 X-22.292 Y-29.080 E1.8430
G1 X-22.857 Y-29.080 E0.0152
G1 X26.080 Y19.857 E1.8645
G1 X26.080 Y20.423 E0.0152
G1 X-23.423 Y-29.080 E1.8861
G1 X-23.989 Y-29.080 E0.0152
G1 X26.080 Y20.989 E1.9076
G1 X26.080 Y21.555 E0.0152
G1 X-24.555 Y-29.080 E1.9292
G1 X-25.120 Y-29.080 E0.0152
G1 X26.080 Y22.120 E1.9507
G1 X26.080 Y22.686 E0.0152
G1 X-25.686 Y-29.080 E1.9723
G1 X-26.080 Y-29.080 E0.0106
G1 X-26.080 Y-28.908 E0.0046
G1 X26.080 Y23.252 E1.9873
G1 X26.080 Y23.817 E0.0152
G1 X-26.080 Y-28.343 E1.9873
G1 X-26.080 Y-27.777 E0.0152
G1 X26.080 Y24.383 E1.9873
G1 X26.080 Y24.949 E0.0152
G1 X-26.080 Y-27.211 E1.9873
G1 X-26.080 Y-26.646 E0.0152
G1 X26.080 Y25.514 E1.9873
G1 X26.080 Y26.080 E0.0152
G1 X-26.080 Y-26.080 E1.9873
G1 X-26.080 Y-25.514 E0.0152
G1 X26.080 Y26.646 E1.9873
G1 X26.080 Y27.211 E0.0152
G1 X-26.080 Y-24.949 E1.9873
G1 X-26.080 Y-24.383 E0.0152
G1 X26.080 Y27.777 E1.9873
G1 X26.080 Y28.343 E0.0152
G1 X-26.080 Y-23.817 E1.9873
G1 X-26.080 Y-23.252 E0.0152
G1 X26.080 Y28.908 E1.9873
G1 X26.080 Y29.080 E0.0046
G1 X25.686 Y29.080 E0.0106
G1 X-26.080 Y-22.686 E1.9723
G1 X-26.080 Y-22.120 E0.0152
G1 X25.120 Y29.080 E1.9507
G1 X24.555 Y29.080 E0.0152
G1 X-26.080 Y-21.555 E1.9292
G1 X-26.080 Y-20.989 E0.0152
G1 X23.989 Y29.080 E1.9076
G1 X23.423 Y29.080 E0.0152
G1 X-26.080 Y-20.423 E1.8861
G1 X-26.080 Y-19.857 E0.0152
G1 X22.857 Y29.080 E1.8645
G1 X22.292 Y29.080 E0.0152
G1 X-26.080 Y-19.292 E1.8430
G1 X-26.080 Y-18.726 E0.0152
G1 X21.726 Y29.080 E1.8214
G1 X21.160 Y29.080 E0.0152
G1 X-26.080 Y-18.160 E1.7999
G1 X-26.080 Y-17.595 E0.0152
G1 X20.595 Y29.080 E1.7783
G1 X20.029 Y29.080 E0.0152
G1 X-26.080 Y-17.029 E1.7568
G1 X-26.080 Y-16.463 E0.0152
G1 X19.463 Y29.080 E1.7352
G1 X18.898 Y29.080 E0.0152
G1 X-26.080 Y-15.898 E1.7136
G1 X-26.080 Y-15.332 E0.0152
G1 X18.332 Y29.080 E1.6921
G1 X17.766 Y29.080 E0.0152
G1 X-26.080 Y-14.766 E1.6705
G1 X-26.080 Y-14.201 E0.0152
G1 X17.201 Y29.080 E1.6490
G1 X16.635 Y29.080 E0.0152
G1 X-26.080 Y-13.635 E1.6274
G1 X-26.080 Y-13.069 E0.0152
G1 X16.069 Y29.080 E1.6059
G1 X15.504 Y29.080 E0.0152
G1 X-26.080 Y-12.504 E1.5843
G1 X-26.080 Y-11.938 E0.0152
G1 X14.938 Y29.080 E1.5628
G1 X14.372 Y29.080 E0.0152
