; G-Code generated by Simplify3D(R) Version 4.1.2
; Mar 26, 2021 at 10:12:24 AM
; Settings Summary
;   processName,Normal Quick
;   applyToModels,RootUW_CardWhole
;   profileName,FlashForge Creator Pro (modified)
;   profileVersion,2020-10-11 13:46:27
;   baseProfile,
;   printMaterial,PLA
;   printQuality,Medium
;   printExtruders,Left Extruder Only
;   extruderName,Right Extruder,Left Extruder
;   extruderToolheadNumber,0,1
;   extruderDiameter,0.4,0.4
;   extruderAutoWidth,0,0
;   extruderWidth,0.4,0.4
;   extrusionMultiplier,0.9,0.9
;   extruderUseRetract,1,1
;   extruderRetractionDistance,1.5,1.5
;   extruderExtraRestartDistance,0,0
;   extruderRetractionZLift,0,0
;   extruderRetractionSpeed,1200,1200
;   extruderUseCoasting,0,0
;   extruderCoastingDistance,0.2,0.2
;   extruderUseWipe,0,0
;   extruderWipeDistance,5,5
;   primaryExtruder,1
;   layerHeight,0.2
;   topSolidLayers,6
;   bottomSolidLayers,3
;   perimeterOutlines,2
;   printPerimetersInsideOut,1
;   startPointOption,2
;   startPointOriginX,0
;   startPointOriginY,0
;   sequentialIslands,0
;   spiralVaseMode,0
;   firstLayerHeightPercentage,90
;   firstLayerWidthPercentage,100
;   firstLayerUnderspeed,0.4
;   useRaft,0
;   raftExtruder,1
;   raftTopLayers,3
;   raftBaseLayers,2
;   raftOffset,3
;   raftSeparationDistance,0.14
;   raftTopInfill,100
;   aboveRaftSpeedMultiplier,0.3
;   useSkirt,1
;   skirtExtruder,1
;   skirtLayers,1
;   skirtOutlines,3
;   skirtOffset,4
;   usePrimePillar,0
;   primePillarExtruder,999
;   primePillarWidth,2
;   primePillarLocation,7
;   primePillarSpeedMultiplier,1
;   useOozeShield,0
;   oozeShieldExtruder,999
;   oozeShieldOffset,2
;   oozeShieldOutlines,1
;   oozeShieldSidewallShape,1
;   oozeShieldSidewallAngle,30
;   oozeShieldSpeedMultiplier,1
;   infillExtruder,1
;   internalInfillPattern,Rectilinear
;   externalInfillPattern,Rectilinear
;   infillPercentage,20
;   outlineOverlapPercentage,20
;   infillExtrusionWidthPercentage,100
;   minInfillLength,5
;   infillLayerInterval,1
;   internalInfillAngles,45,-45
;   overlapInternalInfillAngles,0
;   externalInfillAngles,45,-45
;   generateSupport,1
;   supportExtruder,1
;   supportInfillPercentage,30
;   supportExtraInflation,0
;   supportBaseLayers,0
;   denseSupportExtruder,1
;   denseSupportLayers,0
;   denseSupportInfillPercentage,70
;   supportLayerInterval,1
;   supportHorizontalPartOffset,0.3
;   supportUpperSeparationLayers,1
;   supportLowerSeparationLayers,1
;   supportType,0
;   supportGridSpacing,1.5
;   maxOverhangAngle,45
;   supportAngles,0
;   temperatureName,Right Extruder,Left Extruder,Heated Build Platform
;   temperatureNumber,0,1,0
;   temperatureSetpointCount,1,1,1
;   temperatureSetpointLayers,1,1,1
;   temperatureSetpointTemperatures,0,210,60
;   temperatureStabilizeAtStartup,0,0,0
;   temperatureHeatedBed,0,0,1
;   fanLayers,1,2
;   fanSpeeds,0,100
;   blipFanToFullPower,0
;   adjustSpeedForCooling,1
;   minSpeedLayerTime,15
;   minCoolingSpeedSlowdown,20
;   increaseFanForCooling,0
;   minFanLayerTime,45
;   maxCoolingFanSpeed,100
;   increaseFanForBridging,1
;   bridgingFanSpeed,100
;   use5D,1
;   relativeEdistances,1
;   allowEaxisZeroing,0
;   independentExtruderAxes,1
;   includeM10123,0
;   stickySupport,1
;   applyToolheadOffsets,0
;   gcodeXoffset,0
;   gcodeYoffset,0
;   gcodeZoffset,0
;   overrideMachineDefinition,1
;   machineTypeOverride,0
;   strokeXoverride,225
;   strokeYoverride,145
;   strokeZoverride,150
;   originOffsetXoverride,112.5
;   originOffsetYoverride,72.5
;   originOffsetZoverride,0
;   homeXdirOverride,1
;   homeYdirOverride,1
;   homeZdirOverride,-1
;   flipXoverride,1
;   flipYoverride,-1
;   flipZoverride,1
;   toolheadOffsets,0,0|34,0|0,0|0,0|0,0|0,0
;   overrideFirmwareConfiguration,1
;   firmwareTypeOverride,MakerBot/Sailfish Firmware
;   GPXconfigOverride,r1d
;   baudRateOverride,115200
;   overridePrinterModels,1
;   printerModelsOverride,FlashForge_CreatorPro.stl
;   startingGcode,; **** Replicator 1 dual start.gcode ****,M73 P0 ; enable build progress,G162 X Y F3000 ; home XY maximum,G161 Z F1200 ; home Z minimum,G92 Z-5 ; set Z to -5,G1 Z0 ; move Z to 0,G161 Z F100 ; home Z slowly,M132 X Y Z A B ; recall home offsets,M135 T0 ; load right extruder offsets,G1 X-110 Y-70 Z30 F9000 ; move to wait position left hand side of the table,G130 X20 Y20 Z20 A20 B20 ; lower stepper Vrefs while heating,M126 S[fan_speed_pwm],M140 S[bed0_temperature] T0,M134 T0 ; stabilize bed temperature,M104 S[extruder1_temperature] T1,M133 T1 ; stabilize left extruder temperature,G130 X127 Y127 Z40 A127 B127 ; default stepper Vrefs,G92 A0 B0 ; zero extruders,G1 Z0.4 ; position nozzle,M135 T1 ; left tool,G1 X-140 Y-70 F9000 ; reposition nozzle,G1 X-100 Y-70 E25 F300 ; purge nozzle,G1 X-110 Y-70 Z0.15 F1200 ; slow wipe,G1 X-100 Y-70 Z0.5 F1200 ; lift,G92 A0 B0 ; zero extruders,M73 P1 ;@body (notify GPX body has started),; **** end of start.gcode ****
;   layerChangeGcode,
;   retractionGcode,
;   toolChangeGcode,
;   endingGcode,; **** Replicator 1 dual end.gcode ****,M73 P100 ; end build progress,G1 Z150 F1000 ; send Z axis to bottom of machine,M140 S0 T0 ; cool down HBP,M104 S0 T0 ; cool down right extruder,M104 S0 T1 ; cool down left extruder,M127 ; stop blower fan,G162 X Y F3000 ; home XY maximum,M18 ; disable stepper,M72 P1 ; play Ta-Da song,; **** end of end.gcode ****
;   exportFileFormat,x3g
;   celebration,0
;   celebrationSong,Random Song
;   postProcessing,
;   defaultSpeed,5400
;   outlineUnderspeed,0.5
;   solidInfillUnderspeed,0.8
;   supportUnderspeed,0.8
;   rapidXYspeed,4200
;   rapidZspeed,1200
;   minBridgingArea,50
;   bridgingExtraInflation,0
;   bridgingExtrusionMultiplier,1
;   bridgingSpeedMultiplier,0.8
;   useFixedBridgingAngle,0
;   fixedBridgingAngle,0
;   applyBridgingToPerimeters,0
;   filamentDiameters,1.75|1.75|1.75|1.75|1.75|1.75
;   filamentPricesPerKg,46|46|46|46|46|46
;   filamentDensities,1.25|1.25|1.25|1.25|1.25|1.25
;   useMinPrintHeight,0
;   minPrintHeight,0
;   useMaxPrintHeight,0
;   maxPrintHeight,0
;   useDiaphragm,0
;   diaphragmLayerInterval,20
;   robustSlicing,1
;   mergeAllIntoSolid,0
;   onlyRetractWhenCrossingOutline,1
;   retractBetweenLayers,1
;   useRetractionMinTravel,0
;   retractionMinTravel,3
;   retractWhileWiping,0
;   onlyWipeOutlines,1
;   avoidCrossingOutline,0
;   maxMovementDetourFactor,3
;   toolChangeRetractionDistance,12
;   toolChangeExtraRestartDistance,-0.5
;   toolChangeRetractionSpeed,600
;   externalThinWallType,0
;   internalThinWallType,2
;   thinWallAllowedOverlapPercentage,10
;   singleExtrusionMinLength,1
;   singleExtrusionMinPrintingWidthPercentage,50
;   singleExtrusionMaxPrintingWidthPercentage,200
;   singleExtrusionEndpointExtension,0.2
;   horizontalSizeCompensation,0
G90
M83
; **** Replicator 1 dual start.gcode ****
M73 P0 ; enable build progress
G162 X Y F3000 ; home XY maximum
G161 Z F1200 ; home Z minimum
G92 Z-5 ; set Z to -5
G1 Z0 ; move Z to 0
G161 Z F100 ; home Z slowly
M132 X Y Z A B ; recall home offsets
M135 T0 ; load right extruder offsets
G1 X-110 Y-70 Z30 F9000 ; move to wait position left hand side of the table
G130 X20 Y20 Z20 A20 B20 ; lower stepper Vrefs while heating
M127
M140 S60 T0
M134 T0 ; stabilize bed temperature
M104 S210 T1
M133 T1 ; stabilize left extruder temperature
G130 X127 Y127 Z40 A127 B127 ; default stepper Vrefs
G92 A0 B0 ; zero extruders
G1 Z0.4 ; position nozzle
M135 T1 ; left tool
G1 X-140 Y-70 F9000 ; reposition nozzle
G1 X-100 Y-70 E25 F300 ; purge nozzle
G1 X-110 Y-70 Z0.15 F1200 ; slow wipe
G1 X-100 Y-70 Z0.5 F1200 ; lift
G92 A0 B0 ; zero extruders
M73 P1 ;@body (notify GPX body has started)
; **** end of start.gcode ****
; process Normal Quick
; layer 1, Z = 0.180
M135 T1
G1 E-1.5000 F1200
; feature skirt
; tool H0.180 W0.400
G1 Z0.180 F1200
G1 X109.071 Y54.000 F4200
G1 E1.5000 F1200
G1 X-109.071 Y54.000 E5.8769 F2160
G1 X-112.000 Y51.071 E0.1116
G1 X-112.000 Y-51.071 E2.7518
G1 X-109.071 Y-54.000 E0.1116
G1 X109.071 Y-54.000 E5.8769
G1 X112.000 Y-51.071 E0.1116
G1 X112.000 Y51.071 E2.7518
G1 X109.071 Y54.000 E0.1116
G1 E-1.5000 F1200
G1 X108.905 Y53.600 F4200
G1 E1.5000 F1200
G1 X-108.905 Y53.600 E5.8680 F2160
G1 X-111.600 Y50.905 E0.1027
G1 X-111.600 Y-50.905 E2.7429
G1 X-108.905 Y-53.600 E0.1027
G1 X108.905 Y-53.600 E5.8680
G1 X111.600 Y-50.905 E0.1027
G1 X111.600 Y50.905 E2.7429
G1 X108.905 Y53.600 E0.1027
G1 E-1.5000 F1200
G1 X108.740 Y53.200 F4200
G1 E1.5000 F1200
G1 X-108.740 Y53.200 E5.8590 F2160
G1 X-111.200 Y50.740 E0.0937
G1 X-111.200 Y-50.740 E2.7339
G1 X-108.740 Y-53.200 E0.0937
G1 X108.740 Y-53.200 E5.8590
G1 X111.200 Y-50.740 E0.0937
G1 X111.200 Y50.740 E2.7339
G1 X108.740 Y53.200 E0.0937
G1 E-1.5000 F1200
; feature inner perimeter
G1 X106.400 Y48.400 F4200
G1 E1.5000 F1200
G1 X-106.400 Y48.400 E5.7330 F1620
G1 X-106.400 Y-48.400 E2.6079
G1 X106.400 Y-48.400 E5.7330
G1 X106.400 Y48.400 E2.6079
; feature outer perimeter
G1 X106.800 Y48.800 F4200
G1 X-106.800 Y48.800 E5.7545 F1080
G1 X-106.800 Y-48.800 E2.6294
G1 X106.800 Y-48.800 E5.7545
G1 X106.800 Y48.800 E2.6294
; feature inner perimeter
G1 X85.997 Y27.352 F4200
G1 X87.077 Y26.087 E0.0448 F1620
G1 X87.946 Y24.668 E0.0448
G1 X88.583 Y23.131 E0.0448
G1 X88.971 Y21.514 E0.0448
G1 X89.100 Y19.879 E0.0442
G1 X89.100 Y-19.922 E1.0723
G1 X88.971 Y-21.557 E0.0442
G1 X88.583 Y-23.174 E0.0448
G1 X87.946 Y-24.711 E0.0448
G1 X87.077 Y-26.130 E0.0448
G1 X85.997 Y-27.395 E0.0448
G1 X84.732 Y-28.475 E0.0448
G1 X83.313 Y-29.344 E0.0448
G1 X81.776 Y-29.981 E0.0448
G1 X80.159 Y-30.369 E0.0448
G1 X78.524 Y-30.498 E0.0442
G1 X65.077 Y-30.498 E0.3623
G1 X63.442 Y-30.369 E0.0442
G1 X61.824 Y-29.981 E0.0448
G1 X60.287 Y-29.344 E0.0448
G1 X58.869 Y-28.475 E0.0448
G1 X57.604 Y-27.395 E0.0448
G1 X56.524 Y-26.130 E0.0448
G1 X55.654 Y-24.711 E0.0448
G1 X55.018 Y-23.174 E0.0448
G1 X54.629 Y-21.557 E0.0448
G1 X54.501 Y-19.922 E0.0442
G1 X54.501 Y19.879 E1.0723
G1 X54.629 Y21.514 E0.0442
G1 X55.018 Y23.131 E0.0448
G1 X55.654 Y24.668 E0.0448
G1 X56.524 Y26.087 E0.0448
G1 X57.604 Y27.352 E0.0448
G1 X58.869 Y28.432 E0.0448
G1 X60.287 Y29.302 E0.0448
G1 X61.824 Y29.938 E0.0448
G1 X63.442 Y30.327 E0.0448
G1 X65.077 Y30.455 E0.0442
G1 X78.524 Y30.455 E0.3623
G1 X80.159 Y30.327 E0.0442
G1 X81.776 Y29.938 E0.0448
G1 X83.313 Y29.302 E0.0448
G1 X84.732 Y28.432 E0.0448
G1 X85.997 Y27.352 E0.0448
; feature outer perimeter
G1 X85.713 Y27.068 F4200
G1 X86.752 Y25.851 E0.0431 F1080
G1 X87.589 Y24.486 E0.0431
G1 X88.201 Y23.007 E0.0431
G1 X88.575 Y21.451 E0.0431
G1 X88.700 Y19.863 E0.0429
G1 X88.700 Y-19.906 E1.0714
G1 X88.575 Y-21.494 E0.0429
G1 X88.201 Y-23.050 E0.0431
G1 X87.589 Y-24.529 E0.0431
G1 X86.752 Y-25.894 E0.0431
G1 X85.713 Y-27.111 E0.0431
G1 X84.496 Y-28.151 E0.0431
G1 X83.131 Y-28.987 E0.0431
G1 X81.652 Y-29.599 E0.0431
G1 X80.096 Y-29.973 E0.0431
G1 X78.508 Y-30.098 E0.0429
G1 X65.093 Y-30.098 E0.3614
G1 X63.505 Y-29.973 E0.0429
G1 X61.948 Y-29.599 E0.0431
G1 X60.470 Y-28.987 E0.0431
G1 X59.105 Y-28.151 E0.0431
G1 X57.888 Y-27.111 E0.0431
G1 X56.848 Y-25.894 E0.0431
G1 X56.012 Y-24.529 E0.0431
G1 X55.399 Y-23.050 E0.0431
G1 X55.026 Y-21.494 E0.0431
G1 X54.901 Y-19.906 E0.0429
G1 X54.901 Y19.863 E1.0714
G1 X55.026 Y21.451 E0.0429
G1 X55.399 Y23.007 E0.0431
G1 X56.012 Y24.486 E0.0431
G1 X56.848 Y25.851 E0.0431
G1 X57.888 Y27.068 E0.0431
G1 X59.105 Y28.108 E0.0431
G1 X60.470 Y28.944 E0.0431
G1 X61.948 Y29.557 E0.0431
G1 X63.505 Y29.930 E0.0431
G1 X65.093 Y30.055 E0.0429
G1 X78.508 Y30.055 E0.3614
G1 X80.096 Y29.930 E0.0429
G1 X81.652 Y29.557 E0.0431
G1 X83.131 Y28.944 E0.0431
G1 X84.496 Y28.108 E0.0431
G1 X85.713 Y27.068 E0.0431
G1 E-1.5000 F1200
; feature inner perimeter
G1 X18.802 Y21.402 F4200
G1 E1.5000 F1200
G1 X18.931 Y19.767 E0.0442 F1620
G1 X18.931 Y-20.078 E1.0734
G1 X18.802 Y-21.713 E0.0442
G1 X18.414 Y-23.330 E0.0448
G1 X17.777 Y-24.867 E0.0448
G1 X16.908 Y-26.286 E0.0448
G1 X15.827 Y-27.551 E0.0448
G1 X14.562 Y-28.631 E0.0448
G1 X13.144 Y-29.500 E0.0448
G1 X11.607 Y-30.137 E0.0448
G1 X9.989 Y-30.525 E0.0448
G1 X8.354 Y-30.654 E0.0442
G1 X-9.024 Y-30.654 E0.4682
G1 X-10.659 Y-30.525 E0.0442
G1 X-12.276 Y-30.137 E0.0448
G1 X-13.813 Y-29.500 E0.0448
G1 X-15.232 Y-28.631 E0.0448
G1 X-16.497 Y-27.551 E0.0448
G1 X-17.577 Y-26.286 E0.0448
G1 X-18.446 Y-24.867 E0.0448
G1 X-19.083 Y-23.330 E0.0448
G1 X-19.471 Y-21.713 E0.0448
G1 X-19.600 Y-20.078 E0.0442
G1 X-19.600 Y19.767 E1.0734
G1 X-19.471 Y21.402 E0.0442
G1 X-19.083 Y23.019 E0.0448
G1 X-18.446 Y24.556 E0.0448
G1 X-17.577 Y25.975 E0.0448
G1 X-16.497 Y27.240 E0.0448
G1 X-15.232 Y28.320 E0.0448
G1 X-13.813 Y29.189 E0.0448
G1 X-12.276 Y29.826 E0.0448
G1 X-10.659 Y30.214 E0.0448
G1 X-9.024 Y30.343 E0.0442
G1 X8.354 Y30.343 E0.4682
G1 X9.989 Y30.214 E0.0442
G1 X11.607 Y29.826 E0.0448
G1 X13.144 Y29.189 E0.0448
G1 X14.562 Y28.320 E0.0448
G1 X15.827 Y27.240 E0.0448
G1 X16.908 Y25.975 E0.0448
G1 X17.777 Y24.556 E0.0448
G1 X18.414 Y23.019 E0.0448
G1 X18.802 Y21.402 E0.0448
; feature outer perimeter
G1 X18.406 Y21.339 F4200
G1 X18.531 Y19.751 E0.0429 F1080
G1 X18.531 Y-20.062 E1.0726
G1 X18.406 Y-21.650 E0.0429
G1 X18.032 Y-23.206 E0.0431
G1 X17.419 Y-24.685 E0.0431
G1 X16.583 Y-26.050 E0.0431
G1 X15.543 Y-27.267 E0.0431
G1 X14.326 Y-28.307 E0.0431
G1 X12.962 Y-29.143 E0.0431
G1 X11.483 Y-29.755 E0.0431
G1 X9.926 Y-30.129 E0.0431
G1 X8.338 Y-30.254 E0.0429
G1 X-9.008 Y-30.254 E0.4673
G1 X-10.596 Y-30.129 E0.0429
G1 X-12.152 Y-29.755 E0.0431
G1 X-13.631 Y-29.143 E0.0431
G1 X-14.996 Y-28.307 E0.0431
G1 X-16.213 Y-27.267 E0.0431
G1 X-17.252 Y-26.050 E0.0431
G1 X-18.089 Y-24.685 E0.0431
G1 X-18.701 Y-23.206 E0.0431
G1 X-19.075 Y-21.650 E0.0431
G1 X-19.200 Y-20.062 E0.0429
G1 X-19.200 Y19.751 E1.0726
G1 X-19.075 Y21.339 E0.0429
G1 X-18.701 Y22.895 E0.0431
G1 X-18.089 Y24.374 E0.0431
G1 X-17.252 Y25.739 E0.0431
G1 X-16.213 Y26.956 E0.0431
G1 X-14.996 Y27.996 E0.0431
G1 X-13.631 Y28.832 E0.0431
G1 X-12.152 Y29.445 E0.0431
G1 X-10.596 Y29.818 E0.0431
G1 X-9.008 Y29.943 E0.0429
G1 X8.338 Y29.943 E0.4673
G1 X9.926 Y29.818 E0.0429
G1 X11.483 Y29.445 E0.0431
G1 X12.962 Y28.832 E0.0431
G1 X14.326 Y27.996 E0.0431
G1 X15.543 Y26.956 E0.0431
G1 X16.583 Y25.739 E0.0431
G1 X17.419 Y24.374 E0.0431
G1 X18.032 Y22.895 E0.0431
G1 X18.406 Y21.339 E0.0431
G1 E-1.5000 F1200
; feature inner perimeter
G1 X-51.400 Y19.806 F4200
G1 E1.5000 F1200
G1 X-51.400 Y-20.241 E1.0789 F1620
G1 X-51.529 Y-21.876 E0.0442
G1 X-51.917 Y-23.494 E0.0448
G1 X-52.554 Y-25.031 E0.0448
G1 X-53.423 Y-26.449 E0.0448
G1 X-54.503 Y-27.714 E0.0448
G1 X-55.768 Y-28.795 E0.0448
G1 X-57.187 Y-29.664 E0.0448
G1 X-58.724 Y-30.301 E0.0448
G1 X-60.341 Y-30.689 E0.0448
G1 X-61.976 Y-30.818 E0.0442
G1 X-79.216 Y-30.818 E0.4644
G1 X-80.851 Y-30.689 E0.0442
G1 X-82.469 Y-30.301 E0.0448
G1 X-84.005 Y-29.664 E0.0448
G1 X-85.424 Y-28.795 E0.0448
G1 X-86.689 Y-27.714 E0.0448
G1 X-87.769 Y-26.449 E0.0448
G1 X-88.639 Y-25.031 E0.0448
G1 X-89.275 Y-23.494 E0.0448
G1 X-89.664 Y-21.876 E0.0448
G1 X-89.792 Y-20.241 E0.0442
G1 X-89.792 Y19.806 E1.0789
G1 X-89.664 Y21.441 E0.0442
G1 X-89.275 Y23.058 E0.0448
G1 X-88.639 Y24.595 E0.0448
G1 X-87.769 Y26.014 E0.0448
G1 X-86.689 Y27.279 E0.0448
G1 X-85.424 Y28.359 E0.0448
G1 X-84.006 Y29.228 E0.0448
G1 X-82.469 Y29.865 E0.0448
G1 X-80.851 Y30.253 E0.0448
G1 X-79.216 Y30.382 E0.0442
G1 X-61.976 Y30.382 E0.4644
G1 X-60.341 Y30.253 E0.0442
G1 X-58.724 Y29.865 E0.0448
G1 X-57.187 Y29.228 E0.0448
G1 X-55.768 Y28.359 E0.0448
G1 X-54.503 Y27.279 E0.0448
G1 X-53.423 Y26.014 E0.0448
G1 X-52.554 Y24.595 E0.0448
G1 X-51.917 Y23.058 E0.0448
G1 X-51.529 Y21.441 E0.0448
G1 X-51.400 Y19.806 E0.0442
; feature outer perimeter
G1 X-51.800 Y19.790 F4200
G1 X-51.800 Y-20.226 E1.0780 F1080
G1 X-51.925 Y-21.814 E0.0429
G1 X-52.299 Y-23.370 E0.0431
G1 X-52.911 Y-24.849 E0.0431
G1 X-53.748 Y-26.214 E0.0431
G1 X-54.787 Y-27.431 E0.0431
G1 X-56.004 Y-28.470 E0.0431
G1 X-57.369 Y-29.307 E0.0431
G1 X-58.848 Y-29.919 E0.0431
G1 X-60.404 Y-30.293 E0.0431
G1 X-61.992 Y-30.418 E0.0429
G1 X-79.200 Y-30.418 E0.4636
G1 X-80.788 Y-30.293 E0.0429
