; G-Code generated by Simplify3D(R) Version 4.1.2
; Mar 25, 2021 at 3:39:51 PM
; Settings Summary
;   processName,Normal Quick
;   applyToModels,RootUW_EyrieV2
;   profileName,FlashForge Creator Pro (modified)
;   profileVersion,2020-10-11 13:46:27
;   baseProfile,
;   printMaterial,PLA
;   printQuality,Medium
;   printExtruders,Left Extruder Only
;   extruderName,Right Extruder,Left Extruder
;   extruderToolheadNumber,0,1
;   extruderDiameter,0.4,0.4
;   extruderAutoWidth,0,0
;   extruderWidth,0.4,0.4
;   extrusionMultiplier,0.9,0.9
;   extruderUseRetract,1,1
;   extruderRetractionDistance,1.5,1.5
;   extruderExtraRestartDistance,0,0
;   extruderRetractionZLift,0,0
;   extruderRetractionSpeed,1200,1200
;   extruderUseCoasting,0,0
;   extruderCoastingDistance,0.2,0.2
;   extruderUseWipe,0,0
;   extruderWipeDistance,5,5
;   primaryExtruder,1
;   layerHeight,0.2
;   topSolidLayers,6
;   bottomSolidLayers,3
;   perimeterOutlines,2
;   printPerimetersInsideOut,1
;   startPointOption,2
;   startPointOriginX,0
;   startPointOriginY,0
;   sequentialIslands,0
;   spiralVaseMode,0
;   firstLayerHeightPercentage,90
;   firstLayerWidthPercentage,100
;   firstLayerUnderspeed,0.4
;   useRaft,0
;   raftExtruder,1
;   raftTopLayers,3
;   raftBaseLayers,2
;   raftOffset,3
;   raftSeparationDistance,0.14
;   raftTopInfill,100
;   aboveRaftSpeedMultiplier,0.3
;   useSkirt,1
;   skirtExtruder,1
;   skirtLayers,1
;   skirtOutlines,6
;   skirtOffset,4
;   usePrimePillar,0
;   primePillarExtruder,999
;   primePillarWidth,2
;   primePillarLocation,7
;   primePillarSpeedMultiplier,1
;   useOozeShield,0
;   oozeShieldExtruder,999
;   oozeShieldOffset,2
;   oozeShieldOutlines,1
;   oozeShieldSidewallShape,1
;   oozeShieldSidewallAngle,30
;   oozeShieldSpeedMultiplier,1
;   infillExtruder,1
;   internalInfillPattern,Rectilinear
;   externalInfillPattern,Rectilinear
;   infillPercentage,20
;   outlineOverlapPercentage,20
;   infillExtrusionWidthPercentage,100
;   minInfillLength,5
;   infillLayerInterval,1
;   internalInfillAngles,45,-45
;   overlapInternalInfillAngles,0
;   externalInfillAngles,45,-45
;   generateSupport,1
;   supportExtruder,1
;   supportInfillPercentage,30
;   supportExtraInflation,0
;   supportBaseLayers,0
;   denseSupportExtruder,1
;   denseSupportLayers,0
;   denseSupportInfillPercentage,70
;   supportLayerInterval,1
;   supportHorizontalPartOffset,0.3
;   supportUpperSeparationLayers,1
;   supportLowerSeparationLayers,1
;   supportType,0
;   supportGridSpacing,1.5
;   maxOverhangAngle,45
;   supportAngles,0
;   temperatureName,Right Extruder,Left Extruder,Heated Build Platform
;   temperatureNumber,0,1,0
;   temperatureSetpointCount,1,1,1
;   temperatureSetpointLayers,1,1,1
;   temperatureSetpointTemperatures,0,210,60
;   temperatureStabilizeAtStartup,0,0,0
;   temperatureHeatedBed,0,0,1
;   fanLayers,1,2
;   fanSpeeds,0,100
;   blipFanToFullPower,0
;   adjustSpeedForCooling,1
;   minSpeedLayerTime,15
;   minCoolingSpeedSlowdown,20
;   increaseFanForCooling,0
;   minFanLayerTime,45
;   maxCoolingFanSpeed,100
;   increaseFanForBridging,1
;   bridgingFanSpeed,100
;   use5D,1
;   relativeEdistances,1
;   allowEaxisZeroing,0
;   independentExtruderAxes,1
;   includeM10123,0
;   stickySupport,1
;   applyToolheadOffsets,0
;   gcodeXoffset,0
;   gcodeYoffset,0
;   gcodeZoffset,0
;   overrideMachineDefinition,1
;   machineTypeOverride,0
;   strokeXoverride,225
;   strokeYoverride,145
;   strokeZoverride,150
;   originOffsetXoverride,112.5
;   originOffsetYoverride,72.5
;   originOffsetZoverride,0
;   homeXdirOverride,1
;   homeYdirOverride,1
;   homeZdirOverride,-1
;   flipXoverride,1
;   flipYoverride,-1
;   flipZoverride,1
;   toolheadOffsets,0,0|34,0|0,0|0,0|0,0|0,0
;   overrideFirmwareConfiguration,1
;   firmwareTypeOverride,MakerBot/Sailfish Firmware
;   GPXconfigOverride,r1d
;   baudRateOverride,115200
;   overridePrinterModels,1
;   printerModelsOverride,FlashForge_CreatorPro.stl
;   startingGcode,; **** Replicator 1 dual start.gcode ****,M73 P0 ; enable build progress,G162 X Y F3000 ; home XY maximum,G161 Z F1200 ; home Z minimum,G92 Z-5 ; set Z to -5,G1 Z0 ; move Z to 0,G161 Z F100 ; home Z slowly,M132 X Y Z A B ; recall home offsets,M135 T0 ; load right extruder offsets,G1 X-110 Y-70 Z30 F9000 ; move to wait position left hand side of the table,G130 X20 Y20 Z20 A20 B20 ; lower stepper Vrefs while heating,M126 S[fan_speed_pwm],M140 S[bed0_temperature] T0,M134 T0 ; stabilize bed temperature,M104 S[extruder1_temperature] T1,M133 T1 ; stabilize left extruder temperature,G130 X127 Y127 Z40 A127 B127 ; default stepper Vrefs,G92 A0 B0 ; zero extruders,G1 Z0.4 ; position nozzle,M135 T1 ; left tool,G1 X-140 Y-70 F9000 ; reposition nozzle,G1 X-100 Y-70 E25 F300 ; purge nozzle,G1 X-110 Y-70 Z0.15 F1200 ; slow wipe,G1 X-100 Y-70 Z0.5 F1200 ; lift,G92 A0 B0 ; zero extruders,M73 P1 ;@body (notify GPX body has started),; **** end of start.gcode ****
;   layerChangeGcode,
;   retractionGcode,
;   toolChangeGcode,
;   endingGcode,; **** Replicator 1 dual end.gcode ****,M73 P100 ; end build progress,G1 Z150 F1000 ; send Z axis to bottom of machine,M140 S0 T0 ; cool down HBP,M104 S0 T0 ; cool down right extruder,M104 S0 T1 ; cool down left extruder,M127 ; stop blower fan,G162 X Y F3000 ; home XY maximum,M18 ; disable stepper,M72 P1 ; play Ta-Da song,; **** end of end.gcode ****
;   exportFileFormat,x3g
;   celebration,0
;   celebrationSong,Random Song
;   postProcessing,
;   defaultSpeed,5400
;   outlineUnderspeed,0.5
;   solidInfillUnderspeed,0.8
;   supportUnderspeed,0.8
;   rapidXYspeed,4200
;   rapidZspeed,1200
;   minBridgingArea,50
;   bridgingExtraInflation,0
;   bridgingExtrusionMultiplier,1
;   bridgingSpeedMultiplier,0.8
;   useFixedBridgingAngle,0
;   fixedBridgingAngle,0
;   applyBridgingToPerimeters,0
;   filamentDiameters,1.75|1.75|1.75|1.75|1.75|1.75
;   filamentPricesPerKg,46|46|46|46|46|46
;   filamentDensities,1.25|1.25|1.25|1.25|1.25|1.25
;   useMinPrintHeight,0
;   minPrintHeight,0
;   useMaxPrintHeight,0
;   maxPrintHeight,0
;   useDiaphragm,0
;   diaphragmLayerInterval,20
;   robustSlicing,1
;   mergeAllIntoSolid,0
;   onlyRetractWhenCrossingOutline,1
;   retractBetweenLayers,1
;   useRetractionMinTravel,0
;   retractionMinTravel,3
;   retractWhileWiping,0
;   onlyWipeOutlines,1
;   avoidCrossingOutline,0
;   maxMovementDetourFactor,3
;   toolChangeRetractionDistance,12
;   toolChangeExtraRestartDistance,-0.5
;   toolChangeRetractionSpeed,600
;   externalThinWallType,0
;   internalThinWallType,2
;   thinWallAllowedOverlapPercentage,10
;   singleExtrusionMinLength,1
;   singleExtrusionMinPrintingWidthPercentage,50
;   singleExtrusionMaxPrintingWidthPercentage,200
;   singleExtrusionEndpointExtension,0.2
;   horizontalSizeCompensation,0
G90
M83
; **** Replicator 1 dual start.gcode ****
M73 P0 ; enable build progress
G162 X Y F3000 ; home XY maximum
G161 Z F1200 ; home Z minimum
G92 Z-5 ; set Z to -5
G1 Z0 ; move Z to 0
G161 Z F100 ; home Z slowly
M132 X Y Z A B ; recall home offsets
M135 T0 ; load right extruder offsets
G1 X-110 Y-70 Z30 F9000 ; move to wait position left hand side of the table
G130 X20 Y20 Z20 A20 B20 ; lower stepper Vrefs while heating
M127
M140 S60 T0
M134 T0 ; stabilize bed temperature
M104 S210 T1
M133 T1 ; stabilize left extruder temperature
G130 X127 Y127 Z40 A127 B127 ; default stepper Vrefs
G92 A0 B0 ; zero extruders
G1 Z0.4 ; position nozzle
M135 T1 ; left tool
G1 X-140 Y-70 F9000 ; reposition nozzle
G1 X-100 Y-70 E25 F300 ; purge nozzle
G1 X-110 Y-70 Z0.15 F1200 ; slow wipe
G1 X-100 Y-70 Z0.5 F1200 ; lift
G92 A0 B0 ; zero extruders
M73 P1 ;@body (notify GPX body has started)
; **** end of start.gcode ****
; process Normal Quick
; layer 1, Z = 0.180
M135 T1
G1 E-1.5000 F1200
; feature skirt
; tool H0.180 W0.400
G1 Z0.180 F1200
G1 X36.200 Y-40.068 F4200
G1 E1.5000 F1200
G1 X36.200 Y40.068 E2.1589 F2160
G1 X32.568 Y43.700 E0.1384
G1 X-32.568 Y43.700 E1.7548
G1 X-36.200 Y40.068 E0.1384
G1 X-36.200 Y-40.068 E2.1589
G1 X-32.568 Y-43.700 E0.1384
G1 X32.568 Y-43.700 E1.7548
G1 X36.200 Y-40.068 E0.1384
G1 E-1.5000 F1200
G1 X35.800 Y-39.902 F4200
G1 E1.5000 F1200
G1 X35.800 Y39.902 E2.1500 F2160
G1 X32.402 Y43.300 E0.1294
G1 X-32.402 Y43.300 E1.7459
G1 X-35.800 Y39.902 E0.1294
G1 X-35.800 Y-39.902 E2.1500
G1 X-32.402 Y-43.300 E0.1294
G1 X32.402 Y-43.300 E1.7459
G1 X35.800 Y-39.902 E0.1294
G1 E-1.5000 F1200
G1 X35.400 Y-39.737 F4200
G1 E1.5000 F1200
G1 X35.400 Y39.737 E2.1411 F2160
G1 X32.237 Y42.900 E0.1205
G1 X-32.237 Y42.900 E1.7370
G1 X-35.400 Y39.737 E0.1205
G1 X-35.400 Y-39.737 E2.1411
G1 X-32.237 Y-42.900 E0.1205
G1 X32.237 Y-42.900 E1.7370
G1 X35.400 Y-39.737 E0.1205
G1 E-1.5000 F1200
G1 X35.000 Y-39.571 F4200
G1 E1.5000 F1200
G1 X35.000 Y39.571 E2.1321 F2160
G1 X32.071 Y42.500 E0.1116
G1 X-32.071 Y42.500 E1.7280
G1 X-35.000 Y39.571 E0.1116
G1 X-35.000 Y-39.571 E2.1321
G1 X-32.071 Y-42.500 E0.1116
G1 X32.071 Y-42.500 E1.7280
G1 X35.000 Y-39.571 E0.1116
G1 E-1.5000 F1200
G1 X34.600 Y-39.405 F4200
G1 E1.5000 F1200
G1 X34.600 Y39.405 E2.1232 F2160
G1 X31.905 Y42.100 E0.1027
G1 X-31.905 Y42.100 E1.7191
G1 X-34.600 Y39.405 E0.1027
G1 X-34.600 Y-39.405 E2.1232
G1 X-31.905 Y-42.100 E0.1027
G1 X31.905 Y-42.100 E1.7191
G1 X34.600 Y-39.405 E0.1027
G1 E-1.5000 F1200
G1 X34.200 Y-39.240 F4200
G1 E1.5000 F1200
G1 X34.200 Y39.240 E2.1143 F2160
G1 X31.740 Y41.700 E0.0937
G1 X-31.740 Y41.700 E1.7102
G1 X-34.200 Y39.240 E0.0937
G1 X-34.200 Y-39.240 E2.1143
G1 X-31.740 Y-41.700 E0.0937
G1 X31.740 Y-41.700 E1.7102
G1 X34.200 Y-39.240 E0.0937
G1 E-1.5000 F1200
; feature inner perimeter
G1 X29.400 Y-36.900 F4200
G1 E1.5000 F1200
G1 X29.400 Y36.900 E1.9882 F1620
G1 X-29.400 Y36.900 E1.5841
G1 X-29.400 Y-36.900 E1.9882
G1 X29.400 Y-36.900 E1.5841
; feature outer perimeter
G1 X29.800 Y-37.300 F4200
G1 X29.800 Y37.300 E2.0098 F1080
G1 X-29.800 Y37.300 E1.6057
G1 X-29.800 Y-37.300 E2.0098
G1 X29.800 Y-37.300 E1.6057
; feature solid layer
G1 X29.040 Y-36.580 F4200
G1 X29.080 Y-36.540 E0.0015 F1728
G1 X29.080 Y-35.974 E0.0152
G1 X28.474 Y-36.580 E0.0231
G1 X27.908 Y-36.580 E0.0152
G1 X29.080 Y-35.408 E0.0446
G1 X29.080 Y-34.842 E0.0152
G1 X27.342 Y-36.580 E0.0662
G1 X26.777 Y-36.580 E0.0152
G1 X29.080 Y-34.277 E0.0878
G1 X29.080 Y-33.711 E0.0152
G1 X26.211 Y-36.580 E0.1093
G1 X25.645 Y-36.580 E0.0152
G1 X29.080 Y-33.145 E0.1309
G1 X29.080 Y-32.580 E0.0152
G1 X25.080 Y-36.580 E0.1524
G1 X24.514 Y-36.580 E0.0152
G1 X29.080 Y-32.014 E0.1740
G1 X29.080 Y-31.448 E0.0152
G1 X23.948 Y-36.580 E0.1955
G1 X23.383 Y-36.580 E0.0152
G1 X29.080 Y-30.883 E0.2171
G1 X29.080 Y-30.317 E0.0152
G1 X22.817 Y-36.580 E0.2386
G1 X22.251 Y-36.580 E0.0152
G1 X29.080 Y-29.751 E0.2602
G1 X29.080 Y-29.186 E0.0152
G1 X21.686 Y-36.580 E0.2817
G1 X21.120 Y-36.580 E0.0152
G1 X29.080 Y-28.620 E0.3033
G1 X29.080 Y-28.054 E0.0152
G1 X20.554 Y-36.580 E0.3248
G1 X19.989 Y-36.580 E0.0152
G1 X29.080 Y-27.489 E0.3464
G1 X29.080 Y-26.923 E0.0152
G1 X19.423 Y-36.580 E0.3679
G1 X18.857 Y-36.580 E0.0152
G1 X29.080 Y-26.357 E0.3895
G1 X29.080 Y-25.791 E0.0152
G1 X18.291 Y-36.580 E0.4110
G1 X17.726 Y-36.580 E0.0152
G1 X29.080 Y-25.226 E0.4326
G1 X29.080 Y-24.660 E0.0152
G1 X17.160 Y-36.580 E0.4541
G1 X16.594 Y-36.580 E0.0152
G1 X29.080 Y-24.094 E0.4757
G1 X29.080 Y-23.529 E0.0152
G1 X16.029 Y-36.580 E0.4973
G1 X15.463 Y-36.580 E0.0152
G1 X29.080 Y-22.963 E0.5188
G1 X29.080 Y-22.397 E0.0152
G1 X14.897 Y-36.580 E0.5404
G1 X14.332 Y-36.580 E0.0152
G1 X29.080 Y-21.832 E0.5619
G1 X29.080 Y-21.266 E0.0152
G1 X13.766 Y-36.580 E0.5835
G1 X13.200 Y-36.580 E0.0152
G1 X29.080 Y-20.700 E0.6050
G1 X29.080 Y-20.135 E0.0152
G1 X12.635 Y-36.580 E0.6266
G1 X12.069 Y-36.580 E0.0152
G1 X29.080 Y-19.569 E0.6481
G1 X29.080 Y-19.003 E0.0152
G1 X11.503 Y-36.580 E0.6697
G1 X10.938 Y-36.580 E0.0152
G1 X29.080 Y-18.438 E0.6912
G1 X29.080 Y-17.872 E0.0152
G1 X10.372 Y-36.580 E0.7128
G1 X9.806 Y-36.580 E0.0152
G1 X29.080 Y-17.306 E0.7343
G1 X29.080 Y-16.741 E0.0152
G1 X9.241 Y-36.580 E0.7559
G1 X8.675 Y-36.580 E0.0152
G1 X29.080 Y-16.175 E0.7774
G1 X29.080 Y-15.609 E0.0152
G1 X8.109 Y-36.580 E0.7990
G1 X7.543 Y-36.580 E0.0152
G1 X29.080 Y-15.043 E0.8205
G1 X29.080 Y-14.478 E0.0152
G1 X6.978 Y-36.580 E0.8421
G1 X6.412 Y-36.580 E0.0152
G1 X29.080 Y-13.912 E0.8636
G1 X29.080 Y-13.346 E0.0152
G1 X5.846 Y-36.580 E0.8852
G1 X5.281 Y-36.580 E0.0152
G1 X29.080 Y-12.781 E0.9068
G1 X29.080 Y-12.215 E0.0152
G1 X4.715 Y-36.580 E0.9283
G1 X4.149 Y-36.580 E0.0152
G1 X29.080 Y-11.649 E0.9499
G1 X29.080 Y-11.084 E0.0152
G1 X3.584 Y-36.580 E0.9714
G1 X3.018 Y-36.580 E0.0152
G1 X29.080 Y-10.518 E0.9930
G1 X29.080 Y-9.952 E0.0152
G1 X2.452 Y-36.580 E1.0145
G1 X1.887 Y-36.580 E0.0152
G1 X29.080 Y-9.387 E1.0361
G1 X29.080 Y-8.821 E0.0152
G1 X1.321 Y-36.580 E1.0576
G1 X0.755 Y-36.580 E0.0152
G1 X29.080 Y-8.255 E1.0792
G1 X29.080 Y-7.690 E0.0152
G1 X0.190 Y-36.580 E1.1007
G1 X-0.376 Y-36.580 E0.0152
G1 X29.080 Y-7.124 E1.1223
G1 X29.080 Y-6.558 E0.0152
G1 X-0.942 Y-36.580 E1.1438
G1 X-1.507 Y-36.580 E0.0152
G1 X29.080 Y-5.993 E1.1654
G1 X29.080 Y-5.427 E0.0152
G1 X-2.073 Y-36.580 E1.1869
G1 X-2.639 Y-36.580 E0.0152
G1 X29.080 Y-4.861 E1.2085
G1 X29.080 Y-4.295 E0.0152
G1 X-3.205 Y-36.580 E1.2300
G1 X-3.770 Y-36.580 E0.0152
G1 X29.080 Y-3.730 E1.2516
G1 X29.080 Y-3.164 E0.0152
G1 X-4.336 Y-36.580 E1.2731
G1 X-4.902 Y-36.580 E0.0152
G1 X29.080 Y-2.598 E1.2947
G1 X29.080 Y-2.033 E0.0152
G1 X-5.467 Y-36.580 E1.3162
G1 X-6.033 Y-36.580 E0.0152
G1 X29.080 Y-1.467 E1.3378
G1 X29.080 Y-0.901 E0.0152
G1 X-6.599 Y-36.580 E1.3594
G1 X-7.164 Y-36.580 E0.0152
G1 X29.080 Y-0.336 E1.3809
G1 X29.080 Y0.230 E0.0152
G1 X-7.730 Y-36.580 E1.4025
G1 X-8.296 Y-36.580 E0.0152
G1 X29.080 Y0.796 E1.4240
G1 X29.080 Y1.361 E0.0152
G1 X-8.861 Y-36.580 E1.4456
G1 X-9.427 Y-36.580 E0.0152
G1 X29.080 Y1.927 E1.4671
G1 X29.080 Y2.493 E0.0152
G1 X-9.993 Y-36.580 E1.4887
G1 X-10.558 Y-36.580 E0.0152
G1 X29.080 Y3.058 E1.5102
G1 X29.080 Y3.624 E0.0152
G1 X-11.124 Y-36.580 E1.5318
G1 X-11.690 Y-36.580 E0.0152
G1 X29.080 Y4.190 E1.5533
G1 X29.080 Y4.756 E0.0152
G1 X-12.256 Y-36.580 E1.5749
G1 X-12.821 Y-36.580 E0.0152
G1 X29.080 Y5.321 E1.5964
G1 X29.080 Y5.887 E0.0152
G1 X-13.387 Y-36.580 E1.6180
G1 X-13.953 Y-36.580 E0.0152
G1 X29.080 Y6.453 E1.6395
G1 X29.080 Y7.018 E0.0152
G1 X-14.518 Y-36.580 E1.6611
G1 X-15.084 Y-36.580 E0.0152
G1 X29.080 Y7.584 E1.6826
G1 X29.080 Y8.150 E0.0152
G1 X-15.650 Y-36.580 E1.7042
G1 X-16.215 Y-36.580 E0.0152
G1 X29.080 Y8.715 E1.7257
G1 X29.080 Y9.281 E0.0152
G1 X-16.781 Y-36.580 E1.7473
G1 X-17.347 Y-36.580 E0.0152
G1 X29.080 Y9.847 E1.7689
G1 X29.080 Y10.412 E0.0152
G1 X-17.912 Y-36.580 E1.7904
G1 X-18.478 Y-36.580 E0.0152
G1 X29.080 Y10.978 E1.8120
G1 X29.080 Y11.544 E0.0152
G1 X-19.044 Y-36.580 E1.8335
G1 X-19.609 Y-36.580 E0.0152
G1 X29.080 Y12.109 E1.8551
G1 X29.080 Y12.675 E0.0152
G1 X-20.175 Y-36.580 E1.8766
G1 X-20.741 Y-36.580 E0.0152
G1 X29.080 Y13.241 E1.8982
G1 X29.080 Y13.806 E0.0152
G1 X-21.306 Y-36.580 E1.9197
G1 X-21.872 Y-36.580 E0.0152
G1 X29.080 Y14.372 E1.9413
G1 X29.080 Y14.938 E0.0152
G1 X-22.438 Y-36.580 E1.9628
G1 X-23.004 Y-36.580 E0.0152
G1 X29.080 Y15.504 E1.9844
G1 X29.080 Y16.069 E0.0152
G1 X-23.569 Y-36.580 E2.0059
G1 X-24.135 Y-36.580 E0.0152
G1 X29.080 Y16.635 E2.0275
G1 X29.080 Y17.201 E0.0152
G1 X-24.701 Y-36.580 E2.0490
G1 X-25.266 Y-36.580 E0.0152
G1 X29.080 Y17.766 E2.0706
G1 X29.080 Y18.332 E0.0152
G1 X-25.832 Y-36.580 E2.0921
G1 X-26.398 Y-36.580 E0.0152
G1 X29.080 Y18.898 E2.1137
G1 X29.080 Y19.463 E0.0152
G1 X-26.963 Y-36.580 E2.1352
G1 X-27.529 Y-36.580 E0.0152
G1 X29.080 Y20.029 E2.1568
G1 X29.080 Y20.595 E0.0152
G1 X-28.095 Y-36.580 E2.1784
G1 X-28.660 Y-36.580 E0.0152
G1 X29.080 Y21.160 E2.1999
G1 X29.080 Y21.726 E0.0152
G1 X-29.080 Y-36.434 E2.2159
G1 X-29.080 Y-35.868 E0.0152
G1 X29.080 Y22.292 E2.2159
G1 X29.080 Y22.857 E0.0152
G1 X-29.080 Y-35.303 E2.2159
G1 X-29.080 Y-34.737 E0.0152
G1 X29.080 Y23.423 E2.2159
G1 X29.080 Y23.989 E0.0152
G1 X-29.080 Y-34.171 E2.2159
G1 X-29.080 Y-33.605 E0.0152
G1 X29.080 Y24.555 E2.2159
