; G-Code generated by Simplify3D(R) Version 4.1.2
; Mar 25, 2021 at 1:36:35 PM
; Settings Summary
;   processName,Normal Quick
;   applyToModels,Woodland_Top
;   profileName,FlashForge Creator Pro (modified)
;   profileVersion,2020-10-11 13:46:27
;   baseProfile,
;   printMaterial,PLA
;   printQuality,Medium
;   printExtruders,Left Extruder Only
;   extruderName,Right Extruder,Left Extruder
;   extruderToolheadNumber,0,1
;   extruderDiameter,0.4,0.4
;   extruderAutoWidth,0,0
;   extruderWidth,0.4,0.4
;   extrusionMultiplier,0.9,0.9
;   extruderUseRetract,1,1
;   extruderRetractionDistance,1.5,1.5
;   extruderExtraRestartDistance,0,0
;   extruderRetractionZLift,0,0
;   extruderRetractionSpeed,1200,1200
;   extruderUseCoasting,0,0
;   extruderCoastingDistance,0.2,0.2
;   extruderUseWipe,0,0
;   extruderWipeDistance,5,5
;   primaryExtruder,1
;   layerHeight,0.2
;   topSolidLayers,6
;   bottomSolidLayers,3
;   perimeterOutlines,2
;   printPerimetersInsideOut,1
;   startPointOption,2
;   startPointOriginX,0
;   startPointOriginY,0
;   sequentialIslands,0
;   spiralVaseMode,0
;   firstLayerHeightPercentage,90
;   firstLayerWidthPercentage,100
;   firstLayerUnderspeed,0.4
;   useRaft,0
;   raftExtruder,1
;   raftTopLayers,3
;   raftBaseLayers,2
;   raftOffset,3
;   raftSeparationDistance,0.14
;   raftTopInfill,100
;   aboveRaftSpeedMultiplier,0.3
;   useSkirt,1
;   skirtExtruder,1
;   skirtLayers,1
;   skirtOutlines,6
;   skirtOffset,4
;   usePrimePillar,0
;   primePillarExtruder,999
;   primePillarWidth,2
;   primePillarLocation,7
;   primePillarSpeedMultiplier,1
;   useOozeShield,0
;   oozeShieldExtruder,999
;   oozeShieldOffset,2
;   oozeShieldOutlines,1
;   oozeShieldSidewallShape,1
;   oozeShieldSidewallAngle,30
;   oozeShieldSpeedMultiplier,1
;   infillExtruder,1
;   internalInfillPattern,Rectilinear
;   externalInfillPattern,Rectilinear
;   infillPercentage,20
;   outlineOverlapPercentage,20
;   infillExtrusionWidthPercentage,100
;   minInfillLength,5
;   infillLayerInterval,1
;   internalInfillAngles,45,-45
;   overlapInternalInfillAngles,0
;   externalInfillAngles,45,-45
;   generateSupport,1
;   supportExtruder,1
;   supportInfillPercentage,30
;   supportExtraInflation,0
;   supportBaseLayers,0
;   denseSupportExtruder,1
;   denseSupportLayers,0
;   denseSupportInfillPercentage,70
;   supportLayerInterval,1
;   supportHorizontalPartOffset,0.3
;   supportUpperSeparationLayers,1
;   supportLowerSeparationLayers,1
;   supportType,0
;   supportGridSpacing,1.5
;   maxOverhangAngle,45
;   supportAngles,0
;   temperatureName,Right Extruder,Left Extruder,Heated Build Platform
;   temperatureNumber,0,1,0
;   temperatureSetpointCount,1,1,1
;   temperatureSetpointLayers,1,1,1
;   temperatureSetpointTemperatures,0,210,60
;   temperatureStabilizeAtStartup,0,0,0
;   temperatureHeatedBed,0,0,1
;   fanLayers,1,2
;   fanSpeeds,0,100
;   blipFanToFullPower,0
;   adjustSpeedForCooling,1
;   minSpeedLayerTime,15
;   minCoolingSpeedSlowdown,20
;   increaseFanForCooling,0
;   minFanLayerTime,45
;   maxCoolingFanSpeed,100
;   increaseFanForBridging,1
;   bridgingFanSpeed,100
;   use5D,1
;   relativeEdistances,1
;   allowEaxisZeroing,0
;   independentExtruderAxes,1
;   includeM10123,0
;   stickySupport,1
;   applyToolheadOffsets,0
;   gcodeXoffset,0
;   gcodeYoffset,0
;   gcodeZoffset,0
;   overrideMachineDefinition,1
;   machineTypeOverride,0
;   strokeXoverride,225
;   strokeYoverride,145
;   strokeZoverride,150
;   originOffsetXoverride,112.5
;   originOffsetYoverride,72.5
;   originOffsetZoverride,0
;   homeXdirOverride,1
;   homeYdirOverride,1
;   homeZdirOverride,-1
;   flipXoverride,1
;   flipYoverride,-1
;   flipZoverride,1
;   toolheadOffsets,0,0|34,0|0,0|0,0|0,0|0,0
;   overrideFirmwareConfiguration,1
;   firmwareTypeOverride,MakerBot/Sailfish Firmware
;   GPXconfigOverride,r1d
;   baudRateOverride,115200
;   overridePrinterModels,1
;   printerModelsOverride,FlashForge_CreatorPro.stl
;   startingGcode,; **** Replicator 1 dual start.gcode ****,M73 P0 ; enable build progress,G162 X Y F3000 ; home XY maximum,G161 Z F1200 ; home Z minimum,G92 Z-5 ; set Z to -5,G1 Z0 ; move Z to 0,G161 Z F100 ; home Z slowly,M132 X Y Z A B ; recall home offsets,M135 T0 ; load right extruder offsets,G1 X-110 Y-70 Z30 F9000 ; move to wait position left hand side of the table,G130 X20 Y20 Z20 A20 B20 ; lower stepper Vrefs while heating,M126 S[fan_speed_pwm],M140 S[bed0_temperature] T0,M134 T0 ; stabilize bed temperature,M104 S[extruder1_temperature] T1,M133 T1 ; stabilize left extruder temperature,G130 X127 Y127 Z40 A127 B127 ; default stepper Vrefs,G92 A0 B0 ; zero extruders,G1 Z0.4 ; position nozzle,M135 T1 ; left tool,G1 X-140 Y-70 F9000 ; reposition nozzle,G1 X-100 Y-70 E25 F300 ; purge nozzle,G1 X-110 Y-70 Z0.15 F1200 ; slow wipe,G1 X-100 Y-70 Z0.5 F1200 ; lift,G92 A0 B0 ; zero extruders,M73 P1 ;@body (notify GPX body has started),; **** end of start.gcode ****
;   layerChangeGcode,
;   retractionGcode,
;   toolChangeGcode,
;   endingGcode,; **** Replicator 1 dual end.gcode ****,M73 P100 ; end build progress,G1 Z150 F1000 ; send Z axis to bottom of machine,M140 S0 T0 ; cool down HBP,M104 S0 T0 ; cool down right extruder,M104 S0 T1 ; cool down left extruder,M127 ; stop blower fan,G162 X Y F3000 ; home XY maximum,M18 ; disable stepper,M72 P1 ; play Ta-Da song,; **** end of end.gcode ****
;   exportFileFormat,x3g
;   celebration,0
;   celebrationSong,Random Song
;   postProcessing,
;   defaultSpeed,5400
;   outlineUnderspeed,0.5
;   solidInfillUnderspeed,0.8
;   supportUnderspeed,0.8
;   rapidXYspeed,4200
;   rapidZspeed,1200
;   minBridgingArea,50
;   bridgingExtraInflation,0
;   bridgingExtrusionMultiplier,1
;   bridgingSpeedMultiplier,0.8
;   useFixedBridgingAngle,0
;   fixedBridgingAngle,0
;   applyBridgingToPerimeters,0
;   filamentDiameters,1.75|1.75|1.75|1.75|1.75|1.75
;   filamentPricesPerKg,46|46|46|46|46|46
;   filamentDensities,1.25|1.25|1.25|1.25|1.25|1.25
;   useMinPrintHeight,0
;   minPrintHeight,0
;   useMaxPrintHeight,0
;   maxPrintHeight,0
;   useDiaphragm,0
;   diaphragmLayerInterval,20
;   robustSlicing,1
;   mergeAllIntoSolid,0
;   onlyRetractWhenCrossingOutline,1
;   retractBetweenLayers,1
;   useRetractionMinTravel,0
;   retractionMinTravel,3
;   retractWhileWiping,0
;   onlyWipeOutlines,1
;   avoidCrossingOutline,0
;   maxMovementDetourFactor,3
;   toolChangeRetractionDistance,12
;   toolChangeExtraRestartDistance,-0.5
;   toolChangeRetractionSpeed,600
;   externalThinWallType,0
;   internalThinWallType,2
;   thinWallAllowedOverlapPercentage,10
;   singleExtrusionMinLength,1
;   singleExtrusionMinPrintingWidthPercentage,50
;   singleExtrusionMaxPrintingWidthPercentage,200
;   singleExtrusionEndpointExtension,0.2
;   horizontalSizeCompensation,0
G90
M83
; **** Replicator 1 dual start.gcode ****
M73 P0 ; enable build progress
G162 X Y F3000 ; home XY maximum
G161 Z F1200 ; home Z minimum
G92 Z-5 ; set Z to -5
G1 Z0 ; move Z to 0
G161 Z F100 ; home Z slowly
M132 X Y Z A B ; recall home offsets
M135 T0 ; load right extruder offsets
G1 X-110 Y-70 Z30 F9000 ; move to wait position left hand side of the table
G130 X20 Y20 Z20 A20 B20 ; lower stepper Vrefs while heating
M127
M140 S60 T0
M134 T0 ; stabilize bed temperature
M104 S210 T1
M133 T1 ; stabilize left extruder temperature
G130 X127 Y127 Z40 A127 B127 ; default stepper Vrefs
G92 A0 B0 ; zero extruders
G1 Z0.4 ; position nozzle
M135 T1 ; left tool
G1 X-140 Y-70 F9000 ; reposition nozzle
G1 X-100 Y-70 E25 F300 ; purge nozzle
G1 X-110 Y-70 Z0.15 F1200 ; slow wipe
G1 X-100 Y-70 Z0.5 F1200 ; lift
G92 A0 B0 ; zero extruders
M73 P1 ;@body (notify GPX body has started)
; **** end of start.gcode ****
; process Normal Quick
; layer 1, Z = 0.180
M135 T1
G1 E-1.5000 F1200
; feature skirt
; tool H0.180 W0.400
G1 Z0.180 F1200
G1 X25.923 Y-33.950 F4200
G1 E1.5000 F1200
G1 X26.269 Y-33.931 E0.0093 F2160
G1 X27.228 Y-33.823 E0.0260
G1 X27.904 Y-33.670 E0.0187
G1 X28.982 Y-33.294 E0.0308
G1 X29.610 Y-32.993 E0.0188
G1 X30.580 Y-32.385 E0.0308
G1 X31.125 Y-31.952 E0.0188
G1 X31.937 Y-31.143 E0.0309
G1 X32.375 Y-30.595 E0.0189
G1 X32.989 Y-29.617 E0.0311
G1 X33.293 Y-28.985 E0.0189
G1 X33.670 Y-27.904 E0.0308
G1 X33.823 Y-27.228 E0.0187
G1 X33.931 Y-26.270 E0.0260
G1 X33.950 Y-25.923 E0.0093
G1 X33.950 Y25.923 E1.3968
G1 X33.931 Y26.270 E0.0093
G1 X33.823 Y27.228 E0.0260
G1 X33.670 Y27.904 E0.0187
G1 X33.294 Y28.982 E0.0308
G1 X32.993 Y29.610 E0.0188
G1 X32.386 Y30.580 E0.0308
G1 X31.952 Y31.125 E0.0188
G1 X31.143 Y31.937 E0.0309
G1 X30.595 Y32.375 E0.0189
G1 X29.617 Y32.989 E0.0311
G1 X28.985 Y33.293 E0.0189
G1 X27.904 Y33.670 E0.0308
G1 X27.228 Y33.823 E0.0187
G1 X26.269 Y33.931 E0.0260
G1 X25.923 Y33.950 E0.0093
G1 X-25.923 Y33.950 E1.3968
G1 X-26.269 Y33.931 E0.0093
G1 X-27.228 Y33.823 E0.0260
G1 X-27.904 Y33.670 E0.0187
G1 X-28.982 Y33.294 E0.0308
G1 X-29.610 Y32.993 E0.0188
G1 X-30.580 Y32.385 E0.0308
G1 X-31.125 Y31.952 E0.0188
G1 X-31.937 Y31.143 E0.0309
G1 X-32.375 Y30.595 E0.0189
G1 X-32.989 Y29.617 E0.0311
G1 X-33.293 Y28.985 E0.0189
G1 X-33.670 Y27.904 E0.0308
G1 X-33.823 Y27.228 E0.0187
G1 X-33.931 Y26.270 E0.0260
G1 X-33.950 Y25.923 E0.0093
G1 X-33.950 Y-25.923 E1.3968
G1 X-33.931 Y-26.270 E0.0093
G1 X-33.823 Y-27.228 E0.0260
G1 X-33.670 Y-27.904 E0.0187
G1 X-33.293 Y-28.985 E0.0308
G1 X-32.989 Y-29.617 E0.0189
G1 X-32.375 Y-30.595 E0.0311
G1 X-31.937 Y-31.143 E0.0189
G1 X-31.127 Y-31.950 E0.0308
G1 X-30.586 Y-32.381 E0.0186
G1 X-29.624 Y-32.985 E0.0306
G1 X-28.997 Y-33.287 E0.0188
G1 X-27.911 Y-33.667 E0.0310
G1 X-27.232 Y-33.822 E0.0188
G1 X-26.274 Y-33.930 E0.0260
G1 X-25.927 Y-33.950 E0.0094
G1 X25.923 Y-33.950 E1.3969
G1 E-1.5000 F1200
G1 X25.912 Y-33.550 F4200
G1 E1.5000 F1200
G1 X26.236 Y-33.532 E0.0087 F2160
G1 X27.161 Y-33.428 E0.0251
G1 X27.793 Y-33.284 E0.0175
G1 X28.830 Y-32.923 E0.0296
G1 X29.417 Y-32.642 E0.0176
G1 X30.349 Y-32.058 E0.0296
G1 X30.859 Y-31.653 E0.0175
G1 X31.639 Y-30.875 E0.0297
G1 X32.048 Y-30.363 E0.0177
G1 X32.639 Y-29.423 E0.0299
G1 X32.923 Y-28.832 E0.0177
G1 X33.284 Y-27.793 E0.0296
G1 X33.428 Y-27.161 E0.0175
G1 X33.532 Y-26.236 E0.0251
G1 X33.550 Y-25.912 E0.0087
G1 X33.550 Y25.912 E1.3962
G1 X33.532 Y26.236 E0.0087
G1 X33.428 Y27.161 E0.0251
G1 X33.284 Y27.793 E0.0175
G1 X32.924 Y28.830 E0.0296
G1 X32.642 Y29.417 E0.0175
G1 X32.058 Y30.349 E0.0296
G1 X31.653 Y30.859 E0.0176
G1 X30.875 Y31.639 E0.0297
G1 X30.363 Y32.048 E0.0177
G1 X29.423 Y32.639 E0.0299
G1 X28.832 Y32.923 E0.0177
G1 X27.793 Y33.284 E0.0296
G1 X27.161 Y33.428 E0.0175
G1 X26.236 Y33.532 E0.0251
G1 X25.912 Y33.550 E0.0087
G1 X-25.912 Y33.550 E1.3962
G1 X-26.236 Y33.532 E0.0087
G1 X-27.161 Y33.428 E0.0251
G1 X-27.793 Y33.284 E0.0175
G1 X-28.830 Y32.923 E0.0296
G1 X-29.417 Y32.642 E0.0176
G1 X-30.349 Y32.058 E0.0296
G1 X-30.859 Y31.653 E0.0175
G1 X-31.639 Y30.875 E0.0297
G1 X-32.048 Y30.363 E0.0177
G1 X-32.639 Y29.423 E0.0299
G1 X-32.923 Y28.832 E0.0177
G1 X-33.284 Y27.793 E0.0296
G1 X-33.428 Y27.161 E0.0175
G1 X-33.532 Y26.236 E0.0251
G1 X-33.550 Y25.912 E0.0087
G1 X-33.550 Y-25.912 E1.3962
G1 X-33.532 Y-26.236 E0.0087
G1 X-33.428 Y-27.161 E0.0251
G1 X-33.284 Y-27.793 E0.0175
G1 X-32.923 Y-28.832 E0.0296
G1 X-32.639 Y-29.423 E0.0177
G1 X-32.048 Y-30.363 E0.0299
G1 X-31.639 Y-30.875 E0.0177
G1 X-30.860 Y-31.651 E0.0296
G1 X-30.354 Y-32.054 E0.0174
G1 X-29.431 Y-32.635 E0.0294
G1 X-28.844 Y-32.917 E0.0176
G1 X-27.800 Y-33.282 E0.0298
G1 X-27.165 Y-33.427 E0.0176
G1 X-26.241 Y-33.532 E0.0251
G1 X-25.916 Y-33.550 E0.0088
G1 X25.912 Y-33.550 E1.3963
G1 E-1.5000 F1200
G1 X25.901 Y-33.150 F4200
G1 E1.5000 F1200
G1 X26.202 Y-33.133 E0.0081 F2160
G1 X27.094 Y-33.033 E0.0242
G1 X27.683 Y-32.899 E0.0163
G1 X28.677 Y-32.553 E0.0284
G1 X29.224 Y-32.291 E0.0163
G1 X30.117 Y-31.731 E0.0284
G1 X30.592 Y-31.354 E0.0163
G1 X31.340 Y-30.608 E0.0285
G1 X31.721 Y-30.131 E0.0165
G1 X32.288 Y-29.229 E0.0287
G1 X32.552 Y-28.679 E0.0165
G1 X32.899 Y-27.683 E0.0284
G1 X33.033 Y-27.094 E0.0163
G1 X33.133 Y-26.203 E0.0242
G1 X33.150 Y-25.901 E0.0081
G1 X33.150 Y25.901 E1.3956
G1 X33.133 Y26.203 E0.0081
G1 X33.033 Y27.094 E0.0242
G1 X32.899 Y27.683 E0.0163
G1 X32.553 Y28.677 E0.0284
G1 X32.291 Y29.224 E0.0163
G1 X31.731 Y30.117 E0.0284
G1 X31.354 Y30.592 E0.0163
G1 X30.608 Y31.340 E0.0285
G1 X30.131 Y31.721 E0.0165
G1 X29.229 Y32.288 E0.0287
G1 X28.679 Y32.552 E0.0165
G1 X27.683 Y32.899 E0.0284
G1 X27.094 Y33.033 E0.0163
G1 X26.202 Y33.133 E0.0242
G1 X25.901 Y33.150 E0.0081
G1 X-25.901 Y33.150 E1.3956
G1 X-26.202 Y33.133 E0.0081
G1 X-27.094 Y33.033 E0.0242
G1 X-27.683 Y32.899 E0.0163
G1 X-28.677 Y32.553 E0.0284
G1 X-29.224 Y32.291 E0.0163
G1 X-30.117 Y31.731 E0.0284
G1 X-30.592 Y31.354 E0.0163
G1 X-31.340 Y30.608 E0.0285
G1 X-31.721 Y30.131 E0.0165
G1 X-32.288 Y29.229 E0.0287
G1 X-32.552 Y28.679 E0.0165
G1 X-32.899 Y27.683 E0.0284
G1 X-33.033 Y27.094 E0.0163
G1 X-33.133 Y26.203 E0.0242
G1 X-33.150 Y25.901 E0.0081
G1 X-33.150 Y-25.901 E1.3956
G1 X-33.133 Y-26.203 E0.0081
G1 X-33.033 Y-27.094 E0.0242
G1 X-32.899 Y-27.683 E0.0163
G1 X-32.552 Y-28.679 E0.0284
G1 X-32.288 Y-29.229 E0.0165
G1 X-31.721 Y-30.131 E0.0287
G1 X-31.340 Y-30.608 E0.0165
G1 X-30.594 Y-31.352 E0.0284
G1 X-30.122 Y-31.728 E0.0162
G1 X-29.237 Y-32.284 E0.0282
G1 X-28.690 Y-32.547 E0.0163
G1 X-27.689 Y-32.897 E0.0286
G1 X-27.098 Y-33.032 E0.0163
G1 X-26.207 Y-33.133 E0.0241
G1 X-25.905 Y-33.150 E0.0082
G1 X25.901 Y-33.150 E1.3957
G1 E-1.5000 F1200
G1 X25.890 Y-32.750 F4200
G1 E1.5000 F1200
G1 X26.169 Y-32.734 E0.0075 F2160
G1 X27.027 Y-32.638 E0.0233
G1 X27.572 Y-32.514 E0.0151
G1 X28.524 Y-32.183 E0.0272
G1 X29.031 Y-31.940 E0.0151
G1 X29.886 Y-31.404 E0.0272
G1 X30.326 Y-31.055 E0.0151
G1 X31.042 Y-30.341 E0.0272
G1 X31.395 Y-29.899 E0.0152
G1 X31.937 Y-29.036 E0.0275
G1 X32.182 Y-28.526 E0.0152
G1 X32.514 Y-27.572 E0.0272
G1 X32.638 Y-27.027 E0.0151
G1 X32.734 Y-26.169 E0.0233
G1 X32.750 Y-25.890 E0.0075
G1 X32.750 Y25.890 E1.3950
G1 X32.734 Y26.169 E0.0075
G1 X32.638 Y27.027 E0.0233
G1 X32.514 Y27.572 E0.0151
G1 X32.183 Y28.524 E0.0272
G1 X31.940 Y29.030 E0.0151
G1 X31.404 Y29.886 E0.0272
G1 X31.055 Y30.326 E0.0151
G1 X30.341 Y31.042 E0.0272
G1 X29.899 Y31.395 E0.0152
G1 X29.036 Y31.937 E0.0275
G1 X28.526 Y32.182 E0.0152
G1 X27.572 Y32.514 E0.0272
G1 X27.027 Y32.638 E0.0151
G1 X26.169 Y32.734 E0.0233
G1 X25.890 Y32.750 E0.0075
G1 X-25.890 Y32.750 E1.3950
G1 X-26.169 Y32.734 E0.0075
G1 X-27.027 Y32.638 E0.0233
G1 X-27.572 Y32.514 E0.0151
G1 X-28.524 Y32.183 E0.0272
G1 X-29.031 Y31.940 E0.0151
G1 X-29.886 Y31.404 E0.0272
G1 X-30.326 Y31.055 E0.0151
G1 X-31.042 Y30.341 E0.0272
G1 X-31.395 Y29.899 E0.0152
G1 X-31.937 Y29.036 E0.0275
G1 X-32.182 Y28.526 E0.0152
G1 X-32.514 Y27.572 E0.0272
G1 X-32.638 Y27.027 E0.0151
G1 X-32.734 Y26.169 E0.0233
G1 X-32.750 Y25.890 E0.0075
G1 X-32.750 Y-25.890 E1.3950
G1 X-32.734 Y-26.169 E0.0075
G1 X-32.638 Y-27.027 E0.0233
G1 X-32.514 Y-27.572 E0.0151
G1 X-32.182 Y-28.526 E0.0272
G1 X-31.937 Y-29.036 E0.0152
G1 X-31.395 Y-29.899 E0.0275
G1 X-31.042 Y-30.341 E0.0152
G1 X-30.327 Y-31.053 E0.0272
G1 X-29.891 Y-31.401 E0.0150
G1 X-29.043 Y-31.933 E0.0270
G1 X-28.537 Y-32.177 E0.0151
G1 X-27.578 Y-32.513 E0.0274
G1 X-27.031 Y-32.637 E0.0151
G1 X-26.174 Y-32.734 E0.0232
G1 X-25.893 Y-32.750 E0.0076
G1 X25.890 Y-32.750 E1.3951
G1 E-1.5000 F1200
G1 X25.879 Y-32.350 F4200
G1 E1.5000 F1200
G1 X26.135 Y-32.336 E0.0069 F2160
G1 X26.961 Y-32.243 E0.0224
G1 X27.462 Y-32.129 E0.0138
G1 X28.371 Y-31.812 E0.0259
G1 X28.837 Y-31.589 E0.0139
G1 X29.655 Y-31.077 E0.0260
G1 X30.059 Y-30.756 E0.0139
G1 X30.743 Y-30.073 E0.0260
G1 X31.068 Y-29.667 E0.0140
G1 X31.586 Y-28.842 E0.0262
G1 X31.812 Y-28.373 E0.0140
G1 X32.129 Y-27.462 E0.0260
G1 X32.243 Y-26.961 E0.0138
G1 X32.336 Y-26.135 E0.0224
G1 X32.350 Y-25.879 E0.0069
G1 X32.350 Y25.879 E1.3944
G1 X32.336 Y26.135 E0.0069
G1 X32.243 Y26.961 E0.0224
G1 X32.129 Y27.462 E0.0138
G1 X31.812 Y28.371 E0.0259
G1 X31.589 Y28.837 E0.0139
G1 X31.077 Y29.655 E0.0260
G1 X30.756 Y30.059 E0.0139
G1 X30.073 Y30.743 E0.0260
G1 X29.667 Y31.068 E0.0140
