;FLAVOR:Marlin
;TIME:27412
;Filament used: 19.6103m
;Layer height: 0.2
;MINX:24
;MINY:106.5
;MINZ:0.2
;MAXX:276
;MAXY:193.5
;MAXZ:35
;Generated with Cura_SteamEngine 5.2.1
M140 S60
M105
M190 S60
M104 S210
M105
M109 S210
M82 ;absolute extrusion mode
M201 X500.00 Y500.00 Z100.00 E5000.00 ;Setup machine max acceleration
M203 X500.00 Y500.00 Z10.00 E50.00 ;Setup machine max feedrate
M204 P500.00 R1000.00 T500.00 ;Setup Print/Retract/Travel acceleration
M205 X8.00 Y8.00 Z0.40 E5.00 ;Setup Jerk
M220 S100 ;Reset Feedrate
M221 S100 ;Reset Flowrate

G28 ;Home
G29 ;Auto bed Level

G92 E0 ;Reset Extruder
G1 Z2.0 F3000 ;Move Z Axis up
G1 X10.1 Y20 Z0.28 F5000.0 ;Move to start position
G1 X10.1 Y200.0 Z0.28 F1500.0 E15 ;Draw the first line
G1 X10.4 Y200.0 Z0.28 F5000.0 ;Move to side a little
G1 X10.4 Y20 Z0.28 F1500.0 E30 ;Draw the second line
G92 E0 ;Reset Extruder
G1 Z2.0 F3000 ;Move Z Axis up

G92 E0
G92 E0
G1 F2700 E-7
;LAYER_COUNT:175
;LAYER:0
M107
G0 F6000 X31.991 Y106.931 Z0.2
;TYPE:SKIRT
G1 F2700 E0
G1 F1200 X32.903 Y106.713 E0.03119
G1 X33.83 Y106.572 E0.06237
G1 X34.701 Y106.513 E0.09141
G1 X35.33 Y106.5 E0.11234
G1 X264.451 Y106.501 E7.73293
G1 X265.149 Y106.511 E7.75615
G1 X266.085 Y106.565 E7.78733
G1 X267.013 Y106.697 E7.81851
G1 X267.927 Y106.909 E7.84972
G1 X268.819 Y107.198 E7.8809
G1 X269.684 Y107.561 E7.9121
G1 X270.514 Y107.997 E7.94329
G1 X271.305 Y108.502 E7.9745
G1 X272.049 Y109.073 E8.00569
G1 X272.742 Y109.705 E8.03689
G1 X273.379 Y110.393 E8.06807
G1 X273.954 Y111.134 E8.09927
G1 X274.465 Y111.92 E8.13045
G1 X274.907 Y112.748 E8.16167
G1 X275.276 Y113.61 E8.19285
G1 X275.571 Y114.5 E8.22404
G1 X275.789 Y115.412 E8.25523
G1 X275.929 Y116.34 E8.28644
G1 X275.987 Y117.201 E8.31514
G1 X276 Y117.83 E8.33607
G1 X275.999 Y181.9 E10.46704
G1 X275.99 Y182.627 E10.49123
G1 X275.939 Y183.564 E10.52244
G1 X275.807 Y184.492 E10.55361
G1 X275.598 Y185.406 E10.5848
G1 X275.311 Y186.299 E10.616
G1 X274.949 Y187.165 E10.64721
G1 X274.515 Y187.996 E10.6784
G1 X274.011 Y188.787 E10.70959
G1 X273.442 Y189.532 E10.74077
G1 X272.811 Y190.227 E10.77199
G1 X272.124 Y190.865 E10.80318
G1 X271.385 Y191.442 E10.83436
G1 X270.599 Y191.954 E10.86556
G1 X269.773 Y192.397 E10.89673
G1 X268.911 Y192.769 E10.92796
G1 X268.022 Y193.065 E10.95912
G1 X267.11 Y193.285 E10.99033
G1 X266.183 Y193.426 E11.02151
G1 X265.299 Y193.487 E11.05099
G1 X264.67 Y193.5 E11.07191
G1 X234.437 Y193.499 E12.07746
G1 X233.727 Y193.488 E12.10108
G1 X232.79 Y193.433 E12.1323
G1 X232.164 Y193.352 E12.15329
G1 X230.74 Y193.125 E12.20126
G1 X228.242 Y192.768 E12.28518
G1 X225.738 Y192.482 E12.36901
G1 X223.198 Y192.264 E12.4538
G1 X220.697 Y192.121 E12.53712
G1 X218.201 Y192.049 E12.62017
G1 X215.678 Y192.047 E12.70409
G1 X213.165 Y192.116 E12.7877
G1 X210.627 Y192.259 E12.87225
G1 X208.149 Y192.469 E12.95496
G1 X205.609 Y192.755 E13.03998
G1 X203.129 Y193.107 E13.12329
G1 X201.671 Y193.346 E13.17243
G1 X200.74 Y193.458 E13.20362
G1 X200.199 Y193.487 E13.22164
G1 X199.57 Y193.5 E13.24256
G1 X139.837 Y193.499 E15.22929
G1 X139.127 Y193.488 E15.25291
G1 X138.19 Y193.433 E15.28413
G1 X137.564 Y193.352 E15.30512
G1 X136.14 Y193.125 E15.35308
G1 X133.642 Y192.768 E15.43701
G1 X131.138 Y192.482 E15.52083
G1 X128.598 Y192.264 E15.60563
G1 X126.097 Y192.121 E15.68894
G1 X123.601 Y192.049 E15.772
G1 X121.078 Y192.047 E15.85591
G1 X118.565 Y192.116 E15.93953
G1 X116.027 Y192.259 E16.02407
G1 X113.549 Y192.469 E16.10679
G1 X111.009 Y192.755 E16.1918
G1 X108.529 Y193.107 E16.27511
G1 X107.071 Y193.346 E16.32425
G1 X106.14 Y193.458 E16.35544
G1 X105.599 Y193.487 E16.37346
G1 X104.97 Y193.5 E16.39439
G1 X35.565 Y193.499 E18.70281
G1 X34.867 Y193.49 E18.72603
G1 X33.931 Y193.438 E18.7572
G1 X33.002 Y193.306 E18.78841
G1 X32.088 Y193.096 E18.81961
G1 X31.195 Y192.809 E18.8508
G1 X30.33 Y192.446 E18.882
G1 X29.499 Y192.012 E18.91319
G1 X28.708 Y191.508 E18.94438
G1 X27.963 Y190.938 E18.97558
G1 X27.269 Y190.307 E19.00678
G1 X26.632 Y189.62 E19.03794
G1 X26.055 Y188.88 E19.06915
G1 X25.543 Y188.094 E19.10035
G1 X25.1 Y187.267 E19.13155
G1 X24.729 Y186.406 E19.16273
G1 X24.433 Y185.516 E19.19393
G1 X24.214 Y184.604 E19.22513
G1 X24.073 Y183.677 E19.25631
G1 X24.013 Y182.788 E19.28595
G1 X24 Y182.158 E19.30691
G1 X24.001 Y118.025 E21.43998
G1 X24.01 Y117.36 E21.4621
G1 X24.063 Y116.424 E21.49328
G1 X24.195 Y115.495 E21.52449
G1 X24.406 Y114.581 E21.55569
G1 X24.694 Y113.689 E21.58686
G1 X25.057 Y112.824 E21.61806
G1 X25.492 Y111.993 E21.64926
G1 X25.996 Y111.203 E21.68043
G1 X26.566 Y110.458 E21.71163
G1 X27.198 Y109.764 E21.74285
G1 X27.886 Y109.127 E21.77403
G1 X28.626 Y108.551 E21.80522
G1 X29.412 Y108.039 E21.83642
G1 X30.239 Y107.597 E21.86761
G1 X31.101 Y107.227 E21.89881
G1 X31.991 Y106.931 E21.93001
G0 F6000 X32.345 Y107.249
G1 F1200 X33.245 Y107.057 E21.96061
G1 X34.159 Y106.943 E21.99125
G1 X34.712 Y106.913 E22.00967
G1 X35.33 Y106.9 E22.03023
G1 X264.445 Y106.901 E29.65062
G1 X265.143 Y106.911 E29.67384
G1 X266.062 Y106.964 E29.70446
G1 X266.973 Y107.097 E29.73508
G1 X267.869 Y107.308 E29.7657
G1 X268.743 Y107.596 E29.7963
G1 X269.59 Y107.959 E29.82695
G1 X270.401 Y108.394 E29.85756
G1 X271.171 Y108.898 E29.88817
G1 X271.895 Y109.467 E29.9188
G1 X272.567 Y110.097 E29.94943
G1 X273.182 Y110.782 E29.98005
G1 X273.735 Y111.518 E30.01067
G1 X274.222 Y112.299 E30.04129
G1 X274.639 Y113.12 E30.07191
G1 X274.984 Y113.974 E30.10255
G1 X275.253 Y114.854 E30.13315
G1 X275.445 Y115.755 E30.16379
G1 X275.558 Y116.668 E30.19439
G1 X275.587 Y117.212 E30.21251
G1 X275.6 Y117.83 E30.23307
G1 X275.599 Y181.895 E32.36388
G1 X275.59 Y182.622 E32.38806
G1 X275.539 Y183.541 E32.41867
G1 X275.408 Y184.453 E32.44932
G1 X275.198 Y185.349 E32.47993
G1 X274.912 Y186.224 E32.51055
G1 X274.551 Y187.071 E32.54117
G1 X274.117 Y187.883 E32.57179
G1 X273.615 Y188.655 E32.60242
G1 X273.047 Y189.38 E32.63305
G1 X272.419 Y190.053 E32.66367
G1 X271.735 Y190.669 E32.69428
G1 X271 Y191.223 E32.7249
G1 X270.22 Y191.712 E32.75552
G1 X269.4 Y192.131 E32.78614
G1 X268.547 Y192.477 E32.81676
G1 X267.667 Y192.748 E32.84739
G1 X266.767 Y192.941 E32.878
G1 X265.853 Y193.056 E32.90864
G1 X265.288 Y193.087 E32.92746
G1 X264.67 Y193.1 E32.94802
G1 X234.443 Y193.099 E33.95337
G1 X233.733 Y193.088 E33.97699
G1 X232.814 Y193.034 E34.00761
G1 X232.227 Y192.957 E34.0273
G1 X230.794 Y192.728 E34.07557
G1 X228.312 Y192.374 E34.15895
G1 X225.742 Y192.08 E34.24499
G1 X223.257 Y191.867 E34.32794
G1 X220.732 Y191.723 E34.41206
G1 X218.178 Y191.649 E34.49705
G1 X215.667 Y191.647 E34.58056
G1 X213.13 Y191.717 E34.66497
G1 X210.61 Y191.859 E34.74892
G1 X208.104 Y192.071 E34.83257
G1 X205.579 Y192.355 E34.91708
G1 X203.059 Y192.713 E35.00174
G1 X201.607 Y192.951 E35.05068
G1 X200.692 Y193.061 E35.08133
G1 X200.188 Y193.087 E35.09811
G1 X199.57 Y193.1 E35.11867
G1 X139.843 Y193.099 E37.1052
G1 X139.133 Y193.088 E37.12882
G1 X138.214 Y193.034 E37.15944
G1 X137.627 Y192.957 E37.17913
G1 X136.194 Y192.728 E37.2274
G1 X133.712 Y192.374 E37.31078
G1 X131.142 Y192.08 E37.39682
G1 X128.657 Y191.867 E37.47977
G1 X126.132 Y191.723 E37.56389
G1 X123.578 Y191.649 E37.64887
G1 X121.067 Y191.647 E37.73239
G1 X118.53 Y191.717 E37.8168
G1 X116.01 Y191.859 E37.90075
G1 X113.504 Y192.071 E37.9844
G1 X110.979 Y192.355 E38.06891
G1 X108.459 Y192.713 E38.15357
G1 X107.007 Y192.951 E38.20251
G1 X106.092 Y193.061 E38.23316
G1 X105.588 Y193.087 E38.24994
G1 X104.97 Y193.1 E38.2705
G1 X35.57 Y193.099 E40.57876
G1 X34.872 Y193.09 E40.60197
G1 X33.953 Y193.038 E40.63259
G1 X33.042 Y192.907 E40.6632
G1 X32.146 Y192.697 E40.69381
G1 X31.271 Y192.41 E40.72444
G1 X30.424 Y192.048 E40.75507
G1 X29.612 Y191.614 E40.7857
G1 X28.841 Y191.112 E40.8163
G1 X28.116 Y190.544 E40.84693
G1 X27.443 Y189.915 E40.87757
G1 X26.828 Y189.231 E40.90816
G1 X26.274 Y188.496 E40.93877
G1 X25.786 Y187.715 E40.9694
G1 X25.367 Y186.895 E41.00003
G1 X25.021 Y186.042 E41.03065
G1 X24.751 Y185.162 E41.06126
G1 X24.558 Y184.261 E41.09191
G1 X24.444 Y183.348 E41.12251
G1 X24.413 Y182.777 E41.14153
G1 X24.4 Y182.158 E41.16212
G1 X24.401 Y118.031 E43.295
G1 X24.41 Y117.366 E43.31712
G1 X24.462 Y116.446 E43.34777
G1 X24.594 Y115.535 E43.37838
G1 X24.805 Y114.639 E43.409
G1 X25.092 Y113.764 E43.43963
G1 X25.455 Y112.918 E43.47025
G1 X25.889 Y112.106 E43.50087
G1 X26.392 Y111.335 E43.53149
G1 X26.961 Y110.611 E43.56211
G1 X27.589 Y109.939 E43.59271
G1 X28.274 Y109.323 E43.62335
G1 X29.01 Y108.77 E43.65396
G1 X29.791 Y108.282 E43.6846
G1 X30.611 Y107.864 E43.71521
G1 X31.465 Y107.519 E43.74584
G1 X32.345 Y107.249 E43.77646
G0 F6000 X32.696 Y107.575
G1 F1200 X33.584 Y107.409 E43.8065
G1 X34.723 Y107.313 E43.84452
G1 X35.33 Y107.3 E43.86472
G1 X264.439 Y107.301 E51.48491
G1 X265.137 Y107.311 E51.50813
G1 X266.039 Y107.364 E51.53818
G1 X266.932 Y107.496 E51.56821
G1 X267.81 Y107.707 E51.59824
G1 X268.666 Y107.995 E51.62828
G1 X269.493 Y108.357 E51.6583
G1 X270.285 Y108.792 E51.68836
G1 X271.036 Y109.294 E51.7184
G1 X271.739 Y109.861 E51.74844
G1 X272.389 Y110.488 E51.77848
G1 X272.981 Y111.17 E51.80852
G1 X273.511 Y111.901 E51.83855
G1 X273.973 Y112.677 E51.86859
G1 X274.366 Y113.49 E51.89862
G1 X274.684 Y114.335 E51.92865
G1 X274.927 Y115.205 E51.95869
G1 X275.092 Y116.093 E51.98873
G1 X275.187 Y117.223 E52.02645
G1 X275.2 Y117.83 E52.04664
G1 X275.199 Y181.89 E54.17729
G1 X275.19 Y182.617 E54.20147
G1 X275.139 Y183.519 E54.23152
G1 X275.008 Y184.413 E54.26157
G1 X274.799 Y185.291 E54.29159
G1 X274.513 Y186.148 E54.32164
G1 X274.152 Y186.976 E54.35168
G1 X273.72 Y187.768 E54.38169
G1 X273.219 Y188.52 E54.41174
G1 X272.653 Y189.224 E54.44179
G1 X272.028 Y189.875 E54.4718
G1 X271.347 Y190.469 E54.50186
G1 X270.616 Y191 E54.53191
G1 X269.842 Y191.464 E54.56192
G1 X269.029 Y191.858 E54.59197
G1 X268.185 Y192.178 E54.62199
G1 X267.315 Y192.423 E54.65205
G1 X266.428 Y192.589 E54.68207
G1 X265.277 Y192.687 E54.72049
G1 X264.67 Y192.7 E54.74068
G1 X234.449 Y192.699 E55.74584
G1 X233.739 Y192.688 E55.76946
G1 X232.837 Y192.634 E55.79951
G1 X232.29 Y192.562 E55.81786
G1 X230.849 Y192.332 E55.86639
G1 X228.343 Y191.974 E55.95059
G1 X225.825 Y191.687 E56.03488
G1 X223.243 Y191.465 E56.12108
G1 X220.767 Y191.324 E56.20356
G1 X218.189 Y191.249 E56.28934
G1 X215.656 Y191.247 E56.37359
G1 X213.133 Y191.317 E56.45754
G1 X210.588 Y191.46 E56.54232
G1 X208.061 Y191.673 E56.62667
G1 X205.515 Y191.961 E56.71189
G1 X202.982 Y192.32 E56.79698
G1 X201.542 Y192.556 E56.84551
G1 X200.645 Y192.663 E56.87555
G1 X200.177 Y192.687 E56.89114
G1 X199.57 Y192.7 E56.91133
G1 X139.849 Y192.699 E58.89766
G1 X139.139 Y192.688 E58.92128
G1 X138.237 Y192.634 E58.95134
G1 X137.69 Y192.562 E58.96969
G1 X136.249 Y192.332 E59.01822
G1 X133.743 Y191.974 E59.10242
G1 X131.225 Y191.687 E59.18671
G1 X128.643 Y191.465 E59.2729
G1 X126.167 Y191.324 E59.35539
G1 X123.589 Y191.249 E59.44117
G1 X121.056 Y191.247 E59.52542
G1 X118.533 Y191.317 E59.60936
G1 X115.988 Y191.46 E59.69414
G1 X113.461 Y191.673 E59.77849
G1 X110.915 Y191.961 E59.86371
G1 X108.382 Y192.32 E59.9488
G1 X106.942 Y192.556 E59.99733
G1 X106.045 Y192.663 E60.02738
G1 X105.577 Y192.687 E60.04297
G1 X104.97 Y192.7 E60.06316
G1 X35.575 Y192.699 E62.37125
G1 X34.877 Y192.69 E62.39446
G1 X33.976 Y192.639 E62.42448
G1 X33.082 Y192.507 E62.45454
G1 X32.204 Y192.298 E62.48456
G1 X31.347 Y192.011 E62.51462
G1 X30.52 Y191.65 E62.54463
G1 X29.727 Y191.217 E62.57468
G1 X28.976 Y190.716 E62.6047
G1 X28.272 Y190.15 E62.63475
G1 X27.621 Y189.524 E62.66479
G1 X27.028 Y188.843 E62.69482
G1 X26.498 Y188.112 E62.72485
G1 X26.034 Y187.337 E62.7549
G1 X25.64 Y186.524 E62.78495
G1 X25.32 Y185.68 E62.81497
G1 X25.076 Y184.81 E62.84502
G1 X24.91 Y183.922 E62.87507
G1 X24.813 Y182.767 E62.91362
G1 X24.8 Y182.158 E62.93388
G1 X24.801 Y118.036 E65.06658
G1 X24.81 Y117.371 E65.0887
G1 X24.862 Y116.469 E65.11875
G1 X24.994 Y115.576 E65.14878
G1 X25.204 Y114.698 E65.1788
G1 X25.491 Y113.841 E65.20886
G1 X25.853 Y113.014 E65.23889
G1 X26.286 Y112.222 E65.26891
G1 X26.788 Y111.471 E65.29896
G1 X27.355 Y110.767 E65.32902
G1 X27.981 Y110.117 E65.35904
G1 X28.662 Y109.524 E65.38907
G1 X29.394 Y108.994 E65.41913
G1 X30.169 Y108.531 E65.44915
G1 X30.982 Y108.138 E65.47919
G1 X31.827 Y107.818 E65.50924
G1 X32.696 Y107.575 E65.53925
G1 F2700 E58.53925
;MESH:SGPP_Setup.stl
G0 F6000 X35.8 Y116.835
G0 X139.9 Y181.9
;TYPE:WALL-INNER
G1 F2700 E65.53925
G1 F1200 X199.299 Y181.9 E67.51487
G1 X199.3 Y180.878 E67.54886
G1 X199.351 Y179.562 E67.59267
G1 X199.493 Y178.298 E67.63497
G1 X199.746 Y176.959 E67.6803
G1 X200.089 Y175.689 E67.72405
G1 X200.508 Y174.491 E67.76626
G1 X201.033 Y173.283 E67.81007
G1 X201.653 Y172.106 E67.85432
G1 X202.371 Y170.966 E67.89913
G1 X203.154 Y169.91 E67.94285
G1 X203.982 Y168.946 E67.98512
G1 X204.947 Y167.983 E68.03046
G1 X205.944 Y167.125 E68.07421
G1 X207.004 Y166.346 E68.11796
G1 X208.109 Y165.654 E68.16133
G1 X209.244 Y165.053 E68.20404
G1 X210.489 Y164.509 E68.24923
G1 X211.691 Y164.087 E68.2916
G1 X213.005 Y163.736 E68.33684
G1 X214.264 Y163.498 E68.37946
G1 X215.564 Y163.351 E68.42297
G1 X216.923 Y163.3 E68.4682
G1 X218.238 Y163.351 E68.51197
G1 X219.502 Y163.493 E68.55428
G1 X220.841 Y163.746 E68.5996
G1 X222.111 Y164.089 E68.64335
G1 X223.311 Y164.509 E68.68564
G1 X224.558 Y165.053 E68.73089
G1 X225.694 Y165.653 E68.77362
G1 X226.835 Y166.372 E68.81848
G1 X227.891 Y167.154 E68.86218
G1 X228.854 Y167.982 E68.90442
G1 X229.817 Y168.947 E68.94977
G1 X230.675 Y169.944 E68.99351
G1 X231.454 Y171.004 E69.03727
G1 X232.124 Y172.07 E69.07914
G1 X232.747 Y173.244 E69.12335
G1 X233.291 Y174.489 E69.16854
G1 X233.713 Y175.69 E69.21088
G1 X234.064 Y177.005 E69.25615
G1 X234.307 Y178.298 E69.2999
G1 X234.449 Y179.56 E69.34214
G1 X234.5 Y180.877 E69.38598
G1 X234.5 Y181.9 E69.42
G1 X264.4 Y181.9 E70.41448
G1 X264.4 Y124.295 E72.33043
G1 X264.4 Y118.1 E72.53648
G1 X35.6 Y118.1 E80.1464
G1 X35.601 Y181.899 E82.26836
G1 X104.699 Y181.9 E84.56657
G1 X104.7 Y180.878 E84.60056
G1 X104.751 Y179.562 E84.64437
G1 X104.893 Y178.298 E84.68667
G1 X105.146 Y176.959 E84.73199
G1 X105.489 Y175.689 E84.77575
G1 X105.908 Y174.491 E84.81796
G1 X106.433 Y173.283 E84.86177
G1 X107.053 Y172.106 E84.90602
G1 X107.771 Y170.966 E84.95083
G1 X108.554 Y169.91 E84.99455
G1 X109.382 Y168.946 E85.03682
G1 X110.347 Y167.983 E85.08216
G1 X111.344 Y167.125 E85.12591
G1 X112.404 Y166.346 E85.16966
G1 X113.509 Y165.654 E85.21303
G1 X114.644 Y165.053 E85.25574
G1 X115.889 Y164.509 E85.30093
G1 X117.091 Y164.087 E85.3433
G1 X118.405 Y163.736 E85.38854
G1 X119.664 Y163.498 E85.43115
G1 X120.964 Y163.351 E85.47467
G1 X122.323 Y163.3 E85.5199
G1 X123.638 Y163.351 E85.56367
G1 X124.902 Y163.493 E85.60598
G1 X126.241 Y163.746 E85.6513
G1 X127.511 Y164.089 E85.69505
G1 X128.711 Y164.509 E85.73734
G1 X129.958 Y165.053 E85.78259
G1 X131.094 Y165.653 E85.82532
G1 X132.235 Y166.372 E85.87018
G1 X133.291 Y167.154 E85.91388
G1 X134.254 Y167.982 E85.95612
G1 X135.217 Y168.947 E86.00146
G1 X136.075 Y169.944 E86.04521
G1 X136.854 Y171.004 E86.08897
G1 X137.524 Y172.07 E86.13084
G1 X138.147 Y173.244 E86.17505
G1 X138.691 Y174.489 E86.22024
G1 X139.113 Y175.69 E86.26258
G1 X139.464 Y177.005 E86.30785
G1 X139.707 Y178.298 E86.3516
G1 X139.849 Y179.56 E86.39384
G1 X139.9 Y180.877 E86.43768
G1 X139.9 Y181.9 E86.4717
G0 F6000 X139.5 Y182.3
;TYPE:WALL-OUTER
G1 F1200 X199.699 Y182.3 E88.47393
G1 X199.7 Y180.893 E88.52073
G1 X199.749 Y179.607 E88.56353
G1 X199.893 Y178.328 E88.60634
G1 X200.132 Y177.063 E88.64916
G1 X200.467 Y175.821 E88.69194
G1 X200.891 Y174.61 E88.73462
G1 X201.407 Y173.429 E88.77749
G1 X202.014 Y172.28 E88.82071
G1 X202.684 Y171.216 E88.86253
G1 X203.458 Y170.17 E88.90581
G1 X204.296 Y169.195 E88.94857
G1 X205.208 Y168.286 E88.99139
G1 X206.181 Y167.447 E89.03412
G1 X207.217 Y166.685 E89.0769
G1 X208.296 Y166.008 E89.11927
G1 X209.444 Y165.4 E89.16247
G1 X210.607 Y164.892 E89.20468
G1 X211.838 Y164.46 E89.24808
G1 X213.079 Y164.129 E89.29079
G1 X214.333 Y163.892 E89.33324
G1 X215.624 Y163.748 E89.37645
G1 X216.908 Y163.7 E89.41918
G1 X218.193 Y163.749 E89.46195
G1 X219.472 Y163.893 E89.50476
