;FLAVOR:Marlin
;TIME:27431
;Filament used: 17.559m
;Layer height: 0.2
;MINX:24.545
;MINY:83.5
;MINZ:0.2
;MAXX:275.455
;MAXY:216.5
;MAXZ:27.8
;Generated with Cura_SteamEngine 5.2.1
M140 S60
M105
M190 S60
M104 S210
M105
M109 S210
M82 ;absolute extrusion mode
M201 X500.00 Y500.00 Z100.00 E5000.00 ;Setup machine max acceleration
M203 X500.00 Y500.00 Z10.00 E50.00 ;Setup machine max feedrate
M204 P500.00 R1000.00 T500.00 ;Setup Print/Retract/Travel acceleration
M205 X8.00 Y8.00 Z0.40 E5.00 ;Setup Jerk
M220 S100 ;Reset Feedrate
M221 S100 ;Reset Flowrate

G28 ;Home
G29 ;Auto bed Level

G92 E0 ;Reset Extruder
G1 Z2.0 F3000 ;Move Z Axis up
G1 X10.1 Y20 Z0.28 F5000.0 ;Move to start position
G1 X10.1 Y200.0 Z0.28 F1500.0 E15 ;Draw the first line
G1 X10.4 Y200.0 Z0.28 F5000.0 ;Move to side a little
G1 X10.4 Y20 Z0.28 F1500.0 E30 ;Draw the second line
G92 E0 ;Reset Extruder
G1 Z2.0 F3000 ;Move Z Axis up

G92 E0
G92 E0
G1 F2700 E-7
;LAYER_COUNT:139
;LAYER:0
M107
G0 F6000 X31.646 Y84.227 Z0.2
;TYPE:SKIRT
G1 F2700 E0
G1 F1200 X32.536 Y83.931 E0.0312
G1 X33.448 Y83.713 E0.06238
G1 X34.375 Y83.572 E0.09357
G1 X35.246 Y83.513 E0.12261
G1 X35.875 Y83.5 E0.14353
G1 X263.906 Y83.501 E7.72787
G1 X264.604 Y83.511 E7.75109
G1 X265.54 Y83.565 E7.78227
G1 X266.468 Y83.697 E7.81345
G1 X267.382 Y83.909 E7.84466
G1 X268.274 Y84.198 E7.87584
G1 X269.139 Y84.561 E7.90704
G1 X269.969 Y84.997 E7.93823
G1 X270.76 Y85.502 E7.96944
G1 X271.504 Y86.073 E8.00063
G1 X272.197 Y86.705 E8.03183
G1 X272.834 Y87.393 E8.06301
G1 X273.409 Y88.134 E8.09421
G1 X273.92 Y88.92 E8.12539
G1 X274.362 Y89.748 E8.15661
G1 X274.731 Y90.61 E8.1878
G1 X275.026 Y91.5 E8.21898
G1 X275.244 Y92.412 E8.25017
G1 X275.384 Y93.34 E8.28138
G1 X275.442 Y94.201 E8.31008
G1 X275.455 Y94.83 E8.33101
G1 X275.454 Y204.9 E11.99195
G1 X275.445 Y205.627 E12.01613
G1 X275.394 Y206.564 E12.04735
G1 X275.262 Y207.492 E12.07852
G1 X275.053 Y208.406 E12.10971
G1 X274.766 Y209.299 E12.1409
G1 X274.404 Y210.165 E12.17212
G1 X273.97 Y210.996 E12.2033
G1 X273.466 Y211.787 E12.2345
G1 X272.897 Y212.532 E12.26568
G1 X272.266 Y213.227 E12.2969
G1 X271.579 Y213.865 E12.32808
G1 X270.84 Y214.442 E12.35927
G1 X270.054 Y214.954 E12.39047
G1 X269.228 Y215.397 E12.42164
G1 X268.366 Y215.769 E12.45287
G1 X267.477 Y216.065 E12.48403
G1 X266.565 Y216.285 E12.51524
G1 X265.638 Y216.426 E12.54642
G1 X264.754 Y216.487 E12.57589
G1 X264.125 Y216.5 E12.59682
G1 X36.11 Y216.499 E20.18063
G1 X35.412 Y216.49 E20.20385
G1 X34.476 Y216.438 E20.23503
G1 X33.547 Y216.306 E20.26623
G1 X32.633 Y216.096 E20.29743
G1 X31.74 Y215.809 E20.32862
G1 X30.875 Y215.446 E20.35982
G1 X30.044 Y215.012 E20.39101
G1 X29.253 Y214.508 E20.4222
G1 X28.508 Y213.938 E20.4534
G1 X27.814 Y213.307 E20.4846
G1 X27.177 Y212.62 E20.51576
G1 X26.6 Y211.88 E20.54697
G1 X26.088 Y211.094 E20.57817
G1 X25.645 Y210.267 E20.60937
G1 X25.274 Y209.406 E20.64056
G1 X24.978 Y208.516 E20.67175
G1 X24.759 Y207.604 E20.70295
G1 X24.618 Y206.677 E20.73413
G1 X24.558 Y205.788 E20.76377
G1 X24.545 Y205.158 E20.78473
G1 X24.546 Y95.025 E24.44777
G1 X24.555 Y94.36 E24.46989
G1 X24.608 Y93.424 E24.50107
G1 X24.74 Y92.495 E24.53228
G1 X24.951 Y91.581 E24.56348
G1 X25.239 Y90.689 E24.59465
G1 X25.602 Y89.824 E24.62585
G1 X26.037 Y88.993 E24.65705
G1 X26.541 Y88.203 E24.68822
G1 X27.111 Y87.458 E24.71942
G1 X27.743 Y86.764 E24.75064
G1 X28.431 Y86.127 E24.78182
G1 X29.171 Y85.551 E24.81301
G1 X29.957 Y85.039 E24.84421
G1 X30.784 Y84.597 E24.8754
G1 X31.646 Y84.227 E24.9066
G0 F6000 X32.01 Y84.519
G1 F1200 X32.89 Y84.249 E24.93721
G1 X33.79 Y84.057 E24.96782
G1 X34.704 Y83.943 E24.99846
G1 X35.257 Y83.913 E25.01688
G1 X35.875 Y83.9 E25.03744
G1 X263.9 Y83.901 E32.62158
G1 X264.598 Y83.911 E32.6448
G1 X265.517 Y83.964 E32.67541
G1 X266.428 Y84.097 E32.70603
G1 X267.324 Y84.308 E32.73665
G1 X268.198 Y84.596 E32.76726
G1 X269.045 Y84.959 E32.79791
G1 X269.856 Y85.394 E32.82852
G1 X270.626 Y85.898 E32.85912
G1 X271.35 Y86.467 E32.88975
G1 X272.022 Y87.097 E32.92039
G1 X272.637 Y87.782 E32.95101
G1 X273.19 Y88.518 E32.98163
G1 X273.677 Y89.299 E33.01224
G1 X274.094 Y90.12 E33.04287
G1 X274.439 Y90.974 E33.0735
G1 X274.708 Y91.854 E33.10411
G1 X274.9 Y92.755 E33.13475
G1 X275.013 Y93.668 E33.16534
G1 X275.042 Y94.212 E33.18346
G1 X275.055 Y94.83 E33.20402
G1 X275.054 Y204.895 E36.8648
G1 X275.045 Y205.622 E36.88898
G1 X274.994 Y206.541 E36.91959
G1 X274.863 Y207.453 E36.95024
G1 X274.653 Y208.349 E36.98085
G1 X274.367 Y209.224 E37.01147
G1 X274.006 Y210.071 E37.04209
G1 X273.572 Y210.883 E37.07271
G1 X273.07 Y211.655 E37.10334
G1 X272.502 Y212.38 E37.13397
G1 X271.874 Y213.053 E37.16459
G1 X271.19 Y213.669 E37.1952
G1 X270.455 Y214.223 E37.22582
G1 X269.675 Y214.712 E37.25644
G1 X268.855 Y215.131 E37.28706
G1 X268.002 Y215.477 E37.31768
G1 X267.122 Y215.748 E37.34831
G1 X266.222 Y215.941 E37.37892
G1 X265.308 Y216.056 E37.40956
G1 X264.743 Y216.087 E37.42838
G1 X264.125 Y216.1 E37.44894
G1 X36.115 Y216.099 E45.03258
G1 X35.417 Y216.09 E45.0558
G1 X34.498 Y216.038 E45.08641
G1 X33.587 Y215.907 E45.11703
G1 X32.691 Y215.697 E45.14764
G1 X31.816 Y215.41 E45.17826
G1 X30.969 Y215.048 E45.2089
G1 X30.157 Y214.614 E45.23952
G1 X29.386 Y214.112 E45.27012
G1 X28.661 Y213.544 E45.30076
G1 X27.988 Y212.915 E45.33139
G1 X27.373 Y212.231 E45.36199
G1 X26.819 Y211.496 E45.3926
G1 X26.331 Y210.715 E45.42323
G1 X25.912 Y209.895 E45.45386
G1 X25.566 Y209.042 E45.48447
G1 X25.296 Y208.162 E45.51509
G1 X25.103 Y207.261 E45.54574
G1 X24.989 Y206.348 E45.57634
G1 X24.958 Y205.777 E45.59536
G1 X24.945 Y205.158 E45.61595
G1 X24.946 Y95.031 E49.27879
G1 X24.955 Y94.366 E49.30091
G1 X25.007 Y93.446 E49.33156
G1 X25.139 Y92.535 E49.36217
G1 X25.35 Y91.639 E49.39279
G1 X25.637 Y90.764 E49.42342
G1 X26 Y89.918 E49.45404
G1 X26.434 Y89.106 E49.48466
G1 X26.937 Y88.335 E49.51528
G1 X27.506 Y87.611 E49.54591
G1 X28.134 Y86.939 E49.5765
G1 X28.819 Y86.323 E49.60714
G1 X29.555 Y85.77 E49.63776
G1 X30.336 Y85.282 E49.66839
G1 X31.156 Y84.864 E49.699
G1 X32.01 Y84.519 E49.72963
G0 F6000 X32.372 Y84.818
G1 F1200 X33.241 Y84.575 E49.75965
G1 X34.129 Y84.409 E49.78969
G1 X35.268 Y84.313 E49.82771
G1 X35.875 Y84.3 E49.8479
G1 X263.894 Y84.301 E57.43185
G1 X264.592 Y84.311 E57.45506
G1 X265.494 Y84.364 E57.48512
G1 X266.387 Y84.496 E57.51514
G1 X267.265 Y84.707 E57.54517
G1 X268.121 Y84.995 E57.57521
G1 X268.948 Y85.357 E57.60524
G1 X269.74 Y85.792 E57.63529
G1 X270.491 Y86.294 E57.66534
G1 X271.194 Y86.861 E57.69538
G1 X271.844 Y87.488 E57.72542
G1 X272.436 Y88.17 E57.75545
G1 X272.966 Y88.901 E57.78548
G1 X273.428 Y89.677 E57.81552
G1 X273.821 Y90.49 E57.84556
G1 X274.139 Y91.335 E57.87558
G1 X274.382 Y92.205 E57.90563
G1 X274.547 Y93.093 E57.93567
G1 X274.642 Y94.223 E57.97339
G1 X274.655 Y94.83 E57.99358
G1 X274.654 Y204.89 E61.65419
G1 X274.645 Y205.617 E61.67837
G1 X274.594 Y206.519 E61.70842
G1 X274.463 Y207.413 E61.73847
G1 X274.254 Y208.291 E61.76849
G1 X273.968 Y209.148 E61.79854
G1 X273.607 Y209.976 E61.82858
G1 X273.175 Y210.768 E61.85859
G1 X272.674 Y211.52 E61.88864
G1 X272.108 Y212.224 E61.91869
G1 X271.483 Y212.875 E61.9487
G1 X270.802 Y213.469 E61.97876
G1 X270.071 Y214 E62.00881
G1 X269.297 Y214.464 E62.03882
G1 X268.484 Y214.858 E62.06887
G1 X267.64 Y215.178 E62.09889
G1 X266.77 Y215.423 E62.12896
G1 X265.883 Y215.589 E62.15897
G1 X264.732 Y215.687 E62.19739
G1 X264.125 Y215.7 E62.21758
G1 X36.12 Y215.699 E69.80106
G1 X35.422 Y215.69 E69.82428
G1 X34.521 Y215.639 E69.85429
G1 X33.627 Y215.507 E69.88435
G1 X32.749 Y215.298 E69.91437
G1 X31.892 Y215.011 E69.94443
G1 X31.065 Y214.65 E69.97444
G1 X30.272 Y214.217 E70.00449
G1 X29.521 Y213.716 E70.03452
G1 X28.817 Y213.15 E70.06456
G1 X28.166 Y212.524 E70.0946
G1 X27.573 Y211.843 E70.12464
G1 X27.043 Y211.112 E70.15467
G1 X26.579 Y210.337 E70.18471
G1 X26.185 Y209.524 E70.21476
G1 X25.865 Y208.68 E70.24478
G1 X25.621 Y207.81 E70.27483
G1 X25.455 Y206.922 E70.30488
G1 X25.358 Y205.767 E70.34343
G1 X25.345 Y205.158 E70.36369
G1 X25.346 Y95.036 E74.02636
G1 X25.355 Y94.371 E74.04848
G1 X25.407 Y93.469 E74.07853
G1 X25.539 Y92.576 E74.10856
G1 X25.749 Y91.698 E74.13858
G1 X26.036 Y90.841 E74.16864
G1 X26.398 Y90.014 E74.19867
G1 X26.831 Y89.222 E74.22869
G1 X27.333 Y88.471 E74.25874
G1 X27.9 Y87.767 E74.2888
G1 X28.526 Y87.117 E74.31882
G1 X29.207 Y86.524 E74.34885
G1 X29.939 Y85.994 E74.37891
G1 X30.714 Y85.531 E74.40894
G1 X31.527 Y85.138 E74.43897
G1 X32.372 Y84.818 E74.46902
G1 F2700 E67.46902
;MESH:SGPP_Spacer.stl
G0 F6000 X42.147 Y100.32
G0 X107.423 Y126.233
;TYPE:WALL-INNER
G1 F2700 E74.46902
G1 F1200 X42.065 Y126.228 E76.64284
G1 X41.882 Y126.173 E76.64919
G1 X41.692 Y126.028 E76.65714
G1 X41.545 Y125.747 E76.66769
G1 X41.545 Y100.975 E77.49161
G1 X41.72 Y100.675 E77.50316
G1 X42.02 Y100.5 E77.51471
G1 X107.43 Y100.5 E79.69026
G1 X107.711 Y100.649 E79.70084
G1 X107.856 Y100.839 E79.70879
G1 X107.911 Y101.022 E79.71514
G1 X107.911 Y125.708 E80.5362
G1 X107.852 Y125.902 E80.54295
G1 X107.648 Y126.133 E80.5532
G1 X107.423 Y126.233 E80.56139
G0 F6000 X107.457 Y125.775
;TYPE:WALL-OUTER
G1 F1200 X107.364 Y125.828 E80.56495
G1 X42.088 Y125.826 E82.73604
G1 X42.025 Y125.793 E82.7384
G1 X41.947 Y125.668 E82.7433
G1 X41.945 Y101.057 E83.56187
G1 X42.003 Y100.958 E83.56568
G1 X42.11 Y100.902 E83.5697
G1 X107.365 Y100.906 E85.74009
G1 X107.476 Y100.98 E85.74453
G1 X107.515 Y101.058 E85.74743
G1 X107.514 Y125.658 E86.56563
G1 X107.457 Y125.775 E86.56996
G1 F2700 E79.56996
G0 F6000 X107.815 Y125.775
G0 X108.096 Y125.633
G0 X118.134 Y125.633
G0 X118.406 Y125.952
;TYPE:WALL-INNER
G1 F2700 E86.56996
G1 F1200 X118.319 Y125.708 E86.57857
G1 X118.319 Y101.022 E87.39963
G1 X118.374 Y100.839 E87.40599
G1 X118.519 Y100.648 E87.41396
G1 X118.8 Y100.5 E87.42453
G1 X184.2 Y100.5 E89.59974
G1 X184.481 Y100.649 E89.61032
G1 X184.626 Y100.839 E89.61827
G1 X184.681 Y101.022 E89.62462
G1 X184.681 Y125.708 E90.44568
G1 X184.622 Y125.902 E90.45243
G1 X184.537 Y126.029 E90.45751
G1 X184.296 Y126.195 E90.46724
G1 X184.085 Y126.233 E90.47437
G1 X118.84 Y126.229 E92.64443
G1 X118.646 Y126.17 E92.65117
G1 X118.406 Y125.952 E92.66196
G0 F6000 X118.773 Y125.775
;TYPE:WALL-OUTER
G1 F1200 X118.715 Y125.651 E92.66651
G1 X118.716 Y101.074 E93.48395
G1 X118.783 Y100.949 E93.48866
G1 X118.88 Y100.902 E93.49225
G1 X184.135 Y100.906 E95.66264
G1 X184.246 Y100.98 E95.66708
G1 X184.285 Y101.058 E95.66998
G1 X184.284 Y125.658 E96.48818
G1 X184.227 Y125.775 E96.4925
G1 X184.085 Y125.833 E96.49761
G1 X118.861 Y125.832 E98.66696
G1 X118.773 Y125.775 E98.67045
G1 F2700 E91.67045
G0 F6000 X118.415 Y125.775
G0 X118.915 Y126.414
G0 X118.916 Y136.453
G0 X118.84 Y163.362
;TYPE:WALL-INNER
G1 F2700 E98.67045
G1 F1200 X118.646 Y163.303 E98.6772
G1 X118.415 Y163.099 E98.68745
G1 X118.315 Y162.874 E98.69564
G1 X118.315 Y137.201 E99.54952
G1 X118.415 Y136.9 E99.56007
G1 X118.519 Y136.781 E99.56533
G1 X118.84 Y136.637 E99.57703
G1 X184.16 Y136.637 E101.74958
G1 X184.354 Y136.696 E101.75633
G1 X184.594 Y136.914 E101.76711
G1 X184.681 Y137.158 E101.77573
G1 X184.681 Y162.841 E102.62995
G1 X184.622 Y163.035 E102.63669
G1 X184.404 Y163.275 E102.64747
G1 X184.16 Y163.362 E102.65609
G1 X118.84 Y163.362 E104.82864
G0 F6000 X118.773 Y162.908
;TYPE:WALL-OUTER
G1 F1200 X118.72 Y162.815 E104.8322
G1 X118.715 Y137.222 E105.68343
G1 X118.761 Y137.104 E105.68764
G1 X118.897 Y137.033 E105.69274
G1 X184.139 Y137.034 E107.8627
G1 X184.227 Y137.091 E107.86619
G1 X184.284 Y137.208 E107.87052
G1 X184.284 Y162.791 E108.72141
G1 X184.227 Y162.908 E108.72574
G1 X184.11 Y162.965 E108.73007
G1 X118.861 Y162.965 E110.90026
G1 X118.773 Y162.908 E110.90375
G1 F2700 E103.90375
G0 F6000 X118.415 Y162.908
G0 X118.915 Y163.547
G0 X118.916 Y173.586
G0 X118.8 Y199.499
;TYPE:WALL-INNER
G1 F2700 E110.90375
G1 F1200 X118.519 Y199.35 E110.91433
G1 X118.374 Y199.16 E110.92228
G1 X118.319 Y198.977 E110.92863
G1 X118.319 Y174.291 E111.74969
G1 X118.353 Y174.155 E111.75435
G1 X118.519 Y173.914 E111.76409
G1 X118.84 Y173.77 E111.77579
G1 X184.16 Y173.77 E113.94834
G1 X184.354 Y173.829 E113.95508
G1 X184.594 Y174.047 E113.96587
G1 X184.681 Y174.291 E113.97448
G1 X184.681 Y198.977 E114.79554
G1 X184.626 Y199.161 E114.80193
G1 X184.481 Y199.351 E114.80988
G1 X184.2 Y199.499 E114.82044
G1 X118.8 Y199.499 E116.99566
G0 F6000 X118.754 Y199.019
;TYPE:WALL-OUTER
G1 F1200 X118.715 Y198.941 E116.99856
G1 X118.716 Y174.341 E117.81676
G1 X118.727 Y174.295 E117.81833
G1 X118.773 Y174.224 E117.82114
G1 X118.897 Y174.166 E117.8257
G1 X184.139 Y174.167 E119.99565
G1 X184.227 Y174.224 E119.99914
G1 X184.284 Y174.341 E120.00347
G1 X184.284 Y198.925 E120.82114
G1 X184.217 Y199.05 E120.82585
G1 X184.12 Y199.097 E120.82944
G1 X118.865 Y199.093 E122.99983
G1 X118.754 Y199.019 E123.00427
G1 F2700 E116.00427
G0 F6000 X118.415 Y199.019
G0 X118.135 Y198.95
G0 X108.065 Y199.116
G0 X107.464 Y199.481
;TYPE:WALL-INNER
G1 F2700 E123.00427
G1 F1200 X107.315 Y199.499 E123.00926
G1 X42.033 Y199.499 E125.18055
G1 X41.837 Y199.415 E125.18764
G1 X41.629 Y199.207 E125.19742
G1 X41.545 Y198.899 E125.20804
G1 X41.545 Y174.252 E126.0278
G1 X41.692 Y173.971 E126.03835
G1 X41.882 Y173.826 E126.0463
G1 X42.065 Y173.771 E126.05266
G1 X107.382 Y173.769 E128.22511
G1 X107.552 Y173.814 E128.23096
G1 X107.767 Y173.97 E128.23979
G1 X107.911 Y174.291 E128.25149
G1 X107.911 Y198.977 E129.07255
G1 X107.856 Y199.161 E129.07894
G1 X107.711 Y199.351 E129.08689
G1 X107.464 Y199.481 E129.09617
G0 F6000 X107.447 Y199.05
;TYPE:WALL-OUTER
G1 F1200 X107.365 Y199.093 E129.09925
G1 X42.106 Y199.099 E131.26978
G1 X41.973 Y199.002 E131.27525
G1 X41.947 Y198.934 E131.27767
G1 X41.945 Y174.332 E132.09594
G1 X42.025 Y174.206 E132.1009
G1 X42.099 Y174.167 E132.10369
G1 X107.364 Y174.171 E134.27441
G1 X107.485 Y174.259 E134.27938
G1 X107.514 Y174.341 E134.28228
G1 X107.514 Y198.925 E135.09994
G1 X107.447 Y199.05 E135.10466
G1 F2700 E128.10466
G0 F6000 X107.447 Y199.399
G0 X42.146 Y199.68
G0 X42.146 Y204.7
G0 X36.145 Y204.9
;TYPE:WALL-INNER
G1 F2700 E135.10466
G1 F1200 X263.855 Y204.9 E142.67833
G1 X263.855 Y98.366 E146.22166
G1 X263.855 Y95.1 E146.33029
G1 X36.145 Y95.1 E153.90396
G1 X36.145 Y204.9 E157.55592
G0 F6000 X35.745 Y205.3
;TYPE:WALL-OUTER
G1 F1200 X264.255 Y205.3 E165.15619
G1 X264.255 Y98.366 E168.71283
G1 X264.255 Y94.7 E168.83476
G1 X35.745 Y94.7 E176.43504
G1 X35.745 Y205.3 E180.11361
G1 F2700 E173.11361
G0 F6000 X36.015 Y205.03
G0 X195.57 Y205.08
G0 X195.686 Y199.68
G0 X195.57 Y199.499
;TYPE:WALL-INNER
G1 F2700 E180.11361
G1 F1200 X195.289 Y199.35 E180.12419
G1 X195.144 Y199.16 E180.13213
G1 X195.089 Y198.977 E180.13849
G1 X195.089 Y174.291 E180.95955
G1 X195.148 Y174.097 E180.96629
G1 X195.366 Y173.857 E180.97708
G1 X195.61 Y173.77 E180.98569
G1 X257.933 Y173.77 E183.05857
G1 X258.116 Y173.825 E183.06492
G1 X258.306 Y173.97 E183.07287
G1 X258.455 Y174.251 E183.08345
G1 X258.455 Y198.899 E183.90325
G1 X258.371 Y199.208 E183.9139
G1 X258.163 Y199.415 E183.92366
G1 X257.959 Y199.491 E183.9309
G1 X257.855 Y199.499 E183.93437
G1 X195.57 Y199.499 E186.00597
G0 F6000 X195.524 Y199.019
;TYPE:WALL-OUTER
G1 F1200 X195.485 Y198.941 E186.00887
G1 X195.486 Y174.341 E186.82707
G1 X195.543 Y174.224 E186.8314
G1 X195.667 Y174.166 E186.83595
G1 X257.881 Y174.167 E188.9052
G1 X258.006 Y174.234 E188.90992
G1 X258.055 Y174.327 E188.91341
G1 X258.053 Y198.934 E189.73185
G1 X257.958 Y199.071 E189.73739
G1 X257.89 Y199.097 E189.73981
G1 X195.635 Y199.093 E191.81042
G1 X195.524 Y199.019 E191.81486
G1 F2700 E184.81486
G0 F6000 X195.185 Y199.019
G0 X195.097 Y173.853
G0 X195.216 Y163.39
G0 X195.176 Y163.085
;TYPE:WALL-INNER
G1 F2700 E191.81486
G1 F1200 X195.089 Y162.841 E191.82348
G1 X195.089 Y137.158 E192.6777
G1 X195.148 Y136.964 E192.68444
G1 X195.366 Y136.724 E192.69522
G1 X195.61 Y136.637 E192.70384
G1 X257.933 Y136.637 E194.77671
G1 X258.116 Y136.692 E194.78307
G1 X258.306 Y136.837 E194.79102
G1 X258.455 Y137.118 E194.80159
G1 X258.455 Y162.869 E195.65808
G1 X258.384 Y163.05 E195.66454
G1 X258.214 Y163.248 E195.67322
G1 X257.894 Y163.365 E195.68456
G1 X195.61 Y163.362 E197.75613
