;FLAVOR:Marlin
;TIME:39860
;Filament used: 25.6728m
;Layer height: 0.2
;MINX:29.8
;MINY:83.5
;MINZ:0.2
;MAXX:270.2
;MAXY:216.5
;MAXZ:17.2
;Generated with Cura_SteamEngine 5.2.1
M140 S60
M105
M190 S60
M104 S210
M105
M109 S210
M82 ;absolute extrusion mode
M201 X500.00 Y500.00 Z100.00 E5000.00 ;Setup machine max acceleration
M203 X500.00 Y500.00 Z10.00 E50.00 ;Setup machine max feedrate
M204 P500.00 R1000.00 T500.00 ;Setup Print/Retract/Travel acceleration
M205 X8.00 Y8.00 Z0.40 E5.00 ;Setup Jerk
M220 S100 ;Reset Feedrate
M221 S100 ;Reset Flowrate

G28 ;Home
G29 ;Auto bed Level

G92 E0 ;Reset Extruder
G1 Z2.0 F3000 ;Move Z Axis up
G1 X10.1 Y20 Z0.28 F5000.0 ;Move to start position
G1 X10.1 Y200.0 Z0.28 F1500.0 E15 ;Draw the first line
G1 X10.4 Y200.0 Z0.28 F5000.0 ;Move to side a little
G1 X10.4 Y20 Z0.28 F1500.0 E30 ;Draw the second line
G92 E0 ;Reset Extruder
G1 Z2.0 F3000 ;Move Z Axis up

G92 E0
G92 E0
G1 F2700 E-7
;LAYER_COUNT:86
;LAYER:0
M107
G0 F6000 X36.055 Y84.59 Z0.2
;TYPE:SKIRT
G1 F2700 E0
G1 F1200 X36.917 Y84.221 E0.03119
G1 X37.808 Y83.927 E0.06239
G1 X38.72 Y83.709 E0.09358
G1 X39.647 Y83.571 E0.12475
G1 X40.501 Y83.513 E0.15322
G1 X41.13 Y83.5 E0.17415
G1 X74.214 Y83.501 E1.27453
G1 X74.92 Y83.512 E1.29801
G1 X75.391 Y83.53 E1.31369
G1 X78.435 Y83.708 E1.4151
G1 X80.916 Y83.779 E1.49766
G1 X83.44 Y83.779 E1.5816
G1 X85.97 Y83.708 E1.66579
G1 X89.451 Y83.513 E1.78175
G1 X90.08 Y83.5 E1.80267
G1 X101.314 Y83.501 E2.17632
G1 X102.02 Y83.512 E2.1998
G1 X102.491 Y83.53 E2.21548
G1 X105.535 Y83.708 E2.31689
G1 X108.016 Y83.779 E2.39945
G1 X110.54 Y83.779 E2.48339
G1 X113.07 Y83.708 E2.56758
G1 X116.551 Y83.513 E2.68354
G1 X117.18 Y83.5 E2.70446
G1 X128.414 Y83.501 E3.07811
G1 X129.12 Y83.512 E3.10159
G1 X129.591 Y83.53 E3.11727
G1 X132.635 Y83.708 E3.21868
G1 X135.116 Y83.779 E3.30124
G1 X137.64 Y83.779 E3.38518
G1 X140.17 Y83.708 E3.46937
G1 X143.651 Y83.513 E3.58533
G1 X144.28 Y83.5 E3.60625
G1 X155.514 Y83.501 E3.9799
G1 X156.22 Y83.512 E4.00338
G1 X156.691 Y83.53 E4.01906
G1 X159.735 Y83.708 E4.12047
G1 X162.216 Y83.779 E4.20303
G1 X164.74 Y83.779 E4.28697
G1 X167.27 Y83.708 E4.37116
G1 X170.751 Y83.513 E4.48712
G1 X171.38 Y83.5 E4.50804
G1 X182.614 Y83.501 E4.88168
G1 X183.32 Y83.512 E4.90517
G1 X183.791 Y83.53 E4.92085
G1 X186.835 Y83.708 E5.02226
G1 X189.316 Y83.779 E5.10482
G1 X191.84 Y83.779 E5.18876
G1 X194.37 Y83.708 E5.27295
G1 X197.851 Y83.513 E5.38891
G1 X198.48 Y83.5 E5.40983
G1 X209.714 Y83.501 E5.78347
G1 X210.42 Y83.512 E5.80696
G1 X210.891 Y83.53 E5.82264
G1 X213.935 Y83.708 E5.92405
G1 X216.416 Y83.779 E6.00661
G1 X218.94 Y83.779 E6.09055
G1 X221.47 Y83.708 E6.17474
G1 X224.951 Y83.513 E6.2907
G1 X225.58 Y83.5 E6.31162
G1 X236.814 Y83.501 E6.68526
G1 X237.52 Y83.512 E6.70875
G1 X237.991 Y83.53 E6.72443
G1 X241.035 Y83.708 E6.82584
G1 X243.516 Y83.779 E6.90839
G1 X246.04 Y83.779 E6.99234
G1 X248.57 Y83.708 E7.07652
G1 X252.051 Y83.513 E7.19248
G1 X252.68 Y83.5 E7.21341
G1 X258.651 Y83.501 E7.41201
G1 X259.349 Y83.511 E7.43522
G1 X260.285 Y83.565 E7.46641
G1 X261.213 Y83.697 E7.49758
G1 X262.127 Y83.909 E7.52879
G1 X263.019 Y84.198 E7.55998
G1 X263.884 Y84.561 E7.59118
G1 X264.714 Y84.997 E7.62236
G1 X265.505 Y85.502 E7.65357
G1 X266.249 Y86.073 E7.68477
G1 X266.942 Y86.705 E7.71596
G1 X267.579 Y87.393 E7.74715
G1 X268.154 Y88.134 E7.77834
G1 X268.665 Y88.92 E7.80952
G1 X269.107 Y89.748 E7.84074
G1 X269.476 Y90.61 E7.87193
G1 X269.771 Y91.5 E7.90311
G1 X269.989 Y92.412 E7.9343
G1 X270.129 Y93.34 E7.96552
G1 X270.187 Y94.201 E7.99422
G1 X270.2 Y94.83 E8.01514
G1 X270.199 Y204.9 E11.67609
G1 X270.19 Y205.627 E11.70027
G1 X270.139 Y206.564 E11.73148
G1 X270.007 Y207.492 E11.76265
G1 X269.798 Y208.406 E11.79384
G1 X269.511 Y209.299 E11.82504
G1 X269.149 Y210.165 E11.85626
G1 X268.715 Y210.996 E11.88744
G1 X268.211 Y211.787 E11.91863
G1 X267.642 Y212.532 E11.94981
G1 X267.011 Y213.227 E11.98103
G1 X266.324 Y213.865 E12.01222
G1 X265.585 Y214.442 E12.0434
G1 X264.799 Y214.954 E12.0746
G1 X263.973 Y215.397 E12.10577
G1 X263.111 Y215.769 E12.137
G1 X262.222 Y216.065 E12.16817
G1 X261.31 Y216.285 E12.19937
G1 X260.383 Y216.426 E12.23056
G1 X259.499 Y216.487 E12.26003
G1 X258.87 Y216.5 E12.28095
G1 X68.438 Y216.499 E18.61475
G1 X67.72 Y216.488 E18.63863
G1 X66.491 Y216.4 E18.67961
G1 X64.86 Y216.191 E18.7343
G1 X62.335 Y215.912 E18.81879
G1 X59.824 Y215.706 E18.90259
G1 X57.344 Y215.572 E18.9852
G1 X53.676 Y215.5 E19.10722
G1 X41.349 Y215.499 E19.51722
G1 X40.651 Y215.489 E19.54043
G1 X39.715 Y215.435 E19.57162
G1 X38.787 Y215.303 E19.60279
G1 X37.873 Y215.091 E19.634
G1 X36.981 Y214.802 E19.66519
G1 X36.116 Y214.439 E19.69639
G1 X35.286 Y214.003 E19.72757
G1 X34.495 Y213.498 E19.75878
G1 X33.751 Y212.927 E19.78998
G1 X33.058 Y212.295 E19.82117
G1 X32.421 Y211.607 E19.85236
G1 X31.846 Y210.866 E19.88355
G1 X31.335 Y210.08 E19.91473
G1 X30.893 Y209.252 E19.94595
G1 X30.524 Y208.39 E19.97714
G1 X30.229 Y207.5 E20.00832
G1 X30.011 Y206.588 E20.03951
G1 X29.871 Y205.66 E20.07073
G1 X29.813 Y204.788 E20.09979
G1 X29.8 Y204.158 E20.12075
G1 X29.801 Y198.201 E20.31888
G1 X29.811 Y197.495 E20.34237
G1 X29.829 Y197.006 E20.35864
G1 X30.008 Y193.958 E20.46019
G1 X30.079 Y191.484 E20.54251
G1 X30.079 Y188.96 E20.62646
G1 X30.008 Y186.429 E20.71068
G1 X29.813 Y182.95 E20.82657
G1 X29.8 Y182.321 E20.84749
G1 X29.801 Y171.101 E21.22067
G1 X29.811 Y170.394 E21.24419
G1 X29.829 Y169.904 E21.2605
G1 X30.008 Y166.856 E21.36205
G1 X30.079 Y164.384 E21.4443
G1 X30.079 Y161.86 E21.52825
G1 X30.008 Y159.329 E21.61247
G1 X29.813 Y155.85 E21.72836
G1 X29.8 Y155.221 E21.74929
G1 X29.801 Y144.001 E22.12246
G1 X29.811 Y143.294 E22.14598
G1 X29.829 Y142.804 E22.16229
G1 X30.008 Y139.756 E22.26384
G1 X30.079 Y137.284 E22.34609
G1 X30.079 Y134.76 E22.43004
G1 X30.008 Y132.229 E22.51426
G1 X29.813 Y128.75 E22.63015
G1 X29.8 Y128.121 E22.65108
G1 X29.801 Y116.901 E23.02425
G1 X29.811 Y116.194 E23.04777
G1 X29.829 Y115.704 E23.06408
G1 X30.008 Y112.656 E23.16563
G1 X30.079 Y110.184 E23.24788
G1 X30.079 Y107.66 E23.33183
G1 X30.008 Y105.129 E23.41605
G1 X29.813 Y101.65 E23.53194
G1 X29.8 Y101.021 E23.55287
G1 X29.801 Y95.009 E23.75283
G1 X29.811 Y94.344 E23.77495
G1 X29.865 Y93.407 E23.80616
G1 X29.999 Y92.479 E23.83735
G1 X30.211 Y91.565 E23.86856
G1 X30.5 Y90.673 E23.89974
G1 X30.865 Y89.809 E23.93094
G1 X31.301 Y88.979 E23.96212
G1 X31.807 Y88.189 E23.99332
G1 X32.378 Y87.445 E24.02452
G1 X33.01 Y86.752 E24.05571
G1 X33.699 Y86.116 E24.0869
G1 X34.44 Y85.541 E24.11809
G1 X35.227 Y85.031 E24.14929
G1 X36.055 Y84.59 E24.18049
G0 F6000 X36.427 Y84.858
G1 F1200 X37.281 Y84.514 E24.21111
G1 X38.161 Y84.245 E24.24172
G1 X39.062 Y84.054 E24.27235
G1 X39.976 Y83.942 E24.30298
G1 X40.512 Y83.913 E24.32083
G1 X41.13 Y83.9 E24.34139
G1 X74.208 Y83.901 E25.44157
G1 X74.914 Y83.912 E25.46505
G1 X75.368 Y83.929 E25.48016
G1 X78.401 Y84.106 E25.58121
G1 X80.939 Y84.179 E25.66566
G1 X83.451 Y84.179 E25.74921
G1 X85.97 Y84.109 E25.83303
G1 X89.153 Y83.926 E25.93907
G1 X89.782 Y83.904 E25.96
G1 X101.308 Y83.901 E26.34336
G1 X102.014 Y83.912 E26.36684
G1 X102.468 Y83.929 E26.38195
G1 X105.501 Y84.106 E26.483
G1 X108.039 Y84.179 E26.56745
G1 X110.551 Y84.179 E26.651
G1 X113.07 Y84.109 E26.73482
G1 X116.253 Y83.926 E26.84086
G1 X116.882 Y83.904 E26.86179
G1 X128.408 Y83.901 E27.24515
G1 X129.114 Y83.912 E27.26863
G1 X129.568 Y83.929 E27.28374
G1 X132.601 Y84.106 E27.38479
G1 X135.139 Y84.179 E27.46924
G1 X137.651 Y84.179 E27.55279
G1 X140.17 Y84.109 E27.63661
G1 X143.353 Y83.926 E27.74265
G1 X143.982 Y83.904 E27.76358
G1 X155.508 Y83.901 E28.14694
G1 X156.214 Y83.912 E28.17042
G1 X156.668 Y83.929 E28.18553
G1 X159.701 Y84.106 E28.28658
G1 X162.239 Y84.179 E28.37103
G1 X164.751 Y84.179 E28.45458
G1 X167.27 Y84.109 E28.53839
G1 X170.453 Y83.926 E28.64444
G1 X171.082 Y83.904 E28.66537
G1 X182.608 Y83.901 E29.04873
G1 X183.314 Y83.912 E29.07221
G1 X183.768 Y83.929 E29.08732
G1 X186.801 Y84.106 E29.18837
G1 X189.339 Y84.179 E29.27282
G1 X191.851 Y84.179 E29.35637
G1 X194.37 Y84.109 E29.44018
G1 X197.553 Y83.926 E29.54623
G1 X198.182 Y83.904 E29.56716
G1 X209.708 Y83.901 E29.95052
G1 X210.414 Y83.912 E29.974
G1 X210.868 Y83.929 E29.98911
G1 X213.901 Y84.106 E30.09016
G1 X216.439 Y84.179 E30.17461
G1 X218.951 Y84.179 E30.25816
G1 X221.47 Y84.109 E30.34197
G1 X224.653 Y83.926 E30.44802
G1 X225.282 Y83.904 E30.46895
G1 X236.808 Y83.901 E30.85231
G1 X237.514 Y83.912 E30.87579
G1 X237.968 Y83.929 E30.8909
G1 X241.001 Y84.106 E30.99195
G1 X243.539 Y84.179 E31.0764
G1 X246.051 Y84.179 E31.15995
G1 X248.57 Y84.109 E31.24376
G1 X251.753 Y83.926 E31.34981
G1 X252.382 Y83.904 E31.37074
G1 X258.645 Y83.901 E31.57905
G1 X259.343 Y83.911 E31.60227
G1 X260.262 Y83.964 E31.63288
G1 X261.173 Y84.097 E31.6635
G1 X262.069 Y84.308 E31.69412
G1 X262.943 Y84.596 E31.72473
G1 X263.79 Y84.959 E31.75538
G1 X264.601 Y85.394 E31.78598
G1 X265.371 Y85.898 E31.81659
G1 X266.095 Y86.467 E31.84722
G1 X266.767 Y87.097 E31.87786
G1 X267.382 Y87.782 E31.90848
G1 X267.935 Y88.518 E31.9391
G1 X268.422 Y89.299 E31.96971
G1 X268.839 Y90.12 E32.00033
G1 X269.184 Y90.974 E32.03097
G1 X269.453 Y91.854 E32.06157
G1 X269.645 Y92.755 E32.09222
G1 X269.758 Y93.668 E32.12281
G1 X269.787 Y94.212 E32.14093
G1 X269.8 Y94.83 E32.16149
G1 X269.799 Y204.895 E35.82227
G1 X269.79 Y205.622 E35.84645
G1 X269.739 Y206.541 E35.87706
G1 X269.608 Y207.453 E35.90771
G1 X269.398 Y208.349 E35.93832
G1 X269.112 Y209.224 E35.96893
G1 X268.751 Y210.071 E35.99956
G1 X268.317 Y210.883 E36.03018
G1 X267.815 Y211.655 E36.06081
G1 X267.247 Y212.38 E36.09144
G1 X266.619 Y213.053 E36.12206
G1 X265.935 Y213.669 E36.15267
G1 X265.2 Y214.223 E36.18329
G1 X264.42 Y214.712 E36.21391
G1 X263.6 Y215.131 E36.24453
G1 X262.747 Y215.477 E36.27515
G1 X261.867 Y215.748 E36.30577
G1 X260.967 Y215.941 E36.33639
G1 X260.053 Y216.056 E36.36703
G1 X259.488 Y216.087 E36.38585
G1 X258.87 Y216.1 E36.40641
G1 X68.445 Y216.099 E42.73997
G1 X67.727 Y216.088 E42.76385
G1 X66.541 Y216.003 E42.8034
G1 X64.948 Y215.799 E42.85682
G1 X62.376 Y215.514 E42.94289
G1 X59.845 Y215.307 E43.02735
G1 X57.343 Y215.172 E43.11069
G1 X53.684 Y215.1 E43.23241
G1 X41.355 Y215.099 E43.64247
G1 X40.657 Y215.089 E43.66569
G1 X39.738 Y215.036 E43.69631
G1 X38.827 Y214.903 E43.72693
G1 X37.931 Y214.692 E43.75754
G1 X37.057 Y214.404 E43.78815
G1 X36.21 Y214.041 E43.8188
G1 X35.399 Y213.606 E43.84941
G1 X34.629 Y213.102 E43.88002
G1 X33.905 Y212.533 E43.91065
G1 X33.233 Y211.903 E43.94128
G1 X32.618 Y211.218 E43.9719
G1 X32.065 Y210.482 E44.00252
G1 X31.578 Y209.701 E44.03313
G1 X31.161 Y208.88 E44.06376
G1 X30.816 Y208.026 E44.09439
G1 X30.547 Y207.146 E44.125
G1 X30.355 Y206.245 E44.15564
G1 X30.242 Y205.332 E44.18624
G1 X30.213 Y204.777 E44.20472
G1 X30.2 Y204.158 E44.22532
G1 X30.201 Y198.207 E44.42325
G1 X30.211 Y197.501 E44.44673
G1 X30.228 Y197.029 E44.46244
G1 X30.407 Y193.991 E44.56366
G1 X30.479 Y191.461 E44.64784
G1 X30.479 Y188.949 E44.73139
G1 X30.409 Y186.429 E44.81524
G1 X30.226 Y183.247 E44.92125
G1 X30.204 Y182.62 E44.94211
G1 X30.201 Y171.107 E45.32504
G1 X30.211 Y170.4 E45.34856
G1 X30.228 Y169.928 E45.36426
G1 X30.407 Y166.891 E45.46545
G1 X30.479 Y164.361 E45.54963
G1 X30.479 Y161.849 E45.63318
G1 X30.409 Y159.329 E45.71703
G1 X30.226 Y156.147 E45.82304
G1 X30.204 Y155.52 E45.84391
G1 X30.201 Y144.007 E46.22683
G1 X30.211 Y143.3 E46.25035
G1 X30.228 Y142.828 E46.26606
G1 X30.407 Y139.791 E46.36724
G1 X30.479 Y137.261 E46.45142
G1 X30.479 Y134.749 E46.53497
G1 X30.409 Y132.229 E46.61882
G1 X30.226 Y129.047 E46.72483
G1 X30.204 Y128.42 E46.7457
G1 X30.201 Y116.907 E47.12862
G1 X30.211 Y116.2 E47.15214
G1 X30.228 Y115.728 E47.16785
G1 X30.407 Y112.691 E47.26903
G1 X30.479 Y110.161 E47.35322
G1 X30.479 Y107.649 E47.43677
G1 X30.409 Y105.129 E47.52061
G1 X30.226 Y101.947 E47.62662
G1 X30.204 Y101.32 E47.64749
G1 X30.201 Y95.015 E47.85719
G1 X30.211 Y94.35 E47.87932
G1 X30.265 Y93.431 E47.90993
G1 X30.398 Y92.52 E47.94056
G1 X30.61 Y91.624 E47.97118
G1 X30.899 Y90.749 E48.00183
G1 X31.263 Y89.904 E48.03243
G1 X31.698 Y89.093 E48.06304
G1 X32.203 Y88.322 E48.09369
G1 X32.772 Y87.599 E48.12429
G1 X33.402 Y86.927 E48.15493
G1 X34.088 Y86.313 E48.18555
G1 X34.824 Y85.761 E48.21615
G1 X35.606 Y85.274 E48.24679
G1 X36.427 Y84.858 E48.2774
G0 F6000 X36.797 Y85.132
G1 F1200 X37.642 Y84.813 E48.30744
G1 X38.512 Y84.571 E48.33748
G1 X39.4 Y84.407 E48.36751
G1 X40.523 Y84.313 E48.405
G1 X41.13 Y84.3 E48.42519
G1 X74.202 Y84.301 E49.52517
G1 X74.908 Y84.312 E49.54865
G1 X75.344 Y84.328 E49.56316
G1 X78.398 Y84.507 E49.66492
G1 X80.928 Y84.579 E49.7491
G1 X83.462 Y84.579 E49.83338
G1 X86.005 Y84.508 E49.91799
G1 X89.473 Y84.313 E50.03352
G1 X90.08 Y84.3 E50.05371
G1 X101.302 Y84.301 E50.42696
G1 X102.008 Y84.312 E50.45044
G1 X102.444 Y84.328 E50.46495
G1 X105.498 Y84.507 E50.56671
G1 X108.028 Y84.579 E50.65089
G1 X110.562 Y84.579 E50.73517
G1 X113.105 Y84.508 E50.81978
G1 X116.573 Y84.313 E50.93531
G1 X117.18 Y84.3 E50.9555
G1 X128.402 Y84.301 E51.32875
G1 X129.108 Y84.312 E51.35223
G1 X129.544 Y84.328 E51.36675
G1 X132.598 Y84.507 E51.4685
G1 X135.128 Y84.579 E51.55268
G1 X137.662 Y84.579 E51.63696
G1 X140.205 Y84.508 E51.72157
G1 X143.673 Y84.313 E51.8371
G1 X144.28 Y84.3 E51.85729
G1 X155.502 Y84.301 E52.23054
G1 X156.208 Y84.312 E52.25402
G1 X156.644 Y84.328 E52.26854
G1 X159.698 Y84.507 E52.37029
G1 X162.228 Y84.579 E52.45447
G1 X164.762 Y84.579 E52.53875
G1 X167.305 Y84.508 E52.62336
G1 X170.773 Y84.313 E52.73889
G1 X171.38 Y84.3 E52.75909
G1 X182.602 Y84.301 E53.13233
G1 X183.308 Y84.312 E53.15582
G1 X183.744 Y84.328 E53.17033
G1 X186.798 Y84.507 E53.27208
G1 X189.328 Y84.579 E53.35626
G1 X191.862 Y84.579 E53.44054
G1 X194.405 Y84.508 E53.52515
G1 X197.873 Y84.313 E53.64068
G1 X198.48 Y84.3 E53.66088
G1 X209.702 Y84.301 E54.03412
G1 X210.408 Y84.312 E54.05761
G1 X210.844 Y84.328 E54.07212
G1 X213.898 Y84.507 E54.17387
G1 X216.428 Y84.579 E54.25805
G1 X218.962 Y84.579 E54.34233
G1 X221.505 Y84.508 E54.42694
G1 X224.973 Y84.313 E54.54247
G1 X225.58 Y84.3 E54.56267
G1 X236.802 Y84.301 E54.93591
G1 X237.508 Y84.312 E54.9594
G1 X237.944 Y84.328 E54.97391
G1 X240.998 Y84.507 E55.07566
G1 X243.528 Y84.579 E55.15984
G1 X246.062 Y84.579 E55.24412
G1 X248.605 Y84.508 E55.32873
G1 X252.073 Y84.313 E55.44426
G1 X252.68 Y84.3 E55.46446
G1 X258.639 Y84.301 E55.66265
G1 X259.337 Y84.311 E55.68587
G1 X260.239 Y84.364 E55.71592
G1 X261.132 Y84.496 E55.74595
G1 X262.01 Y84.707 E55.77598
G1 X262.866 Y84.995 E55.80602
G1 X263.693 Y85.357 E55.83605
G1 X264.485 Y85.792 E55.8661
G1 X265.236 Y86.294 E55.89615
G1 X265.939 Y86.861 E55.92618
G1 X266.589 Y87.488 E55.95622
G1 X267.181 Y88.17 E55.98626
G1 X267.711 Y88.901 E56.01629
G1 X268.173 Y89.677 E56.04633
G1 X268.566 Y90.49 E56.07636
G1 X268.884 Y91.335 E56.10639
G1 X269.127 Y92.205 E56.13644
G1 X269.292 Y93.093 E56.16648
G1 X269.387 Y94.223 E56.20419
G1 X269.4 Y94.83 E56.22439
G1 X269.399 Y204.89 E59.885
G1 X269.39 Y205.617 E59.90918
G1 X269.339 Y206.519 E59.93923
G1 X269.208 Y207.413 E59.96928
G1 X268.999 Y208.291 E59.9993
G1 X268.713 Y209.148 E60.02935
G1 X268.352 Y209.976 E60.05939
G1 X267.92 Y210.768 E60.0894
G1 X267.419 Y211.52 E60.11945
G1 X266.853 Y212.224 E60.14949
G1 X266.228 Y212.875 E60.17951
G1 X265.547 Y213.469 E60.20957
G1 X264.816 Y214 E60.23962
G1 X264.042 Y214.464 E60.26963
G1 X263.229 Y214.858 E60.29968
G1 X262.385 Y215.178 E60.3297
G1 X261.515 Y215.423 E60.35976
G1 X260.628 Y215.589 E60.38978
G1 X259.477 Y215.687 E60.4282
G1 X258.87 Y215.7 E60.44839
G1 X68.451 Y215.699 E66.78175
G1 X67.733 Y215.688 E66.80564
G1 X66.592 Y215.606 E66.84368
G1 X64.986 Y215.4 E66.89754
G1 X62.416 Y215.116 E66.98354
G1 X59.863 Y214.907 E67.06873
G1 X57.373 Y214.773 E67.15167
G1 X53.692 Y214.7 E67.27413
G1 X41.361 Y214.699 E67.68426
G1 X40.663 Y214.689 E67.70747
G1 X39.761 Y214.636 E67.73753
G1 X38.868 Y214.504 E67.76755
G1 X37.99 Y214.293 E67.79759
G1 X37.134 Y214.005 E67.82762
G1 X36.307 Y213.643 E67.85765
G1 X35.515 Y213.208 E67.8877
G1 X34.764 Y212.706 E67.91775
G1 X34.061 Y212.139 E67.94779
