;FLAVOR:Marlin
;TIME:11786
;Filament used: 6.80538m
;Layer height: 0.2
;MINX:88.4
;MINY:116.9
;MINZ:0.2
;MAXX:211.6
;MAXY:183.1
;MAXZ:12
;POSTPROCESSED
;Generated with Cura_SteamEngine main
M140 S60
M105
M190 S60
M104 S210
M105
M109 S210
M82 ;absolute extrusion mode
M201 X500.00 Y500.00 Z100.00 E5000.00 ;Setup machine max acceleration
M203 X500.00 Y500.00 Z10.00 E50.00 ;Setup machine max feedrate
M204 P500.00 R1000.00 T500.00 ;Setup Print/Retract/Travel acceleration
M205 X8.00 Y8.00 Z0.40 E5.00 ;Setup Jerk
M220 S100 ;Reset Feedrate
M221 S100 ;Reset Flowrate

G28 ;Home
G29 ;Auto bed Level

G92 E0 ;Reset Extruder
G1 Z2.0 F3000 ;Move Z Axis up
G1 X10.1 Y20 Z0.28 F5000.0 ;Move to start position
G1 X10.1 Y200.0 Z0.28 F1500.0 E15 ;Draw the first line
G1 X10.4 Y200.0 Z0.28 F5000.0 ;Move to side a little
G1 X10.4 Y20 Z0.28 F1500.0 E30 ;Draw the second line
G92 E0 ;Reset Extruder
G1 Z2.0 F3000 ;Move Z Axis up

G92 E0
G92 E0
G1 F2700 E-5
;LAYER_COUNT:60
;LAYER:0
M107
G0 F6000 X92.299 Y119.516 Z0.2
G0 X88.401 Y128.409
;TYPE:SKIRT
G1 F2700 E0
G1 F1200 X88.411 Y127.744 E0.01991
G1 X88.465 Y126.807 E0.048
G1 X88.599 Y125.879 E0.07607
G1 X88.811 Y124.965 E0.10416
G1 X89.1 Y124.073 E0.13222
G1 X89.465 Y123.209 E0.1603
G1 X89.901 Y122.379 E0.18836
G1 X90.407 Y121.589 E0.21645
G1 X90.978 Y120.845 E0.24452
G1 X91.61 Y120.152 E0.2726
G1 X92.299 Y119.516 E0.30067
G1 X93.04 Y118.941 E0.32874
G1 X93.827 Y118.431 E0.35681
G1 X94.655 Y117.99 E0.3849
G1 X95.517 Y117.621 E0.41296
G1 X96.408 Y117.327 E0.44105
G1 X97.32 Y117.109 E0.46912
G1 X98.247 Y116.971 E0.49717
G1 X99.101 Y116.913 E0.5228
G1 X99.73 Y116.9 E0.54163
G1 X163.748 Y116.901 E2.45795
G1 X164.454 Y116.911 E2.47909
G1 X167.512 Y117 E2.57066
G1 X168.83 Y117.009 E2.61012
G1 X170.913 Y117.009 E2.67247
G1 X174.789 Y116.93 E2.78852
G1 X175.404 Y116.909 E2.80694
G1 X176.146 Y116.9 E2.82915
G1 X200.051 Y116.901 E3.54473
G1 X200.749 Y116.911 E3.56562
G1 X201.685 Y116.965 E3.59369
G1 X202.613 Y117.097 E3.62175
G1 X203.527 Y117.309 E3.64983
G1 X204.419 Y117.598 E3.6779
G1 X205.284 Y117.961 E3.70598
G1 X206.114 Y118.397 E3.73405
G1 X206.905 Y118.902 E3.76214
G1 X207.649 Y119.473 E3.79021
G1 X208.342 Y120.105 E3.81829
G1 X208.979 Y120.793 E3.84635
G1 X209.554 Y121.534 E3.87443
G1 X210.065 Y122.32 E3.90249
G1 X210.507 Y123.148 E3.93059
G1 X210.876 Y124.01 E3.95866
G1 X211.171 Y124.9 E3.98672
G1 X211.389 Y125.812 E4.01479
G1 X211.529 Y126.74 E4.04289
G1 X211.587 Y127.601 E4.06872
G1 X211.6 Y128.23 E4.08755
G1 X211.599 Y171.5 E5.3828
G1 X211.59 Y172.227 E5.40456
G1 X211.539 Y173.164 E5.43265
G1 X211.407 Y174.092 E5.46071
G1 X211.198 Y175.006 E5.48878
G1 X210.911 Y175.899 E5.51686
G1 X210.549 Y176.765 E5.54495
G1 X210.115 Y177.596 E5.57302
G1 X209.611 Y178.387 E5.60109
G1 X209.042 Y179.132 E5.62915
G1 X208.411 Y179.827 E5.65725
G1 X207.724 Y180.465 E5.68532
G1 X206.985 Y181.042 E5.71338
G1 X206.199 Y181.554 E5.74146
G1 X205.373 Y181.997 E5.76952
G1 X204.511 Y182.369 E5.79762
G1 X203.622 Y182.665 E5.82567
G1 X202.71 Y182.885 E5.85375
G1 X201.783 Y183.026 E5.88182
G1 X200.899 Y183.087 E5.90835
G1 X200.27 Y183.1 E5.92718
G1 X176.052 Y183.099 E6.65212
G1 X175.347 Y183.089 E6.67323
G1 X172.288 Y183 E6.76484
G1 X170.97 Y182.991 E6.80429
G1 X168.887 Y182.991 E6.86664
G1 X165.012 Y183.07 E6.98266
G1 X164.396 Y183.091 E7.00111
G1 X163.654 Y183.1 E7.02333
G1 X99.949 Y183.099 E8.93028
G1 X99.251 Y183.089 E8.95117
G1 X98.315 Y183.035 E8.97924
G1 X97.387 Y182.903 E9.0073
G1 X96.473 Y182.691 E9.03538
G1 X95.581 Y182.402 E9.06345
G1 X94.716 Y182.039 E9.09153
G1 X93.886 Y181.603 E9.1196
G1 X93.095 Y181.098 E9.14769
G1 X92.351 Y180.527 E9.17576
G1 X91.658 Y179.895 E9.20384
G1 X91.021 Y179.207 E9.23191
G1 X90.446 Y178.466 E9.25998
G1 X89.935 Y177.68 E9.28804
G1 X89.493 Y176.852 E9.31614
G1 X89.124 Y175.99 E9.34421
G1 X88.829 Y175.1 E9.37228
G1 X88.611 Y174.188 E9.40034
G1 X88.471 Y173.26 E9.42844
G1 X88.413 Y172.388 E9.4546
G1 X88.4 Y171.758 E9.47346
G1 X88.401 Y128.409 E10.77107
G0 F6000 X88.801 Y128.415
G1 F1200 X88.811 Y127.75 E10.79098
G1 X88.865 Y126.831 E10.81854
G1 X88.998 Y125.92 E10.8461
G1 X89.21 Y125.024 E10.87366
G1 X89.499 Y124.149 E10.90124
G1 X89.863 Y123.304 E10.92879
G1 X90.298 Y122.493 E10.95633
G1 X90.803 Y121.722 E10.98392
G1 X91.372 Y120.999 E11.01146
G1 X92.002 Y120.327 E11.03904
G1 X92.688 Y119.713 E11.0666
G1 X93.424 Y119.161 E11.09414
G1 X94.206 Y118.674 E11.12171
G1 X95.027 Y118.258 E11.14926
G1 X95.881 Y117.914 E11.17682
G1 X96.761 Y117.645 E11.20437
G1 X97.662 Y117.454 E11.23194
G1 X98.576 Y117.342 E11.2595
G1 X99.112 Y117.313 E11.27557
G1 X99.73 Y117.3 E11.29407
G1 X163.742 Y117.301 E13.21022
G1 X164.448 Y117.311 E13.23135
G1 X167.497 Y117.4 E13.32266
G1 X168.827 Y117.409 E13.36247
G1 X170.921 Y117.409 E13.42516
G1 X174.816 Y117.329 E13.54177
G1 X175.409 Y117.309 E13.55953
G1 X176.146 Y117.3 E13.5816
G1 X200.045 Y117.301 E14.29699
G1 X200.743 Y117.311 E14.31789
G1 X201.662 Y117.364 E14.34544
G1 X202.573 Y117.497 E14.373
G1 X203.469 Y117.708 E14.40056
G1 X204.343 Y117.996 E14.4281
G1 X205.19 Y118.359 E14.45569
G1 X206.001 Y118.794 E14.48324
G1 X206.771 Y119.298 E14.51079
G1 X207.495 Y119.867 E14.53835
G1 X208.167 Y120.497 E14.56592
G1 X208.782 Y121.182 E14.59348
G1 X209.335 Y121.918 E14.62104
G1 X209.822 Y122.699 E14.64859
G1 X210.239 Y123.52 E14.67615
G1 X210.584 Y124.374 E14.70372
G1 X210.853 Y125.254 E14.73127
G1 X211.045 Y126.155 E14.75884
G1 X211.158 Y127.068 E14.78638
G1 X211.187 Y127.612 E14.80269
G1 X211.2 Y128.23 E14.82119
G1 X211.199 Y171.495 E16.11629
G1 X211.19 Y172.222 E16.13806
G1 X211.139 Y173.141 E16.16561
G1 X211.008 Y174.053 E16.19319
G1 X210.798 Y174.949 E16.22074
G1 X210.512 Y175.824 E16.24829
G1 X210.151 Y176.671 E16.27585
G1 X209.717 Y177.483 E16.30341
G1 X209.215 Y178.255 E16.33098
G1 X208.647 Y178.98 E16.35855
G1 X208.019 Y179.653 E16.3861
G1 X207.335 Y180.269 E16.41366
G1 X206.6 Y180.823 E16.44121
G1 X205.82 Y181.312 E16.46877
G1 X205 Y181.731 E16.49633
G1 X204.147 Y182.077 E16.52389
G1 X203.267 Y182.348 E16.55145
G1 X202.367 Y182.541 E16.579
G1 X201.453 Y182.656 E16.60658
G1 X200.888 Y182.687 E16.62352
G1 X200.27 Y182.7 E16.64202
G1 X176.058 Y182.699 E17.36678
G1 X175.353 Y182.689 E17.38789
G1 X172.303 Y182.6 E17.47923
G1 X170.973 Y182.591 E17.51904
G1 X168.879 Y182.591 E17.58172
G1 X164.986 Y182.67 E17.69828
G1 X164.391 Y182.691 E17.7161
G1 X163.654 Y182.7 E17.73817
G1 X99.955 Y182.699 E19.64494
G1 X99.257 Y182.689 E19.66584
G1 X98.338 Y182.636 E19.69339
G1 X97.427 Y182.503 E19.72095
G1 X96.531 Y182.292 E19.7485
G1 X95.657 Y182.004 E19.77605
G1 X94.81 Y181.641 E19.80364
G1 X93.999 Y181.206 E19.83118
G1 X93.229 Y180.702 E19.85873
G1 X92.505 Y180.133 E19.8863
G1 X91.833 Y179.503 E19.91387
G1 X91.218 Y178.818 E19.94143
G1 X90.665 Y178.082 E19.96898
G1 X90.178 Y177.301 E19.99653
G1 X89.761 Y176.48 E20.0241
G1 X89.416 Y175.626 E20.05167
G1 X89.147 Y174.746 E20.07921
G1 X88.955 Y173.845 E20.10679
G1 X88.842 Y172.932 E20.13433
G1 X88.813 Y172.377 E20.15097
G1 X88.8 Y171.758 E20.1695
G1 X88.801 Y128.415 E21.46693
G0 F6000 X89.201 Y128.421
G1 F1200 X89.211 Y127.756 E21.48684
G1 X89.265 Y126.854 E21.51389
G1 X89.398 Y125.961 E21.54092
G1 X89.609 Y125.083 E21.56795
G1 X89.898 Y124.227 E21.59499
G1 X90.261 Y123.4 E21.62203
G1 X90.695 Y122.609 E21.64903
G1 X91.198 Y121.858 E21.67609
G1 X91.766 Y121.156 E21.70312
G1 X92.393 Y120.506 E21.73016
G1 X93.075 Y119.914 E21.75719
G1 X93.807 Y119.385 E21.78422
G1 X94.583 Y118.923 E21.81126
G1 X95.397 Y118.532 E21.83829
G1 X96.242 Y118.213 E21.86533
G1 X97.112 Y117.971 E21.89236
G1 X98 Y117.807 E21.91939
G1 X99.123 Y117.713 E21.95312
G1 X99.73 Y117.7 E21.9713
G1 X163.736 Y117.701 E23.88726
G1 X164.597 Y117.714 E23.91304
G1 X167.528 Y117.8 E24.00081
G1 X168.824 Y117.809 E24.03961
G1 X170.929 Y117.809 E24.10262
G1 X174.79 Y117.73 E24.21822
G1 X175.415 Y117.709 E24.23694
G1 X176.146 Y117.7 E24.25882
G1 X200.039 Y117.701 E24.97404
G1 X200.737 Y117.711 E24.99493
G1 X201.639 Y117.764 E25.02198
G1 X202.532 Y117.896 E25.049
G1 X203.41 Y118.107 E25.07603
G1 X204.266 Y118.395 E25.10307
G1 X205.093 Y118.757 E25.13009
G1 X205.885 Y119.192 E25.15714
G1 X206.636 Y119.694 E25.18418
G1 X207.339 Y120.261 E25.21121
G1 X207.989 Y120.888 E25.23825
G1 X208.581 Y121.57 E25.26528
G1 X209.111 Y122.301 E25.29231
G1 X209.573 Y123.077 E25.31934
G1 X209.966 Y123.89 E25.34638
G1 X210.284 Y124.735 E25.3734
G1 X210.527 Y125.605 E25.40044
G1 X210.692 Y126.493 E25.42748
G1 X210.787 Y127.623 E25.46142
G1 X210.8 Y128.23 E25.4796
G1 X210.799 Y171.49 E26.77455
G1 X210.79 Y172.217 E26.79631
G1 X210.739 Y173.119 E26.82335
G1 X210.608 Y174.013 E26.8504
G1 X210.399 Y174.891 E26.87742
G1 X210.113 Y175.748 E26.90446
G1 X209.752 Y176.576 E26.9315
G1 X209.32 Y177.368 E26.95851
G1 X208.819 Y178.12 E26.98555
G1 X208.253 Y178.824 E27.01259
G1 X207.628 Y179.475 E27.03961
G1 X206.947 Y180.069 E27.06666
G1 X206.216 Y180.6 E27.0937
G1 X205.442 Y181.064 E27.12072
G1 X204.629 Y181.458 E27.14776
G1 X203.785 Y181.778 E27.17478
G1 X202.915 Y182.023 E27.20184
G1 X202.028 Y182.189 E27.22885
G1 X200.877 Y182.287 E27.26343
G1 X200.27 Y182.3 E27.2816
G1 X176.063 Y182.299 E28.00622
G1 X175.205 Y182.286 E28.0319
G1 X172.273 Y182.2 E28.11971
G1 X170.976 Y182.191 E28.15853
G1 X168.871 Y182.191 E28.22155
G1 X165.012 Y182.27 E28.33709
G1 X164.385 Y182.291 E28.35586
G1 X163.654 Y182.3 E28.37775
G1 X99.961 Y182.299 E30.28434
G1 X99.263 Y182.289 E30.30524
G1 X98.361 Y182.236 E30.33229
G1 X97.468 Y182.104 E30.35931
G1 X96.59 Y181.893 E30.38634
G1 X95.734 Y181.605 E30.41337
G1 X94.907 Y181.243 E30.4404
G1 X94.115 Y180.808 E30.46744
G1 X93.364 Y180.306 E30.49448
G1 X92.661 Y179.739 E30.52152
G1 X92.011 Y179.112 E30.54855
G1 X91.419 Y178.43 E30.57559
G1 X90.889 Y177.699 E30.60262
G1 X90.427 Y176.923 E30.62965
G1 X90.034 Y176.11 E30.65668
G1 X89.716 Y175.265 E30.68371
G1 X89.473 Y174.395 E30.71075
G1 X89.308 Y173.507 E30.73778
G1 X89.213 Y172.366 E30.77206
G1 X89.2 Y171.758 E30.79026
G1 X89.201 Y128.421 E32.08751
G1 F2700 E27.08751
G0 F6000 X162.5 Y141.6
G1 F2700 E32.08751
G1 F1200 X177.3 Y141.6 E32.53054
G1 X177.3 Y158.4 E33.03343
G1 X162.5 Y158.4 E33.47646
G1 X162.5 Y141.6 E33.97935
G0 F6000 X162.1 Y141.2
G1 F1200 X177.7 Y141.2 E34.44632
G1 X177.7 Y158.8 E34.97316
G1 X162.1 Y158.8 E35.44014
G1 X162.1 Y141.2 E35.96698
G0 F6000 X161.7 Y140.8
G1 F1200 X178.1 Y140.8 E36.4579
G1 X178.1 Y159.2 E37.00868
G1 X161.7 Y159.2 E37.4996
G1 X161.7 Y140.8 E38.05039
G0 F6000 X161.3 Y140.4
G1 F1200 X178.5 Y140.4 E38.56526
G1 X178.5 Y159.6 E39.13999
G1 X161.3 Y159.6 E39.65486
G1 X161.3 Y140.4 E40.2296
G0 F6000 X160.9 Y140
G1 F1200 X178.9 Y140 E40.76841
G1 X178.9 Y160 E41.36709
G1 X160.9 Y160 E41.90591
G1 X160.9 Y140 E42.50459
G0 F6000 X160.5 Y139.6
G1 F1200 X179.3 Y139.6 E43.06735
G1 X179.3 Y160.4 E43.68998
G1 X160.5 Y160.4 E44.25274
G1 X160.5 Y139.6 E44.87537
G0 F6000 X160.1 Y139.2
G1 F1200 X179.7 Y139.2 E45.46208
G1 X179.7 Y160.8 E46.10866
G1 X160.1 Y160.8 E46.69537
G1 X160.1 Y139.2 E47.34194
G0 F6000 X159.7 Y138.8
G1 F1200 X180.1 Y138.8 E47.9526
G1 X180.1 Y161.2 E48.62312
G1 X159.7 Y161.2 E49.23378
G1 X159.7 Y138.8 E49.9043
G0 F6000 X159.3 Y138.4
G1 F1200 X180.5 Y138.4 E50.53891
G1 X180.5 Y161.6 E51.23338
G1 X159.3 Y161.6 E51.86798
G1 X159.3 Y138.4 E52.56245
G0 F6000 X158.9 Y138
G1 F1200 X180.9 Y138 E53.221
G1 X180.9 Y162 E53.93942
G1 X158.9 Y162 E54.59797
G1 X158.9 Y138 E55.31639
G1 F2700 E50.31639
G0 F6000 X150.867 Y137.087
G1 F2700 E55.31639
G1 F1200 X150.524 Y137.608 E55.33506
G1 X150.196 Y138.136 E55.35367
G1 X149.881 Y138.674 E55.37233
G1 X149.583 Y139.221 E55.39098
G1 X149.295 Y139.782 E55.40986
G1 X149.024 Y140.345 E55.42856
G1 X148.775 Y140.905 E55.44691
G1 X148.533 Y141.489 E55.46583
G1 X148.31 Y142.071 E55.48448
G1 X148.107 Y142.649 E55.50282
G1 X147.912 Y143.252 E55.52179
G1 X147.741 Y143.839 E55.5401
G1 X147.581 Y144.442 E55.55877
G1 X147.437 Y145.059 E55.57774
G1 X147.313 Y145.659 E55.59608
G1 X147.203 Y146.281 E55.61498
G1 X147.109 Y146.898 E55.63367
G1 X147.036 Y147.506 E55.652
G1 X146.977 Y148.126 E55.67064
G1 X146.933 Y148.757 E55.68957
G1 X146.908 Y149.369 E55.70791
G1 X146.9 Y149.993 E55.72659
G1 X146.908 Y150.626 E55.74554
G1 X146.933 Y151.239 E55.7639
G1 X146.977 Y151.857 E55.78245
G1 X147.034 Y152.488 E55.80142
G1 X147.109 Y153.098 E55.81981
G1 X147.202 Y153.713 E55.83843
G1 X147.312 Y154.336 E55.85737
G1 X147.436 Y154.938 E55.87577
G1 X147.579 Y155.544 E55.89441
G1 X147.737 Y156.147 E55.91307
G1 X147.911 Y156.743 E55.93165
G1 X148.102 Y157.338 E55.95036
G1 X148.309 Y157.926 E55.96902
G1 X148.532 Y158.506 E55.98762
G1 X148.769 Y159.08 E56.00621
G1 X149.027 Y159.661 E56.02524
G1 X149.292 Y160.213 E56.04357
G1 X149.58 Y160.775 E56.06247
G1 X149.874 Y161.314 E56.08085
G1 X150.194 Y161.86 E56.09979
G1 X150.522 Y162.389 E56.11842
G1 X150.86 Y162.901 E56.13679
G1 X151.221 Y163.42 E56.15571
G1 X151.585 Y163.913 E56.17406
G1 X151.969 Y164.403 E56.19269
G1 X152.371 Y164.892 E56.21164
G1 X152.782 Y165.362 E56.23033
G1 X153.198 Y165.811 E56.24865
G1 X153.631 Y166.257 E56.26726
G1 X154.084 Y166.699 E56.28621
G1 X154.535 Y167.116 E56.30459
G1 X155.001 Y167.523 E56.32311
G1 X155.493 Y167.927 E56.34217
G1 X155.975 Y168.306 E56.36052
G1 X156.476 Y168.676 E56.37917
G1 X156.995 Y169.038 E56.39811
G1 X157.508 Y169.376 E56.4165
G1 X158.044 Y169.709 E56.43539
G1 X158.583 Y170.024 E56.45408
G1 X159.12 Y170.317 E56.47239
G1 X159.672 Y170.601 E56.49097
G1 X160.236 Y170.872 E56.5097
G1 X160.805 Y171.125 E56.52834
G1 X161.388 Y171.367 E56.54724
G1 X161.962 Y171.588 E56.56565
G1 X162.559 Y171.796 E56.58457
G1 X162.881 Y171.9 E56.5947
G1 X99.6 Y171.9 E58.48896
G1 X99.6 Y128.1 E59.80008
G1 X162.881 Y128.1 E61.69434
G1 X162.563 Y128.202 E61.70434
G1 X161.974 Y128.408 E61.72301
G1 X161.383 Y128.635 E61.74197
G1 X160.81 Y128.873 E61.76054
G1 X160.25 Y129.123 E61.7789
G1 X159.677 Y129.396 E61.7979
G1 X159.125 Y129.68 E61.81648
G1 X158.586 Y129.974 E61.83486
G1 X158.04 Y130.294 E61.8538
G1 X157.519 Y130.617 E61.87215
G1 X156.999 Y130.96 E61.8908
G1 X156.488 Y131.316 E61.90944
G1 X155.987 Y131.685 E61.92807
G1 X155.497 Y132.069 E61.9467
G1 X155.008 Y132.471 E61.96565
G1 X154.538 Y132.882 E61.98434
G1 X154.089 Y133.298 E62.00266
G1 X153.636 Y133.738 E62.02157
G1 X153.201 Y134.184 E62.04021
G1 X152.784 Y134.635 E62.0586
G1 X152.371 Y135.108 E62.0774
G1 X151.973 Y135.593 E62.09618
G1 X151.594 Y136.075 E62.11453
G1 X151.218 Y136.584 E62.13348
G1 X150.867 Y137.087 E62.15184
G1 F2700 E57.15184
G0 F6000 X148.406 Y140.752
G1 F2700 E62.15184
G1 F1200 X148.16 Y141.346 E62.17108
G1 X147.933 Y141.938 E62.19006
G1 X147.726 Y142.526 E62.20872
G1 X147.528 Y143.14 E62.22803
G1 X147.354 Y143.737 E62.24665
G1 X147.192 Y144.351 E62.26565
G1 X147.045 Y144.978 E62.28493
G1 X146.919 Y145.59 E62.30364
G1 X146.808 Y146.221 E62.32281
G1 X146.712 Y146.85 E62.34186
G1 X146.638 Y147.469 E62.36052
G1 X146.578 Y148.098 E62.37944
G1 X146.534 Y148.723 E62.39819
G1 X146.508 Y149.364 E62.4174
G1 X146.5 Y149.998 E62.43638
G1 X146.509 Y150.643 E62.45568
G1 X146.534 Y151.267 E62.47438
G1 X146.578 Y151.893 E62.49316
G1 X146.637 Y152.537 E62.51252
G1 X146.711 Y153.141 E62.53074
G1 X146.808 Y153.782 E62.55014
G1 X146.92 Y154.417 E62.56944
G1 X147.047 Y155.029 E62.58815
G1 X147.192 Y155.645 E62.6071
G1 X147.353 Y156.259 E62.6261
G1 X147.53 Y156.866 E62.64503
G1 X147.725 Y157.471 E62.66405
G1 X147.936 Y158.069 E62.68304
G1 X148.162 Y158.659 E62.70195
G1 X148.397 Y159.228 E62.72038
G1 X148.666 Y159.834 E62.74022
G1 X148.936 Y160.396 E62.75889
G1 X149.229 Y160.966 E62.77807
G1 X149.529 Y161.516 E62.79683
G1 X149.854 Y162.071 E62.81608
G1 X150.188 Y162.609 E62.83503
G1 X150.532 Y163.13 E62.85372
G1 X150.899 Y163.657 E62.87295
G1 X151.27 Y164.16 E62.89165
G1 X151.66 Y164.658 E62.91059
G1 X152.07 Y165.155 E62.92988
G1 X152.488 Y165.633 E62.94888
G1 X152.911 Y166.09 E62.96752
G1 X153.352 Y166.543 E62.98645
G1 X153.813 Y166.993 E63.00573
G1 X154.272 Y167.417 E63.02444
G1 X154.751 Y167.835 E63.04347
G1 X155.246 Y168.242 E63.06265
G1 X155.737 Y168.627 E63.08133
G1 X156.247 Y169.004 E63.10031
G1 X156.775 Y169.372 E63.11958
G1 X157.297 Y169.716 E63.13829
