;FLAVOR:Marlin
;TIME:3804
;Filament used: 2.69374m
;Layer height: 0.2
;MINX:89.9
;MINY:118.4
;MINZ:0.2
;MAXX:210.1
;MAXY:181.6
;MAXZ:3
;Generated with Cura_SteamEngine main
M140 S60
M105
M190 S60
M104 S210
M105
M109 S210
M82 ;absolute extrusion mode
M201 X500.00 Y500.00 Z100.00 E5000.00 ;Setup machine max acceleration
M203 X500.00 Y500.00 Z10.00 E50.00 ;Setup machine max feedrate
M204 P500.00 R1000.00 T500.00 ;Setup Print/Retract/Travel acceleration
M205 X8.00 Y8.00 Z0.40 E5.00 ;Setup Jerk
M220 S100 ;Reset Feedrate
M221 S100 ;Reset Flowrate

G28 ;Home
G29 ;Auto bed Level

G92 E0 ;Reset Extruder
G1 Z2.0 F3000 ;Move Z Axis up
G1 X10.1 Y20 Z0.28 F5000.0 ;Move to start position
G1 X10.1 Y200.0 Z0.28 F1500.0 E15 ;Draw the first line
G1 X10.4 Y200.0 Z0.28 F5000.0 ;Move to side a little
G1 X10.4 Y20 Z0.28 F1500.0 E30 ;Draw the second line
G92 E0 ;Reset Extruder
G1 Z2.0 F3000 ;Move Z Axis up

G92 E0
G92 E0
G1 F2700 E-5
;LAYER_COUNT:15
;LAYER:0
M107
G0 F6000 X93.786 Y121.027 Z0.2
G0 X89.901 Y129.925
;TYPE:SKIRT
G1 F2700 E0
G1 F1200 X89.91 Y129.26 E0.01991
G1 X89.963 Y128.324 E0.04797
G1 X90.095 Y127.395 E0.07606
G1 X90.306 Y126.481 E0.10414
G1 X90.594 Y125.589 E0.1322
G1 X90.957 Y124.724 E0.16028
G1 X91.392 Y123.893 E0.18836
G1 X91.896 Y123.103 E0.21641
G1 X92.466 Y122.358 E0.24449
G1 X93.098 Y121.664 E0.27258
G1 X93.786 Y121.027 E0.30065
G1 X94.526 Y120.451 E0.32872
G1 X95.312 Y119.939 E0.3568
G1 X96.139 Y119.497 E0.38487
G1 X97.001 Y119.127 E0.41295
G1 X97.891 Y118.831 E0.44103
G1 X98.803 Y118.613 E0.46909
G1 X99.73 Y118.472 E0.49716
G1 X100.601 Y118.413 E0.52329
G1 X101.23 Y118.4 E0.54213
G1 X198.551 Y118.401 E3.45535
G1 X199.249 Y118.411 E3.47624
G1 X200.185 Y118.465 E3.50431
G1 X201.113 Y118.597 E3.53237
G1 X202.027 Y118.809 E3.56045
G1 X202.919 Y119.098 E3.58852
G1 X203.784 Y119.461 E3.6166
G1 X204.614 Y119.897 E3.64466
G1 X205.405 Y120.402 E3.67276
G1 X206.149 Y120.973 E3.70083
G1 X206.842 Y121.605 E3.72891
G1 X207.479 Y122.293 E3.75697
G1 X208.054 Y123.034 E3.78505
G1 X208.565 Y123.82 E3.81311
G1 X209.007 Y124.648 E3.84121
G1 X209.376 Y125.51 E3.86928
G1 X209.671 Y126.4 E3.89734
G1 X209.889 Y127.312 E3.92541
G1 X210.029 Y128.24 E3.9535
G1 X210.087 Y129.101 E3.97934
G1 X210.1 Y129.73 E3.99817
G1 X210.099 Y170 E5.20362
G1 X210.09 Y170.727 E5.22538
G1 X210.039 Y171.664 E5.25347
G1 X209.907 Y172.592 E5.28153
G1 X209.698 Y173.506 E5.30959
G1 X209.411 Y174.399 E5.33767
G1 X209.049 Y175.265 E5.36577
G1 X208.615 Y176.096 E5.39383
G1 X208.111 Y176.887 E5.42191
G1 X207.542 Y177.632 E5.44997
G1 X206.911 Y178.327 E5.47807
G1 X206.224 Y178.965 E5.50613
G1 X205.485 Y179.542 E5.5342
G1 X204.699 Y180.054 E5.56228
G1 X203.873 Y180.497 E5.59034
G1 X203.011 Y180.869 E5.61844
G1 X202.122 Y181.165 E5.64649
G1 X201.21 Y181.385 E5.67457
G1 X200.283 Y181.526 E5.70264
G1 X199.399 Y181.587 E5.72916
G1 X198.77 Y181.6 E5.748
G1 X101.465 Y181.599 E8.66074
G1 X100.767 Y181.59 E8.68163
G1 X99.831 Y181.538 E8.70969
G1 X98.902 Y181.406 E8.73778
G1 X97.988 Y181.196 E8.76585
G1 X97.095 Y180.909 E8.79393
G1 X96.23 Y180.546 E8.82201
G1 X95.399 Y180.112 E8.85008
G1 X94.608 Y179.608 E8.87815
G1 X93.863 Y179.038 E8.90623
G1 X93.169 Y178.407 E8.93431
G1 X92.532 Y177.72 E8.96235
G1 X91.955 Y176.98 E8.99044
G1 X91.443 Y176.194 E9.01852
G1 X91 Y175.367 E9.0466
G1 X90.629 Y174.506 E9.07467
G1 X90.333 Y173.616 E9.10275
G1 X90.114 Y172.704 E9.13082
G1 X89.973 Y171.777 E9.15889
G1 X89.913 Y170.888 E9.18556
G1 X89.9 Y170.258 E9.20442
G1 X89.901 Y129.925 E10.41176
G0 F6000 X90.301 Y129.931
G1 F1200 X90.31 Y129.266 E10.43166
G1 X90.362 Y128.346 E10.45925
G1 X90.494 Y127.435 E10.4868
G1 X90.705 Y126.539 E10.51436
G1 X90.992 Y125.664 E10.54192
G1 X91.355 Y124.818 E10.56948
G1 X91.789 Y124.006 E10.59704
G1 X92.292 Y123.235 E10.6246
G1 X92.861 Y122.511 E10.65216
G1 X93.489 Y121.839 E10.67969
G1 X94.174 Y121.223 E10.70727
G1 X94.91 Y120.67 E10.73483
G1 X95.691 Y120.182 E10.76239
G1 X96.511 Y119.764 E10.78995
G1 X97.365 Y119.419 E10.81752
G1 X98.245 Y119.149 E10.84507
G1 X99.145 Y118.957 E10.87262
G1 X100.059 Y118.843 E10.90019
G1 X100.612 Y118.813 E10.91677
G1 X101.23 Y118.8 E10.93527
G1 X198.545 Y118.801 E13.84831
G1 X199.243 Y118.811 E13.86921
G1 X200.162 Y118.864 E13.89676
G1 X201.073 Y118.997 E13.92432
G1 X201.969 Y119.208 E13.95187
G1 X202.843 Y119.496 E13.97942
G1 X203.69 Y119.859 E14.00701
G1 X204.501 Y120.294 E14.03455
G1 X205.271 Y120.798 E14.0621
G1 X205.995 Y121.367 E14.08967
G1 X206.667 Y121.997 E14.11724
G1 X207.282 Y122.682 E14.1448
G1 X207.835 Y123.418 E14.17235
G1 X208.322 Y124.199 E14.1999
G1 X208.739 Y125.02 E14.22747
G1 X209.084 Y125.874 E14.25504
G1 X209.353 Y126.754 E14.28258
G1 X209.545 Y127.655 E14.31016
G1 X209.658 Y128.568 E14.3377
G1 X209.687 Y129.112 E14.35401
G1 X209.7 Y129.73 E14.37251
G1 X209.699 Y169.995 E15.57781
G1 X209.69 Y170.722 E15.59957
G1 X209.639 Y171.641 E15.62712
G1 X209.508 Y172.553 E15.6547
G1 X209.298 Y173.449 E15.68225
G1 X209.012 Y174.324 E15.70981
G1 X208.651 Y175.171 E15.73737
G1 X208.217 Y175.983 E15.76493
G1 X207.715 Y176.755 E15.79249
G1 X207.147 Y177.48 E15.82006
G1 X206.519 Y178.153 E15.84762
G1 X205.835 Y178.769 E15.87517
G1 X205.1 Y179.323 E15.90272
G1 X204.32 Y179.812 E15.93028
G1 X203.5 Y180.231 E15.95785
G1 X202.647 Y180.577 E15.9854
G1 X201.767 Y180.848 E16.01296
G1 X200.867 Y181.041 E16.04052
G1 X199.953 Y181.156 E16.06809
G1 X199.388 Y181.187 E16.08503
G1 X198.77 Y181.2 E16.10353
G1 X101.47 Y181.199 E19.01612
G1 X100.772 Y181.19 E19.03702
G1 X99.853 Y181.138 E19.06457
G1 X98.942 Y181.007 E19.09212
G1 X98.046 Y180.797 E19.11967
G1 X97.171 Y180.51 E19.14724
G1 X96.324 Y180.148 E19.17481
G1 X95.512 Y179.714 E19.20237
G1 X94.741 Y179.212 E19.22991
G1 X94.016 Y178.644 E19.25748
G1 X93.343 Y178.015 E19.28505
G1 X92.728 Y177.331 E19.31259
G1 X92.174 Y176.596 E19.34014
G1 X91.686 Y175.815 E19.36771
G1 X91.267 Y174.995 E19.39527
G1 X90.921 Y174.142 E19.42283
G1 X90.651 Y173.262 E19.45038
G1 X90.458 Y172.361 E19.47796
G1 X90.344 Y171.448 E19.5055
G1 X90.313 Y170.877 E19.52262
G1 X90.3 Y170.258 E19.54115
G1 X90.301 Y129.931 E20.74831
G0 F6000 X90.701 Y129.936
G1 F1200 X90.71 Y129.271 E20.76822
G1 X90.762 Y128.369 E20.79526
G1 X90.894 Y127.476 E20.82228
G1 X91.104 Y126.598 E20.84931
G1 X91.391 Y125.741 E20.87636
G1 X91.753 Y124.914 E20.90338
G1 X92.186 Y124.122 E20.9304
G1 X92.688 Y123.371 E20.95744
G1 X93.255 Y122.667 E20.9845
G1 X93.881 Y122.017 E21.01152
G1 X94.562 Y121.424 E21.03855
G1 X95.294 Y120.894 E21.0656
G1 X96.069 Y120.431 E21.09262
G1 X96.882 Y120.038 E21.11965
G1 X97.727 Y119.718 E21.1467
G1 X98.596 Y119.475 E21.17371
G1 X99.484 Y119.309 E21.20075
G1 X100.623 Y119.213 E21.23497
G1 X101.23 Y119.2 E21.25314
G1 X198.539 Y119.201 E24.166
G1 X199.237 Y119.211 E24.1869
G1 X200.139 Y119.264 E24.21395
G1 X201.032 Y119.396 E24.24097
G1 X201.91 Y119.607 E24.268
G1 X202.766 Y119.895 E24.29503
G1 X203.593 Y120.257 E24.32206
G1 X204.385 Y120.692 E24.3491
G1 X205.136 Y121.194 E24.37614
G1 X205.839 Y121.761 E24.40318
G1 X206.489 Y122.388 E24.43021
G1 X207.081 Y123.07 E24.45725
G1 X207.611 Y123.801 E24.48428
G1 X208.073 Y124.577 E24.51131
G1 X208.466 Y125.39 E24.53834
G1 X208.784 Y126.235 E24.56537
G1 X209.027 Y127.105 E24.59241
G1 X209.192 Y127.993 E24.61944
G1 X209.287 Y129.123 E24.65339
G1 X209.3 Y129.73 E24.67156
G1 X209.299 Y169.99 E25.87671
G1 X209.29 Y170.717 E25.89847
G1 X209.239 Y171.619 E25.92552
G1 X209.108 Y172.513 E25.95256
G1 X208.899 Y173.391 E25.97958
G1 X208.613 Y174.248 E26.00662
G1 X208.252 Y175.076 E26.03366
G1 X207.82 Y175.868 E26.06067
G1 X207.319 Y176.62 E26.08772
G1 X206.753 Y177.324 E26.11476
G1 X206.128 Y177.975 E26.14177
G1 X205.447 Y178.569 E26.16882
G1 X204.716 Y179.1 E26.19587
G1 X203.942 Y179.564 E26.22288
G1 X203.129 Y179.958 E26.24992
G1 X202.285 Y180.278 E26.27694
G1 X201.415 Y180.523 E26.304
G1 X200.528 Y180.689 E26.33101
G1 X199.377 Y180.787 E26.36559
G1 X198.77 Y180.8 E26.38376
G1 X101.475 Y180.799 E29.29621
G1 X100.777 Y180.79 E29.3171
G1 X99.876 Y180.739 E29.34411
G1 X98.982 Y180.607 E29.37117
G1 X98.104 Y180.398 E29.39818
G1 X97.247 Y180.111 E29.42524
G1 X96.42 Y179.75 E29.45225
G1 X95.627 Y179.317 E29.47929
G1 X94.876 Y178.816 E29.50632
G1 X94.172 Y178.25 E29.53336
G1 X93.521 Y177.624 E29.56039
G1 X92.928 Y176.943 E29.58742
G1 X92.398 Y176.212 E29.61445
G1 X91.934 Y175.437 E29.64149
G1 X91.54 Y174.624 E29.66853
G1 X91.22 Y173.78 E29.69555
G1 X90.976 Y172.91 E29.7226
G1 X90.81 Y172.022 E29.74964
G1 X90.713 Y170.867 E29.78434
G1 X90.7 Y170.258 E29.80257
G1 X90.701 Y129.936 E31.00958
G1 F2700 E26.00958
;MESH:holder_test.stl
G0 F6000 X100.235 Y129.936
G0 X101.5 Y170
;TYPE:WALL-INNER
G1 F2700 E31.00958
G1 F1200 X198.5 Y170 E33.91319
G1 X198.5 Y150 E34.51187
G1 X198.5 Y130 E35.11055
G1 X101.5 Y130 E38.01416
G1 X101.5 Y170 E39.21152
G0 F6000 X101.1 Y170.4
;TYPE:WALL-OUTER
G1 F1200 X198.9 Y170.4 E42.13908
G1 X198.9 Y150 E42.74974
G1 X198.9 Y129.6 E43.36039
G1 X101.1 Y129.6 E46.28795
G1 X101.1 Y170.4 E47.50926
G0 F6000 X101.37 Y170.13
G0 X101.6 Y169.64
G0 X101.86 Y169.64
;TYPE:SKIN
G1 F1200 X198.14 Y169.64 E50.39132
G1 X198.14 Y150 E50.97923
G1 X198.14 Y130.36 E51.56713
G1 X101.86 Y130.36 E54.44919
G1 X101.86 Y169.64 E55.625
G0 F6000 X102.122 Y169.439
G1 F1200 X102.06 Y169.376 E55.62765
G0 F6000 X102.06 Y168.811
G1 F1200 X102.688 Y169.439 E55.65423
G0 F6000 X103.253 Y169.439
G1 F1200 X102.06 Y168.245 E55.70476
G0 F6000 X102.06 Y167.679
G1 F1200 X103.819 Y169.439 E55.77924
G0 F6000 X104.385 Y169.439
G1 F1200 X102.06 Y167.114 E55.87767
G0 F6000 X102.06 Y166.548
G1 F1200 X104.95 Y169.439 E56.00003
G0 F6000 X105.516 Y169.439
G1 F1200 X102.06 Y165.982 E56.14636
G0 F6000 X102.06 Y165.417
G1 F1200 X106.082 Y169.439 E56.31662
G0 F6000 X106.647 Y169.439
G1 F1200 X102.06 Y164.851 E56.51083
G0 F6000 X102.06 Y164.285
G1 F1200 X107.213 Y169.439 E56.72899
G0 F6000 X107.779 Y169.439
G1 F1200 X102.06 Y163.719 E56.97111
G0 F6000 X102.06 Y163.154
G1 F1200 X108.345 Y169.439 E57.23718
G0 F6000 X108.91 Y169.439
G1 F1200 X102.06 Y162.588 E57.52718
G0 F6000 X102.06 Y162.022
G1 F1200 X109.476 Y169.439 E57.84115
G0 F6000 X110.042 Y169.439
G1 F1200 X102.06 Y161.457 E58.17905
G0 F6000 X102.06 Y160.891
G1 F1200 X110.607 Y169.439 E58.54089
G0 F6000 X111.173 Y169.439
G1 F1200 X102.06 Y160.325 E58.9267
G0 F6000 X102.06 Y159.76
G1 F1200 X111.739 Y169.439 E59.33644
G0 F6000 X112.304 Y169.439
G1 F1200 X102.06 Y159.194 E59.77013
G0 F6000 X102.06 Y158.628
G1 F1200 X112.87 Y169.439 E60.22777
G0 F6000 X113.436 Y169.439
G1 F1200 X102.06 Y158.063 E60.70935
G0 F6000 X102.06 Y157.497
G1 F1200 X114.001 Y169.439 E61.21487
G0 F6000 X114.567 Y169.439
G1 F1200 X102.06 Y156.931 E61.74436
G0 F6000 X102.06 Y156.366
G1 F1200 X115.133 Y169.439 E62.29778
G0 F6000 X115.698 Y169.439
G1 F1200 X102.06 Y155.8 E62.87514
G0 F6000 X102.06 Y155.234
G1 F1200 X116.264 Y169.439 E63.47646
G0 F6000 X116.83 Y169.439
G1 F1200 X102.06 Y154.669 E64.10173
G0 F6000 X102.06 Y154.103
G1 F1200 X117.395 Y169.439 E64.75093
G0 F6000 X117.961 Y169.439
G1 F1200 X102.06 Y153.537 E65.42409
G0 F6000 X102.06 Y152.971
G1 F1200 X118.527 Y169.439 E66.12121
G0 F6000 X119.093 Y169.439
G1 F1200 X102.06 Y152.406 E66.84227
G0 F6000 X102.06 Y151.84
G1 F1200 X119.658 Y169.439 E67.58728
G0 F6000 X120.224 Y169.439
G1 F1200 X102.06 Y151.274 E68.35624
G0 F6000 X102.06 Y150.709
G1 F1200 X120.79 Y169.439 E69.14914
G0 F6000 X121.355 Y169.439
G1 F1200 X102.06 Y150.143 E69.96598
G0 F6000 X102.06 Y149.577
G1 F1200 X121.921 Y169.439 E70.80678
G0 F6000 X122.487 Y169.439
G1 F1200 X102.06 Y149.012 E71.67152
G0 F6000 X102.06 Y148.446
G1 F1200 X123.052 Y169.439 E72.5602
G0 F6000 X123.618 Y169.439
G1 F1200 X102.06 Y147.88 E73.47284
G0 F6000 X102.06 Y147.315
G1 F1200 X124.184 Y169.439 E74.40943
G0 F6000 X124.749 Y169.439
G1 F1200 X102.06 Y146.749 E75.36995
G0 F6000 X102.06 Y146.183
G1 F1200 X125.315 Y169.439 E76.35443
G0 F6000 X125.881 Y169.439
G1 F1200 X102.06 Y145.618 E77.36285
G0 F6000 X102.06 Y145.052
G1 F1200 X126.446 Y169.439 E78.39521
G0 F6000 X127.012 Y169.439
G1 F1200 X102.06 Y144.486 E79.45153
G0 F6000 X102.06 Y143.92
G1 F1200 X127.578 Y169.439 E80.53181
G0 F6000 X128.144 Y169.439
G1 F1200 X102.06 Y143.355 E81.63603
G0 F6000 X102.06 Y142.789
G1 F1200 X128.709 Y169.439 E82.76419
G0 F6000 X129.275 Y169.439
G1 F1200 X102.06 Y142.223 E83.91631
G0 F6000 X102.06 Y141.658
G1 F1200 X129.841 Y169.439 E85.09237
G0 F6000 X130.406 Y169.439
G1 F1200 X102.06 Y141.092 E86.29237
G0 F6000 X102.06 Y140.526
G1 F1200 X130.972 Y169.439 E87.51633
G0 F6000 X131.538 Y169.439
G1 F1200 X102.06 Y139.961 E88.76423
G0 F6000 X102.06 Y139.395
G1 F1200 X132.103 Y169.439 E90.03606
G0 F6000 X132.669 Y169.439
G1 F1200 X102.06 Y138.829 E91.33186
G0 F6000 X102.06 Y138.264
G1 F1200 X133.235 Y169.439 E92.6516
G0 F6000 X133.8 Y169.439
G1 F1200 X102.06 Y137.698 E93.99528
G0 F6000 X102.06 Y137.132
G1 F1200 X134.366 Y169.439 E95.36292
G0 F6000 X134.932 Y169.439
G1 F1200 X102.06 Y136.567 E96.7545
G0 F6000 X102.06 Y136.001
G1 F1200 X135.497 Y169.439 E98.17002
G0 F6000 X136.063 Y169.439
G1 F1200 X102.06 Y135.435 E99.60949
G0 F6000 X102.06 Y134.87
G1 F1200 X136.629 Y169.439 E101.07291
G0 F6000 X137.194 Y169.439
G1 F1200 X102.06 Y134.304 E102.56027
G0 F6000 X102.06 Y133.738
G1 F1200 X137.76 Y169.439 E104.07159
G0 F6000 X138.326 Y169.439
G1 F1200 X102.06 Y133.172 E105.60686
G0 F6000 X102.06 Y132.607
G1 F1200 X138.892 Y169.439 E107.16608
G0 F6000 X139.457 Y169.439
G1 F1200 X102.06 Y132.041 E108.74924
G0 F6000 X102.06 Y131.475
G1 F1200 X140.023 Y169.439 E110.35636
G0 F6000 X140.589 Y169.439
G1 F1200 X102.06 Y130.91 E111.98742
G0 F6000 X102.275 Y130.56
G1 F1200 X141.154 Y169.439 E113.63329
G0 F6000 X141.72 Y169.439
G1 F1200 X102.841 Y130.56 E115.27916
G0 F6000 X103.407 Y130.56
G1 F1200 X142.286 Y169.439 E116.92504
G0 F6000 X142.851 Y169.439
G1 F1200 X103.972 Y130.56 E118.57091
G0 F6000 X104.538 Y130.56
G1 F1200 X143.417 Y169.439 E120.21679
G0 F6000 X143.983 Y169.439
G1 F1200 X105.104 Y130.56 E121.86266
G0 F6000 X105.67 Y130.56
G1 F1200 X144.548 Y169.439 E123.50851
G0 F6000 X145.114 Y169.439
G1 F1200 X106.235 Y130.56 E125.15439
G0 F6000 X106.801 Y130.56
G1 F1200 X145.68 Y169.439 E126.80026
G0 F6000 X146.245 Y169.439
G1 F1200 X107.367 Y130.56 E128.44611
G0 F6000 X107.932 Y130.56
G1 F1200 X146.811 Y169.439 E130.09199
G0 F6000 X147.377 Y169.439
G1 F1200 X108.498 Y130.56 E131.73786
G0 F6000 X109.064 Y130.56
G1 F1200 X147.943 Y169.439 E133.38374
G0 F6000 X148.508 Y169.439
G1 F1200 X109.629 Y130.56 E135.02961
G0 F6000 X110.195 Y130.56
G1 F1200 X149.074 Y169.439 E136.67548
G0 F6000 X149.64 Y169.439
G1 F1200 X110.761 Y130.56 E138.32136
G0 F6000 X111.326 Y130.56
G1 F1200 X150.205 Y169.439 E139.96723
G0 F6000 X150.771 Y169.439
G1 F1200 X111.892 Y130.56 E141.61311
G0 F6000 X112.458 Y130.56
G1 F1200 X151.337 Y169.439 E143.25898
G0 F6000 X151.902 Y169.439
G1 F1200 X113.023 Y130.56 E144.90485
G0 F6000 X113.589 Y130.56
G1 F1200 X152.468 Y169.439 E146.55073
G0 F6000 X153.034 Y169.439
G1 F1200 X114.155 Y130.56 E148.1966
G0 F6000 X114.721 Y130.56
G1 F1200 X153.599 Y169.439 E149.84246
G0 F6000 X154.165 Y169.439
G1 F1200 X115.286 Y130.56 E151.48833
G0 F6000 X115.852 Y130.56
G1 F1200 X154.731 Y169.439 E153.1342
G0 F6000 X155.296 Y169.439
G1 F1200 X116.418 Y130.56 E154.78006
G0 F6000 X116.983 Y130.56
G1 F1200 X155.862 Y169.439 E156.42593
G0 F6000 X156.428 Y169.439
G1 F1200 X117.549 Y130.56 E158.0718
G0 F6000 X118.115 Y130.56
G1 F1200 X156.993 Y169.439 E159.71766
G0 F6000 X157.559 Y169.439
G1 F1200 X118.68 Y130.56 E161.36353
G0 F6000 X119.246 Y130.56
G1 F1200 X158.125 Y169.439 E163.00941
G0 F6000 X158.691 Y169.439
G1 F1200 X119.812 Y130.56 E164.65528
G0 F6000 X120.377 Y130.56
G1 F1200 X159.256 Y169.439 E166.30115
G0 F6000 X159.822 Y169.439
G1 F1200 X120.943 Y130.56 E167.94703
G0 F6000 X121.509 Y130.56
G1 F1200 X160.388 Y169.439 E169.5929
G0 F6000 X160.953 Y169.439
G1 F1200 X122.074 Y130.56 E171.23878
G0 F6000 X122.64 Y130.56
G1 F1200 X161.519 Y169.439 E172.88465
G0 F6000 X162.085 Y169.439
G1 F1200 X123.206 Y130.56 E174.53052
G0 F6000 X123.771 Y130.56
G1 F1200 X162.65 Y169.439 E176.1764
G0 F6000 X163.216 Y169.439
