;FLAVOR:Marlin
;TIME:3288
;Filament used: 1.83541m
;Layer height: 0.2
;MINX:117.009
;MINY:117.009
;MINZ:0.2
;MAXX:182.989
;MAXY:182.991
;MAXZ:7
;POSTPROCESSED
;Generated with Cura_SteamEngine main
M140 S60
M105
M190 S60
M104 S210
M105
M109 S210
M82 ;absolute extrusion mode
M201 X500.00 Y500.00 Z100.00 E5000.00 ;Setup machine max acceleration
M203 X500.00 Y500.00 Z10.00 E50.00 ;Setup machine max feedrate
M204 P500.00 R1000.00 T500.00 ;Setup Print/Retract/Travel acceleration
M205 X8.00 Y8.00 Z0.40 E5.00 ;Setup Jerk
M220 S100 ;Reset Feedrate
M221 S100 ;Reset Flowrate

G28 ;Home
G29 ;Auto bed Level

G92 E0 ;Reset Extruder
G1 Z2.0 F3000 ;Move Z Axis up
G1 X10.1 Y20 Z0.28 F5000.0 ;Move to start position
G1 X10.1 Y200.0 Z0.28 F1500.0 E15 ;Draw the first line
G1 X10.4 Y200.0 Z0.28 F5000.0 ;Move to side a little
G1 X10.4 Y20 Z0.28 F1500.0 E30 ;Draw the second line
G92 E0 ;Reset Extruder
G1 Z2.0 F3000 ;Move Z Axis up

G92 E0
G92 E0
G1 F2700 E-5
;LAYER_COUNT:35
;LAYER:0
M107
G0 F6000 X126.986 Y126.362 Z0.2
G0 X120.276 Y135.687
;TYPE:SKIRT
G1 F2700 E0
G1 F1200 X120.51 Y135.21 E0.0159
G1 X120.977 Y134.313 E0.04618
G1 X121.348 Y133.643 E0.0691
G1 X121.874 Y132.757 E0.09994
G1 X122.131 Y132.346 E0.11445
G1 X122.75 Y131.405 E0.14817
G1 X123.057 Y130.962 E0.1643
G1 X123.672 Y130.12 E0.19552
G1 X124.091 Y129.574 E0.21612
G1 X125 Y128.475 E0.25881
G1 X125.309 Y128.119 E0.27292
G1 X125.838 Y127.536 E0.29649
G1 X126.228 Y127.122 E0.31351
G1 X126.986 Y126.362 E0.34564
G1 X127.415 Y125.95 E0.36345
G1 X128.2 Y125.237 E0.39519
G1 X128.555 Y124.93 E0.40924
G1 X129.398 Y124.233 E0.44198
G1 X130.147 Y123.651 E0.47038
G1 X130.996 Y123.031 E0.50185
G1 X131.462 Y122.709 E0.5188
G1 X132.123 Y122.271 E0.54254
G1 X132.657 Y121.933 E0.56146
G1 X133.498 Y121.433 E0.59074
G1 X134.342 Y120.963 E0.61966
G1 X135.299 Y120.466 E0.65194
G1 X135.802 Y120.221 E0.66869
G1 X136.788 Y119.771 E0.70113
G1 X137.22 Y119.585 E0.71521
G1 X137.994 Y119.271 E0.74022
G1 X138.451 Y119.097 E0.75485
G1 X139.783 Y118.63 E0.79711
G1 X140.357 Y118.45 E0.81511
G1 X141.147 Y118.219 E0.83975
G1 X141.675 Y118.076 E0.85613
G1 X142.994 Y117.762 E0.89671
G1 X143.478 Y117.659 E0.91152
G1 X144.297 Y117.505 E0.93647
G1 X144.86 Y117.411 E0.95356
G1 X145.962 Y117.258 E0.98686
G1 X146.544 Y117.19 E1.0044
G1 X147.936 Y117.075 E1.04621
G1 X148.395 Y117.048 E1.05997
G1 X149.513 Y117.011 E1.09346
G1 X150.101 Y117.009 E1.11106
G1 X150.888 Y117.021 E1.13462
G1 X151.456 Y117.04 E1.15163
G1 X152.915 Y117.14 E1.19541
G1 X153.372 Y117.182 E1.20915
G1 X154.15 Y117.271 E1.23259
G1 X154.697 Y117.344 E1.24911
G1 X155.798 Y117.523 E1.2825
G1 X156.378 Y117.631 E1.30016
G1 X157.703 Y117.921 E1.34076
G1 X158.185 Y118.04 E1.35562
G1 X158.961 Y118.25 E1.37968
G1 X159.565 Y118.426 E1.39852
G1 X160.585 Y118.754 E1.43059
G1 X161.121 Y118.939 E1.44756
G1 X162.386 Y119.421 E1.48809
G1 X162.956 Y119.661 E1.5066
G1 X163.919 Y120.09 E1.53816
G1 X164.346 Y120.291 E1.55228
G1 X165.339 Y120.79 E1.58555
G1 X165.828 Y121.053 E1.60217
G1 X166.53 Y121.448 E1.62628
G1 X167.03 Y121.743 E1.64366
G1 X168.162 Y122.457 E1.68372
G1 X168.689 Y122.813 E1.70276
G1 X169.307 Y123.248 E1.72538
G1 X170.035 Y123.791 E1.75257
G1 X170.914 Y124.487 E1.78613
G1 X171.332 Y124.835 E1.80241
G1 X172.143 Y125.545 E1.83468
G1 X172.504 Y125.875 E1.84932
G1 X173.114 Y126.459 E1.8746
G1 X173.442 Y126.787 E1.88848
G1 X174.185 Y127.561 E1.9206
G1 X174.568 Y127.981 E1.93761
G1 X175.282 Y128.806 E1.97027
G1 X175.615 Y129.21 E1.98595
G1 X176.266 Y130.039 E2.0175
G1 X176.694 Y130.612 E2.03891
G1 X177.301 Y131.478 E2.07056
G1 X177.575 Y131.89 E2.08537
G1 X178.318 Y133.071 E2.12714
G1 X178.596 Y133.547 E2.14364
G1 X178.976 Y134.226 E2.16693
G1 X179.271 Y134.779 E2.1857
G1 X179.889 Y136.035 E2.2276
G1 X180.095 Y136.483 E2.24236
G1 X180.418 Y137.229 E2.26669
G1 X180.757 Y138.069 E2.29381
G1 X181.132 Y139.082 E2.32614
G1 X181.292 Y139.548 E2.34089
G1 X181.601 Y140.522 E2.37148
G1 X181.792 Y141.189 E2.39225
G1 X182.064 Y142.236 E2.42463
G1 X182.186 Y142.759 E2.4407
G1 X182.408 Y143.825 E2.4733
G1 X182.499 Y144.321 E2.48839
G1 X182.634 Y145.16 E2.51383
G1 X182.7 Y145.63 E2.52804
G1 X182.824 Y146.691 E2.56001
G1 X182.884 Y147.332 E2.57929
G1 X182.953 Y148.409 E2.61159
G1 X182.976 Y148.951 E2.62783
G1 X182.989 Y150.388 E2.67085
G1 X182.98 Y150.88 E2.68558
G1 X182.95 Y151.642 E2.7084
G1 X182.886 Y152.617 E2.73765
G1 X182.782 Y153.702 E2.77028
G1 X182.726 Y154.178 E2.78463
G1 X182.61 Y155.006 E2.80966
G1 X182.533 Y155.481 E2.82406
G1 X182.346 Y156.492 E2.85484
G1 X182.215 Y157.121 E2.87407
G1 X181.961 Y158.182 E2.90673
G1 X181.838 Y158.643 E2.92101
G1 X181.427 Y160.041 E2.96463
G1 X181.219 Y160.666 E2.98435
G1 X180.871 Y161.635 E3.01517
G1 X180.706 Y162.066 E3.02898
G1 X180.39 Y162.842 E3.05406
G1 X180.191 Y163.299 E3.06898
G1 X179.581 Y164.61 E3.11227
G1 X179.33 Y165.106 E3.12891
G1 X178.949 Y165.822 E3.15318
G1 X178.656 Y166.348 E3.17121
G1 X177.945 Y167.533 E3.21257
G1 X177.69 Y167.936 E3.22685
G1 X177.218 Y168.645 E3.25235
G1 X176.942 Y169.039 E3.26675
G1 X176.11 Y170.169 E3.30875
G1 X175.699 Y170.685 E3.3285
G1 X175 Y171.525 E3.36121
G1 X174.691 Y171.881 E3.37532
G1 X174.162 Y172.464 E3.39889
G1 X173.772 Y172.878 E3.41591
G1 X173.014 Y173.638 E3.44804
G1 X172.585 Y174.05 E3.46585
G1 X171.8 Y174.763 E3.49759
G1 X171.445 Y175.07 E3.51164
G1 X170.602 Y175.767 E3.54438
G1 X169.853 Y176.349 E3.57278
G1 X169.004 Y176.969 E3.60425
G1 X168.538 Y177.291 E3.6212
G1 X167.877 Y177.729 E3.64494
G1 X167.343 Y178.067 E3.66386
G1 X166.502 Y178.567 E3.69314
G1 X165.658 Y179.037 E3.72206
G1 X164.703 Y179.533 E3.75427
G1 X164.201 Y179.778 E3.77099
G1 X163.213 Y180.229 E3.80351
G1 X162.78 Y180.415 E3.81761
G1 X162.006 Y180.729 E3.84261
G1 X161.549 Y180.903 E3.85725
G1 X160.217 Y181.37 E3.8995
G1 X159.643 Y181.55 E3.91751
G1 X158.853 Y181.781 E3.94215
G1 X158.325 Y181.924 E3.95852
G1 X157.006 Y182.238 E3.99911
G1 X156.522 Y182.341 E4.01392
G1 X155.703 Y182.495 E4.03887
G1 X155.14 Y182.589 E4.05596
G1 X154.038 Y182.742 E4.08926
G1 X153.456 Y182.81 E4.1068
G1 X152.064 Y182.925 E4.14861
G1 X151.603 Y182.952 E4.16243
G1 X150.78 Y182.982 E4.18709
G1 X150.201 Y182.991 E4.20442
G1 X149.151 Y182.98 E4.23585
G1 X148.569 Y182.96 E4.25328
G1 X147.146 Y182.866 E4.29597
G1 X146.66 Y182.822 E4.31058
G1 X145.848 Y182.729 E4.33505
G1 X145.303 Y182.656 E4.35151
G1 X144.202 Y182.477 E4.3849
G1 X143.378 Y182.319 E4.41001
G1 X142.592 Y182.149 E4.43408
G1 X142.106 Y182.033 E4.44904
G1 X141.096 Y181.766 E4.48031
G1 X140.474 Y181.586 E4.49969
G1 X139.083 Y181.131 E4.5435
G1 X138.626 Y180.968 E4.55803
G1 X137.622 Y180.582 E4.59023
G1 X137.091 Y180.361 E4.60744
G1 X136.36 Y180.04 E4.63134
G1 X135.93 Y179.839 E4.64555
G1 X134.664 Y179.211 E4.68785
G1 X134.171 Y178.946 E4.70461
G1 X133.469 Y178.551 E4.72872
G1 X132.981 Y178.264 E4.74567
G1 X131.838 Y177.543 E4.78612
G1 X131.311 Y177.187 E4.80516
G1 X130.693 Y176.752 E4.82778
G1 X130.235 Y176.416 E4.84478
G1 X129.087 Y175.514 E4.88849
G1 X128.668 Y175.165 E4.90481
G1 X127.857 Y174.455 E4.93707
G1 X127.496 Y174.125 E4.95172
G1 X126.886 Y173.541 E4.97699
G1 X126.558 Y173.213 E4.99088
G1 X125.815 Y172.439 E5.023
G1 X125.432 Y172.019 E5.04001
G1 X124.718 Y171.194 E5.07267
G1 X124.386 Y170.791 E5.0883
G1 X123.734 Y169.961 E5.1199
G1 X123.302 Y169.382 E5.14152
G1 X122.699 Y168.522 E5.17296
G1 X122.425 Y168.11 E5.18777
G1 X121.682 Y166.929 E5.22954
G1 X121.403 Y166.452 E5.24608
G1 X121.022 Y165.771 E5.26944
G1 X120.73 Y165.223 E5.28803
G1 X120.109 Y163.96 E5.33016
G1 X119.907 Y163.521 E5.34462
G1 X119.584 Y162.776 E5.36893
G1 X119.368 Y162.252 E5.38589
G1 X118.868 Y160.918 E5.42854
G1 X118.706 Y160.45 E5.44336
G1 X118.474 Y159.725 E5.46615
G1 X118.303 Y159.153 E5.48402
G1 X117.936 Y157.761 E5.52711
G1 X117.814 Y157.241 E5.5431
G1 X117.592 Y156.175 E5.5757
G1 X117.5 Y155.677 E5.59086
G1 X117.365 Y154.837 E5.61632
G1 X117.301 Y154.37 E5.63043
G1 X117.177 Y153.31 E5.66238
G1 X117.115 Y152.66 E5.68192
G1 X117.049 Y151.626 E5.71294
G1 X117.023 Y151.011 E5.73137
G1 X117.009 Y149.899 E5.76465
G1 X117.014 Y149.423 E5.7789
G1 X117.067 Y148.022 E5.82087
G1 X117.113 Y147.401 E5.83951
G1 X117.218 Y146.302 E5.87256
G1 X117.274 Y145.822 E5.88702
G1 X117.39 Y144.994 E5.91205
G1 X117.467 Y144.521 E5.9264
G1 X117.719 Y143.187 E5.96704
G1 X117.85 Y142.596 E5.98516
G1 X118.039 Y141.818 E6.00912
G1 X118.162 Y141.357 E6.0234
G1 X118.569 Y139.969 E6.0667
G1 X118.762 Y139.386 E6.08509
G1 X119.027 Y138.636 E6.1089
G1 X119.192 Y138.2 E6.12285
G1 X119.591 Y137.207 E6.15489
G1 X119.807 Y136.705 E6.17124
G1 X120.276 Y135.687 E6.2048
G1 F2700 E1.2048
G0 F6000 X118.014 Y146.378
G1 F2700 E6.2048
G1 F1200 X118.067 Y145.933 E6.21821
G1 X118.183 Y145.105 E6.24324
G1 X118.254 Y144.667 E6.25652
G1 X118.501 Y143.356 E6.29645
G1 X118.627 Y142.785 E6.31396
G1 X118.816 Y142.007 E6.33792
G1 X118.93 Y141.579 E6.35118
G1 X119.33 Y140.216 E6.3937
G1 X119.517 Y139.653 E6.41146
G1 X119.782 Y138.903 E6.43527
G1 X119.934 Y138.498 E6.44822
G1 X120.333 Y137.505 E6.48026
G1 X120.534 Y137.04 E6.49542
G1 X121.003 Y136.022 E6.52897
G1 X121.22 Y135.58 E6.54371
G1 X121.854 Y134.375 E6.58447
G1 X122.165 Y133.83 E6.60325
G1 X122.561 Y133.166 E6.6264
G1 X122.799 Y132.785 E6.63984
G1 X123.418 Y131.844 E6.67356
G1 X123.703 Y131.434 E6.68851
G1 X124.318 Y130.592 E6.71972
G1 X124.721 Y130.067 E6.73953
G1 X125.615 Y128.987 E6.7815
G1 X125.901 Y128.657 E6.79457
G1 X126.43 Y128.074 E6.81813
G1 X126.807 Y127.674 E6.83459
G1 X127.719 Y126.764 E6.87315
G1 X128.168 Y126.342 E6.8916
G1 X128.735 Y125.831 E6.91445
G1 X129.064 Y125.547 E6.92746
G1 X130.179 Y124.633 E6.97061
G1 X130.622 Y124.295 E6.98729
G1 X131.453 Y123.687 E7.01812
G1 X131.904 Y123.376 E7.03452
G1 X132.565 Y122.938 E7.05825
G1 X133.275 Y122.494 E7.08332
G1 X133.905 Y122.121 E7.10523
G1 X134.441 Y121.818 E7.12367
G1 X135.668 Y121.176 E7.16512
G1 X136.134 Y120.949 E7.18063
G1 X137.12 Y120.499 E7.21308
G1 X137.521 Y120.326 E7.22615
G1 X138.295 Y120.012 E7.25115
G1 X138.718 Y119.851 E7.2647
G1 X140.027 Y119.392 E7.30623
G1 X140.581 Y119.218 E7.32361
G1 X141.371 Y118.987 E7.34825
G1 X141.879 Y118.849 E7.364
G1 X143.177 Y118.541 E7.40394
G1 X143.626 Y118.446 E7.41767
G1 X144.698 Y118.247 E7.45031
G1 X145.25 Y118.161 E7.46704
G1 X146.069 Y118.05 E7.49178
G1 X146.956 Y117.954 E7.51848
G1 X147.999 Y117.872 E7.5498
G1 X148.425 Y117.848 E7.56257
G1 X149.52 Y117.811 E7.59537
G1 X150.089 Y117.809 E7.6124
G1 X150.876 Y117.821 E7.63596
G1 X151.425 Y117.84 E7.65241
G1 X152.857 Y117.938 E7.69537
G1 X153.281 Y117.977 E7.70812
G1 X154.059 Y118.066 E7.73156
G1 X154.587 Y118.136 E7.7475
G1 X155.926 Y118.358 E7.78813
G1 X156.514 Y118.476 E7.80608
G1 X157.529 Y118.702 E7.83721
G1 X157.976 Y118.812 E7.85099
G1 X158.752 Y119.022 E7.87505
G1 X159.59 Y119.271 E7.90122
G1 X160.337 Y119.514 E7.92474
G1 X160.855 Y119.693 E7.94114
G1 X162.082 Y120.161 E7.98045
G1 X162.631 Y120.392 E7.99828
G1 X163.594 Y120.821 E8.02984
G1 X163.99 Y121.007 E8.04294
G1 X164.725 Y121.373 E8.06751
G1 X165.219 Y121.632 E8.08421
G1 X166.368 Y122.279 E8.12368
G1 X166.828 Y122.557 E8.13977
G1 X167.494 Y122.977 E8.16334
G1 X168.021 Y123.325 E8.18225
G1 X168.846 Y123.902 E8.21238
G1 X169.282 Y124.221 E8.22855
G1 X170.418 Y125.114 E8.27181
G1 X170.805 Y125.436 E8.28688
G1 X171.616 Y126.146 E8.31914
G1 X171.951 Y126.453 E8.33274
G1 X172.561 Y127.037 E8.35802
G1 X172.865 Y127.341 E8.37089
G1 X173.608 Y128.115 E8.40301
G1 X173.963 Y128.504 E8.41877
G1 X174.677 Y129.329 E8.45143
G1 X174.986 Y129.704 E8.46598
G1 X175.846 Y130.809 E8.50789
G1 X176.18 Y131.27 E8.52493
G1 X176.645 Y131.936 E8.54925
G1 X176.899 Y132.318 E8.56298
G1 X177.63 Y133.479 E8.60405
G1 X177.898 Y133.938 E8.61996
G1 X178.278 Y134.617 E8.64325
G1 X178.563 Y135.151 E8.66137
G1 X179.17 Y136.385 E8.70254
G1 X179.361 Y136.801 E8.71624
G1 X179.684 Y137.547 E8.74057
G1 X180.007 Y138.347 E8.7664
G1 X180.382 Y139.36 E8.79873
G1 X180.531 Y139.792 E8.81241
G1 X180.764 Y140.52 E8.83529
G1 X180.93 Y141.074 E8.8526
G1 X181.289 Y142.437 E8.8948
G1 X181.403 Y142.922 E8.90971
G1 X181.625 Y143.988 E8.9423
G1 X181.709 Y144.448 E8.9563
G1 X181.844 Y145.287 E8.98174
G1 X181.905 Y145.723 E8.99492
G1 X182.06 Y147.089 E9.03607
G1 X182.106 Y147.657 E9.05313
G1 X182.155 Y148.458 E9.07715
G1 X182.177 Y148.979 E9.09276
G1 X182.189 Y150.392 E9.13506
G1 X182.181 Y150.848 E9.14871
G1 X182.151 Y151.61 E9.17154
G1 X182.115 Y152.221 E9.18986
G1 X181.985 Y153.625 E9.23207
G1 X181.933 Y154.067 E9.24539
G1 X181.817 Y154.895 E9.27042
G1 X181.746 Y155.335 E9.28376
G1 X181.501 Y156.637 E9.32342
G1 X181.373 Y157.215 E9.34114
G1 X181.184 Y157.993 E9.3651
G1 X181.07 Y158.421 E9.37836
G1 X180.667 Y159.793 E9.42117
G1 X180.466 Y160.396 E9.44019
G1 X180.118 Y161.365 E9.47101
G1 X179.965 Y161.764 E9.4838
G1 X179.649 Y162.54 E9.50889
G1 X179.465 Y162.964 E9.52272
G1 X178.865 Y164.254 E9.56531
G1 X178.624 Y164.731 E9.58131
G1 X178.243 Y165.447 E9.60559
G1 X177.959 Y165.955 E9.62301
G1 X177.26 Y167.119 E9.66365
G1 X177.024 Y167.492 E9.67686
G1 X176.552 Y168.201 E9.70236
G1 X176.297 Y168.567 E9.71571
G1 X175.681 Y169.41 E9.74697
G1 X175.279 Y169.933 E9.76671
G1 X174.385 Y171.013 E9.80868
G1 X174.099 Y171.343 E9.82175
G1 X173.57 Y171.926 E9.84532
G1 X173.193 Y172.326 E9.86177
G1 X172.281 Y173.236 E9.90034
G1 X171.832 Y173.658 E9.91878
G1 X171.265 Y174.169 E9.94163
G1 X170.936 Y174.453 E9.95464
G1 X169.821 Y175.367 E9.9978
G1 X169.378 Y175.705 E10.01448
G1 X168.547 Y176.313 E10.0453
G1 X168.096 Y176.624 E10.0617
G1 X167.435 Y177.062 E10.08543
G1 X166.725 Y177.506 E10.1105
G1 X166.095 Y177.879 E10.13242
G1 X165.559 Y178.182 E10.15085
G1 X164.334 Y178.823 E10.19223
G1 X163.869 Y179.05 E10.20772
G1 X162.881 Y179.501 E10.24023
G1 X162.479 Y179.674 E10.25333
G1 X161.705 Y179.988 E10.27834
G1 X161.282 Y180.149 E10.29188
G1 X159.973 Y180.608 E10.33341
G1 X159.419 Y180.782 E10.35079
G1 X158.629 Y181.013 E10.37543
G1 X158.121 Y181.151 E10.39119
G1 X156.823 Y181.459 E10.43112
G1 X156.374 Y181.554 E10.44486
G1 X155.302 Y181.753 E10.47749
G1 X154.75 Y181.839 E10.49422
G1 X153.931 Y181.95 E10.51896
G1 X153.044 Y182.046 E10.54566
G1 X152.001 Y182.128 E10.57698
G1 X151.574 Y182.152 E10.58978
G1 X150.484 Y182.188 E10.62243
G1 X149.945 Y182.191 E10.63856
G1 X149.163 Y182.18 E10.66198
G1 X148.6 Y182.161 E10.67884
G1 X147.202 Y182.068 E10.72078
G1 X146.751 Y182.027 E10.73433
G1 X145.939 Y181.934 E10.7588
G1 X145.413 Y181.864 E10.77468
G1 X144.074 Y181.642 E10.81531
G1 X142.761 Y181.367 E10.85547
G1 X142.31 Y181.259 E10.86935
G1 X141.3 Y180.992 E10.90062
G1 X140.701 Y180.819 E10.91929
G1 X139.335 Y180.372 E10.96231
G1 X138.911 Y180.221 E10.97578
G1 X138.166 Y179.937 E10.99965
G1 X137.64 Y179.725 E11.01663
G1 X136.682 Y179.307 E11.04791
G1 X136.283 Y179.121 E11.06109
G1 X135.323 Y178.649 E11.09311
G1 X134.781 Y178.368 E11.11139
G1 X133.641 Y177.726 E11.15055
G1 X133.172 Y177.443 E11.16695
G1 X132.506 Y177.023 E11.19052
G1 X131.979 Y176.675 E11.20942
G1 X131.154 Y176.098 E11.23956
G1 X130.461 Y175.582 E11.26542
G1 X129.583 Y174.887 E11.29894
G1 X129.195 Y174.564 E11.31405
G1 X128.384 Y173.854 E11.34632
G1 X128.049 Y173.547 E11.35992
G1 X127.439 Y172.963 E11.3852
G1 X127.135 Y172.659 E11.39807
G1 X126.392 Y171.885 E11.43019
G1 X126.037 Y171.496 E11.44595
G1 X125.323 Y170.671 E11.47861
G1 X125.015 Y170.297 E11.49311
G1 X124.363 Y169.467 E11.52471
G1 X123.948 Y168.91 E11.5455
G1 X123.355 Y168.064 E11.57643
G1 X123.101 Y167.682 E11.59016
G1 X122.37 Y166.521 E11.63123
G1 X122.101 Y166.061 E11.64718
G1 X121.72 Y165.38 E11.67054
G1 X121.437 Y164.85 E11.68852
G1 X120.828 Y163.61 E11.72988
G1 X120.641 Y163.202 E11.74331
G1 X120.226 Y162.239 E11.7747
G1 X119.994 Y161.655 E11.79351
G1 X119.618 Y160.64 E11.82591
G1 X119.468 Y160.206 E11.83966
G1 X119.236 Y159.481 E11.86244
G1 X119.07 Y158.927 E11.87975
G1 X118.71 Y157.56 E11.92207
G1 X118.597 Y157.078 E11.93689
G1 X118.375 Y156.012 E11.96948
G1 X118.29 Y155.551 E11.98352
G1 X118.155 Y154.711 E12.00898
G1 X118.095 Y154.277 E12.0221
G1 X117.971 Y153.217 E12.05404
G1 X117.894 Y152.343 E12.08031
G1 X117.847 Y151.577 E12.10328
G1 X117.816 Y150.716 E12.12907
