;FLAVOR:Marlin
;TIME:6400
;Filament used: 3.98728m
;Layer height: 0.2
;MINX:107.5
;MINY:129
;MINZ:0.2
;MAXX:192.5
;MAXY:171.017
;MAXZ:30
;Generated with Cura_SteamEngine 5.2.1
M140 S60
M105
M190 S60
M104 S210
M105
M109 S210
M82 ;absolute extrusion mode
M201 X500.00 Y500.00 Z100.00 E5000.00 ;Setup machine max acceleration
M203 X500.00 Y500.00 Z10.00 E50.00 ;Setup machine max feedrate
M204 P500.00 R1000.00 T500.00 ;Setup Print/Retract/Travel acceleration
M205 X8.00 Y8.00 Z0.40 E5.00 ;Setup Jerk
M220 S100 ;Reset Feedrate
M221 S100 ;Reset Flowrate

G28 ;Home
G29 ;Auto bed Level

G92 E0 ;Reset Extruder
G1 Z2.0 F3000 ;Move Z Axis up
G1 X10.1 Y20 Z0.28 F5000.0 ;Move to start position
G1 X10.1 Y200.0 Z0.28 F1500.0 E15 ;Draw the first line
G1 X10.4 Y200.0 Z0.28 F5000.0 ;Move to side a little
G1 X10.4 Y20 Z0.28 F1500.0 E30 ;Draw the second line
G92 E0 ;Reset Extruder
G1 Z2.0 F3000 ;Move Z Axis up

G92 E0
G92 E0
G1 F2700 E-5
;LAYER_COUNT:150
;LAYER:0
M107
G0 F6000 X111.386 Y131.627 Z0.2
;TYPE:SKIRT
G1 F2700 E0
G1 F1200 X112.126 Y131.051 E0.03119
G1 X112.912 Y130.539 E0.06239
G1 X113.739 Y130.097 E0.09358
G1 X114.601 Y129.727 E0.12478
G1 X115.491 Y129.431 E0.15597
G1 X116.403 Y129.213 E0.18716
G1 X117.33 Y129.072 E0.21835
G1 X118.201 Y129.013 E0.24738
G1 X118.83 Y129 E0.26831
G1 X137.859 Y129 E0.90122
G1 X140.092 Y129.017 E0.97549
G1 X159.689 Y129.017 E1.62729
G1 X161.721 Y129 E1.69487
G1 X165.946 Y129.001 E1.8354
G1 X166.664 Y129.011 E1.85928
G1 X167.621 Y129.047 E1.89113
G1 X170.259 Y129.122 E1.97891
G1 X172.748 Y129.122 E2.06169
G1 X175.321 Y129.049 E2.14731
G1 X175.679 Y129.031 E2.15923
G1 X176.83 Y129 E2.19752
G1 X180.951 Y129.001 E2.33459
G1 X181.649 Y129.011 E2.35781
G1 X182.585 Y129.065 E2.38899
G1 X183.513 Y129.197 E2.42017
G1 X184.427 Y129.409 E2.45137
G1 X185.319 Y129.698 E2.48256
G1 X186.184 Y130.061 E2.51376
G1 X187.014 Y130.497 E2.54494
G1 X187.805 Y131.002 E2.57616
G1 X188.549 Y131.573 E2.60735
G1 X189.242 Y132.205 E2.63855
G1 X189.879 Y132.893 E2.66973
G1 X190.454 Y133.634 E2.70093
G1 X190.965 Y134.42 E2.73211
G1 X191.407 Y135.248 E2.76333
G1 X191.776 Y136.11 E2.79451
G1 X192.071 Y137 E2.8257
G1 X192.289 Y137.912 E2.85688
G1 X192.429 Y138.84 E2.8881
G1 X192.487 Y139.701 E2.9168
G1 X192.5 Y140.33 E2.93773
G1 X192.499 Y159.4 E3.572
G1 X192.49 Y160.127 E3.59618
G1 X192.439 Y161.064 E3.62739
G1 X192.307 Y161.992 E3.65857
G1 X192.098 Y162.906 E3.68975
G1 X191.811 Y163.799 E3.72095
G1 X191.449 Y164.665 E3.75217
G1 X191.015 Y165.496 E3.78335
G1 X190.511 Y166.287 E3.81454
G1 X189.942 Y167.032 E3.84572
G1 X189.311 Y167.727 E3.87694
G1 X188.624 Y168.365 E3.90813
G1 X187.885 Y168.942 E3.93931
G1 X187.099 Y169.454 E3.97051
G1 X186.273 Y169.897 E4.00169
G1 X185.411 Y170.269 E4.03291
G1 X184.522 Y170.565 E4.06408
G1 X183.61 Y170.785 E4.09528
G1 X182.683 Y170.926 E4.12647
G1 X181.799 Y170.987 E4.15594
G1 X181.17 Y171 E4.17686
G1 X177.054 Y170.999 E4.31376
G1 X176.337 Y170.989 E4.33761
G1 X175.379 Y170.953 E4.3695
G1 X172.741 Y170.878 E4.45727
G1 X170.253 Y170.878 E4.54002
G1 X167.679 Y170.951 E4.62567
G1 X167.321 Y170.969 E4.63759
G1 X166.17 Y171 E4.67589
G1 X161.842 Y171 E4.81984
G1 X160.974 Y171.014 E4.84871
G1 X159.775 Y171.017 E4.88859
G1 X140.649 Y171.017 E5.52472
G1 X138.416 Y171 E5.599
G1 X119.049 Y170.999 E6.24315
G1 X118.351 Y170.989 E6.26636
G1 X117.415 Y170.935 E6.29755
G1 X116.487 Y170.803 E6.32872
G1 X115.573 Y170.591 E6.35993
G1 X114.681 Y170.302 E6.39112
G1 X113.816 Y169.939 E6.42232
G1 X112.986 Y169.503 E6.4535
G1 X112.195 Y168.998 E6.48471
G1 X111.451 Y168.427 E6.51591
G1 X110.758 Y167.795 E6.5471
G1 X110.121 Y167.107 E6.57829
G1 X109.546 Y166.366 E6.60948
G1 X109.035 Y165.58 E6.64066
G1 X108.593 Y164.752 E6.67188
G1 X108.224 Y163.89 E6.70307
G1 X107.929 Y163 E6.73425
G1 X107.711 Y162.088 E6.76544
G1 X107.571 Y161.16 E6.79666
G1 X107.513 Y160.288 E6.82572
G1 X107.5 Y159.658 E6.84668
G1 X107.501 Y155.554 E6.98318
G1 X107.511 Y154.837 E7.00703
G1 X107.547 Y153.879 E7.03892
G1 X107.622 Y151.241 E7.12669
G1 X107.622 Y148.751 E7.20951
G1 X107.549 Y146.179 E7.29509
G1 X107.531 Y145.821 E7.30701
G1 X107.5 Y144.67 E7.34531
G1 X107.501 Y140.525 E7.48317
G1 X107.51 Y139.86 E7.50529
G1 X107.563 Y138.924 E7.53647
G1 X107.695 Y137.995 E7.56768
G1 X107.906 Y137.081 E7.59888
G1 X108.194 Y136.189 E7.63006
G1 X108.557 Y135.324 E7.66126
G1 X108.992 Y134.493 E7.69245
G1 X109.496 Y133.703 E7.72362
G1 X110.066 Y132.958 E7.75482
G1 X110.698 Y132.264 E7.78604
G1 X111.386 Y131.627 E7.81723
G0 F6000 X111.774 Y131.823
G1 F1200 X112.51 Y131.27 E7.84784
G1 X113.291 Y130.782 E7.87848
G1 X114.111 Y130.364 E7.90909
G1 X114.965 Y130.019 E7.93972
G1 X115.845 Y129.749 E7.97034
G1 X116.745 Y129.557 E8.00095
G1 X117.659 Y129.443 E8.03158
G1 X118.212 Y129.413 E8.05
G1 X118.83 Y129.4 E8.07056
G1 X137.856 Y129.4 E8.70337
G1 X140.089 Y129.417 E8.77764
G1 X159.692 Y129.417 E9.42964
G1 X161.724 Y129.4 E9.49722
G1 X165.941 Y129.401 E9.63748
G1 X166.659 Y129.411 E9.66137
G1 X167.592 Y129.447 E9.69242
G1 X170.248 Y129.522 E9.78079
G1 X172.759 Y129.522 E9.86431
G1 X175.352 Y129.449 E9.95059
G1 X175.933 Y129.421 E9.96993
G1 X176.83 Y129.4 E9.99978
G1 X180.945 Y129.401 E10.13664
G1 X181.643 Y129.411 E10.15986
G1 X182.562 Y129.464 E10.19048
G1 X183.473 Y129.597 E10.2211
G1 X184.369 Y129.808 E10.25172
G1 X185.243 Y130.096 E10.28232
G1 X186.09 Y130.459 E10.31297
G1 X186.901 Y130.894 E10.34358
G1 X187.671 Y131.398 E10.37419
G1 X188.395 Y131.967 E10.40482
G1 X189.067 Y132.597 E10.43545
G1 X189.682 Y133.282 E10.46607
G1 X190.235 Y134.018 E10.49669
G1 X190.722 Y134.799 E10.5273
G1 X191.139 Y135.62 E10.55793
G1 X191.484 Y136.474 E10.58856
G1 X191.753 Y137.354 E10.61917
G1 X191.945 Y138.255 E10.64981
G1 X192.058 Y139.168 E10.68041
G1 X192.087 Y139.712 E10.69853
G1 X192.1 Y140.33 E10.71909
G1 X192.099 Y159.395 E11.35319
G1 X192.09 Y160.122 E11.37737
G1 X192.039 Y161.041 E11.40799
G1 X191.908 Y161.953 E11.43863
G1 X191.698 Y162.849 E11.46924
G1 X191.412 Y163.724 E11.49986
G1 X191.051 Y164.571 E11.53048
G1 X190.617 Y165.383 E11.5611
G1 X190.115 Y166.155 E11.59173
G1 X189.547 Y166.88 E11.62237
G1 X188.919 Y167.553 E11.65298
G1 X188.235 Y168.169 E11.6836
G1 X187.5 Y168.723 E11.71421
G1 X186.72 Y169.212 E11.74483
G1 X185.9 Y169.631 E11.77546
G1 X185.047 Y169.977 E11.80607
G1 X184.167 Y170.248 E11.8367
G1 X183.267 Y170.441 E11.86731
G1 X182.353 Y170.556 E11.89795
G1 X181.788 Y170.587 E11.91677
G1 X181.17 Y170.6 E11.93733
G1 X177.059 Y170.599 E12.07406
G1 X176.342 Y170.589 E12.09791
G1 X175.408 Y170.553 E12.129
G1 X172.752 Y170.478 E12.21738
G1 X170.242 Y170.478 E12.30086
G1 X167.648 Y170.551 E12.38717
G1 X167.067 Y170.579 E12.40652
G1 X166.17 Y170.6 E12.43636
G1 X161.836 Y170.6 E12.58051
G1 X160.968 Y170.614 E12.60938
G1 X160.808 Y170.609 E12.61471
G1 X159.772 Y170.617 E12.64916
G1 X140.652 Y170.617 E13.2851
G1 X138.419 Y170.6 E13.35937
G1 X119.207 Y170.6 E13.99836
G1 X118.357 Y170.589 E14.02664
G1 X117.438 Y170.536 E14.05725
G1 X116.527 Y170.403 E14.08788
G1 X115.631 Y170.192 E14.11849
G1 X114.757 Y169.904 E14.1491
G1 X113.91 Y169.541 E14.17975
G1 X113.099 Y169.106 E14.21036
G1 X112.329 Y168.602 E14.24097
G1 X111.605 Y168.033 E14.27159
G1 X110.933 Y167.403 E14.30223
G1 X110.318 Y166.718 E14.33285
G1 X109.765 Y165.982 E14.36347
G1 X109.278 Y165.201 E14.39408
G1 X108.861 Y164.38 E14.42471
G1 X108.516 Y163.526 E14.45534
G1 X108.247 Y162.646 E14.48595
G1 X108.055 Y161.745 E14.51659
G1 X107.942 Y160.832 E14.54719
G1 X107.913 Y160.277 E14.56567
G1 X107.9 Y159.658 E14.58626
G1 X107.901 Y155.559 E14.7226
G1 X107.911 Y154.842 E14.74645
G1 X107.947 Y153.908 E14.77753
G1 X108.022 Y151.252 E14.86591
G1 X108.022 Y148.74 E14.94946
G1 X107.949 Y146.148 E15.0357
G1 X107.921 Y145.567 E15.05505
G1 X107.9 Y144.67 E15.08489
G1 X107.901 Y140.531 E15.22256
G1 X107.91 Y139.866 E15.24468
G1 X107.962 Y138.946 E15.27532
G1 X108.094 Y138.035 E15.30594
G1 X108.305 Y137.139 E15.33656
G1 X108.592 Y136.264 E15.36718
G1 X108.955 Y135.418 E15.3978
G1 X109.389 Y134.606 E15.42843
G1 X109.892 Y133.835 E15.45904
G1 X110.461 Y133.111 E15.48967
G1 X111.089 Y132.439 E15.52026
G1 X111.774 Y131.823 E15.5509
G0 F6000 X112.162 Y132.024
G1 F1200 X112.894 Y131.494 E15.58096
G1 X113.669 Y131.031 E15.61099
G1 X114.482 Y130.638 E15.64102
G1 X115.327 Y130.318 E15.67107
G1 X116.196 Y130.075 E15.70109
G1 X117.084 Y129.909 E15.73113
G1 X118.223 Y129.813 E15.76915
G1 X118.83 Y129.8 E15.78934
G1 X137.853 Y129.8 E16.42205
G1 X140.086 Y129.817 E16.49632
G1 X159.696 Y129.817 E17.14855
G1 X161.728 Y129.8 E17.21614
G1 X165.935 Y129.801 E17.35607
G1 X166.945 Y129.819 E17.38967
G1 X167.633 Y129.848 E17.41257
G1 X170.237 Y129.922 E17.49921
G1 X172.77 Y129.922 E17.58346
G1 X175.339 Y129.849 E17.66894
G1 X175.945 Y129.821 E17.68912
G1 X176.83 Y129.8 E17.71856
G1 X180.939 Y129.801 E17.85523
G1 X181.637 Y129.811 E17.87845
G1 X182.539 Y129.864 E17.9085
G1 X183.432 Y129.996 E17.93852
G1 X184.31 Y130.207 E17.96856
G1 X185.166 Y130.495 E17.99859
G1 X185.993 Y130.857 E18.02862
G1 X186.785 Y131.292 E18.05867
G1 X187.536 Y131.794 E18.08872
G1 X188.239 Y132.361 E18.11876
G1 X188.889 Y132.988 E18.1488
G1 X189.481 Y133.67 E18.17883
G1 X190.011 Y134.401 E18.20886
G1 X190.473 Y135.177 E18.2389
G1 X190.866 Y135.99 E18.26894
G1 X191.184 Y136.835 E18.29897
G1 X191.427 Y137.705 E18.32901
G1 X191.592 Y138.593 E18.35905
G1 X191.687 Y139.723 E18.39677
G1 X191.7 Y140.33 E18.41696
G1 X191.699 Y159.39 E19.0509
G1 X191.69 Y160.117 E19.07508
G1 X191.639 Y161.019 E19.10513
G1 X191.508 Y161.913 E19.13518
G1 X191.299 Y162.791 E19.1652
G1 X191.013 Y163.648 E19.19525
G1 X190.652 Y164.476 E19.22529
G1 X190.22 Y165.268 E19.2553
G1 X189.719 Y166.02 E19.28535
G1 X189.153 Y166.724 E19.3154
G1 X188.528 Y167.375 E19.34541
G1 X187.847 Y167.969 E19.37547
G1 X187.116 Y168.5 E19.40552
G1 X186.342 Y168.964 E19.43553
G1 X185.529 Y169.358 E19.46558
G1 X184.685 Y169.678 E19.4956
G1 X183.815 Y169.923 E19.52566
G1 X182.928 Y170.089 E19.55568
G1 X181.777 Y170.187 E19.5941
G1 X181.17 Y170.2 E19.61429
G1 X177.065 Y170.199 E19.75083
G1 X176.056 Y170.181 E19.78439
G1 X175.367 Y170.152 E19.80733
G1 X172.763 Y170.078 E19.89397
G1 X170.23 Y170.078 E19.97822
G1 X167.662 Y170.151 E20.06367
G1 X167.055 Y170.179 E20.08388
G1 X166.17 Y170.2 E20.11332
G1 X161.829 Y170.2 E20.2577
G1 X160.961 Y170.214 E20.28658
G1 X160.804 Y170.209 E20.2918
G1 X159.769 Y170.217 E20.32623
G1 X140.655 Y170.217 E20.96196
G1 X138.422 Y170.2 E21.03623
G1 X119.207 Y170.2 E21.67533
G1 X118.363 Y170.189 E21.7034
G1 X117.461 Y170.136 E21.73345
G1 X116.568 Y170.004 E21.76348
G1 X115.69 Y169.793 E21.79351
G1 X114.834 Y169.505 E21.82355
G1 X114.007 Y169.143 E21.85357
G1 X113.215 Y168.708 E21.88363
G1 X112.464 Y168.206 E21.91367
G1 X111.761 Y167.639 E21.94371
G1 X111.111 Y167.012 E21.97375
G1 X110.519 Y166.33 E22.00379
G1 X109.989 Y165.599 E22.03382
G1 X109.527 Y164.823 E22.06386
G1 X109.134 Y164.01 E22.09389
G1 X108.816 Y163.165 E22.12392
G1 X108.573 Y162.295 E22.15396
G1 X108.408 Y161.407 E22.184
G1 X108.313 Y160.266 E22.22208
G1 X108.3 Y159.658 E22.24231
G1 X108.301 Y155.565 E22.37845
G1 X108.319 Y154.556 E22.41201
G1 X108.348 Y153.867 E22.43495
G1 X108.422 Y151.263 E22.52159
G1 X108.422 Y148.729 E22.60587
G1 X108.349 Y146.161 E22.69132
G1 X108.321 Y145.555 E22.7115
G1 X108.3 Y144.67 E22.74094
G1 X108.301 Y140.536 E22.87844
G1 X108.31 Y139.871 E22.90056
G1 X108.362 Y138.969 E22.93061
G1 X108.494 Y138.076 E22.96063
G1 X108.704 Y137.198 E22.99066
G1 X108.991 Y136.341 E23.02072
G1 X109.353 Y135.514 E23.05074
G1 X109.786 Y134.722 E23.08076
G1 X110.288 Y133.971 E23.11081
G1 X110.855 Y133.267 E23.14087
G1 X111.481 Y132.617 E23.17089
G1 X112.162 Y132.024 E23.20092
G1 F2700 E18.20092
;MESH:Rpi_mount_link.stl(1)
G0 F6000 X118.914 Y139.335
G0 X119.1 Y140.6
;TYPE:WALL-INNER
G1 F2700 E23.20092
G1 F1200 X119.1 Y144.4 E23.32731
G1 X137.9 Y144.4 E23.9526
G1 X137.9 Y142.5 E24.0158
G1 X137.9 Y140.6 E24.07899
G1 X119.1 Y140.6 E24.70428
G0 F6000 X118.7 Y140.2
;TYPE:WALL-OUTER
G1 F1200 X118.7 Y144.8 E24.85728
G1 X138.3 Y144.8 E25.50918
G1 X138.3 Y142.5 E25.58568
G1 X138.3 Y140.2 E25.66217
G1 X118.7 Y140.2 E26.31407
G0 F6000 X118.97 Y140.47
G0 X119.2 Y140.96
G0 X119.46 Y140.96
;TYPE:SKIN
G1 F1200 X119.46 Y144.04 E26.41651
G1 X137.54 Y144.04 E27.01786
G1 X137.54 Y140.96 E27.1203
G1 X136 Y140.96 E27.17152
G1 X119.46 Y140.96 E27.72164
G0 F6000 X119.2 Y140.96
G0 X119.272 Y144.228
G0 X120.08 Y144.3
G0 X120.08 Y143.838
G1 F1200 X119.66 Y143.418 E27.7414
G0 F6000 X119.66 Y142.853
G1 F1200 X120.645 Y143.838 E27.78773
G0 F6000 X121.211 Y143.838
G1 F1200 X119.66 Y142.287 E27.86068
G0 F6000 X119.66 Y141.721
G1 F1200 X121.777 Y143.838 E27.96026
G0 F6000 X122.342 Y143.838
G1 F1200 X119.663 Y141.159 E28.08627
G0 F6000 X120.229 Y141.159
G1 F1200 X122.908 Y143.838 E28.21228
G0 F6000 X123.474 Y143.838
G1 F1200 X120.795 Y141.159 E28.3383
G0 F6000 X121.36 Y141.159
G1 F1200 X124.039 Y143.838 E28.46431
G0 F6000 X124.605 Y143.838
G1 F1200 X121.926 Y141.159 E28.59032
G0 F6000 X122.492 Y141.159
G1 F1200 X125.171 Y143.838 E28.71633
G0 F6000 X125.737 Y143.838
G1 F1200 X123.057 Y141.159 E28.84237
G0 F6000 X123.623 Y141.159
G1 F1200 X126.302 Y143.838 E28.96838
G0 F6000 X126.868 Y143.838
G1 F1200 X124.189 Y141.159 E29.09439
G0 F6000 X124.754 Y141.159
G1 F1200 X127.434 Y143.838 E29.22043
G0 F6000 X127.999 Y143.838
G1 F1200 X125.32 Y141.159 E29.34644
G0 F6000 X125.886 Y141.159
G1 F1200 X128.565 Y143.838 E29.47245
G0 F6000 X129.131 Y143.838
G1 F1200 X126.451 Y141.159 E29.59849
G0 F6000 X127.017 Y141.159
G1 F1200 X129.696 Y143.838 E29.7245
G0 F6000 X130.262 Y143.838
G1 F1200 X127.583 Y141.159 E29.85051
G0 F6000 X128.148 Y141.159
G1 F1200 X130.828 Y143.838 E29.97654
G0 F6000 X131.393 Y143.838
G1 F1200 X128.714 Y141.159 E30.10256
G0 F6000 X129.28 Y141.159
G1 F1200 X131.959 Y143.838 E30.22857
G0 F6000 X132.525 Y143.838
G1 F1200 X129.846 Y141.159 E30.35458
G0 F6000 X130.411 Y141.159
G1 F1200 X133.09 Y143.838 E30.48059
G0 F6000 X133.656 Y143.838
G1 F1200 X130.977 Y141.159 E30.6066
G0 F6000 X131.543 Y141.159
G1 F1200 X134.222 Y143.838 E30.73262
G0 F6000 X134.787 Y143.838
G1 F1200 X132.108 Y141.159 E30.85863
G0 F6000 X132.674 Y141.159
G1 F1200 X135.353 Y143.838 E30.98464
G0 F6000 X135.919 Y143.838
G1 F1200 X133.24 Y141.159 E31.11065
G0 F6000 X133.805 Y141.159
G1 F1200 X136.485 Y143.838 E31.23669
G0 F6000 X137.05 Y143.838
G1 F1200 X134.371 Y141.159 E31.3627
G0 F6000 X134.937 Y141.159
G1 F1200 X137.339 Y143.562 E31.47571
G0 F6000 X137.339 Y142.996
G1 F1200 X135.502 Y141.159 E31.56211
G0 F6000 X136.068 Y141.159
G1 F1200 X137.339 Y142.431 E31.62192
G0 F6000 X137.339 Y141.865
G1 F1200 X136.634 Y141.159 E31.6551
G0 F6000 X137.199 Y141.159
G1 F1200 X137.339 Y141.299 E31.66169
G1 F2700 E26.66169
G0 F6000 X137.8 Y141.299
G0 X137.728 Y144.228
G0 X119.1 Y144.58
G0 X119.1 Y145.665
G0 X119.1 Y154.335
G0 X119.1 Y155.6
;TYPE:WALL-INNER
G1 F2700 E31.66169
G1 F1200 X119.1 Y159.4 E31.78808
G1 X137.9 Y159.4 E32.41337
G1 X137.9 Y157.5 E32.47656
G1 X137.9 Y155.6 E32.53976
G1 X119.1 Y155.6 E33.16505
G0 F6000 X118.7 Y155.2
;TYPE:WALL-OUTER
G1 F1200 X118.7 Y159.8 E33.31804
G1 X138.3 Y159.8 E33.96994
G1 X138.3 Y157.5 E34.04644
G1 X138.3 Y155.2 E34.12294
G1 X118.7 Y155.2 E34.77484
G0 F6000 X118.97 Y155.47
G0 X119.2 Y155.96
G0 X119.46 Y155.96
;TYPE:SKIN
G1 F1200 X119.46 Y159.04 E34.87728
G1 X137.54 Y159.04 E35.47862
G1 X137.54 Y155.96 E35.58106
G1 X119.46 Y155.96 E36.18241
G0 F6000 X119.2 Y155.96
G0 X119.272 Y159.228
G0 X119.806 Y159.3
G0 X119.806 Y158.838
G1 F1200 X119.66 Y158.692 E36.18927
G0 F6000 X119.66 Y158.126
G1 F1200 X120.372 Y158.838 E36.22277
G0 F6000 X120.937 Y158.838
G1 F1200 X119.66 Y157.561 E36.28283
G0 F6000 X119.66 Y156.995
G1 F1200 X121.503 Y158.838 E36.36952
G0 F6000 X122.069 Y158.838
G1 F1200 X119.66 Y156.429 E36.48283
G0 F6000 X119.955 Y156.159
G1 F1200 X122.634 Y158.838 E36.60884
G0 F6000 X123.2 Y158.838
G1 F1200 X120.521 Y156.159 E36.73486
G0 F6000 X121.087 Y156.159
G1 F1200 X123.766 Y158.838 E36.86087
G0 F6000 X124.331 Y158.838
G1 F1200 X121.652 Y156.159 E36.98688
G0 F6000 X122.218 Y156.159
G1 F1200 X124.897 Y158.838 E37.11289
G0 F6000 X125.463 Y158.838
