;FLAVOR:Marlin
;TIME:2174
;Filament used: 0.936748m
;Layer height: 0.16
;MINX:116.5
;MINY:129
;MINZ:0.2
;MAXX:152.5
;MAXY:171
;MAXZ:28.48
;Generated with Cura_SteamEngine 5.2.1
M140 S50
M105
M190 S50
M104 S210
M105
M109 S210
M82 ;absolute extrusion mode
M201 X500.00 Y500.00 Z100.00 E5000.00 ;Setup machine max acceleration
M203 X500.00 Y500.00 Z10.00 E50.00 ;Setup machine max feedrate
M204 P500.00 R1000.00 T500.00 ;Setup Print/Retract/Travel acceleration
M205 X8.00 Y8.00 Z0.40 E5.00 ;Setup Jerk
M220 S100 ;Reset Feedrate
M221 S100 ;Reset Flowrate

G28 ;Home
G29 ;Auto bed Level

G92 E0 ;Reset Extruder
G1 Z2.0 F3000 ;Move Z Axis up
G1 X10.1 Y20 Z0.28 F5000.0 ;Move to start position
G1 X10.1 Y200.0 Z0.28 F1500.0 E15 ;Draw the first line
G1 X10.4 Y200.0 Z0.28 F5000.0 ;Move to side a little
G1 X10.4 Y20 Z0.28 F1500.0 E30 ;Draw the second line
G92 E0 ;Reset Extruder
G1 Z2.0 F3000 ;Move Z Axis up

G92 E0
G92 E0
G1 F2700 E-7
;LAYER_COUNT:160
;LAYER:0
M107
G0 F6000 X120.386 Y131.627 Z0.2
;TYPE:SKIRT
G1 F2700 E0
G1 F1200 X121.126 Y131.051 E0.03119
G1 X121.912 Y130.539 E0.06239
G1 X122.739 Y130.097 E0.09358
G1 X123.601 Y129.727 E0.12478
G1 X124.491 Y129.431 E0.15597
G1 X125.403 Y129.213 E0.18716
G1 X126.33 Y129.072 E0.21835
G1 X127.201 Y129.013 E0.24738
G1 X127.83 Y129 E0.26831
G1 X140.951 Y129.001 E0.70472
G1 X141.649 Y129.011 E0.72793
G1 X142.585 Y129.065 E0.75912
G1 X143.513 Y129.197 E0.79029
G1 X144.427 Y129.409 E0.8215
G1 X145.319 Y129.698 E0.85269
G1 X146.184 Y130.061 E0.88389
G1 X147.014 Y130.497 E0.91507
G1 X147.805 Y131.002 E0.94628
G1 X148.549 Y131.573 E0.97748
G1 X149.242 Y132.205 E1.00867
G1 X149.879 Y132.893 E1.03986
G1 X150.454 Y133.634 E1.07105
G1 X150.965 Y134.42 E1.10223
G1 X151.407 Y135.248 E1.13345
G1 X151.776 Y136.11 E1.16464
G1 X152.071 Y137 E1.19582
G1 X152.289 Y137.912 E1.22701
G1 X152.429 Y138.84 E1.25822
G1 X152.487 Y139.701 E1.28693
G1 X152.5 Y140.33 E1.30785
G1 X152.499 Y144.426 E1.44409
G1 X152.489 Y145.151 E1.4682
G1 X152.454 Y146.073 E1.49889
G1 X152.378 Y148.759 E1.58826
G1 X152.378 Y151.249 E1.67108
G1 X152.451 Y153.821 E1.75666
G1 X152.469 Y154.179 E1.76858
G1 X152.5 Y155.33 E1.80688
G1 X152.499 Y159.4 E1.94225
G1 X152.49 Y160.127 E1.96643
G1 X152.439 Y161.064 E1.99764
G1 X152.307 Y161.992 E2.02881
G1 X152.098 Y162.906 E2.06
G1 X151.811 Y163.799 E2.0912
G1 X151.449 Y164.665 E2.12242
G1 X151.015 Y165.496 E2.1536
G1 X150.511 Y166.287 E2.18479
G1 X149.942 Y167.032 E2.21597
G1 X149.311 Y167.727 E2.24719
G1 X148.624 Y168.365 E2.27838
G1 X147.885 Y168.942 E2.30956
G1 X147.099 Y169.454 E2.34076
G1 X146.273 Y169.897 E2.37193
G1 X145.411 Y170.269 E2.40316
G1 X144.522 Y170.565 E2.43433
G1 X143.61 Y170.785 E2.46553
G1 X142.683 Y170.926 E2.49672
G1 X141.799 Y170.987 E2.52619
G1 X141.17 Y171 E2.54711
G1 X128.065 Y170.999 E2.98299
G1 X127.367 Y170.99 E3.0062
G1 X126.431 Y170.938 E3.03738
G1 X125.502 Y170.806 E3.06859
G1 X124.588 Y170.596 E3.09978
G1 X123.695 Y170.309 E3.13098
G1 X122.83 Y169.946 E3.16218
G1 X121.999 Y169.512 E3.19336
G1 X121.208 Y169.008 E3.22456
G1 X120.463 Y168.438 E3.25576
G1 X119.769 Y167.807 E3.28696
G1 X119.132 Y167.12 E3.31812
G1 X118.555 Y166.38 E3.34933
G1 X118.043 Y165.594 E3.38053
G1 X117.6 Y164.767 E3.41173
G1 X117.229 Y163.906 E3.44291
G1 X116.933 Y163.016 E3.47411
G1 X116.714 Y162.104 E3.5053
G1 X116.573 Y161.177 E3.53649
G1 X116.513 Y160.288 E3.56613
G1 X116.5 Y159.658 E3.58708
G1 X116.501 Y155.554 E3.72358
G1 X116.511 Y154.837 E3.74743
G1 X116.547 Y153.879 E3.77932
G1 X116.622 Y151.241 E3.8671
G1 X116.622 Y148.751 E3.94991
G1 X116.549 Y146.179 E4.03549
G1 X116.531 Y145.821 E4.04741
G1 X116.5 Y144.67 E4.08571
G1 X116.501 Y140.525 E4.22357
G1 X116.51 Y139.86 E4.24569
G1 X116.563 Y138.924 E4.27688
G1 X116.695 Y137.995 E4.30808
G1 X116.906 Y137.081 E4.33928
G1 X117.194 Y136.189 E4.37046
G1 X117.557 Y135.324 E4.40166
G1 X117.992 Y134.493 E4.43286
G1 X118.496 Y133.703 E4.46403
G1 X119.066 Y132.958 E4.49522
G1 X119.698 Y132.264 E4.52644
G1 X120.386 Y131.627 E4.55763
G0 F6000 X120.774 Y131.823
G1 F1200 X121.51 Y131.27 E4.58825
G1 X122.291 Y130.782 E4.61888
G1 X123.111 Y130.364 E4.64949
G1 X123.965 Y130.019 E4.68013
G1 X124.845 Y129.749 E4.71074
G1 X125.745 Y129.557 E4.74135
G1 X126.659 Y129.443 E4.77198
G1 X127.212 Y129.413 E4.7904
G1 X127.83 Y129.4 E4.81096
G1 X140.793 Y129.4 E5.24211
G1 X141.643 Y129.411 E5.27039
G1 X142.562 Y129.464 E5.301
G1 X143.473 Y129.597 E5.33163
G1 X144.369 Y129.808 E5.36224
G1 X145.243 Y130.096 E5.39285
G1 X146.09 Y130.459 E5.4235
G1 X146.901 Y130.894 E5.45411
G1 X147.671 Y131.398 E5.48472
G1 X148.395 Y131.967 E5.51534
G1 X149.067 Y132.597 E5.54598
G1 X149.682 Y133.282 E5.5766
G1 X150.235 Y134.018 E5.60722
G1 X150.722 Y134.799 E5.63783
G1 X151.139 Y135.62 E5.66846
G1 X151.484 Y136.474 E5.69909
G1 X151.753 Y137.354 E5.7297
G1 X151.945 Y138.255 E5.76034
G1 X152.058 Y139.168 E5.79094
G1 X152.087 Y139.712 E5.80906
G1 X152.1 Y140.33 E5.82961
G1 X152.099 Y144.42 E5.96565
G1 X152.081 Y145.443 E5.99968
G1 X152.052 Y146.138 E6.02282
G1 X151.978 Y148.748 E6.10966
G1 X151.978 Y151.26 E6.19321
G1 X152.051 Y153.852 E6.27945
G1 X152.079 Y154.433 E6.2988
G1 X152.1 Y155.33 E6.32864
G1 X152.099 Y159.395 E6.46384
G1 X152.09 Y160.122 E6.48803
G1 X152.039 Y161.041 E6.51864
G1 X151.908 Y161.953 E6.54928
G1 X151.698 Y162.849 E6.57989
G1 X151.412 Y163.724 E6.61051
G1 X151.051 Y164.571 E6.64113
G1 X150.617 Y165.383 E6.67176
G1 X150.115 Y166.155 E6.70238
G1 X149.547 Y166.88 E6.73302
G1 X148.919 Y167.553 E6.76363
G1 X148.235 Y168.169 E6.79425
G1 X147.5 Y168.723 E6.82486
G1 X146.72 Y169.212 E6.85548
G1 X145.9 Y169.631 E6.88611
G1 X145.047 Y169.977 E6.91672
G1 X144.167 Y170.248 E6.94735
G1 X143.267 Y170.441 E6.97796
G1 X142.353 Y170.556 E7.0086
G1 X141.788 Y170.587 E7.02742
G1 X141.17 Y170.6 E7.04798
G1 X128.07 Y170.599 E7.48369
G1 X127.372 Y170.59 E7.50691
G1 X126.453 Y170.538 E7.53752
G1 X125.542 Y170.407 E7.56814
G1 X124.646 Y170.197 E7.59874
G1 X123.771 Y169.91 E7.62937
G1 X122.924 Y169.548 E7.66001
G1 X122.112 Y169.114 E7.69063
G1 X121.341 Y168.612 E7.72123
G1 X120.616 Y168.044 E7.75186
G1 X119.943 Y167.415 E7.7825
G1 X119.328 Y166.731 E7.8131
G1 X118.774 Y165.996 E7.84371
G1 X118.286 Y165.215 E7.87434
G1 X117.867 Y164.395 E7.90497
G1 X117.521 Y163.542 E7.93558
G1 X117.251 Y162.662 E7.9662
G1 X117.058 Y161.761 E7.99685
G1 X116.944 Y160.848 E8.02745
G1 X116.913 Y160.277 E8.04647
G1 X116.9 Y159.658 E8.06706
G1 X116.901 Y155.559 E8.20339
G1 X116.911 Y154.842 E8.22724
G1 X116.947 Y153.908 E8.25833
G1 X117.022 Y151.252 E8.34671
G1 X117.022 Y148.74 E8.43025
G1 X116.949 Y146.148 E8.5165
G1 X116.921 Y145.567 E8.53585
G1 X116.9 Y144.67 E8.56569
G1 X116.901 Y140.531 E8.70335
G1 X116.91 Y139.866 E8.72547
G1 X116.962 Y138.946 E8.75612
G1 X117.094 Y138.035 E8.78674
G1 X117.305 Y137.139 E8.81735
G1 X117.592 Y136.264 E8.84798
G1 X117.955 Y135.418 E8.8786
G1 X118.389 Y134.606 E8.90922
G1 X118.892 Y133.835 E8.93984
G1 X119.461 Y133.111 E8.97047
G1 X120.089 Y132.439 E9.00106
G1 X120.774 Y131.823 E9.0317
G0 F6000 X121.162 Y132.024
G1 F1200 X121.894 Y131.494 E9.06176
G1 X122.669 Y131.031 E9.09178
G1 X123.482 Y130.638 E9.12182
G1 X124.327 Y130.318 E9.15187
G1 X125.196 Y130.075 E9.18188
G1 X126.084 Y129.909 E9.21193
G1 X127.223 Y129.813 E9.24995
G1 X127.83 Y129.8 E9.27014
G1 X140.793 Y129.8 E9.70129
G1 X141.637 Y129.811 E9.72937
G1 X142.539 Y129.864 E9.75942
G1 X143.432 Y129.996 E9.78944
G1 X144.31 Y130.207 E9.81948
G1 X145.166 Y130.495 E9.84952
G1 X145.993 Y130.857 E9.87954
G1 X146.785 Y131.292 E9.90959
G1 X147.536 Y131.794 E9.93964
G1 X148.239 Y132.361 E9.96968
G1 X148.889 Y132.988 E9.99972
G1 X149.481 Y133.67 E10.02975
G1 X150.011 Y134.401 E10.05979
G1 X150.473 Y135.177 E10.08982
G1 X150.866 Y135.99 E10.11986
G1 X151.184 Y136.835 E10.14989
G1 X151.427 Y137.705 E10.17993
G1 X151.592 Y138.593 E10.20997
G1 X151.687 Y139.723 E10.24769
G1 X151.7 Y140.33 E10.26788
G1 X151.699 Y144.415 E10.40375
G1 X151.681 Y145.426 E10.43738
G1 X151.652 Y146.109 E10.46012
G1 X151.578 Y148.737 E10.54756
G1 X151.578 Y151.271 E10.63184
G1 X151.651 Y153.839 E10.71729
G1 X151.679 Y154.445 E10.73746
G1 X151.7 Y155.33 E10.76691
G1 X151.699 Y159.39 E10.90194
G1 X151.69 Y160.117 E10.92613
G1 X151.639 Y161.019 E10.95617
G1 X151.508 Y161.913 E10.98623
G1 X151.299 Y162.791 E11.01624
G1 X151.013 Y163.648 E11.04629
G1 X150.652 Y164.476 E11.07634
G1 X150.22 Y165.268 E11.10634
G1 X149.719 Y166.02 E11.1364
G1 X149.153 Y166.724 E11.16644
G1 X148.528 Y167.375 E11.19646
G1 X147.847 Y167.969 E11.22651
G1 X147.116 Y168.5 E11.25656
G1 X146.342 Y168.964 E11.28658
G1 X145.529 Y169.358 E11.31663
G1 X144.685 Y169.678 E11.34665
G1 X143.815 Y169.923 E11.37671
G1 X142.928 Y170.089 E11.40672
G1 X141.777 Y170.187 E11.44514
G1 X141.17 Y170.2 E11.46534
G1 X128.075 Y170.199 E11.90088
G1 X127.377 Y170.19 E11.9241
G1 X126.476 Y170.139 E11.95411
G1 X125.582 Y170.007 E11.98417
G1 X124.704 Y169.798 E12.01419
G1 X123.847 Y169.511 E12.04425
G1 X123.02 Y169.15 E12.07426
G1 X122.227 Y168.717 E12.10431
G1 X121.476 Y168.216 E12.13434
G1 X120.772 Y167.65 E12.16438
G1 X120.121 Y167.024 E12.19442
G1 X119.528 Y166.343 E12.22445
G1 X118.998 Y165.612 E12.25449
G1 X118.534 Y164.837 E12.28453
G1 X118.14 Y164.024 E12.31458
G1 X117.82 Y163.18 E12.3446
G1 X117.576 Y162.31 E12.37465
G1 X117.41 Y161.422 E12.4047
G1 X117.313 Y160.267 E12.44325
G1 X117.3 Y159.658 E12.46351
G1 X117.301 Y155.565 E12.59964
G1 X117.319 Y154.556 E12.63321
G1 X117.348 Y153.867 E12.65614
G1 X117.422 Y151.263 E12.74279
G1 X117.422 Y148.729 E12.82707
G1 X117.349 Y146.161 E12.91252
G1 X117.321 Y145.555 E12.93269
G1 X117.3 Y144.67 E12.96214
G1 X117.301 Y140.536 E13.09963
G1 X117.31 Y139.871 E13.12175
G1 X117.362 Y138.969 E13.15181
G1 X117.494 Y138.076 E13.18183
G1 X117.704 Y137.198 E13.21186
G1 X117.991 Y136.341 E13.24192
G1 X118.353 Y135.514 E13.27194
G1 X118.786 Y134.722 E13.30196
G1 X119.288 Y133.971 E13.33201
G1 X119.855 Y133.267 E13.36207
G1 X120.481 Y132.617 E13.39209
G1 X121.162 Y132.024 E13.42212
G1 F2700 E6.42212
;MESH:Link-Body.stl(1)
G0 F6000 X127.914 Y139.335
G0 X127.914 Y140.414
G0 X128.5 Y141
;TYPE:WALL-INNER
G1 F2700 E13.42212
G1 F1200 X128.5 Y144 E13.5219
G1 X140.5 Y144 E13.92102
G1 X140.5 Y141 E14.0208
G1 X130 Y141 E14.37004
G1 X128.5 Y141 E14.41993
G0 F6000 X128.1 Y140.6
G1 F1200 X128.1 Y144.4 E14.54631
G1 X140.9 Y144.4 E14.97204
G1 X140.9 Y140.6 E15.09843
G1 X130 Y140.6 E15.46097
G1 X128.1 Y140.6 E15.52416
G0 F6000 X127.7 Y140.2
;TYPE:WALL-OUTER
G1 F1200 X127.7 Y144.8 E15.67716
G1 X141.3 Y144.8 E16.1295
G1 X141.3 Y140.2 E16.28249
G1 X130 Y140.2 E16.65833
G1 X127.7 Y140.2 E16.73483
G0 F6000 X127.97 Y140.47
G0 X128.6 Y141.36
G0 X128.86 Y141.36
;TYPE:SKIN
G1 F1200 X128.86 Y143.64 E16.81066
G1 X140.14 Y143.64 E17.18584
G1 X140.14 Y142.5 E17.22376
G1 X140.14 Y141.36 E17.26167
G1 X128.86 Y141.36 E17.63685
G0 F6000 X128.6 Y141.36
G0 X128.672 Y143.828
G0 X129.296 Y143.9
G0 X129.296 Y143.438
G1 F1200 X129.059 Y143.201 E17.64799
G0 F6000 X129.059 Y142.636
G1 F1200 X129.862 Y143.438 E17.68574
G0 F6000 X130.427 Y143.438
G1 F1200 X129.059 Y142.07 E17.75009
G0 F6000 X129.114 Y141.559
G1 F1200 X130.993 Y143.438 E17.83847
G0 F6000 X131.559 Y143.438
G1 F1200 X129.679 Y141.559 E17.92688
G0 F6000 X130.245 Y141.559
G1 F1200 X132.125 Y143.438 E18.01528
G0 F6000 X132.69 Y143.438
G1 F1200 X130.811 Y141.559 E18.10366
G0 F6000 X131.376 Y141.559
G1 F1200 X133.256 Y143.438 E18.19207
G0 F6000 X133.822 Y143.438
G1 F1200 X131.942 Y141.559 E18.28048
G0 F6000 X132.508 Y141.559
G1 F1200 X134.387 Y143.438 E18.36886
G0 F6000 X134.953 Y143.438
G1 F1200 X133.073 Y141.559 E18.45726
G0 F6000 X133.639 Y141.559
G1 F1200 X135.519 Y143.438 E18.54567
G0 F6000 X136.084 Y143.438
G1 F1200 X134.205 Y141.559 E18.63405
G0 F6000 X134.771 Y141.559
G1 F1200 X136.65 Y143.438 E18.72243
G0 F6000 X137.216 Y143.438
G1 F1200 X135.336 Y141.559 E18.81084
G0 F6000 X135.902 Y141.559
G1 F1200 X137.781 Y143.438 E18.89922
G0 F6000 X138.347 Y143.438
G1 F1200 X136.468 Y141.559 E18.98761
G0 F6000 X137.033 Y141.559
G1 F1200 X138.913 Y143.438 E19.07601
G0 F6000 X139.478 Y143.438
G1 F1200 X137.599 Y141.559 E19.16439
G0 F6000 X138.165 Y141.559
G1 F1200 X139.939 Y143.334 E19.24786
G0 F6000 X139.939 Y142.768
G1 F1200 X138.73 Y141.559 E19.30473
G0 F6000 X139.296 Y141.559
G1 F1200 X139.939 Y142.202 E19.33497
G0 F6000 X139.939 Y141.637
G1 F1200 X139.862 Y141.559 E19.33862
G1 F2700 E12.33862
G0 F6000 X139.862 Y141.1
G0 X140.328 Y141.172
G0 X140.328 Y143.828
G0 X128.5 Y144.58
G0 X128.5 Y145.665
G0 X128.5 Y154.335
G0 X128.5 Y155.42
G0 X128.5 Y156
;TYPE:WALL-INNER
G1 F2700 E19.33862
G1 F1200 X128.5 Y159 E19.4384
G1 X130 Y159 E19.48829
G1 X140.5 Y159 E19.83752
G1 X140.5 Y156 E19.9373
G1 X128.5 Y156 E20.33642
G0 F6000 X128.1 Y155.6
G1 F1200 X128.1 Y159.4 E20.46281
G1 X130 Y159.4 E20.52601
G1 X140.9 Y159.4 E20.88854
G1 X140.9 Y155.6 E21.01493
G1 X128.1 Y155.6 E21.44066
G0 F6000 X127.7 Y155.2
;TYPE:WALL-OUTER
G1 F1200 X127.7 Y159.8 E21.59366
G1 X130 Y159.8 E21.67015
G1 X141.3 Y159.8 E22.04599
G1 X141.3 Y155.2 E22.19899
G1 X127.7 Y155.2 E22.65133
G0 F6000 X127.97 Y155.47
G0 X128.6 Y156.36
G0 X128.86 Y156.36
;TYPE:SKIN
G1 F1200 X128.86 Y158.64 E22.72716
G1 X140.14 Y158.64 E23.10234
G1 X140.14 Y157.5 E23.14025
G1 X140.14 Y156.36 E23.17817
G1 X128.86 Y156.36 E23.55334
G0 F6000 X128.6 Y156.36
G0 X128.672 Y158.828
G0 X129.589 Y158.9
G0 X129.589 Y158.439
G1 F1200 X129.059 Y157.909 E23.57827
G0 F6000 X129.059 Y157.343
G1 F1200 X130.155 Y158.439 E23.62983
G0 F6000 X130.72 Y158.439
G1 F1200 X129.059 Y156.778 E23.70795
G0 F6000 X129.406 Y156.559
G1 F1200 X131.286 Y158.439 E23.79638
G0 F6000 X131.852 Y158.439
G1 F1200 X129.972 Y156.559 E23.88481
G0 F6000 X130.538 Y156.559
G1 F1200 X132.417 Y158.439 E23.97322
G0 F6000 X132.983 Y158.439
G1 F1200 X131.103 Y156.559 E24.06165
G0 F6000 X131.669 Y156.559
G1 F1200 X133.549 Y158.439 E24.15008
G0 F6000 X134.114 Y158.439
G1 F1200 X132.235 Y156.559 E24.23848
G0 F6000 X132.801 Y156.559
G1 F1200 X134.68 Y158.439 E24.32689
G0 F6000 X135.246 Y158.439
G1 F1200 X133.366 Y156.559 E24.41532
G0 F6000 X133.932 Y156.559
G1 F1200 X135.811 Y158.439 E24.50372
G0 F6000 X136.377 Y158.439
G1 F1200 X134.498 Y156.559 E24.59213
G0 F6000 X135.063 Y156.559
G1 F1200 X136.943 Y158.439 E24.68056
G0 F6000 X137.508 Y158.439
G1 F1200 X135.629 Y156.559 E24.76897
G0 F6000 X136.195 Y156.559
G1 F1200 X138.074 Y158.439 E24.85737
G0 F6000 X138.64 Y158.439
G1 F1200 X136.76 Y156.559 E24.9458
G0 F6000 X137.326 Y156.559
G1 F1200 X139.205 Y158.439 E25.03421
G0 F6000 X139.771 Y158.439
G1 F1200 X137.892 Y156.559 E25.12261
G0 F6000 X138.457 Y156.559
G1 F1200 X139.939 Y158.041 E25.19232
G0 F6000 X139.939 Y157.476
G1 F1200 X139.023 Y156.559 E25.23543
G0 F6000 X139.589 Y156.559
G1 F1200 X139.939 Y156.91 E25.25192
G1 F2700 E18.25192
;MESH:NONMESH
G0 F300 X139.939 Y156.91 Z0.4
G0 F6000 X140.4 Y156.91
G0 X140.328 Y156.172
G0 X128.5 Y155.42
G0 X128.5 Y154.335
G0 X128.5 Y145.665
G0 X128.5 Y144.58
G0 X128.5 Y141
;TIME_ELAPSED:50.080971
;LAYER:1
M106 S85
;TYPE:WALL-INNER
;MESH:Link-Body.stl(1)
G1 F2700 E25.25192
G1 F1500 X128.5 Y144 E25.3517
G1 X140.5 Y144 E25.75082
G1 X140.5 Y142.5 E25.80071
G1 X140.5 Y141 E25.8506
G1 X128.5 Y141 E26.24972
G0 F7500 X128.1 Y140.6
G1 F1500 X128.1 Y144.4 E26.37611
G1 X140.9 Y144.4 E26.80184
G1 X140.9 Y142.5 E26.86503
G1 X140.9 Y140.6 E26.92823
G1 X128.1 Y140.6 E27.35396
G0 F7500 X127.7 Y140.2
;TYPE:WALL-OUTER
G1 F1500 X127.7 Y144.8 E27.50695
G1 X141.3 Y144.8 E27.95929
G1 X141.3 Y142.5 E28.03579
G1 X141.3 Y140.2 E28.11229
G1 X127.7 Y140.2 E28.56463
G0 F7500 X127.97 Y140.47
G0 X128.6 Y141.36
G0 X128.86 Y141.36
;TYPE:SKIN
G1 F1500 X128.86 Y143.64 E28.64046
G1 X140.14 Y143.64 E29.01563
G1 X140.14 Y142.5 E29.05355
G1 X140.14 Y141.36 E29.09147
G1 X128.86 Y141.36 E29.46664
G0 F7500 X129.06 Y141.902
G1 F1500 X129.404 Y141.559 E29.4828
G0 F7500 X129.969 Y141.559
G1 F1500 X129.06 Y142.468 E29.52556
G0 F7500 X129.06 Y143.034
G1 F1500 X130.535 Y141.559 E29.59494
G0 F7500 X131.101 Y141.559
G1 F1500 X129.22 Y143.439 E29.68339
G0 F7500 X129.786 Y143.439
G1 F1500 X131.666 Y141.559 E29.77182
G0 F7500 X132.232 Y141.559
G1 F1500 X130.352 Y143.439 E29.86025
