;FLAVOR:Marlin
;TIME:2949
;Filament used: 1.59621m
;Layer height: 0.2
;MINX:116.5
;MINY:129
;MINZ:0.2
;MAXX:173
;MAXY:171
;MAXZ:28.6
;Generated with Cura_SteamEngine 5.2.1
M140 S60
M105
M190 S60
M104 S220
M105
M109 S220
M82 ;absolute extrusion mode
M201 X500.00 Y500.00 Z100.00 E5000.00 ;Setup machine max acceleration
M203 X500.00 Y500.00 Z10.00 E50.00 ;Setup machine max feedrate
M204 P500.00 R1000.00 T500.00 ;Setup Print/Retract/Travel acceleration
M205 X8.00 Y8.00 Z0.40 E5.00 ;Setup Jerk
M220 S100 ;Reset Feedrate
M221 S100 ;Reset Flowrate

G28 ;Home
G29 ;Auto bed Level

G92 E0 ;Reset Extruder
G1 Z2.0 F3000 ;Move Z Axis up
G1 X10.1 Y20 Z0.28 F5000.0 ;Move to start position
G1 X10.1 Y200.0 Z0.28 F1500.0 E15 ;Draw the first line
G1 X10.4 Y200.0 Z0.28 F5000.0 ;Move to side a little
G1 X10.4 Y20 Z0.28 F1500.0 E30 ;Draw the second line
G92 E0 ;Reset Extruder
G1 Z2.0 F3000 ;Move Z Axis up

G92 E0
G92 E0
G1 F2700 E-6
;LAYER_COUNT:143
;LAYER:0
M107
G0 F6000 X120.399 Y131.616 Z0.2
;TYPE:SKIRT
G1 F2700 E0
G1 F1200 X121.14 Y131.041 E0.0312
G1 X121.927 Y130.531 E0.06239
G1 X122.755 Y130.09 E0.09359
G1 X123.617 Y129.721 E0.12478
G1 X124.508 Y129.427 E0.15598
G1 X125.42 Y129.209 E0.18717
G1 X126.347 Y129.071 E0.21834
G1 X127.201 Y129.013 E0.24681
G1 X127.83 Y129 E0.26774
G1 X140.952 Y129.001 E0.70418
G1 X142.756 Y129.028 E0.76418
G1 X143.6 Y129.051 E0.79227
G1 X146.135 Y129.049 E0.87658
G1 X148.037 Y129.003 E0.93986
G1 X161.451 Y129.001 E1.38601
G1 X162.149 Y129.011 E1.40923
G1 X163.085 Y129.065 E1.44041
G1 X164.013 Y129.197 E1.47159
G1 X164.927 Y129.409 E1.5028
G1 X165.819 Y129.698 E1.53398
G1 X166.684 Y130.061 E1.56518
G1 X167.514 Y130.497 E1.59637
G1 X168.305 Y131.002 E1.62758
G1 X169.049 Y131.573 E1.65877
G1 X169.742 Y132.205 E1.68997
G1 X170.379 Y132.893 E1.72115
G1 X170.954 Y133.634 E1.75235
G1 X171.465 Y134.42 E1.78353
G1 X171.907 Y135.248 E1.81475
G1 X172.276 Y136.11 E1.84593
G1 X172.571 Y137 E1.87712
G1 X172.789 Y137.912 E1.90831
G1 X172.929 Y138.84 E1.93952
G1 X172.987 Y139.701 E1.96822
G1 X173 Y140.33 E1.98915
G1 X172.999 Y144.426 E2.12538
G1 X172.989 Y145.151 E2.1495
G1 X172.954 Y146.073 E2.18019
G1 X172.878 Y148.759 E2.26956
G1 X172.878 Y151.249 E2.35238
G1 X172.951 Y153.821 E2.43795
G1 X172.969 Y154.179 E2.44988
G1 X173 Y155.33 E2.48817
G1 X172.999 Y159.4 E2.62354
G1 X172.99 Y160.127 E2.64772
G1 X172.939 Y161.064 E2.67893
G1 X172.807 Y161.992 E2.71011
G1 X172.598 Y162.906 E2.7413
G1 X172.311 Y163.799 E2.77249
G1 X171.949 Y164.665 E2.80371
G1 X171.515 Y165.496 E2.83489
G1 X171.011 Y166.287 E2.86609
G1 X170.442 Y167.032 E2.89727
G1 X169.811 Y167.727 E2.92849
G1 X169.124 Y168.365 E2.95967
G1 X168.385 Y168.942 E2.99086
G1 X167.599 Y169.454 E3.02206
G1 X166.773 Y169.897 E3.05323
G1 X165.911 Y170.269 E3.08446
G1 X165.022 Y170.565 E3.11562
G1 X164.11 Y170.785 E3.14682
G1 X163.183 Y170.926 E3.17801
G1 X162.299 Y170.987 E3.20748
G1 X161.67 Y171 E3.22841
G1 X148.548 Y170.999 E3.66485
G1 X146.745 Y170.972 E3.72482
G1 X145.901 Y170.949 E3.7529
G1 X143.365 Y170.951 E3.83725
G1 X141.463 Y170.997 E3.90053
G1 X128.065 Y170.999 E4.34615
G1 X127.367 Y170.99 E4.36937
G1 X126.431 Y170.938 E4.40055
G1 X125.502 Y170.806 E4.43176
G1 X124.588 Y170.596 E4.46295
G1 X123.695 Y170.309 E4.49415
G1 X122.83 Y169.946 E4.52535
G1 X121.999 Y169.512 E4.55653
G1 X121.208 Y169.008 E4.58772
G1 X120.463 Y168.438 E4.61892
G1 X119.769 Y167.807 E4.65012
G1 X119.132 Y167.12 E4.68128
G1 X118.555 Y166.38 E4.71249
G1 X118.043 Y165.594 E4.74369
G1 X117.6 Y164.767 E4.77489
G1 X117.229 Y163.906 E4.80608
G1 X116.933 Y163.016 E4.83727
G1 X116.714 Y162.104 E4.86847
G1 X116.573 Y161.177 E4.89966
G1 X116.513 Y160.288 E4.92929
G1 X116.5 Y159.658 E4.95025
G1 X116.501 Y155.554 E5.08675
G1 X116.511 Y154.836 E5.11063
G1 X116.547 Y153.879 E5.14248
G1 X116.622 Y151.241 E5.23026
G1 X116.622 Y148.752 E5.31304
G1 X116.549 Y146.181 E5.39859
G1 X116.531 Y145.822 E5.41055
G1 X116.5 Y144.671 E5.44884
G1 X116.501 Y140.509 E5.58727
G1 X116.511 Y139.844 E5.60939
G1 X116.565 Y138.907 E5.64061
G1 X116.699 Y137.979 E5.67179
G1 X116.911 Y137.065 E5.703
G1 X117.2 Y136.173 E5.73419
G1 X117.565 Y135.309 E5.76538
G1 X118.001 Y134.479 E5.79657
G1 X118.507 Y133.689 E5.82777
G1 X119.078 Y132.945 E5.85896
G1 X119.71 Y132.252 E5.89016
G1 X120.399 Y131.616 E5.92134
G0 F6000 X120.788 Y131.813
G1 F1200 X121.524 Y131.261 E5.95194
G1 X122.306 Y130.774 E5.98258
G1 X123.127 Y130.358 E6.0132
G1 X123.981 Y130.014 E6.04382
G1 X124.861 Y129.745 E6.07442
G1 X125.762 Y129.554 E6.10506
G1 X126.676 Y129.442 E6.13568
G1 X127.212 Y129.413 E6.15354
G1 X127.83 Y129.4 E6.1741
G1 X140.946 Y129.401 E6.61034
G1 X142.746 Y129.428 E6.67021
G1 X143.59 Y129.451 E6.69829
G1 X146.144 Y129.449 E6.78324
G1 X148.303 Y129.4 E6.85507
G1 X161.445 Y129.401 E7.29217
G1 X162.143 Y129.411 E7.31539
G1 X163.062 Y129.464 E7.34601
G1 X163.973 Y129.597 E7.37663
G1 X164.869 Y129.808 E7.40724
G1 X165.743 Y130.096 E7.43785
G1 X166.59 Y130.459 E7.4685
G1 X167.401 Y130.894 E7.49911
G1 X168.171 Y131.398 E7.52972
G1 X168.895 Y131.967 E7.56035
G1 X169.567 Y132.597 E7.59098
G1 X170.182 Y133.282 E7.6216
G1 X170.735 Y134.018 E7.65222
G1 X171.222 Y134.799 E7.68283
G1 X171.639 Y135.62 E7.71346
G1 X171.984 Y136.474 E7.74409
G1 X172.253 Y137.354 E7.7747
G1 X172.445 Y138.255 E7.80534
G1 X172.558 Y139.168 E7.83594
G1 X172.587 Y139.712 E7.85406
G1 X172.6 Y140.33 E7.87462
G1 X172.599 Y144.42 E8.01065
G1 X172.581 Y145.443 E8.04468
G1 X172.552 Y146.138 E8.06782
G1 X172.478 Y148.748 E8.15466
G1 X172.478 Y151.26 E8.23821
G1 X172.551 Y153.852 E8.32445
G1 X172.579 Y154.433 E8.3438
G1 X172.6 Y155.33 E8.37364
G1 X172.599 Y159.395 E8.50885
G1 X172.59 Y160.122 E8.53303
G1 X172.539 Y161.041 E8.56364
G1 X172.408 Y161.953 E8.59429
G1 X172.198 Y162.849 E8.62489
G1 X171.912 Y163.724 E8.65551
G1 X171.551 Y164.571 E8.68614
G1 X171.117 Y165.383 E8.71676
G1 X170.615 Y166.155 E8.74739
G1 X170.047 Y166.88 E8.77802
G1 X169.419 Y167.553 E8.80864
G1 X168.735 Y168.169 E8.83925
G1 X168 Y168.723 E8.86986
G1 X167.22 Y169.212 E8.90048
G1 X166.4 Y169.631 E8.93111
G1 X165.547 Y169.977 E8.96173
G1 X164.667 Y170.248 E8.99235
G1 X163.767 Y170.441 E9.02297
G1 X162.853 Y170.556 E9.05361
G1 X162.288 Y170.587 E9.07243
G1 X161.67 Y170.6 E9.09299
G1 X148.554 Y170.599 E9.52923
G1 X146.756 Y170.572 E9.58903
G1 X145.911 Y170.549 E9.61715
G1 X143.356 Y170.551 E9.70213
G1 X141.197 Y170.6 E9.77396
G1 X128.07 Y170.599 E10.21056
G1 X127.372 Y170.59 E10.23378
G1 X126.453 Y170.538 E10.26439
G1 X125.542 Y170.407 E10.29501
G1 X124.646 Y170.197 E10.32561
G1 X123.771 Y169.91 E10.35624
G1 X122.924 Y169.548 E10.38688
G1 X122.112 Y169.114 E10.4175
G1 X121.341 Y168.612 E10.4481
G1 X120.616 Y168.044 E10.47873
G1 X119.943 Y167.415 E10.50937
G1 X119.328 Y166.731 E10.53997
G1 X118.774 Y165.996 E10.57058
G1 X118.286 Y165.215 E10.60121
G1 X117.867 Y164.395 E10.63184
G1 X117.521 Y163.542 E10.66245
G1 X117.251 Y162.662 E10.69307
G1 X117.058 Y161.761 E10.72372
G1 X116.944 Y160.848 E10.75432
G1 X116.913 Y160.277 E10.77334
G1 X116.9 Y159.658 E10.79393
G1 X116.901 Y155.559 E10.93026
G1 X116.911 Y154.841 E10.95415
G1 X116.947 Y153.908 E10.9852
G1 X117.022 Y151.252 E11.07358
G1 X117.022 Y148.741 E11.15709
G1 X116.949 Y146.15 E11.2433
G1 X116.921 Y145.567 E11.26272
G1 X116.9 Y144.671 E11.29253
G1 X116.901 Y140.515 E11.43075
G1 X116.911 Y139.85 E11.45288
G1 X116.965 Y138.931 E11.48349
G1 X117.098 Y138.02 E11.51412
G1 X117.31 Y137.124 E11.54474
G1 X117.599 Y136.249 E11.57539
G1 X117.963 Y135.404 E11.60599
G1 X118.398 Y134.593 E11.6366
G1 X118.903 Y133.822 E11.66725
G1 X119.472 Y133.099 E11.69785
G1 X120.102 Y132.427 E11.72849
G1 X120.788 Y131.813 E11.75911
G0 F6000 X121.175 Y132.014
G1 F1200 X121.907 Y131.485 E11.78915
G1 X122.683 Y131.023 E11.81919
G1 X123.497 Y130.632 E11.84922
G1 X124.342 Y130.313 E11.87926
G1 X125.212 Y130.071 E11.9093
G1 X126.1 Y129.907 E11.93933
G1 X127.223 Y129.813 E11.97682
G1 X127.83 Y129.8 E11.99701
G1 X140.94 Y129.801 E12.43305
G1 X142.605 Y129.825 E12.48843
G1 X143.579 Y129.851 E12.52084
G1 X146.154 Y129.849 E12.60649
G1 X148.303 Y129.8 E12.67798
G1 X161.439 Y129.801 E13.11489
G1 X162.137 Y129.811 E13.1381
G1 X163.039 Y129.864 E13.16816
G1 X163.932 Y129.996 E13.19818
G1 X164.81 Y130.207 E13.22821
G1 X165.666 Y130.495 E13.25825
G1 X166.493 Y130.857 E13.28828
G1 X167.285 Y131.292 E13.31833
G1 X168.036 Y131.794 E13.34838
G1 X168.739 Y132.361 E13.37842
G1 X169.389 Y132.988 E13.40845
G1 X169.981 Y133.67 E13.43849
G1 X170.511 Y134.401 E13.46852
G1 X170.973 Y135.177 E13.49856
G1 X171.366 Y135.99 E13.52859
G1 X171.684 Y136.835 E13.55862
G1 X171.927 Y137.705 E13.58867
G1 X172.092 Y138.593 E13.61871
G1 X172.187 Y139.723 E13.65642
G1 X172.2 Y140.33 E13.67662
G1 X172.199 Y144.415 E13.81249
G1 X172.181 Y145.426 E13.84612
G1 X172.152 Y146.109 E13.86885
G1 X172.078 Y148.737 E13.9563
G1 X172.078 Y151.271 E14.04058
G1 X172.151 Y153.839 E14.12602
G1 X172.179 Y154.445 E14.1462
G1 X172.2 Y155.33 E14.17564
G1 X172.199 Y159.39 E14.31068
G1 X172.19 Y160.117 E14.33486
G1 X172.139 Y161.019 E14.36491
G1 X172.008 Y161.913 E14.39496
G1 X171.799 Y162.791 E14.42498
G1 X171.513 Y163.648 E14.45503
G1 X171.152 Y164.476 E14.48507
G1 X170.72 Y165.268 E14.51508
G1 X170.219 Y166.02 E14.54513
G1 X169.653 Y166.724 E14.57518
G1 X169.028 Y167.375 E14.60519
G1 X168.347 Y167.969 E14.63525
G1 X167.616 Y168.5 E14.6653
G1 X166.842 Y168.964 E14.69532
G1 X166.029 Y169.358 E14.72536
G1 X165.185 Y169.678 E14.75539
G1 X164.315 Y169.923 E14.78545
G1 X163.428 Y170.089 E14.81546
G1 X162.277 Y170.187 E14.85388
G1 X161.67 Y170.2 E14.87408
G1 X148.56 Y170.199 E15.31012
G1 X146.896 Y170.175 E15.36547
G1 X145.922 Y170.149 E15.39787
G1 X143.346 Y170.151 E15.48355
G1 X141.197 Y170.2 E15.55505
G1 X128.075 Y170.199 E15.99149
G1 X127.377 Y170.19 E16.0147
G1 X126.476 Y170.139 E16.04472
G1 X125.582 Y170.007 E16.07478
G1 X124.704 Y169.798 E16.10479
G1 X123.847 Y169.511 E16.13485
G1 X123.02 Y169.15 E16.16487
G1 X122.227 Y168.717 E16.19492
G1 X121.476 Y168.216 E16.22494
G1 X120.772 Y167.65 E16.25499
G1 X120.121 Y167.024 E16.28503
G1 X119.528 Y166.343 E16.31506
G1 X118.998 Y165.612 E16.34509
G1 X118.534 Y164.837 E16.37514
G1 X118.14 Y164.024 E16.40518
G1 X117.82 Y163.18 E16.43521
G1 X117.576 Y162.31 E16.46526
G1 X117.41 Y161.422 E16.4953
G1 X117.313 Y160.267 E16.53386
G1 X117.3 Y159.658 E16.55412
G1 X117.301 Y155.565 E16.69025
G1 X117.319 Y154.555 E16.72385
G1 X117.348 Y153.867 E16.74675
G1 X117.422 Y151.263 E16.83339
G1 X117.422 Y148.729 E16.91768
G1 X117.349 Y146.164 E17.00302
G1 X117.321 Y145.556 E17.02327
G1 X117.3 Y144.671 E17.05271
G1 X117.301 Y140.521 E17.19074
G1 X117.311 Y139.856 E17.21286
G1 X117.365 Y138.954 E17.24291
G1 X117.498 Y138.061 E17.27294
G1 X117.709 Y137.183 E17.30298
G1 X117.998 Y136.327 E17.33303
G1 X118.361 Y135.5 E17.36307
G1 X118.795 Y134.709 E17.39307
G1 X119.298 Y133.958 E17.42314
G1 X119.866 Y133.256 E17.45317
G1 X120.493 Y132.606 E17.48321
G1 X121.175 Y132.014 E17.51325
G1 F2700 E11.51325
;MESH:Link-Body.stl(1)
G0 F6000 X127.914 Y139.335
G0 X128.1 Y140.6
;TYPE:WALL-INNER
G1 F2700 E17.51325
G1 F1200 X128.1 Y144.4 E17.63964
G1 X140.9 Y144.4 E18.06537
G1 X140.9 Y140.6 E18.19175
G1 X139 Y140.6 E18.25495
G1 X128.1 Y140.6 E18.61748
G0 F6000 X127.7 Y140.2
;TYPE:WALL-OUTER
G1 F1200 X127.7 Y144.8 E18.77048
G1 X141.3 Y144.8 E19.22282
G1 X141.3 Y140.2 E19.37581
G1 X139 Y140.2 E19.45231
G1 X127.7 Y140.2 E19.82815
G0 F6000 X127.97 Y140.47
G0 X128.2 Y140.96
G0 X128.46 Y140.96
;TYPE:SKIN
G1 F1200 X128.46 Y144.04 E19.93059
G1 X140.54 Y144.04 E20.33238
G1 X140.54 Y142.5 E20.3836
G1 X140.54 Y140.96 E20.43482
G1 X128.46 Y140.96 E20.8366
G0 F6000 X128.2 Y140.96
G0 X128.272 Y144.228
G0 X129.131 Y144.3
G0 X129.131 Y143.838
G1 F1200 X128.66 Y143.368 E20.85873
G0 F6000 X128.66 Y142.802
G1 F1200 X129.696 Y143.838 E20.90746
G0 F6000 X130.262 Y143.838
G1 F1200 X128.66 Y142.236 E20.98281
G0 F6000 X128.66 Y141.67
G1 F1200 X130.828 Y143.838 E21.08479
G0 F6000 X131.393 Y143.838
G1 F1200 X128.713 Y141.159 E21.21083
G0 F6000 X129.279 Y141.159
G1 F1200 X131.959 Y143.838 E21.33686
G0 F6000 X132.525 Y143.838
G1 F1200 X129.845 Y141.159 E21.4629
G0 F6000 X130.41 Y141.159
G1 F1200 X133.09 Y143.838 E21.58893
G0 F6000 X133.656 Y143.838
G1 F1200 X130.976 Y141.159 E21.71497
G0 F6000 X131.542 Y141.159
G1 F1200 X134.222 Y143.838 E21.841
G0 F6000 X134.787 Y143.838
G1 F1200 X132.108 Y141.159 E21.96701
G0 F6000 X132.673 Y141.159
G1 F1200 X135.353 Y143.838 E22.09305
G0 F6000 X135.919 Y143.838
G1 F1200 X133.239 Y141.159 E22.21909
G0 F6000 X133.805 Y141.159
G1 F1200 X136.485 Y143.838 E22.34512
G0 F6000 X137.05 Y143.838
G1 F1200 X134.37 Y141.159 E22.47116
G0 F6000 X134.936 Y141.159
G1 F1200 X137.616 Y143.838 E22.59719
G0 F6000 X138.182 Y143.838
G1 F1200 X135.502 Y141.159 E22.72323
G0 F6000 X136.067 Y141.159
G1 F1200 X138.747 Y143.838 E22.84926
G0 F6000 X139.313 Y143.838
G1 F1200 X136.633 Y141.159 E22.9753
G0 F6000 X137.199 Y141.159
G1 F1200 X139.879 Y143.838 E23.10133
G0 F6000 X140.34 Y143.734
G1 F1200 X137.764 Y141.159 E23.22248
G0 F6000 X138.33 Y141.159
G1 F1200 X140.34 Y143.168 E23.317
G0 F6000 X140.34 Y142.602
G1 F1200 X138.896 Y141.159 E23.3849
G0 F6000 X139.461 Y141.159
G1 F1200 X140.34 Y142.037 E23.42622
G0 F6000 X140.34 Y141.471
G1 F1200 X140.027 Y141.159 E23.44092
G1 F2700 E17.44092
G0 F6000 X140.027 Y140.7
G0 X128.272 Y140.772
G0 X128.1 Y144.58
G0 X128.1 Y145.665
G0 X128.1 Y154.335
G0 X128.1 Y155.6
;TYPE:WALL-INNER
G1 F2700 E23.44092
G1 F1200 X128.1 Y159.4 E23.56731
G1 X140.9 Y159.4 E23.99304
G1 X140.9 Y157.5 E24.05623
G1 X140.9 Y155.6 E24.11942
G1 X128.1 Y155.6 E24.54515
G0 F6000 X127.7 Y155.2
;TYPE:WALL-OUTER
G1 F1200 X127.7 Y159.8 E24.69815
G1 X141.3 Y159.8 E25.15049
G1 X141.3 Y157.5 E25.22699
G1 X141.3 Y155.2 E25.30348
G1 X127.7 Y155.2 E25.75582
G0 F6000 X127.97 Y155.47
G0 X128.2 Y155.96
G0 X128.46 Y155.96
;TYPE:SKIN
G1 F1200 X128.46 Y159.04 E25.85826
G1 X140.54 Y159.04 E26.26005
G1 X140.54 Y157.5 E26.31127
G1 X140.54 Y155.96 E26.36249
G1 X128.46 Y155.96 E26.76427
G0 F6000 X128.2 Y155.96
G0 X128.272 Y159.228
G0 X128.858 Y159.3
G0 X128.858 Y158.839
G1 F1200 X128.66 Y158.641 E26.77358
G0 F6000 X128.66 Y158.075
G1 F1200 X129.423 Y158.839 E26.8095
G0 F6000 X129.989 Y158.839
G1 F1200 X128.66 Y157.51 E26.87201
G0 F6000 X128.66 Y156.944
G1 F1200 X130.555 Y158.839 E26.96114
G0 F6000 X131.12 Y158.839
G1 F1200 X128.66 Y156.378 E27.07688
G0 F6000 X129.006 Y156.159
G1 F1200 X131.686 Y158.839 E27.20294
G0 F6000 X132.252 Y158.839
G1 F1200 X129.572 Y156.159 E27.329
G0 F6000 X130.138 Y156.159
G1 F1200 X132.817 Y158.839 E27.45503
G0 F6000 X133.383 Y158.839
G1 F1200 X130.703 Y156.159 E27.58109
G0 F6000 X131.269 Y156.159
G1 F1200 X133.949 Y158.839 E27.70715
G0 F6000 X134.515 Y158.839
G1 F1200 X131.835 Y156.159 E27.83321
G0 F6000 X132.4 Y156.159
G1 F1200 X135.08 Y158.839 E27.95927
G0 F6000 X135.646 Y158.839
G1 F1200 X132.966 Y156.159 E28.08533
G0 F6000 X133.532 Y156.159
G1 F1200 X136.212 Y158.839 E28.21138
G0 F6000 X136.777 Y158.839
G1 F1200 X134.097 Y156.159 E28.33744
G0 F6000 X134.663 Y156.159
G1 F1200 X137.343 Y158.839 E28.4635
G0 F6000 X137.909 Y158.839
G1 F1200 X135.229 Y156.159 E28.58956
G0 F6000 X135.794 Y156.159
G1 F1200 X138.474 Y158.839 E28.71562
G0 F6000 X139.04 Y158.839
G1 F1200 X136.36 Y156.159 E28.84168
G0 F6000 X136.926 Y156.159
G1 F1200 X139.606 Y158.839 E28.96774
G0 F6000 X140.171 Y158.839
G1 F1200 X137.491 Y156.159 E29.0938
G0 F6000 X138.057 Y156.159
G1 F1200 X140.34 Y158.442 E29.20118
G0 F6000 X140.34 Y157.876
G1 F1200 X138.623 Y156.159 E29.28195
G0 F6000 X139.189 Y156.159
G1 F1200 X140.34 Y157.31 E29.33608
G0 F6000 X140.34 Y156.745
G1 F1200 X139.754 Y156.159 E29.36365
G1 F2700 E23.36365
;MESH:Link-Body.stl
G0 F6000 X139.754 Y155.7
G0 X141.08 Y155.6
G0 X142.165 Y155.6
G0 X147.335 Y155.6
G0 X148.6 Y155.6
;TYPE:WALL-INNER
G1 F2700 E29.36365
G1 F1200 X148.6 Y159.4 E29.49004
G1 X161.4 Y159.4 E29.91577
G1 X161.4 Y157.5 E29.97896
G1 X161.4 Y155.6 E30.04216
G1 X148.6 Y155.6 E30.46789
G0 F6000 X148.2 Y155.2
;TYPE:WALL-OUTER
G1 F1200 X148.2 Y159.8 E30.62088
G1 X161.8 Y159.8 E31.07322
G1 X161.8 Y157.5 E31.14972
G1 X161.8 Y155.2 E31.22622
G1 X148.2 Y155.2 E31.67855
