;FLAVOR:Marlin
;TIME:1819
;Filament used: 1.24188m
;Layer height: 0.2
;MINX:126.001
;MINY:120
;MINZ:0.2
;MAXX:174
;MAXY:179.976
;MAXZ:12
;Generated with Cura_SteamEngine 5.2.1
M140 S60
M105
M190 S60
M104 S210
M105
M109 S210
M82 ;absolute extrusion mode
M201 X500.00 Y500.00 Z100.00 E5000.00 ;Setup machine max acceleration
M203 X500.00 Y500.00 Z10.00 E50.00 ;Setup machine max feedrate
M204 P500.00 R1000.00 T500.00 ;Setup Print/Retract/Travel acceleration
M205 X8.00 Y8.00 Z0.40 E5.00 ;Setup Jerk
M220 S100 ;Reset Feedrate
M221 S100 ;Reset Flowrate

G28 ;Home
G29 ;Auto bed Level

G92 E0 ;Reset Extruder
G1 Z2.0 F3000 ;Move Z Axis up
G1 X10.1 Y20 Z0.28 F5000.0 ;Move to start position
G1 X10.1 Y200.0 Z0.28 F1500.0 E15 ;Draw the first line
G1 X10.4 Y200.0 Z0.28 F5000.0 ;Move to side a little
G1 X10.4 Y20 Z0.28 F1500.0 E30 ;Draw the second line
G92 E0 ;Reset Extruder
G1 Z2.0 F3000 ;Move Z Axis up

G92 E0
G92 E0
G1 F2700 E-5
;LAYER_COUNT:60
;LAYER:0
M107
G0 F6000 X129.21 Y123.252 Z0.2
;TYPE:SKIRT
G1 F2700 E0
G1 F1200 X129.899 Y122.616 E0.03119
G1 X130.64 Y122.041 E0.06238
G1 X131.427 Y121.531 E0.09357
G1 X132.255 Y121.09 E0.12478
G1 X133.117 Y120.721 E0.15596
G1 X134.008 Y120.427 E0.18717
G1 X134.92 Y120.209 E0.21836
G1 X135.847 Y120.071 E0.24953
G1 X136.701 Y120.013 E0.278
G1 X137.33 Y120 E0.29892
G1 X162.451 Y120.001 E1.13445
G1 X163.149 Y120.011 E1.15767
G1 X164.085 Y120.065 E1.18885
G1 X165.013 Y120.197 E1.22003
G1 X165.927 Y120.409 E1.25124
G1 X166.819 Y120.698 E1.28242
G1 X167.684 Y121.061 E1.31362
G1 X168.514 Y121.497 E1.34481
G1 X169.305 Y122.002 E1.37602
G1 X170.049 Y122.573 E1.40721
G1 X170.742 Y123.205 E1.43841
G1 X171.379 Y123.893 E1.46959
G1 X171.954 Y124.634 E1.50079
G1 X172.465 Y125.42 E1.53197
G1 X172.907 Y126.248 E1.56319
G1 X173.276 Y127.11 E1.59437
G1 X173.571 Y128 E1.62556
G1 X173.789 Y128.912 E1.65675
G1 X173.929 Y129.84 E1.68796
G1 X173.987 Y130.701 E1.71666
G1 X174 Y131.33 E1.73759
G1 X173.999 Y155.458 E2.54009
G1 X173.981 Y156.374 E2.57056
G1 X173.941 Y157.29 E2.60106
G1 X173.872 Y158.296 E2.63459
G1 X173.756 Y159.274 E2.66735
G1 X173.602 Y160.212 E2.69897
G1 X173.417 Y161.173 E2.73152
G1 X173.184 Y162.125 E2.76411
G1 X172.911 Y163.058 E2.79645
G1 X172.627 Y163.947 E2.82749
G1 X172.278 Y164.875 E2.86046
G1 X171.911 Y165.731 E2.89144
G1 X171.492 Y166.642 E2.92479
G1 X171.043 Y167.502 E2.95706
G1 X170.598 Y168.27 E2.98658
G1 X170.071 Y169.127 E3.02004
G1 X169.509 Y169.945 E3.05305
G1 X168.932 Y170.709 E3.0849
G1 X168.341 Y171.452 E3.11647
G1 X167.691 Y172.19 E3.14918
G1 X167.022 Y172.884 E3.18124
G1 X166.341 Y173.554 E3.21302
G1 X165.616 Y174.198 E3.24527
G1 X164.559 Y175.051 E3.29045
G1 X164.079 Y175.415 E3.31048
G1 X163.289 Y175.961 E3.34242
G1 X162.172 Y176.658 E3.38621
G1 X161.669 Y176.953 E3.40561
G1 X160.793 Y177.414 E3.43853
G1 X159.608 Y177.967 E3.48203
G1 X159.045 Y178.211 E3.50243
G1 X158.122 Y178.563 E3.53529
G1 X157.208 Y178.865 E3.56731
G1 X156.298 Y179.14 E3.59893
G1 X155.36 Y179.373 E3.63107
G1 X154.083 Y179.626 E3.67437
G1 X153.459 Y179.731 E3.69542
G1 X152.5 Y179.849 E3.72755
G1 X151.55 Y179.924 E3.75925
G1 X150.577 Y179.974 E3.79165
G1 X149.615 Y179.976 E3.82365
G1 X148.261 Y179.914 E3.86873
G1 X147.679 Y179.87 E3.88814
G1 X146.726 Y179.756 E3.92007
G1 X145.788 Y179.602 E3.95168
G1 X144.817 Y179.415 E3.98457
G1 X143.873 Y179.184 E4.0169
G1 X142.943 Y178.912 E4.04912
G1 X142.045 Y178.624 E4.08049
G1 X141.125 Y178.278 E4.11318
G1 X140.271 Y177.912 E4.14408
G1 X139.356 Y177.49 E4.1776
G1 X138.495 Y177.041 E4.20989
G1 X137.729 Y176.597 E4.23934
G1 X136.869 Y176.068 E4.27292
G1 X136.05 Y175.505 E4.30598
G1 X135.024 Y174.724 E4.34887
G1 X134.543 Y174.337 E4.3694
G1 X133.8 Y173.682 E4.40234
G1 X133.111 Y173.017 E4.43419
G1 X132.446 Y172.341 E4.46573
G1 X131.802 Y171.616 E4.49799
G1 X130.949 Y170.559 E4.54316
G1 X130.585 Y170.079 E4.5632
G1 X130.039 Y169.289 E4.59514
G1 X129.52 Y168.464 E4.62756
G1 X129.045 Y167.664 E4.6585
G1 X128.584 Y166.791 E4.69134
G1 X128.175 Y165.923 E4.72325
G1 X127.789 Y165.045 E4.75515
G1 X127.437 Y164.122 E4.78801
G1 X127.135 Y163.208 E4.82002
G1 X126.86 Y162.298 E4.85164
G1 X126.627 Y161.36 E4.88379
G1 X126.374 Y160.083 E4.92709
G1 X126.269 Y159.459 E4.94813
G1 X126.151 Y158.5 E4.98027
G1 X126.076 Y157.55 E5.01196
G1 X126.026 Y156.614 E5.04314
G1 X126.001 Y155.366 E5.08466
G1 X126.001 Y131.509 E5.87814
G1 X126.011 Y130.844 E5.90026
G1 X126.065 Y129.907 E5.93148
G1 X126.199 Y128.979 E5.96267
G1 X126.411 Y128.065 E5.99387
G1 X126.7 Y127.173 E6.02506
G1 X127.065 Y126.309 E6.05626
G1 X127.501 Y125.479 E6.08744
G1 X128.007 Y124.689 E6.11864
G1 X128.578 Y123.945 E6.14983
G1 X129.21 Y123.252 E6.18103
G0 F6000 X129.602 Y123.427
G1 F1200 X130.288 Y122.813 E6.21165
G1 X131.024 Y122.261 E6.24225
G1 X131.806 Y121.774 E6.27289
G1 X132.627 Y121.358 E6.3035
G1 X133.481 Y121.014 E6.33412
G1 X134.361 Y120.745 E6.36473
G1 X135.262 Y120.554 E6.39536
G1 X136.176 Y120.442 E6.42599
G1 X136.712 Y120.413 E6.44384
G1 X137.33 Y120.4 E6.4644
G1 X162.293 Y120.4 E7.29468
G1 X163.143 Y120.411 E7.32295
G1 X164.062 Y120.464 E7.35357
G1 X164.973 Y120.597 E7.38419
G1 X165.869 Y120.808 E7.4148
G1 X166.743 Y121.096 E7.44541
G1 X167.59 Y121.459 E7.47606
G1 X168.401 Y121.894 E7.50667
G1 X169.171 Y122.398 E7.53728
G1 X169.895 Y122.967 E7.56791
G1 X170.567 Y123.597 E7.59854
G1 X171.182 Y124.282 E7.62916
G1 X171.735 Y125.018 E7.65978
G1 X172.222 Y125.799 E7.69039
G1 X172.639 Y126.62 E7.72102
G1 X172.984 Y127.474 E7.75165
G1 X173.253 Y128.354 E7.78226
G1 X173.445 Y129.255 E7.8129
G1 X173.558 Y130.168 E7.8435
G1 X173.587 Y130.712 E7.86162
G1 X173.6 Y131.33 E7.88218
G1 X173.599 Y155.452 E8.68448
G1 X173.581 Y156.356 E8.71455
G1 X173.523 Y157.585 E8.75547
G1 X173.473 Y158.267 E8.77822
G1 X173.361 Y159.209 E8.80977
G1 X173.207 Y160.147 E8.84138
G1 X173.025 Y161.095 E8.87349
G1 X172.8 Y162.013 E8.90493
G1 X172.433 Y163.252 E8.94791
G1 X172.247 Y163.823 E8.96788
G1 X171.91 Y164.717 E8.99966
G1 X171.543 Y165.573 E9.03063
G1 X171.129 Y166.472 E9.06355
G1 X170.697 Y167.301 E9.09465
G1 X170.252 Y168.069 E9.12417
G1 X169.731 Y168.915 E9.15721
G1 X169.19 Y169.704 E9.18903
G1 X168.613 Y170.468 E9.22088
G1 X168.03 Y171.201 E9.25203
G1 X167.403 Y171.913 E9.28358
G1 X166.734 Y172.607 E9.31564
G1 X166.062 Y173.267 E9.34697
G1 X165.364 Y173.888 E9.37804
G1 X164.602 Y174.508 E9.41072
G1 X163.837 Y175.096 E9.44281
G1 X163.076 Y175.622 E9.47358
G1 X161.969 Y176.313 E9.51698
G1 X161.466 Y176.608 E9.53638
G1 X160.623 Y177.053 E9.56808
G1 X159.753 Y177.463 E9.60007
G1 X158.886 Y177.844 E9.63157
G1 X157.997 Y178.183 E9.66321
G1 X157.083 Y178.485 E9.69523
G1 X156.185 Y178.756 E9.72643
G1 X155.281 Y178.981 E9.75741
G1 X154.363 Y179.167 E9.78856
G1 X153.393 Y179.336 E9.82131
G1 X152.468 Y179.45 E9.85231
G1 X151.518 Y179.525 E9.88401
G1 X150.558 Y179.575 E9.91598
G1 X149.631 Y179.577 E9.94681
G1 X148.648 Y179.536 E9.97953
G1 X147.709 Y179.471 E10.01084
G1 X146.791 Y179.361 E10.04159
G1 X145.853 Y179.207 E10.07321
G1 X144.895 Y179.023 E10.10565
G1 X143.985 Y178.8 E10.13682
G1 X143.055 Y178.528 E10.16904
G1 X142.169 Y178.244 E10.19999
G1 X141.282 Y177.91 E10.23151
G1 X140.428 Y177.544 E10.26242
G1 X139.525 Y177.128 E10.29548
G1 X138.695 Y176.695 E10.32662
G1 X137.929 Y176.251 E10.35607
G1 X137.08 Y175.729 E10.38922
G1 X136.291 Y175.186 E10.42107
G1 X135.275 Y174.413 E10.46353
G1 X134.794 Y174.026 E10.48407
G1 X134.078 Y173.394 E10.51583
G1 X133.389 Y172.729 E10.54768
G1 X132.733 Y172.062 E10.5788
G1 X132.112 Y171.364 E10.60987
G1 X131.492 Y170.602 E10.64254
G1 X130.904 Y169.837 E10.67463
G1 X130.378 Y169.076 E10.7054
G1 X129.686 Y167.967 E10.74888
G1 X129.39 Y167.462 E10.76835
G1 X128.946 Y166.62 E10.80001
G1 X128.537 Y165.752 E10.83192
G1 X128.156 Y164.886 E10.86339
G1 X127.817 Y163.997 E10.89504
G1 X127.515 Y163.083 E10.92705
G1 X127.244 Y162.185 E10.95825
G1 X127.019 Y161.281 E10.98924
G1 X126.833 Y160.363 E11.02039
G1 X126.664 Y159.393 E11.05314
G1 X126.55 Y158.468 E11.08414
G1 X126.454 Y157.186 E11.12689
G1 X126.415 Y156.258 E11.15779
G1 X126.401 Y155.36 E11.18766
G1 X126.401 Y131.515 E11.98075
G1 X126.411 Y130.85 E12.00287
G1 X126.465 Y129.931 E12.03349
G1 X126.598 Y129.02 E12.06411
G1 X126.81 Y128.124 E12.09473
G1 X127.099 Y127.249 E12.12538
G1 X127.463 Y126.404 E12.15598
G1 X127.898 Y125.593 E12.18659
G1 X128.403 Y124.822 E12.21724
G1 X128.972 Y124.099 E12.24785
G1 X129.602 Y123.427 E12.27848
G0 F6000 X129.993 Y123.606
G1 F1200 X130.675 Y123.014 E12.30852
G1 X131.407 Y122.485 E12.33856
G1 X132.183 Y122.023 E12.3686
G1 X132.997 Y121.632 E12.39863
G1 X133.842 Y121.313 E12.42867
G1 X134.712 Y121.071 E12.45871
G1 X135.6 Y120.907 E12.48874
G1 X136.723 Y120.813 E12.52622
G1 X137.33 Y120.8 E12.54642
G1 X162.293 Y120.8 E13.37669
G1 X163.137 Y120.811 E13.40476
G1 X164.039 Y120.864 E13.43482
G1 X164.932 Y120.996 E13.46484
G1 X165.81 Y121.207 E13.49487
G1 X166.666 Y121.495 E13.52491
G1 X167.493 Y121.857 E13.55494
G1 X168.285 Y122.292 E13.58499
G1 X169.036 Y122.794 E13.61504
G1 X169.739 Y123.361 E13.64508
G1 X170.389 Y123.988 E13.67511
G1 X170.981 Y124.67 E13.70515
G1 X171.511 Y125.401 E13.73518
G1 X171.973 Y126.177 E13.76522
G1 X172.366 Y126.99 E13.79525
G1 X172.684 Y127.835 E13.82528
G1 X172.927 Y128.705 E13.85533
G1 X173.092 Y129.593 E13.88537
G1 X173.187 Y130.723 E13.92308
G1 X173.2 Y131.33 E13.94328
G1 X173.199 Y155.446 E14.74538
G1 X173.19 Y156.047 E14.76537
G1 X173.141 Y157.255 E14.80558
G1 X173.074 Y158.238 E14.83835
G1 X172.966 Y159.145 E14.86873
G1 X172.753 Y160.411 E14.91143
G1 X172.633 Y161.017 E14.93198
G1 X172.417 Y161.9 E14.96221
G1 X172.144 Y162.833 E14.99455
G1 X171.866 Y163.699 E15.0248
G1 X171.543 Y164.559 E15.05535
G1 X171.176 Y165.415 E15.08633
G1 X170.767 Y166.303 E15.11885
G1 X170.351 Y167.101 E15.14878
G1 X169.906 Y167.869 E15.1783
G1 X169.392 Y168.704 E15.21091
G1 X168.87 Y169.463 E15.24155
G1 X168.101 Y170.474 E15.2838
G1 X167.718 Y170.95 E15.30412
G1 X167.115 Y171.635 E15.33447
G1 X166.446 Y172.329 E15.36653
G1 X165.783 Y172.98 E15.39744
G1 X165.112 Y173.578 E15.42733
G1 X164.35 Y174.198 E15.46001
G1 X163.595 Y174.777 E15.49165
G1 X162.863 Y175.284 E15.52127
G1 X162.038 Y175.803 E15.55369
G1 X161.264 Y176.262 E15.58361
G1 X160.452 Y176.691 E15.61416
G1 X159.582 Y177.101 E15.64615
G1 X158.727 Y177.477 E15.67721
G1 X157.871 Y177.803 E15.70768
G1 X156.957 Y178.105 E15.7397
G1 X156.071 Y178.372 E15.77047
G1 X155.202 Y178.589 E15.80026
G1 X154.284 Y178.775 E15.83142
G1 X153.327 Y178.942 E15.86373
G1 X152.437 Y179.051 E15.89355
G1 X151.487 Y179.126 E15.92525
G1 X150.54 Y179.175 E15.95679
G1 X149.648 Y179.177 E15.98645
G1 X148.665 Y179.136 E16.01918
G1 X147.739 Y179.072 E16.05005
G1 X146.855 Y178.966 E16.07966
G1 X145.917 Y178.812 E16.11128
G1 X144.973 Y178.63 E16.14325
G1 X144.098 Y178.416 E16.17321
G1 X142.866 Y178.051 E16.21595
G1 X142.293 Y177.864 E16.236
G1 X141.44 Y177.542 E16.26632
G1 X140.586 Y177.176 E16.29723
G1 X139.694 Y176.765 E16.32989
G1 X138.896 Y176.349 E16.35982
G1 X138.13 Y175.905 E16.38927
G1 X137.292 Y175.389 E16.422
G1 X136.532 Y174.867 E16.45267
G1 X135.771 Y174.292 E16.48439
G1 X135.045 Y173.714 E16.51526
G1 X134.355 Y173.106 E16.54585
G1 X133.666 Y172.441 E16.57769
G1 X133.02 Y171.783 E16.60836
G1 X132.422 Y171.112 E16.63826
G1 X131.802 Y170.35 E16.67093
G1 X131.223 Y169.595 E16.70258
G1 X130.716 Y168.863 E16.73219
G1 X130.197 Y168.038 E16.76461
G1 X129.735 Y167.26 E16.79471
G1 X129.308 Y166.45 E16.82516
G1 X128.899 Y165.582 E16.85707
G1 X128.523 Y164.727 E16.88814
G1 X128.197 Y163.871 E16.91861
G1 X127.895 Y162.957 E16.95062
G1 X127.628 Y162.071 E16.9814
G1 X127.411 Y161.202 E17.01119
G1 X127.225 Y160.284 E17.04234
G1 X127.058 Y159.327 E17.07465
G1 X126.949 Y158.437 E17.10448
G1 X126.853 Y157.167 E17.14684
G1 X126.815 Y156.252 E17.1773
G1 X126.801 Y155.354 E17.20717
G1 X126.801 Y131.521 E17.99986
G1 X126.811 Y130.856 E18.02198
G1 X126.865 Y129.954 E18.05203
G1 X126.998 Y129.061 E18.08206
G1 X127.209 Y128.183 E18.1121
G1 X127.498 Y127.327 E18.14214
G1 X127.861 Y126.5 E18.17218
G1 X128.295 Y125.709 E18.20219
G1 X128.798 Y124.958 E18.23226
G1 X129.366 Y124.256 E18.26229
G1 X129.993 Y123.606 E18.29233
G1 F2700 E13.29233
;MESH:Rpi_mount_camera_v2.1_official.stl
G0 F6000 X140.6 Y140.6
G0 X140.77 Y156.555
;TYPE:WALL-INNER
G1 F2700 E18.29233
G1 F1200 X140.519 Y156.36 E18.3029
G1 X140.431 Y156.194 E18.30915
G1 X140.4 Y156.037 E18.31447
G1 X140.4 Y141 E18.8146
G1 X140.446 Y140.769 E18.82244
G1 X140.565 Y140.586 E18.8297
G1 X140.717 Y140.47 E18.83606
G1 X140.906 Y140.4 E18.84276
G1 X159.094 Y140.4 E19.4477
G1 X159.283 Y140.47 E19.4544
G1 X159.435 Y140.586 E19.46076
G1 X159.554 Y140.769 E19.46802
G1 X159.6 Y141 E19.47585
G1 X159.6 Y156.037 E19.97599
G1 X159.57 Y156.194 E19.9813
G1 X159.481 Y156.36 E19.98757
G1 X159.23 Y156.555 E19.99814
G1 X159 Y156.601 E20.00594
G1 X141 Y156.6 E20.60462
G1 X140.77 Y156.555 E20.61242
G1 F2700 E15.61242
G0 F6000 X148.741 Y156.4
G0 X148.92 Y162.385
G0 X148.741 Y168.321
G1 F2700 E20.61242
G1 F1200 X148.238 Y168.056 E20.63133
G1 X147.675 Y167.558 E20.65633
G1 X147.25 Y166.943 E20.68119
G1 X146.981 Y166.228 E20.7066
G1 X146.896 Y165.501 E20.73094
G1 X146.983 Y164.771 E20.7554
G1 X147.252 Y164.053 E20.7809
G1 X147.679 Y163.438 E20.8058
G1 X148.238 Y162.944 E20.83061
G1 X148.896 Y162.597 E20.85535
G1 X149.62 Y162.419 E20.88015
G1 X150.376 Y162.418 E20.9053
G1 X151.104 Y162.597 E20.93023
G1 X151.762 Y162.944 E20.95497
G1 X152.321 Y163.438 E20.97978
G1 X152.748 Y164.053 E21.00469
G1 X153.017 Y164.771 E21.03019
G1 X153.104 Y165.504 E21.05474
G1 X153.015 Y166.24 E21.0794
G1 X152.75 Y166.944 E21.10442
G1 X152.325 Y167.558 E21.12925
G1 X151.759 Y168.059 E21.15439
G1 X151.259 Y168.321 E21.17317
G1 X151.496 Y168.307 E21.18106
G1 X152.965 Y168.037 E21.23074
G1 X154.398 Y167.591 E21.28066
G1 X155.761 Y166.978 E21.33037
G1 X157.042 Y166.204 E21.38015
G1 X158.223 Y165.279 E21.43004
G1 X159.281 Y164.221 E21.47981
G1 X160.204 Y163.042 E21.52961
G1 X160.978 Y161.761 E21.57939
G1 X161.593 Y160.395 E21.62921
G1 X162.037 Y158.966 E21.67898
G1 X162.308 Y157.493 E21.7288
G1 X162.4 Y155.982 E21.77915
G1 X162.4 Y136 E22.44375
G1 X162.4 Y131.6 E22.59009
G1 X137.6 Y131.6 E23.41495
G1 X137.6 Y155.98 E24.22583
G1 X137.692 Y157.493 E24.27624
G1 X137.963 Y158.966 E24.32606
G1 X138.407 Y160.395 E24.37583
G1 X139.022 Y161.761 E24.42565
G1 X139.796 Y163.042 E24.47543
G1 X140.719 Y164.221 E24.52523
G1 X141.777 Y165.278 E24.57498
G1 X142.958 Y166.204 E24.62489
G1 X144.239 Y166.978 E24.67467
G1 X145.602 Y167.591 E24.72438
G1 X147.035 Y168.036 E24.77428
G1 X148.504 Y168.307 E24.82397
G1 X148.741 Y168.321 E24.83186
G0 F6000 X150 Y168.482
G0 X150 Y168.235
;TYPE:WALL-OUTER
G1 F950.5 X149.638 Y168.226 E24.84707
G1 F1064.3 X149.018 Y168.016 E24.87162
G1 F1200 X148.467 Y167.724 E24.89236
G1 X147.997 Y167.308 E24.91323
G1 X147.965 Y167.273 E24.91481
G1 X147.607 Y166.758 E24.93567
G1 X147.379 Y166.15 E24.95727
G1 X147.298 Y165.5 E24.97906
G1 X147.376 Y164.854 E25.0007
G1 X147.604 Y164.254 E25.02205
G1 X147.966 Y163.726 E25.04334
G1 X148.466 Y163.276 E25.06571
G1 X149.042 Y162.973 E25.08736
G1 X149.657 Y162.821 E25.10843
G1 X150.35 Y162.823 E25.13148
G1 X150.958 Y162.972 E25.1523
G1 X151.534 Y163.277 E25.17398
G1 X152.034 Y163.726 E25.19633
G1 X152.392 Y164.241 E25.21719
G1 X152.624 Y164.854 E25.23899
G1 X152.7 Y165.488 E25.26023
G1 X152.619 Y166.158 E25.28267
G1 X152.393 Y166.758 E25.304
G1 X152.035 Y167.273 E25.32486
G1 X151.512 Y167.736 E25.34809
G1 X150.962 Y168.027 E25.36879
G1 X150.356 Y168.176 E25.38954
G1 F1061.9 X150.366 Y168.227 E25.3915
G1 F948.6 X150 Y168.235 E25.4069
G1 F2700 E20.4069
G0 F6000 X150 Y168.482
G0 X148.956 Y168.252
G0 X148.329 Y167.92
G0 X147.799 Y167.451
G0 X147.394 Y166.867
G0 X147.142 Y166.196
G0 X147.057 Y165.5
G0 X147.144 Y164.797
G0 X147.394 Y164.133
G0 X147.799 Y163.549
G0 X148.329 Y163.08
G0 X148.814 Y162.821
G0 X148.738 Y162.454
G0 X147.336 Y156.78
G0 X140.855 Y140.862
G1 F2700 E25.4069
G1 F1200 X140.956 Y140.804 E25.41077
G1 X159.044 Y140.804 E26.01238
G1 X159.145 Y140.862 E26.01626
G1 X159.2 Y141 E26.0212
G1 X159.2 Y156.013 E26.52053
G1 X159.161 Y156.12 E26.52432
