;FLAVOR:Marlin
;TIME:18070
;Filament used: 11.9412m
;Layer height: 0.2
;MINX:106.501
;MINY:79
;MINZ:0.2
;MAXX:193.5
;MAXY:221
;MAXZ:17
;Generated with Cura_SteamEngine main
M140 S60
M105
M190 S60
M104 S210
M105
M109 S210
M82 ;absolute extrusion mode
M201 X500.00 Y500.00 Z100.00 E5000.00 ;Setup machine max acceleration
M203 X500.00 Y500.00 Z10.00 E50.00 ;Setup machine max feedrate
M204 P500.00 R1000.00 T500.00 ;Setup Print/Retract/Travel acceleration
M205 X8.00 Y8.00 Z0.40 E5.00 ;Setup Jerk
M220 S100 ;Reset Feedrate
M221 S100 ;Reset Flowrate

G28 ;Home
G29 ;Auto bed Level

G92 E0 ;Reset Extruder
G1 Z2.0 F3000 ;Move Z Axis up
G1 X10.1 Y20 Z0.28 F5000.0 ;Move to start position
G1 X10.1 Y200.0 Z0.28 F1500.0 E15 ;Draw the first line
G1 X10.4 Y200.0 Z0.28 F5000.0 ;Move to side a little
G1 X10.4 Y20 Z0.28 F1500.0 E30 ;Draw the second line
G92 E0 ;Reset Extruder
G1 Z2.0 F3000 ;Move Z Axis up

G92 E0
G92 E0
G1 F2700 E-5
;LAYER_COUNT:85
;LAYER:0
M107
G0 F6000 X110.844 Y87.237 Z0.2
G0 X106.875 Y96.14
;TYPE:SKIRT
G1 F2700 E0
G1 F1200 X107.037 Y95.408 E0.02244
G1 X107.322 Y94.264 E0.05773
G1 X107.702 Y93.046 E0.09593
G1 X107.98 Y92.334 E0.11881
G1 X108.472 Y91.172 E0.15658
G1 X109.065 Y89.977 E0.19651
G1 X109.367 Y89.46 E0.21444
G1 X109.753 Y88.83 E0.23655
G1 X110.135 Y88.228 E0.25789
G1 X110.844 Y87.237 E0.29437
G1 X111.297 Y86.685 E0.31574
G1 X112.122 Y85.733 E0.35345
G1 X113.03 Y84.802 E0.39238
G1 X113.599 Y84.297 E0.41516
G1 X114.562 Y83.489 E0.45278
G1 X115.609 Y82.712 E0.49181
G1 X116.272 Y82.288 E0.51537
G1 X117.324 Y81.657 E0.55209
G1 X118.542 Y81.026 E0.59315
G1 X119.201 Y80.741 E0.61465
G1 X120.295 Y80.299 E0.64997
G1 X121.566 Y79.874 E0.69008
G1 X122.306 Y79.682 E0.71297
G1 X123.456 Y79.416 E0.7483
G1 X124.785 Y79.193 E0.78864
G1 X125.47 Y79.125 E0.80925
G1 X125.906 Y79.091 E0.82234
G1 X127.004 Y79.024 E0.85527
G1 X127.661 Y79.004 E0.87494
G1 X171.801 Y79 E2.19623
G1 X172.861 Y79.018 E2.22797
G1 X173.447 Y79.045 E2.24553
G1 X174.395 Y79.116 E2.27398
G1 X175.104 Y79.183 E2.2953
G1 X176.341 Y79.371 E2.33276
G1 X177.09 Y79.537 E2.35572
G1 X178.241 Y79.824 E2.39123
G1 X179.461 Y80.205 E2.42949
G1 X180.166 Y80.48 E2.45214
G1 X181.328 Y80.972 E2.48991
G1 X182.566 Y81.59 E2.53133
G1 X183.245 Y81.992 E2.55495
G1 X184.21 Y82.596 E2.58903
G1 X185.254 Y83.338 E2.62737
G1 X185.741 Y83.734 E2.64616
G1 X186.273 Y84.189 E2.66712
G1 X186.845 Y84.693 E2.68994
G1 X187.707 Y85.541 E2.72613
G1 X188.203 Y86.099 E2.74848
G1 X189.011 Y87.062 E2.78611
G1 X189.776 Y88.09 E2.82447
G1 X190.199 Y88.749 E2.84791
G1 X190.825 Y89.79 E2.88427
G1 X191.417 Y90.918 E2.9224
G1 X191.716 Y91.598 E2.94464
G1 X192.192 Y92.77 E2.98251
G1 X192.615 Y94.023 E3.02209
G1 X192.802 Y94.739 E3.04425
G1 X193.082 Y95.944 E3.08128
G1 X193.307 Y97.287 E3.12204
G1 X193.381 Y98.059 E3.14525
G1 X193.463 Y99.234 E3.18051
G1 X193.488 Y99.799 E3.19744
G1 X193.5 Y100.547 E3.21983
G1 X193.499 Y199.449 E6.18038
G1 X193.489 Y200.155 E6.20151
G1 X193.466 Y200.73 E6.21874
G1 X193.408 Y201.601 E6.24487
G1 X193.319 Y202.59 E6.2746
G1 X193.138 Y203.795 E6.31107
G1 X192.981 Y204.514 E6.3331
G1 X192.681 Y205.724 E6.37042
G1 X192.298 Y206.954 E6.40898
G1 X192.02 Y207.666 E6.43186
G1 X191.528 Y208.828 E6.46963
G1 X190.945 Y210.004 E6.50892
G1 X190.583 Y210.621 E6.53034
G1 X189.914 Y211.694 E6.56819
G1 X189.157 Y212.762 E6.60737
G1 X188.671 Y213.353 E6.63028
G1 X187.855 Y214.291 E6.66749
G1 X186.964 Y215.202 E6.70564
G1 X186.401 Y215.703 E6.7282
G1 X185.439 Y216.51 E6.76579
G1 X184.411 Y217.275 E6.80414
G1 X183.768 Y217.688 E6.82702
G1 X182.732 Y218.313 E6.86324
G1 X181.549 Y218.932 E6.90321
G1 X180.813 Y219.253 E6.92724
G1 X179.704 Y219.701 E6.96304
G1 X178.434 Y220.126 E7.00313
G1 X177.696 Y220.318 E7.02596
G1 X176.547 Y220.584 E7.06126
G1 X175.213 Y220.807 E7.10175
G1 X174.53 Y220.875 E7.1223
G1 X174.094 Y220.909 E7.13539
G1 X172.996 Y220.976 E7.16832
G1 X172.339 Y220.996 E7.18799
G1 X128.199 Y221 E8.50928
G1 X127.139 Y220.982 E8.54102
G1 X126.553 Y220.955 E8.55858
G1 X125.61 Y220.885 E8.58688
G1 X124.908 Y220.819 E8.60799
G1 X123.679 Y220.633 E8.6452
G1 X122.91 Y220.463 E8.66877
G1 X121.759 Y220.176 E8.70428
G1 X120.539 Y219.795 E8.74254
G1 X119.834 Y219.52 E8.76519
G1 X118.672 Y219.028 E8.80297
G1 X117.434 Y218.41 E8.84439
G1 X116.758 Y218.01 E8.8679
G1 X115.794 Y217.407 E8.90194
G1 X114.742 Y216.66 E8.94056
G1 X114.259 Y216.266 E8.95922
G1 X113.727 Y215.811 E8.98017
G1 X113.155 Y215.307 E9.00299
G1 X112.294 Y214.461 E9.03912
G1 X111.796 Y213.9 E9.06158
G1 X110.989 Y212.938 E9.09917
G1 X110.224 Y211.91 E9.13752
G1 X109.792 Y211.236 E9.16149
G1 X109.155 Y210.173 E9.19858
G1 X108.54 Y208.989 E9.23852
G1 X108.248 Y208.316 E9.26048
G1 X107.8 Y207.208 E9.29626
G1 X107.372 Y205.928 E9.33666
G1 X107.181 Y205.19 E9.35948
G1 X106.915 Y204.038 E9.39487
G1 X106.696 Y202.737 E9.43436
G1 X106.633 Y202.118 E9.45299
G1 X106.593 Y201.62 E9.46794
G1 X106.524 Y200.496 E9.50165
G1 X106.504 Y199.838 E9.52136
G1 X106.501 Y100.551 E12.49343
G1 X106.511 Y99.844 E12.51459
G1 X106.534 Y99.268 E12.53185
G1 X106.592 Y98.398 E12.55795
G1 X106.681 Y97.412 E12.58758
G1 X106.875 Y96.14 E12.6261
G1 F2700 E7.6261
G0 F6000 X106.901 Y100.557
G1 F2700 E12.6261
G1 F1200 X106.911 Y99.85 E12.64727
G1 X106.933 Y99.295 E12.66389
G1 X106.991 Y98.425 E12.68999
G1 X107.079 Y97.449 E12.71933
G1 X107.266 Y96.224 E12.75642
G1 X107.425 Y95.505 E12.77846
G1 X107.71 Y94.361 E12.81375
G1 X108.076 Y93.187 E12.85057
G1 X108.348 Y92.49 E12.87296
G1 X108.84 Y91.328 E12.91073
G1 X109.412 Y90.177 E12.94921
G1 X109.708 Y89.669 E12.96681
G1 X109.991 Y89.205 E12.98308
G1 X110.473 Y88.443 E13.01007
G1 X111.156 Y87.487 E13.04524
G1 X111.599 Y86.947 E13.06615
G1 X112.424 Y85.995 E13.10385
G1 X113.3 Y85.098 E13.14139
G1 X113.856 Y84.604 E13.16365
G1 X114.819 Y83.796 E13.20128
G1 X115.828 Y83.046 E13.23891
G1 X116.478 Y82.631 E13.262
G1 X117.53 Y82 E13.29872
G1 X118.703 Y81.392 E13.33827
G1 X119.351 Y81.112 E13.3594
G1 X120.445 Y80.67 E13.39472
G1 X121.669 Y80.26 E13.43336
G1 X122.396 Y80.072 E13.45584
G1 X123.546 Y79.806 E13.49117
G1 X124.827 Y79.591 E13.53005
G1 X125.501 Y79.524 E13.55033
G1 X126.127 Y79.477 E13.56912
G1 X127.028 Y79.423 E13.59614
G1 X127.661 Y79.404 E13.61509
G1 X171.801 Y79.4 E14.93639
G1 X172.853 Y79.418 E14.96788
G1 X173.418 Y79.444 E14.98481
G1 X174.357 Y79.514 E15.013
G1 X175.066 Y79.581 E15.03432
G1 X176.259 Y79.763 E15.07044
G1 X176.994 Y79.925 E15.09297
G1 X178.145 Y80.212 E15.12848
G1 X179.32 Y80.579 E15.16533
G1 X180.01 Y80.848 E15.1875
G1 X181.172 Y81.34 E15.22527
G1 X182.365 Y81.936 E15.26519
G1 X183.033 Y82.331 E15.28842
G1 X183.998 Y82.935 E15.3225
G1 X185.004 Y83.65 E15.35944
G1 X185.482 Y84.039 E15.37789
G1 X186.009 Y84.489 E15.39863
G1 X186.581 Y84.993 E15.42145
G1 X187.412 Y85.81 E15.45634
G1 X187.896 Y86.356 E15.47818
G1 X188.704 Y87.319 E15.51581
G1 X189.442 Y88.309 E15.55277
G1 X189.856 Y88.955 E15.57574
G1 X190.482 Y89.996 E15.6121
G1 X191.053 Y91.083 E15.64886
G1 X191.345 Y91.748 E15.6706
G1 X191.821 Y92.92 E15.70846
G1 X192.229 Y94.128 E15.74663
G1 X192.412 Y94.83 E15.76834
G1 X192.692 Y96.035 E15.80538
G1 X192.909 Y97.329 E15.84465
G1 X192.982 Y98.087 E15.86745
G1 X193.064 Y99.262 E15.90271
G1 X193.088 Y99.806 E15.91901
G1 X193.1 Y100.547 E15.94119
G1 X193.099 Y199.443 E18.90155
G1 X193.089 Y200.149 E18.92269
G1 X193.067 Y200.703 E18.93929
G1 X193.009 Y201.574 E18.96542
G1 X192.921 Y202.553 E18.99484
G1 X192.746 Y203.714 E19.02999
G1 X192.592 Y204.418 E19.05156
G1 X192.292 Y205.628 E19.08888
G1 X191.924 Y206.813 E19.12602
G1 X191.652 Y207.51 E19.14841
G1 X191.16 Y208.672 E19.18619
G1 X190.598 Y209.806 E19.22407
G1 X190.244 Y210.409 E19.245
G1 X189.575 Y211.482 E19.28285
G1 X188.845 Y212.511 E19.32062
G1 X188.369 Y213.09 E19.34306
G1 X187.553 Y214.028 E19.38027
G1 X186.695 Y214.906 E19.41702
G1 X186.143 Y215.397 E19.43914
G1 X185.181 Y216.204 E19.47672
G1 X184.191 Y216.941 E19.51367
G1 X183.562 Y217.345 E19.53605
G1 X182.526 Y217.97 E19.57226
G1 X181.385 Y218.567 E19.61081
G1 X180.663 Y218.882 E19.63439
G1 X179.554 Y219.33 E19.67019
G1 X178.331 Y219.74 E19.70881
G1 X177.606 Y219.928 E19.73123
G1 X176.457 Y220.194 E19.76653
G1 X175.171 Y220.409 E19.80556
G1 X174.499 Y220.476 E19.82578
G1 X173.873 Y220.523 E19.84457
G1 X172.972 Y220.577 E19.87159
G1 X172.339 Y220.596 E19.89054
G1 X128.199 Y220.6 E21.21184
G1 X127.147 Y220.582 E21.24333
G1 X126.582 Y220.556 E21.26026
G1 X125.648 Y220.486 E21.2883
G1 X124.946 Y220.42 E21.3094
G1 X123.761 Y220.241 E21.34528
G1 X123.006 Y220.075 E21.36842
G1 X121.855 Y219.788 E21.40393
G1 X120.68 Y219.421 E21.44078
G1 X119.99 Y219.152 E21.46295
G1 X118.828 Y218.66 E21.50072
G1 X117.635 Y218.064 E21.54064
G1 X116.97 Y217.671 E21.56376
G1 X116.006 Y217.068 E21.5978
G1 X114.993 Y216.348 E21.635
G1 X114.518 Y215.961 E21.65334
G1 X113.991 Y215.511 E21.67408
G1 X113.419 Y215.007 E21.6969
G1 X112.59 Y214.191 E21.73172
G1 X112.102 Y213.642 E21.75371
G1 X111.295 Y212.68 E21.7913
G1 X110.558 Y211.691 E21.82822
G1 X110.136 Y211.031 E21.85167
G1 X109.499 Y209.968 E21.88877
G1 X108.906 Y208.827 E21.92726
G1 X108.619 Y208.166 E21.94883
G1 X108.171 Y207.058 E21.98461
G1 X107.758 Y205.825 E22.02353
G1 X107.571 Y205.1 E22.04594
G1 X107.305 Y203.948 E22.08133
G1 X107.094 Y202.695 E22.11937
G1 X107.032 Y202.086 E22.13769
G1 X106.977 Y201.373 E22.1591
G1 X106.923 Y200.472 E22.18612
G1 X106.904 Y199.838 E22.20511
G1 X106.901 Y100.557 E25.17699
G0 F6000 X107.301 Y100.563
G1 F1200 X107.311 Y99.856 E25.19816
G1 X107.333 Y99.322 E25.21416
G1 X107.412 Y98.183 E25.24834
G1 X107.477 Y97.486 E25.26929
G1 X107.657 Y96.307 E25.30499
G1 X107.814 Y95.601 E25.32664
G1 X108.099 Y94.457 E25.36193
G1 X108.451 Y93.328 E25.39733
G1 X108.716 Y92.646 E25.41923
G1 X109.208 Y91.484 E25.45701
G1 X109.759 Y90.376 E25.49405
G1 X110.05 Y89.877 E25.51134
G1 X110.429 Y89.259 E25.53304
G1 X110.811 Y88.657 E25.55438
G1 X111.468 Y87.738 E25.5882
G1 X111.902 Y87.209 E25.60868
G1 X112.727 Y86.257 E25.64639
G1 X113.569 Y85.394 E25.68248
G1 X114.113 Y84.91 E25.70428
G1 X115.076 Y84.102 E25.74191
G1 X116.047 Y83.381 E25.77811
G1 X116.683 Y82.974 E25.80071
G1 X117.735 Y82.343 E25.83744
G1 X118.865 Y81.758 E25.87553
G1 X119.501 Y81.483 E25.89627
G1 X120.595 Y81.041 E25.93159
G1 X121.773 Y80.646 E25.96878
G1 X122.486 Y80.461 E25.99083
G1 X123.636 Y80.195 E26.02616
G1 X124.869 Y79.989 E26.06358
G1 X125.532 Y79.923 E26.08353
G1 X126.151 Y79.876 E26.10211
G1 X127.052 Y79.822 E26.12913
G1 X127.661 Y79.804 E26.14737
G1 X171.801 Y79.8 E27.46866
G1 X172.846 Y79.818 E27.49994
G1 X173.389 Y79.843 E27.51622
G1 X174.32 Y79.912 E27.54416
G1 X175.029 Y79.979 E27.56548
G1 X176.176 Y80.154 E27.60021
G1 X176.897 Y80.313 E27.62231
G1 X178.048 Y80.6 E27.65782
G1 X179.179 Y80.953 E27.69329
G1 X179.854 Y81.216 E27.71497
G1 X181.016 Y81.708 E27.75274
G1 X182.164 Y82.282 E27.79116
G1 X182.821 Y82.67 E27.814
G1 X183.786 Y83.274 E27.84808
G1 X184.754 Y83.962 E27.88363
G1 X185.223 Y84.343 E27.90172
G1 X185.613 Y84.675 E27.91705
G1 X186.316 Y85.293 E27.94507
G1 X187.116 Y86.08 E27.97866
G1 X187.59 Y86.613 E28.00001
G1 X188.398 Y87.576 E28.03764
G1 X189.107 Y88.529 E28.0732
G1 X189.513 Y89.162 E28.09571
G1 X190.139 Y90.203 E28.13207
G1 X190.688 Y91.248 E28.16741
G1 X190.974 Y91.899 E28.18869
G1 X191.45 Y93.071 E28.22656
G1 X191.843 Y94.233 E28.26328
G1 X192.022 Y94.92 E28.28453
G1 X192.302 Y96.125 E28.32156
G1 X192.511 Y97.37 E28.35935
G1 X192.583 Y98.115 E28.38175
G1 X192.665 Y99.29 E28.41701
G1 X192.688 Y99.814 E28.43271
G1 X192.7 Y100.547 E28.45466
G1 X192.699 Y199.437 E31.41484
G1 X192.689 Y200.143 E31.43598
G1 X192.667 Y200.677 E31.45198
G1 X192.587 Y201.823 E31.48637
G1 X192.522 Y202.516 E31.5072
G1 X192.355 Y203.633 E31.54101
G1 X192.204 Y204.322 E31.56212
G1 X191.904 Y205.532 E31.59944
G1 X191.549 Y206.672 E31.63518
G1 X191.284 Y207.354 E31.65708
G1 X190.792 Y208.516 E31.69486
G1 X190.251 Y209.607 E31.73131
G1 X189.904 Y210.198 E31.75182
G1 X189.235 Y211.271 E31.78967
G1 X188.533 Y212.261 E31.826
G1 X188.068 Y212.828 E31.84795
G1 X187.252 Y213.766 E31.88517
G1 X186.426 Y214.611 E31.92054
G1 X185.886 Y215.091 E31.94217
G1 X184.924 Y215.898 E31.97976
G1 X183.971 Y216.607 E32.01531
G1 X183.355 Y217.003 E32.03723
G1 X182.319 Y217.628 E32.07345
G1 X181.222 Y218.202 E32.11051
G1 X180.514 Y218.511 E32.13364
G1 X179.405 Y218.959 E32.16944
G1 X178.227 Y219.354 E32.20663
G1 X177.516 Y219.538 E32.22862
G1 X176.367 Y219.804 E32.26392
G1 X175.13 Y220.011 E32.30146
G1 X174.468 Y220.077 E32.32138
G1 X173.849 Y220.124 E32.33996
G1 X172.948 Y220.178 E32.36698
G1 X172.339 Y220.196 E32.38522
G1 X128.199 Y220.2 E33.70651
G1 X127.154 Y220.182 E33.7378
G1 X126.611 Y220.157 E33.75407
G1 X125.685 Y220.088 E33.78186
G1 X124.983 Y220.022 E33.80297
G1 X123.844 Y219.85 E33.83745
G1 X123.103 Y219.687 E33.86016
G1 X121.952 Y219.4 E33.89567
G1 X120.821 Y219.047 E33.93114
G1 X120.146 Y218.784 E33.95282
G1 X118.984 Y218.292 E33.9906
G1 X117.836 Y217.718 E34.02902
G1 X117.182 Y217.332 E34.05175
G1 X116.218 Y216.729 E34.08579
G1 X115.243 Y216.036 E34.12159
G1 X114.777 Y215.657 E34.13957
G1 X114.387 Y215.325 E34.1549
G1 X113.684 Y214.707 E34.18292
G1 X112.886 Y213.922 E34.21643
G1 X112.408 Y213.385 E34.23795
G1 X111.601 Y212.423 E34.27554
G1 X110.893 Y211.471 E34.31105
G1 X110.479 Y210.825 E34.33402
G1 X109.842 Y209.762 E34.37112
G1 X109.271 Y208.664 E34.40816
G1 X108.99 Y208.016 E34.42931
G1 X108.542 Y206.908 E34.46508
G1 X108.145 Y205.721 E34.50255
G1 X107.961 Y205.01 E34.52453
G1 X107.695 Y203.858 E34.55992
G1 X107.491 Y202.652 E34.59654
G1 X107.431 Y202.054 E34.61453
G1 X107.376 Y201.349 E34.63569
G1 X107.322 Y200.448 E34.66271
G1 X107.304 Y199.838 E34.68098
G1 X107.301 Y100.563 E37.65269
G1 F2700 E32.65269
;MESH:Pax-Geld.stl
G0 F6000 X116.835 Y100.563
G0 X127.516 Y209.4
;TYPE:WALL-INNER
G1 F2700 E37.65269
G1 F1200 X172.475 Y209.4 E38.9985
G1 X173.966 Y209.282 E39.04327
G1 X175.39 Y208.94 E39.08711
G1 X176.769 Y208.373 E39.13174
G1 X178.025 Y207.603 E39.17584
G1 X179.147 Y206.645 E39.22
G1 X180.104 Y205.523 E39.26415
G1 X180.875 Y204.265 E39.30832
G1 X181.44 Y202.89 E39.35281
G1 X181.782 Y201.466 E39.39665
G1 X181.9 Y199.975 E39.44142
G1 X181.9 Y100.409 E42.42184
G1 X181.9 Y100.025 E42.43334
G1 X181.782 Y98.53 E42.47823
G1 X181.44 Y97.11 E42.52195
G1 X180.873 Y95.731 E42.56658
G1 X180.103 Y94.475 E42.61068
G1 X179.145 Y93.353 E42.65485
G1 X178.025 Y92.398 E42.69891
G1 X176.765 Y91.625 E42.74316
G1 X175.39 Y91.06 E42.78765
G1 X173.966 Y90.718 E42.83149
G1 X172.484 Y90.601 E42.87599
G1 X127.525 Y90.6 E44.2218
G1 X126.034 Y90.718 E44.26657
G1 X124.61 Y91.06 E44.31041
G1 X123.231 Y91.627 E44.35504
G1 X121.975 Y92.397 E44.39914
G1 X120.853 Y93.355 E44.44331
G1 X119.896 Y94.477 E44.48745
G1 X119.125 Y95.735 E44.53162
G1 X118.56 Y97.11 E44.57612
G1 X118.218 Y98.534 E44.61995
G1 X118.1 Y100.025 E44.66473
G1 X118.1 Y199.975 E47.65664
G1 X118.218 Y201.466 E47.70141
G1 X118.56 Y202.89 E47.74525
G1 X119.125 Y204.265 E47.78975
G1 X119.896 Y205.523 E47.83392
G1 X120.853 Y206.645 E47.87806
G1 X121.975 Y207.603 E47.92222
G1 X123.231 Y208.373 E47.96632
G1 X124.61 Y208.94 E48.01096
G1 X126.034 Y209.282 E48.05479
G1 X127.516 Y209.4 E48.0993
G0 F6000 X127.5 Y209.8
;TYPE:WALL-OUTER
G1 F1200 X172.491 Y209.8 E49.44606
G1 X174.029 Y209.678 E49.49225
G1 X175.514 Y209.322 E49.53796
G1 X176.951 Y208.731 E49.58447
G1 X178.261 Y207.927 E49.63048
G1 X179.431 Y206.929 E49.67651
G1 X180.429 Y205.759 E49.72255
G1 X181.233 Y204.447 E49.76861
G1 X181.822 Y203.014 E49.81499
G1 X182.178 Y201.529 E49.8607
G1 X182.3 Y199.991 E49.90688
G1 X182.3 Y100.409 E52.88778
G1 X182.3 Y100.009 E52.89975
G1 X182.178 Y98.467 E52.94606
G1 X181.822 Y96.986 E52.99165
G1 X181.231 Y95.549 E53.03816
G1 X180.427 Y94.239 E53.08417
G1 X179.429 Y93.069 E53.13021
G1 X178.261 Y92.073 E53.17616
G1 X176.947 Y91.267 E53.2223
G1 X175.514 Y90.678 E53.26868
G1 X174.029 Y90.322 E53.31439
G1 X172.5 Y90.201 E53.3603
G1 X127.509 Y90.2 E54.70707
G1 X125.971 Y90.322 E54.75325
G1 X124.486 Y90.678 E54.79896
G1 X123.049 Y91.269 E54.84547
G1 X121.739 Y92.073 E54.89148
G1 X120.569 Y93.071 E54.93752
G1 X119.571 Y94.241 E54.98355
