;FLAVOR:Marlin
;TIME:12291
;Filament used: 6.418m
;Layer height: 0.2
;MINX:61
;MINY:117.5
;MINZ:0.2
;MAXX:239
;MAXY:182.5
;MAXZ:11
;Generated with Cura_SteamEngine main
M140 S60
M105
M190 S60
M104 S210
M105
M109 S210
M82 ;absolute extrusion mode
M201 X500.00 Y500.00 Z100.00 E5000.00 ;Setup machine max acceleration
M203 X500.00 Y500.00 Z10.00 E50.00 ;Setup machine max feedrate
M204 P500.00 R1000.00 T500.00 ;Setup Print/Retract/Travel acceleration
M205 X8.00 Y8.00 Z0.40 E5.00 ;Setup Jerk
M220 S100 ;Reset Feedrate
M221 S100 ;Reset Flowrate

G28 ;Home
G29 ;Auto bed Level

G92 E0 ;Reset Extruder
G1 Z2.0 F3000 ;Move Z Axis up
G1 X10.1 Y20 Z0.28 F5000.0 ;Move to start position
G1 X10.1 Y200.0 Z0.28 F1500.0 E15 ;Draw the first line
G1 X10.4 Y200.0 Z0.28 F5000.0 ;Move to side a little
G1 X10.4 Y20 Z0.28 F1500.0 E30 ;Draw the second line
G92 E0 ;Reset Extruder
G1 Z2.0 F3000 ;Move Z Axis up

G92 E0
G92 E0
G1 F2700 E-5
;LAYER_COUNT:55
;LAYER:0
M107
G0 F6000 X71.761 Y120.598 Z0.2
G0 X61.018 Y138.875
;TYPE:SKIRT
G1 F2700 E0
G1 F1200 X61.037 Y138.386 E0.01465
G1 X61.071 Y137.857 E0.03052
G1 X61.119 Y137.307 E0.04704
G1 X61.181 Y136.754 E0.0637
G1 X61.253 Y136.234 E0.07941
G1 X61.334 Y135.735 E0.09455
G1 X61.435 Y135.191 E0.11111
G1 X61.561 Y134.601 E0.12917
G1 X61.692 Y134.062 E0.14577
G1 X61.82 Y133.582 E0.16064
G1 X61.966 Y133.081 E0.17626
G1 X62.13 Y132.567 E0.19241
G1 X62.3 Y132.075 E0.208
G1 X62.51 Y131.518 E0.22582
G1 X62.756 Y130.914 E0.24534
G1 X62.964 Y130.436 E0.26094
G1 X63.149 Y130.037 E0.27411
G1 X63.375 Y129.576 E0.28948
G1 X63.628 Y129.091 E0.30585
G1 X63.892 Y128.614 E0.32217
G1 X64.16 Y128.157 E0.33803
G1 X64.431 Y127.72 E0.35342
G1 X64.737 Y127.25 E0.37021
G1 X65.058 Y126.783 E0.38717
G1 X65.359 Y126.369 E0.40249
G1 X65.678 Y125.952 E0.41821
G1 X66.024 Y125.521 E0.43476
G1 X66.385 Y125.094 E0.45149
G1 X66.741 Y124.694 E0.46752
G1 X67.1 Y124.31 E0.48326
G1 X67.482 Y123.92 E0.4996
G1 X67.852 Y123.559 E0.51507
G1 X68.248 Y123.191 E0.53126
G1 X68.664 Y122.824 E0.54786
G1 X69.075 Y122.479 E0.56392
G1 X69.511 Y122.131 E0.58062
G1 X69.938 Y121.808 E0.59665
G1 X70.354 Y121.508 E0.612
G1 X70.796 Y121.205 E0.62804
G1 X71.277 Y120.894 E0.64519
G1 X71.761 Y120.598 E0.66217
G1 X72.213 Y120.336 E0.67781
G1 X72.66 Y120.091 E0.69307
G1 X73.139 Y119.843 E0.70922
G1 X73.637 Y119.601 E0.72579
G1 X74.129 Y119.377 E0.74197
G1 X74.633 Y119.162 E0.75837
G1 X75.152 Y118.956 E0.77509
G1 X75.636 Y118.778 E0.79053
G1 X76.134 Y118.608 E0.80628
G1 X76.662 Y118.442 E0.82285
G1 X77.179 Y118.293 E0.83895
G1 X77.707 Y118.155 E0.85529
G1 X78.216 Y118.036 E0.87094
G1 X78.732 Y117.927 E0.88672
G1 X79.297 Y117.822 E0.90392
G1 X79.825 Y117.739 E0.91992
G1 X80.327 Y117.672 E0.93508
G1 X80.889 Y117.61 E0.95201
G1 X81.487 Y117.561 E0.96997
G1 X82.083 Y117.528 E0.98784
G1 X82.561 Y117.512 E1.00215
G1 X83.624 Y117.5 E1.03398
G1 X216.51 Y117.501 E5.0118
G1 X217.625 Y117.518 E5.04518
G1 X218.114 Y117.537 E5.05983
G1 X218.643 Y117.571 E5.0757
G1 X219.193 Y117.619 E5.09223
G1 X219.746 Y117.681 E5.10888
G1 X220.266 Y117.753 E5.1246
G1 X220.765 Y117.834 E5.13973
G1 X221.309 Y117.935 E5.15629
G1 X221.899 Y118.061 E5.17435
G1 X222.438 Y118.192 E5.19096
G1 X222.918 Y118.32 E5.20583
G1 X223.419 Y118.466 E5.22145
G1 X223.933 Y118.63 E5.2376
G1 X224.425 Y118.8 E5.25318
G1 X224.982 Y119.01 E5.271
G1 X225.586 Y119.256 E5.29052
G1 X226.064 Y119.464 E5.30613
G1 X226.463 Y119.649 E5.31929
G1 X226.924 Y119.875 E5.33466
G1 X227.409 Y120.128 E5.35103
G1 X227.886 Y120.392 E5.36735
G1 X228.343 Y120.66 E5.38321
G1 X228.785 Y120.934 E5.39878
G1 X229.256 Y121.241 E5.41561
G1 X229.714 Y121.556 E5.43225
G1 X230.127 Y121.856 E5.44753
G1 X230.548 Y122.178 E5.46339
G1 X230.979 Y122.524 E5.47994
G1 X231.406 Y122.885 E5.49668
G1 X231.806 Y123.241 E5.51271
G1 X232.19 Y123.6 E5.52844
G1 X232.58 Y123.982 E5.54478
G1 X232.943 Y124.354 E5.56034
G1 X233.308 Y124.747 E5.5764
G1 X233.673 Y125.161 E5.59292
G1 X234.018 Y125.572 E5.60898
G1 X234.359 Y125.998 E5.62531
G1 X234.685 Y126.428 E5.64147
G1 X234.99 Y126.852 E5.6571
G1 X235.287 Y127.285 E5.67282
G1 X235.595 Y127.76 E5.68977
G1 X235.894 Y128.248 E5.7069
G1 X236.159 Y128.704 E5.72268
G1 X236.407 Y129.156 E5.73812
G1 X236.657 Y129.64 E5.75442
G1 X236.897 Y130.134 E5.77086
G1 X237.119 Y130.62 E5.78686
G1 X237.336 Y131.128 E5.80339
G1 X237.544 Y131.652 E5.82027
G1 X237.722 Y132.136 E5.83571
G1 X237.894 Y132.642 E5.85171
G1 X238.058 Y133.165 E5.86811
G1 X238.201 Y133.661 E5.88356
G1 X238.341 Y134.194 E5.90006
G1 X238.464 Y134.716 E5.91611
G1 X238.573 Y135.232 E5.9319
G1 X238.677 Y135.79 E5.94889
G1 X238.76 Y136.316 E5.96483
G1 X238.828 Y136.827 E5.98026
G1 X238.89 Y137.39 E5.99722
G1 X238.939 Y137.987 E6.01515
G1 X238.972 Y138.584 E6.03305
G1 X238.988 Y139.061 E6.04733
G1 X239 Y140.123 E6.07913
G1 X238.999 Y160.01 E6.67443
G1 X238.982 Y161.121 E6.70769
G1 X238.963 Y161.612 E6.72239
G1 X238.929 Y162.143 E6.73832
G1 X238.881 Y162.693 E6.75485
G1 X238.819 Y163.246 E6.77151
G1 X238.747 Y163.766 E6.78722
G1 X238.666 Y164.265 E6.80235
G1 X238.565 Y164.809 E6.81892
G1 X238.439 Y165.399 E6.83697
G1 X238.308 Y165.938 E6.85358
G1 X238.18 Y166.418 E6.86845
G1 X238.034 Y166.919 E6.88407
G1 X237.87 Y167.433 E6.90022
G1 X237.7 Y167.925 E6.9158
G1 X237.49 Y168.482 E6.93362
G1 X237.244 Y169.086 E6.95314
G1 X237.036 Y169.564 E6.96875
G1 X236.851 Y169.963 E6.98191
G1 X236.627 Y170.419 E6.99712
G1 X236.38 Y170.893 E7.01312
G1 X236.122 Y171.36 E7.02909
G1 X235.852 Y171.822 E7.04511
G1 X235.569 Y172.28 E7.06123
G1 X235.258 Y172.757 E7.07827
G1 X234.949 Y173.206 E7.09459
G1 X234.643 Y173.628 E7.11019
G1 X234.302 Y174.075 E7.12702
G1 X233.961 Y174.498 E7.14328
G1 X233.607 Y174.915 E7.15966
G1 X233.236 Y175.331 E7.17634
G1 X232.867 Y175.725 E7.1925
G1 X232.498 Y176.1 E7.20825
G1 X232.152 Y176.436 E7.22269
G1 X231.761 Y176.8 E7.23868
G1 X231.342 Y177.171 E7.25543
G1 X230.929 Y177.518 E7.27158
G1 X230.489 Y177.869 E7.28843
G1 X230.062 Y178.192 E7.30445
G1 X229.646 Y178.492 E7.31981
G1 X229.204 Y178.795 E7.33585
G1 X228.724 Y179.106 E7.35297
G1 X228.245 Y179.399 E7.36978
G1 X227.796 Y179.659 E7.38531
G1 X227.344 Y179.907 E7.40074
G1 X226.861 Y180.157 E7.41702
G1 X226.363 Y180.399 E7.4336
G1 X225.871 Y180.623 E7.44978
G1 X225.367 Y180.838 E7.46618
G1 X224.848 Y181.044 E7.48289
G1 X224.364 Y181.222 E7.49833
G1 X223.866 Y181.392 E7.51408
G1 X223.338 Y181.558 E7.53065
G1 X222.821 Y181.707 E7.54676
G1 X222.293 Y181.845 E7.56309
G1 X221.784 Y181.964 E7.57874
G1 X221.268 Y182.073 E7.59453
G1 X220.703 Y182.178 E7.61173
G1 X220.175 Y182.261 E7.62773
G1 X219.673 Y182.328 E7.64289
G1 X219.111 Y182.39 E7.65981
G1 X218.513 Y182.439 E7.67777
G1 X217.917 Y182.472 E7.69564
G1 X217.439 Y182.488 E7.70996
G1 X216.376 Y182.5 E7.74178
G1 X83.49 Y182.499 E11.71961
G1 X82.375 Y182.482 E11.75299
G1 X81.886 Y182.463 E11.76764
G1 X81.357 Y182.429 E11.7835
G1 X80.807 Y182.381 E11.80003
G1 X80.254 Y182.319 E11.81669
G1 X79.734 Y182.247 E11.8324
G1 X79.235 Y182.166 E11.84753
G1 X78.691 Y182.065 E11.8641
G1 X78.101 Y181.939 E11.88216
G1 X77.562 Y181.808 E11.89876
G1 X77.082 Y181.68 E11.91363
G1 X76.581 Y181.534 E11.92925
G1 X76.067 Y181.37 E11.9454
G1 X75.575 Y181.2 E11.96098
G1 X75.032 Y180.996 E11.97835
G1 X74.465 Y180.766 E11.99666
G1 X73.985 Y180.558 E12.01232
G1 X73.535 Y180.35 E12.02716
G1 X73.04 Y180.106 E12.04368
G1 X72.571 Y179.86 E12.05954
G1 X72.129 Y179.615 E12.07466
G1 X71.645 Y179.332 E12.09145
G1 X71.164 Y179.034 E12.10838
G1 X70.728 Y178.748 E12.12399
G1 X70.298 Y178.451 E12.13964
G1 X69.849 Y178.125 E12.15625
G1 X69.438 Y177.811 E12.17173
G1 X69.047 Y177.498 E12.18672
G1 X68.602 Y177.123 E12.20414
G1 X68.179 Y176.746 E12.2211
G1 X67.794 Y176.385 E12.2369
G1 X67.421 Y176.019 E12.25254
G1 X67.056 Y175.644 E12.26821
G1 X66.678 Y175.236 E12.28486
G1 X66.316 Y174.826 E12.30123
G1 X65.964 Y174.406 E12.31763
G1 X65.628 Y173.984 E12.33378
G1 X65.315 Y173.571 E12.34929
G1 X65.006 Y173.141 E12.36514
G1 X64.702 Y172.697 E12.38125
G1 X64.4 Y172.232 E12.39785
G1 X64.107 Y171.754 E12.41463
G1 X63.841 Y171.296 E12.43048
G1 X63.593 Y170.844 E12.44592
G1 X63.343 Y170.361 E12.4622
G1 X63.101 Y169.863 E12.47877
G1 X62.881 Y169.381 E12.49463
G1 X62.668 Y168.883 E12.51084
G1 X62.457 Y168.35 E12.528
G1 X62.277 Y167.86 E12.54363
G1 X62.104 Y167.354 E12.55964
G1 X61.934 Y166.811 E12.57667
G1 X61.789 Y166.304 E12.59246
G1 X61.655 Y165.791 E12.60833
G1 X61.536 Y165.289 E12.62377
G1 X61.427 Y164.774 E12.63953
G1 X61.322 Y164.204 E12.65688
G1 X61.239 Y163.676 E12.67288
G1 X61.172 Y163.17 E12.68816
G1 X61.11 Y162.606 E12.70514
G1 X61.061 Y162.013 E12.72295
G1 X61.028 Y161.418 E12.74079
G1 X61.012 Y160.939 E12.75514
G1 X61 Y159.877 E12.78693
G1 X61.001 Y139.99 E13.38223
G1 X61.018 Y138.875 E13.41561
G0 F6000 X61.401 Y139.995
G1 F1200 X61.411 Y139.173 E13.44022
G1 X61.437 Y138.401 E13.46334
G1 X61.469 Y137.891 E13.47863
G1 X61.517 Y137.341 E13.49516
G1 X61.577 Y136.809 E13.51119
G1 X61.649 Y136.289 E13.5269
G1 X61.727 Y135.808 E13.54149
G1 X61.828 Y135.264 E13.55805
G1 X61.95 Y134.696 E13.57544
G1 X62.081 Y134.157 E13.59204
G1 X62.204 Y133.694 E13.60638
G1 X62.35 Y133.193 E13.62201
G1 X62.508 Y132.697 E13.63759
G1 X62.678 Y132.205 E13.65317
G1 X62.88 Y131.669 E13.67032
G1 X63.126 Y131.065 E13.68984
G1 X63.326 Y130.604 E13.70488
G1 X63.511 Y130.205 E13.71805
G1 X63.73 Y129.761 E13.73287
G1 X63.983 Y129.276 E13.74924
G1 X64.237 Y128.817 E13.76494
G1 X64.505 Y128.36 E13.7808
G1 X64.766 Y127.938 E13.79566
G1 X65.072 Y127.468 E13.81244
G1 X65.382 Y127.019 E13.82878
G1 X65.683 Y126.605 E13.8441
G1 X65.99 Y126.202 E13.85926
G1 X66.336 Y125.771 E13.87581
G1 X66.684 Y125.36 E13.89193
G1 X67.04 Y124.96 E13.90796
G1 X67.385 Y124.59 E13.9231
G1 X67.767 Y124.2 E13.93944
G1 X68.124 Y123.852 E13.95437
G1 X68.52 Y123.484 E13.97055
G1 X68.921 Y123.13 E13.98656
G1 X69.332 Y122.785 E14.00262
G1 X69.752 Y122.45 E14.0187
G1 X70.179 Y122.127 E14.03473
G1 X70.581 Y121.838 E14.04955
G1 X71.023 Y121.535 E14.06559
G1 X71.486 Y121.235 E14.08211
G1 X71.97 Y120.939 E14.09909
G1 X72.405 Y120.687 E14.11414
G1 X72.852 Y120.442 E14.1294
G1 X73.314 Y120.203 E14.14497
G1 X73.812 Y119.961 E14.16154
G1 X74.286 Y119.745 E14.17713
G1 X74.79 Y119.53 E14.19354
G1 X75.29 Y119.331 E14.20965
G1 X75.774 Y119.153 E14.22508
G1 X76.254 Y118.99 E14.24026
G1 X76.782 Y118.824 E14.25682
G1 X77.281 Y118.68 E14.27237
G1 X77.809 Y118.542 E14.28871
G1 X78.298 Y118.427 E14.30374
G1 X78.814 Y118.318 E14.31953
G1 X79.359 Y118.218 E14.33612
G1 X79.887 Y118.135 E14.35212
G1 X80.371 Y118.07 E14.36674
G1 X80.933 Y118.008 E14.38366
G1 X81.509 Y117.96 E14.40096
G1 X82.105 Y117.927 E14.41883
G1 X82.566 Y117.912 E14.43264
G1 X83.624 Y117.9 E14.46431
G1 X216.505 Y117.901 E18.44199
G1 X217.327 Y117.911 E18.46659
G1 X218.099 Y117.937 E18.48972
G1 X218.609 Y117.969 E18.50501
G1 X219.159 Y118.017 E18.52154
G1 X219.691 Y118.077 E18.53756
G1 X220.211 Y118.149 E18.55328
G1 X220.692 Y118.227 E18.56786
G1 X221.236 Y118.328 E18.58443
G1 X221.804 Y118.45 E18.60182
G1 X222.343 Y118.581 E18.61842
G1 X222.806 Y118.704 E18.63276
G1 X223.307 Y118.85 E18.64838
G1 X223.803 Y119.008 E18.66397
G1 X224.295 Y119.178 E18.67955
G1 X224.831 Y119.38 E18.69669
G1 X225.435 Y119.626 E18.71622
G1 X225.896 Y119.826 E18.73126
G1 X226.295 Y120.011 E18.74442
G1 X226.739 Y120.23 E18.75924
G1 X227.224 Y120.483 E18.77562
G1 X227.683 Y120.737 E18.79132
G1 X228.14 Y121.005 E18.80718
G1 X228.566 Y121.269 E18.82218
G1 X229.037 Y121.576 E18.83901
G1 X229.479 Y121.88 E18.85507
G1 X229.892 Y122.18 E18.87035
G1 X230.298 Y122.49 E18.88564
G1 X230.729 Y122.836 E18.90218
G1 X231.14 Y123.184 E18.91831
G1 X231.54 Y123.54 E18.93433
G1 X231.91 Y123.885 E18.94948
G1 X232.3 Y124.267 E18.96582
G1 X232.65 Y124.626 E18.98083
G1 X233.015 Y125.019 E18.99688
G1 X233.367 Y125.418 E19.01281
G1 X233.712 Y125.829 E19.02887
G1 X234.04 Y126.24 E19.04461
G1 X234.366 Y126.67 E19.06077
G1 X234.66 Y127.078 E19.07582
G1 X234.957 Y127.511 E19.09154
G1 X235.254 Y127.969 E19.10788
G1 X235.553 Y128.457 E19.12501
G1 X235.808 Y128.896 E19.14021
G1 X236.056 Y129.348 E19.15564
G1 X236.297 Y129.815 E19.17137
G1 X236.537 Y130.309 E19.18781
G1 X236.751 Y130.777 E19.20321
G1 X236.968 Y131.285 E19.21975
G1 X237.169 Y131.79 E19.23602
G1 X237.347 Y132.274 E19.25146
G1 X237.512 Y132.761 E19.26685
G1 X237.676 Y133.284 E19.28326
G1 X237.814 Y133.763 E19.29818
G1 X237.954 Y134.296 E19.31467
G1 X238.073 Y134.798 E19.33012
G1 X238.182 Y135.314 E19.3459
G1 X238.281 Y135.853 E19.36231
G1 X238.364 Y136.379 E19.37825
G1 X238.43 Y136.871 E19.39311
G1 X238.492 Y137.434 E19.41006
G1 X238.54 Y138.009 E19.42734
G1 X238.573 Y138.606 E19.44523
G1 X238.588 Y139.066 E19.45901
G1 X238.6 Y140.123 E19.49065
G1 X238.599 Y160.005 E20.0858
G1 X238.589 Y160.825 E20.11035
G1 X238.563 Y161.597 E20.13347
G1 X238.531 Y162.109 E20.14883
G1 X238.483 Y162.659 E20.16536
G1 X238.423 Y163.191 E20.18138
G1 X238.351 Y163.711 E20.1971
G1 X238.273 Y164.192 E20.21168
G1 X238.172 Y164.736 E20.22824
G1 X238.05 Y165.304 E20.24563
G1 X237.919 Y165.843 E20.26224
G1 X237.796 Y166.306 E20.27658
G1 X237.65 Y166.807 E20.2922
G1 X237.492 Y167.303 E20.30778
G1 X237.322 Y167.795 E20.32336
G1 X237.12 Y168.331 E20.34051
G1 X236.874 Y168.935 E20.36003
G1 X236.674 Y169.396 E20.37508
G1 X236.489 Y169.795 E20.38824
G1 X236.272 Y170.234 E20.4029
G1 X236.025 Y170.708 E20.4189
G1 X235.777 Y171.158 E20.43428
G1 X235.507 Y171.62 E20.4503
G1 X235.234 Y172.061 E20.46582
G1 X234.923 Y172.538 E20.48287
G1 X234.625 Y172.972 E20.49863
G1 X234.319 Y173.394 E20.51423
G1 X233.99 Y173.824 E20.53044
G1 X233.649 Y174.247 E20.5467
G1 X233.308 Y174.649 E20.56248
G1 X232.937 Y175.065 E20.57917
G1 X232.582 Y175.445 E20.59473
G1 X232.213 Y175.82 E20.61048
G1 X231.88 Y176.143 E20.62437
G1 X231.489 Y176.507 E20.64036
G1 X231.085 Y176.865 E20.65652
G1 X230.672 Y177.212 E20.67267
G1 X230.248 Y177.55 E20.6889
G1 X229.821 Y177.873 E20.70492
G1 X229.419 Y178.162 E20.71974
G1 X228.977 Y178.465 E20.73579
G1 X228.515 Y178.764 E20.75226
G1 X228.036 Y179.057 E20.76907
G1 X227.604 Y179.308 E20.78402
G1 X227.152 Y179.556 E20.79946
G1 X226.686 Y179.797 E20.81516
G1 X226.188 Y180.039 E20.83173
G1 X225.714 Y180.255 E20.84733
G1 X225.21 Y180.47 E20.86373
G1 X224.71 Y180.669 E20.87984
G1 X224.226 Y180.847 E20.89528
G1 X223.746 Y181.01 E20.91045
G1 X223.218 Y181.176 E20.92702
G1 X222.719 Y181.32 E20.94256
G1 X222.191 Y181.458 E20.9589
G1 X221.702 Y181.573 E20.97394
G1 X221.186 Y181.682 E20.98972
G1 X220.641 Y181.782 E21.00631
G1 X220.113 Y181.865 E21.02231
G1 X219.629 Y181.93 E21.03693
G1 X219.067 Y181.992 E21.05385
G1 X218.491 Y182.04 E21.07115
G1 X217.895 Y182.073 E21.08902
G1 X217.434 Y182.088 E21.10283
G1 X216.376 Y182.1 E21.1345
G1 X83.495 Y182.099 E25.11218
G1 X82.673 Y182.089 E25.13679
G1 X81.901 Y182.063 E25.15991
G1 X81.391 Y182.031 E25.1752
G1 X80.841 Y181.983 E25.19173
G1 X80.309 Y181.923 E25.20776
G1 X79.789 Y181.851 E25.22347
G1 X79.308 Y181.773 E25.23806
G1 X78.764 Y181.672 E25.25462
G1 X78.196 Y181.55 E25.27201
G1 X77.657 Y181.419 E25.28861
G1 X77.194 Y181.296 E25.30295
G1 X76.693 Y181.15 E25.31858
G1 X76.197 Y180.992 E25.33416
G1 X75.705 Y180.822 E25.34974
G1 X75.183 Y180.626 E25.36643
G1 X74.616 Y180.396 E25.38475
G1 X74.153 Y180.195 E25.39986
G1 X73.703 Y179.987 E25.4147
G1 X73.226 Y179.752 E25.43061
G1 X72.757 Y179.506 E25.44647
G1 X72.331 Y179.27 E25.46104
G1 X71.847 Y178.987 E25.47783
G1 X71.383 Y178.699 E25.49417
G1 X70.947 Y178.413 E25.50978
G1 X70.533 Y178.128 E25.52483
G1 X70.084 Y177.802 E25.54144
G1 X69.688 Y177.499 E25.55636
G1 X69.297 Y177.186 E25.57136
G1 X68.868 Y176.824 E25.58816
G1 X68.445 Y176.447 E25.60512
G1 X68.074 Y176.1 E25.62033
G1 X67.701 Y175.734 E25.63597
G1 X67.349 Y175.372 E25.65108
G1 X66.971 Y174.964 E25.66773
G1 X66.623 Y174.569 E25.68349
G1 X66.271 Y174.149 E25.69989
G1 X65.947 Y173.742 E25.71547
G1 X65.634 Y173.329 E25.73098
G1 X65.336 Y172.915 E25.74625
G1 X65.032 Y172.471 E25.76236
G1 X64.741 Y172.023 E25.77835
G1 X64.448 Y171.545 E25.79513
G1 X64.192 Y171.104 E25.81039
G1 X63.944 Y170.652 E25.82583
G1 X63.703 Y170.186 E25.84153
G1 X63.461 Y169.688 E25.85811
G1 X63.249 Y169.223 E25.8734
