;FLAVOR:Marlin
;TIME:29021
;Filament used: 18.7749m
;Layer height: 0.2
;MINX:76.869
;MINY:92.277
;MINZ:0.2
;MAXX:223.131
;MAXY:207.723
;MAXZ:39
;Generated with Cura_SteamEngine main
M140 S60
M105
M190 S60
M104 S210
M105
M109 S210
M82 ;absolute extrusion mode
M201 X500.00 Y500.00 Z100.00 E5000.00 ;Setup machine max acceleration
M203 X500.00 Y500.00 Z10.00 E50.00 ;Setup machine max feedrate
M204 P500.00 R1000.00 T500.00 ;Setup Print/Retract/Travel acceleration
M205 X8.00 Y8.00 Z0.40 E5.00 ;Setup Jerk
M220 S100 ;Reset Feedrate
M221 S100 ;Reset Flowrate

G28 ;Home
G29 ;Auto bed Level

G92 E0 ;Reset Extruder
G1 Z2.0 F3000 ;Move Z Axis up
G1 X10.1 Y20 Z0.28 F5000.0 ;Move to start position
G1 X10.1 Y200.0 Z0.28 F1500.0 E15 ;Draw the first line
G1 X10.4 Y200.0 Z0.28 F5000.0 ;Move to side a little
G1 X10.4 Y20 Z0.28 F1500.0 E30 ;Draw the second line
G92 E0 ;Reset Extruder
G1 Z2.0 F3000 ;Move Z Axis up

G92 E0
G92 E0
G1 F2700 E-5
;LAYER_COUNT:195
;LAYER:0
M107
G0 F6000 X82.37 Y96.29 Z0.2
G0 X76.869 Y108.226
;TYPE:SKIRT
G1 F2700 E0
G1 F1200 X76.879 Y107.559 E0.01997
G1 X76.909 Y106.903 E0.03963
G1 X76.977 Y106.147 E0.06235
G1 X77.032 Y105.693 E0.07604
G1 X77.184 Y104.768 E0.1041
G1 X77.461 Y103.709 E0.13686
G1 X77.675 Y103.03 E0.15817
G1 X77.995 Y102.149 E0.18623
G1 X78.404 Y101.267 E0.21533
G1 X78.714 Y100.686 E0.23505
G1 X78.907 Y100.345 E0.24678
G1 X79.403 Y99.549 E0.27485
G1 X79.865 Y98.924 E0.29812
G1 X80.404 Y98.245 E0.32407
G1 X81.017 Y97.536 E0.35212
G1 X81.818 Y96.768 E0.38534
G1 X82.37 Y96.29 E0.4072
G1 X83.434 Y95.477 E0.44728
G1 X83.916 Y95.153 E0.46467
G1 X84.476 Y94.797 E0.48453
G1 X85.535 Y94.217 E0.52067
G1 X85.97 Y94.009 E0.53511
G1 X86.639 Y93.708 E0.55707
G1 X87.542 Y93.356 E0.58608
G1 X88.278 Y93.116 E0.60925
G1 X88.744 Y92.979 E0.62379
G1 X89.684 Y92.747 E0.65277
G1 X90.432 Y92.597 E0.67561
G1 X91.021 Y92.493 E0.69351
G1 X92.066 Y92.371 E0.72501
G1 X92.83 Y92.319 E0.74793
G1 X93.392 Y92.296 E0.76477
G1 X94.588 Y92.277 E0.80057
G1 X205.719 Y92.278 E4.12718
G1 X206.648 Y92.296 E4.155
G1 X207.29 Y92.325 E4.17423
G1 X207.98 Y92.373 E4.19494
G1 X208.909 Y92.485 E4.22295
G1 X209.464 Y92.576 E4.23978
G1 X210.066 Y92.688 E4.25811
G1 X211.053 Y92.926 E4.2885
G1 X211.992 Y93.203 E4.31781
G1 X212.302 Y93.303 E4.32756
G1 X213.219 Y93.645 E4.35686
G1 X213.918 Y93.953 E4.37972
G1 X214.437 Y94.201 E4.39694
G1 X215.503 Y94.785 E4.43333
G1 X216.147 Y95.191 E4.45611
G1 X216.454 Y95.395 E4.46715
G1 X217.478 Y96.165 E4.5055
G1 X217.904 Y96.526 E4.52221
G1 X218.385 Y96.955 E4.54151
G1 X219.053 Y97.614 E4.5696
G1 X219.403 Y98.009 E4.58539
G1 X219.878 Y98.581 E4.60765
G1 X220.094 Y98.855 E4.61809
G1 X220.642 Y99.616 E4.64617
G1 X221.032 Y100.254 E4.66855
G1 X221.41 Y100.923 E4.69155
G1 X221.836 Y101.758 E4.71961
G1 X222.253 Y102.81 E4.75349
G1 X222.474 Y103.478 E4.77455
G1 X222.567 Y103.784 E4.78412
G1 X222.801 Y104.692 E4.81219
G1 X222.974 Y105.76 E4.84458
G1 X223.053 Y106.466 E4.86584
G1 X223.116 Y107.347 E4.89228
G1 X223.129 Y107.946 E4.91021
G1 X223.131 Y191.735 E7.41836
G1 X223.121 Y192.431 E7.4392
G1 X223.093 Y193.078 E7.45859
G1 X223.023 Y193.853 E7.48188
G1 X222.97 Y194.291 E7.49509
G1 X222.818 Y195.217 E7.52318
G1 X222.584 Y196.139 E7.55165
G1 X222.445 Y196.601 E7.56609
G1 X222.255 Y197.182 E7.58439
G1 X221.917 Y198.057 E7.61247
G1 X221.661 Y198.604 E7.63055
G1 X221.312 Y199.268 E7.653
G1 X221.092 Y199.656 E7.66635
G1 X220.595 Y200.451 E7.69442
G1 X220.162 Y201.04 E7.7163
G1 X219.622 Y201.725 E7.74241
G1 X219.01 Y202.436 E7.77049
G1 X218.186 Y203.229 E7.80473
G1 X217.647 Y203.696 E7.82608
G1 X216.577 Y204.513 E7.86637
G1 X216.047 Y204.869 E7.88549
G1 X215.509 Y205.212 E7.90458
G1 X214.481 Y205.775 E7.93967
G1 X214.046 Y205.984 E7.95412
G1 X213.316 Y206.311 E7.97806
G1 X212.452 Y206.647 E8.00581
G1 X211.739 Y206.879 E8.02825
G1 X211.256 Y207.021 E8.04332
G1 X210.316 Y207.253 E8.07231
G1 X209.568 Y207.403 E8.09514
G1 X208.979 Y207.507 E8.11305
G1 X207.934 Y207.629 E8.14454
G1 X207.17 Y207.681 E8.16746
G1 X206.608 Y207.704 E8.1843
G1 X205.412 Y207.723 E8.22011
G1 X94.291 Y207.723 E11.54642
G1 X93.354 Y207.705 E11.57447
G1 X92.697 Y207.675 E11.59416
G1 X92.003 Y207.626 E11.61498
G1 X91.087 Y207.517 E11.6426
G1 X90.594 Y207.437 E11.65755
G1 X89.931 Y207.314 E11.67773
G1 X88.96 Y207.08 E11.70763
G1 X88.297 Y206.888 E11.72829
G1 X87.7 Y206.7 E11.74703
G1 X86.775 Y206.353 E11.7766
G1 X86.04 Y206.027 E11.80067
G1 X85.518 Y205.776 E11.81801
G1 X84.458 Y205.193 E11.85422
G1 X83.864 Y204.817 E11.87526
G1 X83.554 Y204.611 E11.88641
G1 X82.523 Y203.835 E11.92503
G1 X82.106 Y203.481 E11.94141
G1 X81.608 Y203.037 E11.96138
G1 X80.939 Y202.379 E11.98947
G1 X80.443 Y201.809 E12.01208
G1 X80 Y201.263 E12.03313
G1 X79.441 Y200.51 E12.0612
G1 X78.991 Y199.79 E12.08662
G1 X78.707 Y199.293 E12.10375
G1 X78.425 Y198.77 E12.12154
G1 X78.025 Y197.922 E12.14961
G1 X77.745 Y197.183 E12.17326
G1 X77.526 Y196.519 E12.19419
G1 X77.429 Y196.198 E12.20423
G1 X77.196 Y195.289 E12.23232
G1 X77.04 Y194.346 E12.26093
G1 X76.978 Y193.837 E12.27628
G1 X76.917 Y193.213 E12.29505
G1 X76.883 Y192.618 E12.31289
G1 X76.871 Y192.053 E12.32981
G1 X76.869 Y108.226 E14.83909
G0 F6000 X77.269 Y108.232
G1 F1200 X77.279 Y107.565 E14.85906
G1 X77.308 Y106.933 E14.878
G1 X77.374 Y106.195 E14.90018
G1 X77.429 Y105.741 E14.91387
G1 X77.579 Y104.833 E14.94142
G1 X77.842 Y103.83 E14.97246
G1 X78.056 Y103.151 E14.99377
G1 X78.371 Y102.285 E15.02135
G1 X78.759 Y101.452 E15.04886
G1 X79.062 Y100.883 E15.06816
G1 X79.255 Y100.542 E15.07989
G1 X79.743 Y99.761 E15.10745
G1 X80.178 Y99.173 E15.12935
G1 X80.717 Y98.494 E15.1553
G1 X81.32 Y97.798 E15.18286
G1 X82.08 Y97.071 E15.21435
G1 X82.632 Y96.593 E15.2362
G1 X83.658 Y95.809 E15.27486
G1 X84.14 Y95.485 E15.29224
G1 X84.687 Y95.137 E15.31165
G1 X85.707 Y94.578 E15.34647
G1 X86.142 Y94.37 E15.3609
G1 X86.801 Y94.074 E15.38252
G1 X87.671 Y93.734 E15.41048
G1 X88.391 Y93.499 E15.43316
G1 X88.857 Y93.362 E15.4477
G1 X89.763 Y93.139 E15.47563
G1 X90.511 Y92.989 E15.49846
G1 X91.086 Y92.888 E15.51594
G1 X92.093 Y92.77 E15.54629
G1 X92.857 Y92.718 E15.56921
G1 X93.399 Y92.695 E15.58545
G1 X94.41 Y92.678 E15.61572
G1 X205.713 Y92.678 E18.94747
G1 X206.63 Y92.696 E18.97493
G1 X207.272 Y92.725 E18.99417
G1 X207.949 Y92.772 E19.01448
G1 X208.844 Y92.88 E19.04147
G1 X209.69 Y93.022 E19.06714
G1 X209.991 Y93.08 E19.07632
G1 X210.942 Y93.31 E19.10561
G1 X211.572 Y93.493 E19.12525
G1 X212.179 Y93.684 E19.14429
G1 X213.063 Y94.013 E19.17253
G1 X213.745 Y94.314 E19.19484
G1 X214.264 Y94.562 E19.21206
G1 X215.292 Y95.125 E19.24715
G1 X215.926 Y95.524 E19.26957
G1 X216.233 Y95.728 E19.28061
G1 X217.219 Y96.47 E19.31754
G1 X217.645 Y96.831 E19.33426
G1 X218.117 Y97.251 E19.35317
G1 X218.771 Y97.898 E19.38071
G1 X219.34 Y98.555 E19.40673
G1 X219.779 Y99.103 E19.42775
G1 X220.317 Y99.85 E19.4553
G1 X220.684 Y100.451 E19.47638
G1 X221.062 Y101.12 E19.49938
G1 X221.479 Y101.94 E19.52692
G1 X221.874 Y102.938 E19.55905
G1 X222.091 Y103.595 E19.57976
G1 X222.184 Y103.901 E19.58933
G1 X222.413 Y104.792 E19.61687
G1 X222.576 Y105.804 E19.64756
G1 X222.655 Y106.51 E19.66882
G1 X222.716 Y107.359 E19.6943
G1 X222.729 Y107.946 E19.71188
G1 X222.731 Y191.729 E22.21985
G1 X222.721 Y192.425 E22.24068
G1 X222.694 Y193.049 E22.25938
G1 X222.626 Y193.805 E22.2821
G1 X222.573 Y194.243 E22.29531
G1 X222.423 Y195.152 E22.32289
G1 X222.201 Y196.024 E22.34982
G1 X222.062 Y196.486 E22.36426
G1 X221.876 Y197.054 E22.38215
G1 X221.544 Y197.913 E22.40972
G1 X221.303 Y198.425 E22.42666
G1 X220.964 Y199.07 E22.44847
G1 X220.744 Y199.458 E22.46182
G1 X220.255 Y200.239 E22.48941
G1 X219.847 Y200.792 E22.50998
G1 X219.307 Y201.477 E22.53609
G1 X218.707 Y202.175 E22.56364
G1 X217.924 Y202.926 E22.59612
G1 X217.385 Y203.393 E22.61747
G1 X216.354 Y204.181 E22.65631
G1 X215.824 Y204.537 E22.67542
G1 X215.298 Y204.872 E22.69409
G1 X214.308 Y205.414 E22.72788
G1 X213.535 Y205.779 E22.75346
G1 X213.156 Y205.945 E22.76585
G1 X212.323 Y206.268 E22.79259
G1 X211.626 Y206.496 E22.81455
G1 X211.143 Y206.638 E22.82962
G1 X210.237 Y206.861 E22.85755
G1 X209.489 Y207.011 E22.88038
G1 X208.914 Y207.112 E22.89786
G1 X207.907 Y207.23 E22.92821
G1 X207.143 Y207.282 E22.95113
G1 X206.601 Y207.305 E22.96737
G1 X205.59 Y207.322 E22.99764
G1 X94.296 Y207.323 E26.32912
G1 X93.372 Y207.305 E26.35679
G1 X92.715 Y207.275 E26.37648
G1 X92.034 Y207.228 E26.39691
G1 X91.151 Y207.122 E26.42353
G1 X90.658 Y207.042 E26.43848
G1 X90.007 Y206.921 E26.4583
G1 X89.071 Y206.696 E26.48712
G1 X88.408 Y206.504 E26.50778
G1 X87.824 Y206.32 E26.52611
G1 X86.932 Y205.985 E26.55463
G1 X86.214 Y205.667 E26.57814
G1 X85.692 Y205.416 E26.59548
G1 X84.669 Y204.853 E26.63043
G1 X84.336 Y204.645 E26.64218
G1 X83.775 Y204.277 E26.66227
G1 X82.782 Y203.53 E26.69946
G1 X82.365 Y203.176 E26.71584
G1 X81.876 Y202.741 E26.73543
G1 X81.22 Y202.094 E26.76301
G1 X80.754 Y201.557 E26.78429
G1 X80.311 Y201.011 E26.80534
G1 X79.762 Y200.271 E26.83292
G1 X79.339 Y199.591 E26.85689
G1 X79.055 Y199.094 E26.87403
G1 X78.779 Y198.584 E26.89139
G1 X78.387 Y197.751 E26.91894
G1 X78.124 Y197.055 E26.94122
G1 X77.909 Y196.403 E26.96177
G1 X77.812 Y196.082 E26.97181
G1 X77.584 Y195.19 E26.99937
G1 X77.437 Y194.298 E27.02643
G1 X77.375 Y193.789 E27.04178
G1 X77.316 Y193.179 E27.06012
G1 X77.283 Y192.605 E27.07733
G1 X77.271 Y192.053 E27.09386
G1 X77.269 Y108.232 E29.60297
G0 F6000 X77.669 Y108.238
G1 F1200 X77.679 Y107.571 E29.62294
G1 X77.706 Y106.963 E29.64115
G1 X77.771 Y106.243 E29.66279
G1 X77.826 Y105.789 E29.67648
G1 X77.974 Y104.898 E29.70352
G1 X78.224 Y103.95 E29.73287
G1 X78.438 Y103.271 E29.75418
G1 X78.747 Y102.422 E29.78122
G1 X79.114 Y101.636 E29.80719
G1 X79.41 Y101.08 E29.82604
G1 X79.603 Y100.739 E29.83777
G1 X80.082 Y99.973 E29.86482
G1 X80.491 Y99.421 E29.88538
G1 X81.03 Y98.742 E29.91133
G1 X81.622 Y98.061 E29.93834
G1 X82.342 Y97.373 E29.96815
G1 X82.894 Y96.895 E29.99001
G1 X83.881 Y96.141 E30.02719
G1 X84.363 Y95.817 E30.04458
G1 X84.898 Y95.476 E30.06357
G1 X85.88 Y94.939 E30.09707
G1 X86.315 Y94.731 E30.1115
G1 X86.963 Y94.44 E30.13277
G1 X87.8 Y94.113 E30.15967
G1 X88.504 Y93.883 E30.18184
G1 X88.97 Y93.746 E30.19638
G1 X89.841 Y93.531 E30.22323
G1 X90.589 Y93.381 E30.24607
G1 X91.151 Y93.282 E30.26315
G1 X92.12 Y93.17 E30.29235
G1 X92.884 Y93.118 E30.31527
G1 X93.406 Y93.095 E30.33091
G1 X94.417 Y93.078 E30.36118
G1 X205.708 Y93.078 E33.69258
G1 X206.612 Y93.095 E33.71964
G1 X207.254 Y93.124 E33.73888
G1 X207.918 Y93.171 E33.75881
G1 X208.779 Y93.274 E33.78476
G1 X209.334 Y93.365 E33.8016
G1 X209.915 Y93.473 E33.81929
G1 X210.83 Y93.694 E33.84747
G1 X211.46 Y93.877 E33.8671
G1 X212.056 Y94.065 E33.88581
G1 X212.907 Y94.381 E33.91299
G1 X213.573 Y94.675 E33.93478
G1 X214.092 Y94.923 E33.952
G1 X215.081 Y95.464 E33.98574
G1 X215.446 Y95.691 E33.99861
G1 X216.011 Y96.062 E34.01884
G1 X216.96 Y96.775 E34.05437
G1 X217.386 Y97.136 E34.07109
G1 X217.848 Y97.547 E34.0896
G1 X218.49 Y98.183 E34.11665
G1 X219.035 Y98.813 E34.14158
G1 X219.465 Y99.35 E34.16218
G1 X219.992 Y100.084 E34.18923
G1 X220.335 Y100.647 E34.20896
G1 X220.713 Y101.316 E34.23196
G1 X221.123 Y102.122 E34.25903
G1 X221.495 Y103.066 E34.2894
G1 X221.708 Y103.711 E34.30974
G1 X221.801 Y104.017 E34.31931
G1 X222.025 Y104.892 E34.34635
G1 X222.179 Y105.849 E34.37536
G1 X222.258 Y106.555 E34.39663
G1 X222.316 Y107.372 E34.42114
G1 X222.329 Y107.946 E34.43833
G1 X222.331 Y191.724 E36.94615
G1 X222.321 Y192.42 E36.96699
G1 X222.295 Y193.019 E36.98494
G1 X222.229 Y193.757 E37.00712
G1 X222.176 Y194.195 E37.02032
G1 X222.028 Y195.086 E37.04736
G1 X221.817 Y195.909 E37.07279
G1 X221.678 Y196.371 E37.08723
G1 X221.497 Y196.926 E37.10471
G1 X221.17 Y197.768 E37.13175
G1 X220.946 Y198.245 E37.14752
G1 X220.616 Y198.873 E37.16876
G1 X220.396 Y199.261 E37.18211
G1 X219.916 Y200.026 E37.20914
G1 X219.533 Y200.545 E37.22845
G1 X218.993 Y201.23 E37.25456
G1 X218.403 Y201.913 E37.28158
G1 X217.662 Y202.624 E37.31232
G1 X217.123 Y203.091 E37.33367
G1 X216.131 Y203.849 E37.37104
G1 X215.601 Y204.205 E37.39015
G1 X215.087 Y204.532 E37.40839
G1 X214.134 Y205.054 E37.44091
G1 X213.699 Y205.263 E37.45536
G1 X212.995 Y205.578 E37.47845
G1 X212.194 Y205.89 E37.50418
G1 X211.513 Y206.112 E37.52562
G1 X211.03 Y206.254 E37.54069
G1 X210.159 Y206.469 E37.56754
G1 X209.411 Y206.619 E37.59038
G1 X208.849 Y206.718 E37.60746
G1 X207.88 Y206.83 E37.63666
G1 X207.116 Y206.882 E37.65958
G1 X206.594 Y206.905 E37.67522
G1 X205.583 Y206.922 E37.70549
G1 X94.302 Y206.923 E41.03659
G1 X93.391 Y206.905 E41.06387
G1 X92.414 Y206.856 E41.09315
G1 X92.064 Y206.829 E41.10366
G1 X91.215 Y206.727 E41.12925
G1 X90.722 Y206.647 E41.1442
G1 X90.083 Y206.528 E41.16366
G1 X89.183 Y206.311 E41.19137
G1 X88.52 Y206.119 E41.21204
G1 X87.947 Y205.939 E41.23001
G1 X87.089 Y205.617 E41.25745
G1 X86.387 Y205.307 E41.28042
G1 X85.865 Y205.056 E41.29776
G1 X84.881 Y204.514 E41.33138
G1 X84.548 Y204.306 E41.34314
G1 X83.997 Y203.944 E41.36287
G1 X83.041 Y203.225 E41.39868
G1 X82.624 Y202.871 E41.41505
G1 X82.144 Y202.444 E41.43428
G1 X81.502 Y201.809 E41.46131
G1 X81.064 Y201.305 E41.4813
G1 X80.621 Y200.759 E41.50235
G1 X80.084 Y200.033 E41.52938
G1 X79.686 Y199.393 E41.55194
G1 X79.402 Y198.896 E41.56908
G1 X79.133 Y198.398 E41.58602
G1 X78.749 Y197.581 E41.61304
G1 X78.503 Y196.927 E41.63396
G1 X78.292 Y196.287 E41.65413
G1 X78.195 Y195.966 E41.66417
G1 X77.972 Y195.091 E41.6912
G1 X77.834 Y194.249 E41.71674
G1 X77.772 Y193.74 E41.73209
G1 X77.714 Y193.145 E41.74998
G1 X77.683 Y192.593 E41.76653
G1 X77.671 Y192.053 E41.7827
G1 X77.669 Y108.238 E44.29163
G1 F2700 E39.29163
G0 F6000 X87.204 Y107.727
G0 X88.068 Y107.726
;TYPE:SUPPORT-INTERFACE
G1 F2700 E44.29163
G1 F1200 X88.142 Y107.041 E44.31225
G1 X88.343 Y106.41 E44.33208
G1 X88.673 Y105.809 E44.3526
G1 X89.135 Y105.242 E44.37449
G1 X89.718 Y104.729 E44.39774
G1 X90.385 Y104.299 E44.4215
G1 X91.15 Y103.949 E44.44668
G1 X91.99 Y103.688 E44.47301
G1 X92.861 Y103.531 E44.4995
G1 X93.737 Y103.477 E44.52577
G1 X206.263 Y103.477 E47.89414
G1 X207.138 Y103.531 E47.92038
G1 X208.014 Y103.689 E47.94703
G1 X208.849 Y103.948 E47.9732
G1 X209.614 Y104.299 E47.99839
G1 X210.283 Y104.73 E48.02221
G1 X210.866 Y105.24 E48.0454
G1 X211.324 Y105.805 E48.06717
G1 X211.661 Y106.417 E48.08809
G1 X211.863 Y107.052 E48.10803
G1 X211.931 Y107.702 E48.1276
G1 X211.932 Y192.272 E50.65912
G1 X211.859 Y192.962 E50.67989
G1 X211.659 Y193.586 E50.69951
G1 X211.327 Y194.19 E50.72014
G1 X210.864 Y194.758 E50.74208
G1 X210.283 Y195.271 E50.76528
G1 X209.617 Y195.7 E50.78899
G1 X208.85 Y196.051 E50.81424
G1 X208.01 Y196.312 E50.84057
G1 X207.139 Y196.469 E50.86706
G1 X206.263 Y196.523 E50.89334
G1 X93.745 Y196.524 E54.26146
G1 X92.853 Y196.469 E54.28822
G1 X91.981 Y196.312 E54.31474
G1 X91.159 Y196.057 E54.3405
G1 X90.384 Y195.701 E54.36603
G1 X89.722 Y195.274 E54.38961
G1 X89.133 Y194.758 E54.41305
G1 X88.674 Y194.191 E54.43489
G1 X88.343 Y193.59 E54.45543
G1 X88.136 Y192.94 E54.47585
G1 X88.069 Y192.292 E54.49535
G1 X88.068 Y107.726 E57.02676
G0 F6000 X90.255 Y107.689
G1 F1200 X90.255 Y192.311 E59.55984
G1 X90.299 Y192.728 E59.57239
G1 X90.431 Y193.144 E59.58546
G1 X90.649 Y193.537 E59.59891
G1 X90.939 Y193.895 E59.6127
G1 X91.299 Y194.212 E59.62706
G1 X91.718 Y194.48 E59.64195
G1 X92.182 Y194.694 E59.65724
G1 X92.684 Y194.851 E59.67299
G1 X93.211 Y194.946 E59.68902
G1 X93.744 Y194.979 E59.705
G1 X206.256 Y194.978 E63.07295
G1 X206.789 Y194.946 E63.08894
G1 X207.316 Y194.851 E63.10497
G1 X207.818 Y194.694 E63.12071
G1 X208.282 Y194.48 E63.13601
G1 X208.701 Y194.212 E63.15089
G1 X209.061 Y193.895 E63.16525
G1 X209.351 Y193.537 E63.17904
G1 X209.569 Y193.144 E63.1925
G1 X209.701 Y192.728 E63.20556
G1 X209.745 Y192.311 E63.21811
G1 X209.745 Y107.689 E65.7512
G1 X209.701 Y107.272 E65.76375
G1 X209.569 Y106.856 E65.77681
G1 X209.351 Y106.463 E65.79027
G1 X209.061 Y106.105 E65.80406
G1 X208.701 Y105.788 E65.81842
G1 X208.282 Y105.52 E65.83331
G1 X207.818 Y105.306 E65.8486
G1 X207.316 Y105.149 E65.86435
G1 X206.789 Y105.054 E65.88038
G1 X206.256 Y105.022 E65.89636
