;FLAVOR:Marlin
;TIME:8059
;Filament used: 3.98431m
;Layer height: 0.2
;MINX:106.5
;MINY:89.986
;MINZ:0.2
;MAXX:193.499
;MAXY:210.013
;MAXZ:17
;Generated with Cura_SteamEngine main
M140 S60
M105
M190 S60
M104 S210
M105
M109 S210
M82 ;absolute extrusion mode
M201 X500.00 Y500.00 Z100.00 E5000.00 ;Setup machine max acceleration
M203 X500.00 Y500.00 Z10.00 E50.00 ;Setup machine max feedrate
M204 P500.00 R1000.00 T500.00 ;Setup Print/Retract/Travel acceleration
M205 X8.00 Y8.00 Z0.40 E5.00 ;Setup Jerk
M220 S100 ;Reset Feedrate
M221 S100 ;Reset Flowrate

G28 ;Home
G29 ;Auto bed Level

G92 E0 ;Reset Extruder
G1 Z2.0 F3000 ;Move Z Axis up
G1 X10.1 Y20 Z0.28 F5000.0 ;Move to start position
G1 X10.1 Y200.0 Z0.28 F1500.0 E15 ;Draw the first line
G1 X10.4 Y200.0 Z0.28 F5000.0 ;Move to side a little
G1 X10.4 Y20 Z0.28 F1500.0 E30 ;Draw the second line
G92 E0 ;Reset Extruder
G1 Z2.0 F3000 ;Move Z Axis up

G92 E0
G92 E0
G1 F2700 E-5
;LAYER_COUNT:85
;LAYER:0
M107
G0 F6000 X112.129 Y96.712 Z0.2
G0 X106.871 Y107.148
;TYPE:SKIRT
G1 F2700 E0
G1 F1200 X107.035 Y106.406 E0.02275
G1 X107.321 Y105.256 E0.05822
G1 X107.711 Y104.009 E0.09733
G1 X107.942 Y103.413 E0.11646
G1 X108.218 Y102.747 E0.13804
G1 X108.5 Y102.093 E0.15936
G1 X108.908 Y101.248 E0.18745
G1 X109.16 Y100.804 E0.20274
G1 X109.753 Y99.818 E0.23718
G1 X110.132 Y99.22 E0.25837
G1 X110.82 Y98.254 E0.29387
G1 X111.315 Y97.649 E0.31727
G1 X112.129 Y96.712 E0.35442
G1 X113.014 Y95.804 E0.39238
G1 X113.589 Y95.292 E0.41543
G1 X114.557 Y94.479 E0.45327
G1 X115.609 Y93.698 E0.49249
G1 X116.272 Y93.274 E0.51604
G1 X117.324 Y92.643 E0.55276
G1 X118.542 Y92.012 E0.59383
G1 X119.201 Y91.727 E0.61532
G1 X120.295 Y91.285 E0.65064
G1 X121.566 Y90.86 E0.69076
G1 X122.304 Y90.668 E0.71358
G1 X123.453 Y90.402 E0.74889
G1 X124.787 Y90.179 E0.78937
G1 X125.47 Y90.111 E0.80992
G1 X125.906 Y90.077 E0.82301
G1 X127.004 Y90.01 E0.85594
G1 X127.661 Y89.99 E0.87561
G1 X171.792 Y89.986 E2.19664
G1 X172.655 Y89.997 E2.22247
G1 X173.23 Y90.02 E2.2397
G1 X174.101 Y90.078 E2.26583
G1 X175.104 Y90.169 E2.29598
G1 X176.303 Y90.35 E2.33227
G1 X177.101 Y90.524 E2.35672
G1 X178.245 Y90.81 E2.39202
G1 X179.454 Y91.188 E2.42994
G1 X180.166 Y91.466 E2.45282
G1 X181.328 Y91.958 E2.49059
G1 X182.566 Y92.576 E2.53201
G1 X183.242 Y92.976 E2.55552
G1 X184.206 Y93.579 E2.58956
G1 X185.258 Y94.326 E2.62818
G1 X185.741 Y94.72 E2.64684
G1 X186.272 Y95.174 E2.66775
G1 X186.843 Y95.677 E2.69053
G1 X187.732 Y96.554 E2.72791
G1 X188.12 Y96.99 E2.74538
G1 X188.601 Y97.552 E2.76753
G1 X189.046 Y98.089 E2.7884
G1 X189.75 Y99.039 E2.8238
G1 X190.168 Y99.688 E2.84691
G1 X190.818 Y100.766 E2.88459
G1 X191.403 Y101.874 E2.92209
G1 X191.708 Y102.565 E2.9447
G1 X192.193 Y103.76 E2.98331
G1 X192.508 Y104.644 E3.0114
G1 X192.663 Y105.196 E3.02856
G1 X192.942 Y106.311 E3.06297
G1 X193.098 Y107.003 E3.0842
G1 X193.306 Y108.264 E3.12246
G1 X193.372 Y108.928 E3.14243
G1 X193.426 Y109.645 E3.16396
G1 X193.477 Y110.506 E3.18978
G1 X193.496 Y111.155 E3.20921
G1 X193.499 Y188.46 E5.52327
G1 X193.489 Y189.166 E5.5444
G1 X193.466 Y189.743 E5.56169
G1 X193.406 Y190.641 E5.58863
G1 X193.318 Y191.609 E5.61773
G1 X193.129 Y192.852 E5.65536
G1 X192.965 Y193.594 E5.67811
G1 X192.679 Y194.744 E5.71358
G1 X192.289 Y195.991 E5.75269
G1 X192.061 Y196.578 E5.77154
G1 X191.791 Y197.232 E5.79272
G1 X191.496 Y197.915 E5.81499
G1 X191.088 Y198.759 E5.84306
G1 X190.852 Y199.176 E5.8574
G1 X190.286 Y200.121 E5.89037
G1 X189.879 Y200.765 E5.91318
G1 X189.173 Y201.755 E5.94957
G1 X188.684 Y202.353 E5.9727
G1 X187.861 Y203.3 E6.01026
G1 X186.944 Y204.235 E6.04946
G1 X186.505 Y204.627 E6.06708
G1 X185.971 Y205.083 E6.08809
G1 X185.387 Y205.567 E6.1108
G1 X184.41 Y206.29 E6.14718
G1 X183.74 Y206.719 E6.171
G1 X182.678 Y207.356 E6.20807
G1 X181.479 Y207.979 E6.24851
G1 X180.813 Y208.267 E6.27023
G1 X179.704 Y208.715 E6.30604
G1 X178.434 Y209.14 E6.34613
G1 X177.696 Y209.332 E6.36895
G1 X176.547 Y209.598 E6.40426
G1 X175.213 Y209.821 E6.44474
G1 X174.53 Y209.889 E6.46529
G1 X174.094 Y209.923 E6.47838
G1 X172.996 Y209.99 E6.51131
G1 X172.342 Y210.01 E6.5309
G1 X162.037 Y210.013 E6.83937
G1 X161.337 Y210.002 E6.86032
G1 X160.401 Y209.947 E6.88839
G1 X159.473 Y209.813 E6.91646
G1 X158.559 Y209.6 E6.94455
G1 X157.667 Y209.31 E6.97263
G1 X156.803 Y208.945 E7.0007
G1 X155.974 Y208.508 E7.02875
G1 X155.184 Y208.002 E7.05684
G1 X154.44 Y207.43 E7.08493
G1 X153.748 Y206.798 E7.11298
G1 X153.112 Y206.108 E7.14107
G1 X152.538 Y205.367 E7.16913
G1 X152.028 Y204.579 E7.19723
G1 X151.588 Y203.751 E7.2253
G1 X151.219 Y202.889 E7.25336
G1 X150.853 Y201.729 E7.28977
G1 X150.515 Y200.409 E7.33056
G1 X149.846 Y197.968 E7.40633
G1 X149.108 Y195.548 E7.48206
G1 X148.294 Y193.125 E7.55857
G1 X147.446 Y190.819 E7.63212
G1 X146.501 Y188.46 E7.70819
G1 X145.493 Y186.135 E7.78405
G1 X144.429 Y183.859 E7.85926
G1 X143.309 Y181.629 E7.93395
G1 X142.106 Y179.395 E8.00991
G1 X140.846 Y177.205 E8.08554
G1 X139.538 Y175.074 E8.16039
G1 X138.168 Y172.977 E8.23537
G1 X136.724 Y170.898 E8.31114
G1 X135.236 Y168.881 E8.38617
G1 X133.671 Y166.879 E8.46223
G1 X132.071 Y164.947 E8.53732
G1 X130.429 Y163.076 E8.61184
G1 X128.697 Y161.21 E8.68805
G1 X126.928 Y159.411 E8.76357
G1 X125.14 Y157.692 E8.83782
G1 X123.253 Y155.978 E8.91413
G1 X121.336 Y154.334 E8.98972
G1 X119.399 Y152.764 E9.06436
G1 X117.391 Y151.23 E9.14
G1 X115.339 Y149.75 E9.21574
G1 X113.285 Y148.357 E9.29003
G1 X112.44 Y147.82 E9.32
G1 X111.48 Y147.192 E9.35434
G1 X110.718 Y146.645 E9.38242
G1 X110.006 Y146.035 E9.41048
G1 X109.348 Y145.366 E9.43857
G1 X108.75 Y144.644 E9.46663
G1 X108.215 Y143.874 E9.4947
G1 X107.747 Y143.061 E9.52278
G1 X107.351 Y142.211 E9.55085
G1 X107.029 Y141.33 E9.57893
G1 X106.782 Y140.425 E9.60701
G1 X106.614 Y139.502 E9.63509
G1 X106.515 Y138.33 E9.6703
G1 X106.5 Y137.667 E9.69015
G1 X106.502 Y111.481 E10.47401
G1 X106.519 Y110.612 E10.50002
G1 X106.546 Y110.035 E10.51731
G1 X106.619 Y109.06 E10.54658
G1 X106.682 Y108.392 E10.56667
G1 X106.871 Y107.148 E10.60433
G1 F2700 E5.60433
G0 F6000 X106.9 Y111.696
G1 F2700 E10.60433
G1 F1200 X106.919 Y110.62 E10.63655
G1 X106.945 Y110.064 E10.65321
G1 X107.017 Y109.098 E10.6822
G1 X107.08 Y108.43 E10.70229
G1 X107.262 Y107.231 E10.73859
G1 X107.423 Y106.503 E10.76091
G1 X107.709 Y105.353 E10.79638
G1 X108.085 Y104.151 E10.83408
G1 X108.312 Y103.565 E10.85289
G1 X108.585 Y102.905 E10.87427
G1 X108.867 Y102.251 E10.89559
G1 X109.268 Y101.422 E10.92316
G1 X109.503 Y101.009 E10.93738
G1 X109.946 Y100.268 E10.96323
G1 X110.47 Y99.435 E10.99269
G1 X111.133 Y98.504 E11.0269
G1 X111.617 Y97.911 E11.04981
G1 X112.431 Y96.974 E11.08697
G1 X113.284 Y96.1 E11.12352
G1 X113.847 Y95.598 E11.1461
G1 X114.815 Y94.785 E11.18394
G1 X115.828 Y94.032 E11.22173
G1 X116.478 Y93.617 E11.24481
G1 X117.53 Y92.986 E11.28153
G1 X118.703 Y92.378 E11.32108
G1 X119.351 Y92.098 E11.34221
G1 X120.445 Y91.656 E11.37753
G1 X121.669 Y91.246 E11.41617
G1 X122.394 Y91.058 E11.43859
G1 X123.543 Y90.792 E11.4739
G1 X124.829 Y90.577 E11.51292
G1 X125.501 Y90.51 E11.53314
G1 X126.127 Y90.463 E11.55193
G1 X127.028 Y90.409 E11.57895
G1 X127.661 Y90.39 E11.59791
G1 X171.792 Y90.386 E12.91893
G1 X172.649 Y90.397 E12.94459
G1 X173.203 Y90.419 E12.96118
G1 X174.074 Y90.477 E12.98731
G1 X175.066 Y90.567 E13.01713
G1 X176.222 Y90.741 E13.05212
G1 X177.004 Y90.912 E13.07608
G1 X178.148 Y91.198 E13.11138
G1 X179.313 Y91.562 E13.14792
G1 X180.01 Y91.834 E13.17032
G1 X181.172 Y92.326 E13.20809
G1 X182.365 Y92.922 E13.24801
G1 X183.03 Y93.315 E13.27113
G1 X183.994 Y93.918 E13.30517
G1 X185.007 Y94.638 E13.34237
G1 X185.482 Y95.025 E13.36071
G1 X186.008 Y95.474 E13.38141
G1 X186.579 Y95.977 E13.40419
G1 X187.435 Y96.822 E13.4402
G1 X187.817 Y97.25 E13.45737
G1 X188.293 Y97.807 E13.4793
G1 X188.738 Y98.344 E13.50018
G1 X189.417 Y99.26 E13.53431
G1 X189.826 Y99.895 E13.55692
G1 X190.476 Y100.973 E13.5946
G1 X191.039 Y102.04 E13.63071
G1 X191.337 Y102.716 E13.65283
G1 X191.822 Y103.911 E13.69143
G1 X192.131 Y104.778 E13.71898
G1 X192.275 Y105.294 E13.73502
G1 X192.552 Y106.399 E13.76912
G1 X192.708 Y107.091 E13.79036
G1 X192.908 Y108.306 E13.82722
G1 X192.973 Y108.959 E13.84686
G1 X193.013 Y109.473 E13.86229
G1 X193.077 Y110.529 E13.89396
G1 X193.096 Y111.155 E13.91271
G1 X193.099 Y188.454 E16.22658
G1 X193.089 Y189.16 E16.24772
G1 X193.066 Y189.717 E16.26441
G1 X192.983 Y190.905 E16.30006
G1 X192.92 Y191.572 E16.32011
G1 X192.738 Y192.769 E16.35635
G1 X192.577 Y193.497 E16.37867
G1 X192.291 Y194.647 E16.41415
G1 X191.915 Y195.849 E16.45185
G1 X191.691 Y196.427 E16.4704
G1 X191.424 Y197.073 E16.49133
G1 X191.129 Y197.756 E16.5136
G1 X190.508 Y198.972 E16.55447
G1 X189.948 Y199.907 E16.58709
G1 X189.541 Y200.551 E16.6099
G1 X188.86 Y201.506 E16.64501
G1 X188.382 Y202.09 E16.6676
G1 X187.559 Y203.037 E16.70516
G1 X186.675 Y203.939 E16.74296
G1 X186.245 Y204.324 E16.76024
G1 X185.852 Y204.661 E16.77573
G1 X185.132 Y205.259 E16.80375
G1 X184.191 Y205.956 E16.83881
G1 X183.534 Y206.376 E16.86215
G1 X182.472 Y207.013 E16.89922
G1 X181.317 Y207.613 E16.93818
G1 X180.663 Y207.896 E16.95951
G1 X179.554 Y208.344 E16.99531
G1 X178.331 Y208.754 E17.03392
G1 X177.606 Y208.942 E17.05634
G1 X176.457 Y209.208 E17.09165
G1 X175.171 Y209.423 E17.13068
G1 X174.499 Y209.49 E17.15089
G1 X173.873 Y209.537 E17.16968
G1 X172.972 Y209.591 E17.1967
G1 X172.342 Y209.61 E17.21557
G1 X162.043 Y209.613 E17.52386
G1 X161.343 Y209.602 E17.54482
G1 X160.424 Y209.547 E17.57238
G1 X159.514 Y209.413 E17.59991
G1 X158.618 Y209.201 E17.62747
G1 X157.744 Y208.911 E17.65504
G1 X156.898 Y208.547 E17.68261
G1 X156.087 Y208.111 E17.71017
G1 X155.318 Y207.606 E17.73771
G1 X154.594 Y207.036 E17.76529
G1 X153.923 Y206.406 E17.79284
G1 X153.31 Y205.72 E17.82038
G1 X152.758 Y204.983 E17.84795
G1 X152.272 Y204.201 E17.87551
G1 X151.856 Y203.38 E17.90306
G1 X151.512 Y202.525 E17.93064
G1 X151.241 Y201.63 E17.95864
G1 X150.918 Y200.369 E17.9976
G1 X150.219 Y197.818 E18.07678
G1 X149.488 Y195.419 E18.15185
G1 X148.684 Y193.028 E18.22736
G1 X147.817 Y190.669 E18.30259
G1 X146.869 Y188.302 E18.37892
G1 X145.858 Y185.972 E18.45495
G1 X144.791 Y183.689 E18.53038
G1 X143.664 Y181.445 E18.60555
G1 X142.446 Y179.185 E18.6824
G1 X141.2 Y177.017 E18.75725
G1 X139.881 Y174.868 E18.83273
G1 X138.493 Y172.744 E18.90868
G1 X137.053 Y170.671 E18.98424
G1 X135.544 Y168.625 E19.06034
G1 X133.993 Y166.64 E19.13575
G1 X132.38 Y164.694 E19.21141
G1 X130.704 Y162.784 E19.28747
G1 X128.993 Y160.941 E19.36275
G1 X127.225 Y159.143 E19.43823
G1 X125.403 Y157.391 E19.5139
G1 X123.516 Y155.677 E19.59021
G1 X121.585 Y154.02 E19.66637
G1 X119.648 Y152.45 E19.74101
G1 X117.622 Y150.902 E19.81733
G1 X115.591 Y149.439 E19.89226
G1 X113.493 Y148.015 E19.96816
G1 X112.654 Y147.482 E19.99792
G1 X111.699 Y146.857 E20.03208
G1 X110.952 Y146.32 E20.05962
G1 X110.254 Y145.719 E20.08719
G1 X109.611 Y145.061 E20.11473
G1 X109.027 Y144.349 E20.1423
G1 X108.508 Y143.589 E20.16985
G1 X108.056 Y142.786 E20.19743
G1 X107.676 Y141.948 E20.22497
G1 X107.37 Y141.08 E20.25252
G1 X107.14 Y140.188 E20.2801
G1 X106.989 Y139.28 E20.30765
G1 X106.915 Y138.318 E20.33653
G1 X106.9 Y137.667 E20.35603
G1 X106.9 Y111.696 E21.13344
G0 F6000 X107.3 Y111.696
G1 F1200 X107.319 Y110.627 E21.16545
G1 X107.343 Y110.092 E21.18148
G1 X107.396 Y109.358 E21.20351
G1 X107.478 Y108.467 E21.23029
G1 X107.654 Y107.314 E21.26521
G1 X107.812 Y106.599 E21.28713
G1 X108.098 Y105.449 E21.3226
G1 X108.459 Y104.293 E21.35885
G1 X108.682 Y103.717 E21.37734
G1 X108.887 Y103.219 E21.39346
G1 X109.235 Y102.409 E21.41985
G1 X109.846 Y101.214 E21.46003
G1 X110.289 Y100.473 E21.48587
G1 X110.808 Y99.649 E21.51502
G1 X111.445 Y98.753 E21.54793
G1 X111.919 Y98.174 E21.57033
G1 X112.733 Y97.237 E21.60748
G1 X113.554 Y96.395 E21.64268
G1 X114.104 Y95.904 E21.66475
G1 X115.072 Y95.091 E21.70259
G1 X116.047 Y94.367 E21.73895
G1 X116.683 Y93.96 E21.76155
G1 X117.735 Y93.329 E21.79827
G1 X118.865 Y92.744 E21.83636
G1 X119.501 Y92.469 E21.8571
G1 X120.595 Y92.027 E21.89242
G1 X121.773 Y91.632 E21.92961
G1 X122.484 Y91.448 E21.9516
G1 X123.633 Y91.182 E21.9869
G1 X124.87 Y90.975 E22.02444
G1 X125.532 Y90.909 E22.04436
G1 X126.151 Y90.862 E22.06294
G1 X127.052 Y90.808 E22.08996
G1 X127.661 Y90.79 E22.1082
G1 X171.792 Y90.786 E23.42922
G1 X172.643 Y90.797 E23.4547
G1 X173.177 Y90.819 E23.4707
G1 X174.332 Y90.899 E23.50535
G1 X175.029 Y90.965 E23.52631
G1 X176.141 Y91.133 E23.55997
G1 X176.907 Y91.301 E23.58345
G1 X178.051 Y91.587 E23.61875
G1 X179.172 Y91.937 E23.6539
G1 X179.854 Y92.202 E23.6758
G1 X181.016 Y92.694 E23.71358
G1 X182.164 Y93.268 E23.752
G1 X182.818 Y93.654 E23.77473
G1 X183.782 Y94.257 E23.80877
G1 X184.757 Y94.95 E23.84457
G1 X185.223 Y95.329 E23.86255
G1 X185.613 Y95.661 E23.87789
G1 X186.314 Y96.277 E23.90582
G1 X187.138 Y97.09 E23.94047
G1 X187.513 Y97.51 E23.95732
G1 X187.874 Y97.931 E23.97393
G1 X188.43 Y98.6 E23.99996
G1 X189.083 Y99.48 E24.03277
G1 X189.483 Y100.101 E24.05488
G1 X190.133 Y101.179 E24.09256
G1 X190.675 Y102.206 E24.12732
G1 X190.966 Y102.866 E24.14891
G1 X191.451 Y104.061 E24.18752
G1 X191.753 Y104.912 E24.21455
G1 X191.888 Y105.392 E24.22947
G1 X192.099 Y106.225 E24.2552
G1 X192.317 Y107.179 E24.28449
G1 X192.51 Y108.348 E24.31996
G1 X192.574 Y108.99 E24.33927
G1 X192.627 Y109.692 E24.36034
G1 X192.678 Y110.553 E24.38616
G1 X192.696 Y111.155 E24.40419
G1 X192.699 Y188.448 E26.71789
G1 X192.689 Y189.154 E26.73902
G1 X192.667 Y189.69 E26.75508
G1 X192.585 Y190.867 E26.7904
G1 X192.522 Y191.534 E26.81045
G1 X192.346 Y192.686 E26.84534
G1 X192.188 Y193.401 E26.86726
G1 X191.902 Y194.551 E26.90273
G1 X191.541 Y195.707 E26.93898
G1 X191.321 Y196.275 E26.95722
G1 X191.057 Y196.914 E26.97791
G1 X190.762 Y197.597 E27.00018
G1 X190.165 Y198.767 E27.0395
G1 X189.754 Y199.458 E27.06357
G1 X189.202 Y200.337 E27.09464
G1 X188.548 Y201.256 E27.1284
G1 X188.08 Y201.828 E27.15053
G1 X187.257 Y202.775 E27.18808
G1 X186.407 Y203.643 E27.22445
G1 X185.985 Y204.02 E27.24139
G1 X185.592 Y204.357 E27.25688
G1 X184.877 Y204.951 E27.28471
G1 X183.971 Y205.621 E27.31844
G1 X183.329 Y206.033 E27.34127
G1 X182.267 Y206.67 E27.37835
G1 X181.155 Y207.247 E27.41585
G1 X180.514 Y207.525 E27.43676
G1 X179.405 Y207.973 E27.47256
G1 X178.227 Y208.368 E27.50976
G1 X177.516 Y208.552 E27.53174
G1 X176.367 Y208.818 E27.56704
G1 X175.13 Y209.025 E27.60459
G1 X174.468 Y209.091 E27.6245
G1 X173.849 Y209.138 E27.64308
G1 X172.948 Y209.192 E27.6701
G1 X172.342 Y209.21 E27.68825
G1 X162.05 Y209.213 E27.99633
G1 X161.35 Y209.202 E28.01729
G1 X160.448 Y209.148 E28.04434
G1 X159.555 Y209.014 E28.07137
G1 X158.677 Y208.802 E28.09841
G1 X157.822 Y208.513 E28.12542
G1 X156.995 Y208.149 E28.15247
G1 X156.204 Y207.714 E28.17949
G1 X155.454 Y207.211 E28.20653
G1 X154.752 Y206.643 E28.23356
G1 X154.102 Y206.015 E28.26061
G1 X153.511 Y205.332 E28.28765
G1 X152.983 Y204.6 E28.31466
G1 X152.521 Y203.824 E28.3417
G1 X152.13 Y203.01 E28.36873
G1 X151.812 Y202.164 E28.39578
G1 X151.628 Y201.531 E28.41552
G1 X151.293 Y200.22 E28.45602
G1 X150.614 Y197.743 E28.5329
G1 X149.86 Y195.27 E28.6103
G1 X149.066 Y192.911 E28.6848
G1 X148.176 Y190.488 E28.76207
G1 X147.249 Y188.173 E28.83672
G1 X146.216 Y185.793 E28.91438
G1 X145.154 Y183.519 E28.98951
G1 X144.009 Y181.241 E29.06583
G1 X142.826 Y179.044 E29.14052
G1 X141.529 Y176.789 E29.21839
G1 X140.213 Y174.646 E29.29367
G1 X138.824 Y172.519 E29.36971
G1 X137.376 Y170.434 E29.4457
G1 X135.879 Y168.404 E29.5212
G1 X134.3 Y166.384 E29.59795
G1 X132.673 Y164.421 E29.67427
G1 X131.015 Y162.532 E29.74951
G1 X129.289 Y160.671 E29.82549
G1 X127.505 Y158.857 E29.90165
G1 X125.648 Y157.072 E29.97875
G1 X123.782 Y155.377 E30.05421
G1 X121.852 Y153.722 E30.13032
G1 X119.898 Y152.137 E30.20563
G1 X117.876 Y150.593 E30.28179
G1 X115.804 Y149.099 E30.35825
G1 X113.727 Y147.69 E30.43338
G1 X112.869 Y147.145 E30.46381
G1 X111.919 Y146.523 E30.4978
G1 X111.186 Y145.995 E30.52484
G1 X110.503 Y145.404 E30.55188
G1 X109.875 Y144.755 E30.57891
G1 X109.306 Y144.053 E30.60596
G1 X108.802 Y143.304 E30.63299
G1 X108.367 Y142.513 E30.66001
