;FLAVOR:Marlin
;TIME:24542
;Filament used: 15.1454m
;Layer height: 0.2
;MINX:40.822
;MINY:114.444
;MINZ:0.2
;MAXX:259.489
;MAXY:185.373
;MAXZ:39.6
;Generated with Cura_SteamEngine main
M140 S60
M105
M190 S60
M104 S210
M105
M109 S210
M82 ;absolute extrusion mode
M201 X500.00 Y500.00 Z100.00 E5000.00 ;Setup machine max acceleration
M203 X500.00 Y500.00 Z10.00 E50.00 ;Setup machine max feedrate
M204 P500.00 R1000.00 T500.00 ;Setup Print/Retract/Travel acceleration
M205 X8.00 Y8.00 Z0.40 E5.00 ;Setup Jerk
M220 S100 ;Reset Feedrate
M221 S100 ;Reset Flowrate

G28 ;Home
G29 ;Auto bed Level

G92 E0 ;Reset Extruder
G1 Z2.0 F3000 ;Move Z Axis up
G1 X10.1 Y20 Z0.28 F5000.0 ;Move to start position
G1 X10.1 Y200.0 Z0.28 F1500.0 E15 ;Draw the first line
G1 X10.4 Y200.0 Z0.28 F5000.0 ;Move to side a little
G1 X10.4 Y20 Z0.28 F1500.0 E30 ;Draw the second line
G92 E0 ;Reset Extruder
G1 Z2.0 F3000 ;Move Z Axis up

G92 E0
G92 E0
G1 F2700 E-5
;LAYER_COUNT:198
;LAYER:0
M107
G0 F6000 X47.919 Y115.551 Z0.2
G0 X40.822 Y126.363
;TYPE:SKIRT
G1 F2700 E0
G1 F1200 X40.831 Y125.686 E0.02027
G1 X40.883 Y124.749 E0.04836
G1 X41.015 Y123.821 E0.07642
G1 X41.226 Y122.907 E0.1045
G1 X41.514 Y122.014 E0.13258
G1 X41.876 Y121.149 E0.16065
G1 X42.312 Y120.319 E0.18872
G1 X42.816 Y119.528 E0.21679
G1 X43.386 Y118.783 E0.24487
G1 X44.017 Y118.089 E0.27295
G1 X44.705 Y117.452 E0.30102
G1 X45.444 Y116.875 E0.32908
G1 X46.231 Y116.364 E0.35717
G1 X47.058 Y115.921 E0.38525
G1 X47.919 Y115.551 E0.41331
G1 X48.809 Y115.255 E0.44138
G1 X49.721 Y115.036 E0.46946
G1 X50.648 Y114.896 E0.49752
G1 X51.508 Y114.837 E0.52333
G1 X52.008 Y114.822 E0.5383
G1 X54.71 Y114.706 E0.61926
G1 X55.414 Y114.664 E0.64037
G1 X55.868 Y114.647 E0.65397
G1 X57.129 Y114.626 E0.69172
G1 X131.618 Y114.624 E2.92148
G1 X223.847 Y114.64 E5.68228
G1 X226.462 Y114.603 E5.76056
G1 X228.399 Y114.528 E5.81859
G1 X229.448 Y114.476 E5.85003
G1 X231.053 Y114.444 E5.89808
G1 X247.949 Y114.445 E6.40385
G1 X248.647 Y114.455 E6.42474
G1 X249.583 Y114.509 E6.45281
G1 X250.511 Y114.641 E6.48087
G1 X251.425 Y114.853 E6.50895
G1 X252.317 Y115.142 E6.53702
G1 X253.182 Y115.505 E6.5651
G1 X254.012 Y115.941 E6.59317
G1 X254.803 Y116.446 E6.62126
G1 X255.547 Y117.017 E6.64933
G1 X256.24 Y117.649 E6.67741
G1 X256.877 Y118.337 E6.70547
G1 X257.452 Y119.078 E6.73355
G1 X257.963 Y119.864 E6.76161
G1 X258.405 Y120.692 E6.78971
G1 X258.774 Y121.554 E6.81778
G1 X259.069 Y122.444 E6.84584
G1 X259.287 Y123.356 E6.87391
G1 X259.427 Y124.284 E6.90201
G1 X259.489 Y125.494 E6.93827
G1 X259.478 Y126.19 E6.95911
G1 X259.443 Y127.017 E6.98389
G1 X259.366 Y129.734 E7.06525
G1 X259.357 Y131.054 E7.10477
G1 X259.373 Y173.645 E8.37969
G1 X259.362 Y174.517 E8.4058
G1 X259.309 Y175.453 E8.43386
G1 X259.176 Y176.382 E8.46195
G1 X258.965 Y177.296 E8.49003
G1 X258.677 Y178.188 E8.51809
G1 X258.313 Y179.053 E8.54618
G1 X257.878 Y179.883 E8.57423
G1 X257.373 Y180.674 E8.60232
G1 X256.802 Y181.418 E8.6304
G1 X256.171 Y182.111 E8.65845
G1 X255.482 Y182.748 E8.68654
G1 X254.742 Y183.324 E8.71461
G1 X253.956 Y183.835 E8.74268
G1 X253.128 Y184.277 E8.77077
G1 X252.267 Y184.647 E8.79882
G1 X251.376 Y184.942 E8.82692
G1 X250.464 Y185.16 E8.85499
G1 X249.537 Y185.3 E8.88305
G1 X248.659 Y185.359 E8.90939
G1 X247.99 Y185.373 E8.92942
G1 X206.255 Y185.364 E10.17872
G1 X205.266 Y185.346 E10.20833
G1 X204.362 Y185.307 E10.23542
G1 X203.338 Y185.249 E10.26612
G1 X200.829 Y185.177 E10.34126
G1 X199.466 Y185.168 E10.38206
G1 X144.831 Y185.169 E12.01751
G1 X93.152 Y185.156 E13.56447
G1 X92.166 Y185.138 E13.59399
G1 X91.091 Y185.091 E13.6262
G1 X90.236 Y185.042 E13.65184
G1 X87.739 Y184.97 E13.72662
G1 X86.357 Y184.96 E13.76799
G1 X52.588 Y184.959 E14.77883
G1 X51.89 Y184.949 E14.79973
G1 X50.954 Y184.895 E14.82779
G1 X50.026 Y184.763 E14.85585
G1 X49.112 Y184.551 E14.88394
G1 X48.22 Y184.262 E14.912
G1 X47.355 Y183.899 E14.94009
G1 X46.525 Y183.463 E14.96815
G1 X45.734 Y182.958 E14.99624
G1 X44.99 Y182.387 E15.02432
G1 X44.297 Y181.755 E15.05239
G1 X43.66 Y181.067 E15.08046
G1 X43.085 Y180.326 E15.10853
G1 X42.574 Y179.54 E15.1366
G1 X42.132 Y178.712 E15.16469
G1 X41.763 Y177.85 E15.19276
G1 X41.468 Y176.96 E15.22083
G1 X41.25 Y176.048 E15.2489
G1 X41.11 Y175.12 E15.27699
G1 X41.052 Y174.248 E15.30315
G1 X41.039 Y173.618 E15.32201
G1 X41.039 Y168.462 E15.47635
G1 X41.002 Y165.846 E15.55467
G1 X40.929 Y163.954 E15.61135
G1 X40.871 Y162.784 E15.64641
G1 X40.84 Y161.285 E15.69129
G1 X40.822 Y139.814 E16.33401
G1 X40.822 Y126.363 E16.73665
G0 F6000 X41.222 Y126.368
G1 F1200 X41.231 Y125.691 E16.75692
G1 X41.283 Y124.772 E16.78447
G1 X41.415 Y123.861 E16.81203
G1 X41.625 Y122.964 E16.8396
G1 X41.913 Y122.09 E16.86715
G1 X42.275 Y121.243 E16.89472
G1 X42.709 Y120.432 E16.92226
G1 X43.212 Y119.66 E16.94984
G1 X43.78 Y118.936 E16.97739
G1 X44.409 Y118.263 E17.00496
G1 X45.093 Y117.648 E17.03249
G1 X45.829 Y117.094 E17.06007
G1 X46.61 Y116.607 E17.08762
G1 X47.43 Y116.188 E17.11519
G1 X48.283 Y115.843 E17.14273
G1 X49.164 Y115.573 E17.17031
G1 X50.064 Y115.38 E17.19786
G1 X50.977 Y115.266 E17.22541
G1 X51.52 Y115.237 E17.24168
G1 X52.038 Y115.222 E17.2572
G1 X54.75 Y115.105 E17.33845
G1 X55.438 Y115.064 E17.35908
G1 X55.875 Y115.047 E17.37218
G1 X57.129 Y115.026 E17.40972
G1 X131.618 Y115.024 E19.63948
G1 X223.853 Y115.04 E22.40045
G1 X226.482 Y115.003 E22.47916
G1 X228.433 Y114.927 E22.53761
G1 X229.801 Y114.865 E22.5786
G1 X231.053 Y114.844 E22.61608
G1 X247.943 Y114.845 E23.12167
G1 X248.641 Y114.855 E23.14256
G1 X249.56 Y114.908 E23.17012
G1 X250.471 Y115.041 E23.19768
G1 X251.367 Y115.252 E23.22523
G1 X252.241 Y115.54 E23.25278
G1 X253.088 Y115.903 E23.28036
G1 X253.899 Y116.338 E23.30791
G1 X254.669 Y116.842 E23.33546
G1 X255.393 Y117.411 E23.36302
G1 X256.065 Y118.041 E23.3906
G1 X256.68 Y118.726 E23.41815
G1 X257.233 Y119.462 E23.44571
G1 X257.72 Y120.243 E23.47326
G1 X258.137 Y121.064 E23.50083
G1 X258.482 Y121.918 E23.5284
G1 X258.751 Y122.798 E23.55594
G1 X258.943 Y123.699 E23.58352
G1 X259.056 Y124.612 E23.61106
G1 X259.089 Y125.493 E23.63745
G1 X259.079 Y126.173 E23.6578
G1 X259.041 Y127.082 E23.68504
G1 X258.966 Y129.72 E23.76404
G1 X258.957 Y131.051 E23.80388
G1 X258.973 Y173.645 E25.07889
G1 X258.962 Y174.511 E25.10482
G1 X258.909 Y175.431 E25.1324
G1 X258.777 Y176.342 E25.15996
G1 X258.566 Y177.238 E25.18751
G1 X258.278 Y178.112 E25.21506
G1 X257.915 Y178.958 E25.24262
G1 X257.48 Y179.77 E25.27019
G1 X256.977 Y180.541 E25.29775
G1 X256.408 Y181.265 E25.32531
G1 X255.779 Y181.937 E25.35287
G1 X255.094 Y182.552 E25.38042
G1 X254.358 Y183.105 E25.40798
G1 X253.577 Y183.592 E25.43553
G1 X252.756 Y184.01 E25.46311
G1 X251.902 Y184.355 E25.49068
G1 X251.022 Y184.624 E25.51822
G1 X250.122 Y184.816 E25.54577
G1 X249.208 Y184.929 E25.57334
G1 X248.649 Y184.959 E25.5901
G1 X247.99 Y184.973 E25.60983
G1 X206.26 Y184.964 E26.85898
G1 X205.283 Y184.946 E26.88823
G1 X204.234 Y184.9 E26.91966
G1 X203.373 Y184.851 E26.94548
G1 X200.797 Y184.777 E27.02262
G1 X199.469 Y184.768 E27.06237
G1 X144.832 Y184.769 E28.69788
G1 X93.158 Y184.756 E30.2447
G1 X92.183 Y184.738 E30.27389
G1 X91.114 Y184.692 E30.30592
G1 X90.271 Y184.644 E30.33119
G1 X87.705 Y184.57 E30.40804
G1 X86.36 Y184.56 E30.4483
G1 X52.746 Y184.56 E31.4545
G1 X51.896 Y184.549 E31.47995
G1 X50.977 Y184.496 E31.5075
G1 X50.066 Y184.363 E31.53506
G1 X49.17 Y184.152 E31.56262
G1 X48.296 Y183.864 E31.59016
G1 X47.449 Y183.501 E31.61775
G1 X46.638 Y183.066 E31.6453
G1 X45.868 Y182.562 E31.67285
G1 X45.144 Y181.993 E31.70041
G1 X44.472 Y181.363 E31.72798
G1 X43.857 Y180.678 E31.75554
G1 X43.304 Y179.942 E31.7831
G1 X42.817 Y179.161 E31.81065
G1 X42.4 Y178.34 E31.83821
G1 X42.055 Y177.486 E31.86578
G1 X41.786 Y176.606 E31.89333
G1 X41.594 Y175.705 E31.9209
G1 X41.481 Y174.792 E31.94844
G1 X41.452 Y174.237 E31.96508
G1 X41.439 Y173.618 E31.98361
G1 X41.439 Y168.456 E32.13813
G1 X41.402 Y165.826 E32.21687
G1 X41.326 Y163.88 E32.27516
G1 X41.26 Y162.437 E32.3184
G1 X41.24 Y161.285 E32.35289
G1 X41.222 Y139.814 E32.99561
G1 X41.222 Y126.368 E33.3981
G0 F6000 X41.622 Y126.373
G1 F1200 X41.631 Y125.696 E33.41837
G1 X41.683 Y124.795 E33.44539
G1 X41.814 Y123.901 E33.47243
G1 X42.024 Y123.023 E33.49946
G1 X42.311 Y122.167 E33.52648
G1 X42.673 Y121.339 E33.55353
G1 X43.106 Y120.547 E33.58055
G1 X43.608 Y119.796 E33.60759
G1 X44.174 Y119.092 E33.63463
G1 X44.8 Y118.441 E33.66167
G1 X45.481 Y117.849 E33.68868
G1 X46.212 Y117.318 E33.71572
G1 X46.988 Y116.855 E33.74277
G1 X47.801 Y116.462 E33.7698
G1 X48.645 Y116.142 E33.79682
G1 X49.515 Y115.898 E33.82387
G1 X50.403 Y115.732 E33.85091
G1 X51.532 Y115.636 E33.88483
G1 X52.066 Y115.62 E33.90082
G1 X54.789 Y115.503 E33.98241
G1 X55.461 Y115.463 E34.00256
G1 X55.882 Y115.447 E34.01517
G1 X57.129 Y115.426 E34.0525
G1 X131.618 Y115.424 E36.28227
G1 X223.859 Y115.44 E39.04342
G1 X226.504 Y115.403 E39.1226
G1 X228.395 Y115.329 E39.17925
G1 X229.487 Y115.275 E39.21198
G1 X231.053 Y115.244 E39.25887
G1 X247.937 Y115.245 E39.76427
G1 X248.635 Y115.255 E39.78517
G1 X249.537 Y115.308 E39.81222
G1 X250.43 Y115.44 E39.83924
G1 X251.308 Y115.651 E39.86627
G1 X252.164 Y115.939 E39.8933
G1 X252.991 Y116.301 E39.92033
G1 X253.783 Y116.736 E39.94738
G1 X254.534 Y117.238 E39.97442
G1 X255.237 Y117.805 E40.00145
G1 X255.887 Y118.432 E40.02849
G1 X256.479 Y119.114 E40.05552
G1 X257.009 Y119.845 E40.08255
G1 X257.471 Y120.621 E40.10958
G1 X257.864 Y121.434 E40.13661
G1 X258.182 Y122.279 E40.16364
G1 X258.425 Y123.149 E40.19068
G1 X258.59 Y124.037 E40.21771
G1 X258.676 Y124.936 E40.24475
G1 X258.689 Y125.491 E40.26137
G1 X258.679 Y126.157 E40.2813
G1 X258.641 Y127.058 E40.3083
G1 X258.566 Y129.705 E40.38757
G1 X258.557 Y131.049 E40.4278
G1 X258.573 Y173.645 E41.70287
G1 X258.562 Y174.506 E41.72865
G1 X258.509 Y175.407 E41.75566
G1 X258.377 Y176.301 E41.78272
G1 X258.167 Y177.179 E41.80974
G1 X257.879 Y178.035 E41.83677
G1 X257.517 Y178.862 E41.8638
G1 X257.083 Y179.655 E41.89086
G1 X256.581 Y180.405 E41.91787
G1 X256.014 Y181.108 E41.94491
G1 X255.388 Y181.759 E41.97194
G1 X254.706 Y182.351 E41.99898
G1 X253.974 Y182.881 E42.02603
G1 X253.199 Y183.344 E42.05305
G1 X252.386 Y183.736 E42.08007
G1 X251.541 Y184.055 E42.10711
G1 X250.671 Y184.298 E42.13415
G1 X249.783 Y184.464 E42.16119
G1 X248.638 Y184.559 E42.19558
G1 X247.99 Y184.573 E42.21498
G1 X206.266 Y184.564 E43.46395
G1 X205.3 Y184.547 E43.49287
G1 X204.256 Y184.501 E43.52416
G1 X203.37 Y184.451 E43.55072
G1 X200.811 Y184.377 E43.62735
G1 X199.472 Y184.368 E43.66744
G1 X144.832 Y184.369 E45.30304
G1 X93.163 Y184.356 E46.8497
G1 X92.2 Y184.339 E46.87853
G1 X91.286 Y184.3 E46.90592
G1 X90.304 Y184.244 E46.93536
G1 X87.721 Y184.17 E47.01271
G1 X86.363 Y184.16 E47.05337
G1 X52.746 Y184.16 E48.05966
G1 X51.902 Y184.149 E48.08493
G1 X51 Y184.096 E48.11197
G1 X50.107 Y183.964 E48.139
G1 X49.229 Y183.753 E48.16603
G1 X48.373 Y183.465 E48.19306
G1 X47.546 Y183.103 E48.22008
G1 X46.754 Y182.668 E48.24713
G1 X46.003 Y182.166 E48.27417
G1 X45.3 Y181.599 E48.30121
G1 X44.65 Y180.972 E48.32824
G1 X44.058 Y180.29 E48.35528
G1 X43.528 Y179.559 E48.3823
G1 X43.066 Y178.783 E48.40934
G1 X42.673 Y177.97 E48.43637
G1 X42.355 Y177.125 E48.4634
G1 X42.112 Y176.255 E48.49043
G1 X41.947 Y175.367 E48.51747
G1 X41.852 Y174.226 E48.55174
G1 X41.839 Y173.618 E48.56995
G1 X41.839 Y168.45 E48.72465
G1 X41.802 Y165.804 E48.80386
G1 X41.724 Y163.804 E48.86377
G1 X41.66 Y162.43 E48.90495
G1 X41.64 Y161.285 E48.93923
G1 X41.622 Y139.814 E49.58194
G1 X41.622 Y126.373 E49.98429
G1 F2700 E44.98429
G0 F6000 X51.484 Y125.488
G0 X56.309 Y125.476
G0 X56.309 Y125.826
G0 X56.106 Y125.942
G1 F2700 E49.98429
G1 F1200 X56.309 Y125.826 E49.99129
G1 X131.616 Y125.824 E52.24554
G1 X229.887 Y125.841 E55.18719
G1 X230.234 Y125.644 E55.19914
G1 X248.316 Y125.644 E55.74041
G1 X248.155 Y126.065 E55.7539
G1 X248.173 Y174.173 E57.19397
G1 X205.776 Y174.165 E58.46309
G1 X205.479 Y173.996 E58.47332
G1 X247.812 Y174.013 E59.74052
G1 X247.931 Y173.974 E59.74426
G1 X248.012 Y173.813 E59.74966
G1 X248.031 Y144.48 E60.62772
G1 X248.027 Y126.172 E61.17575
G1 X247.988 Y126.053 E61.1795
G1 X247.827 Y125.972 E61.1849
G1 X56.106 Y125.942 E66.92389
G0 F6000 X53.98 Y127.98
;TYPE:SUPPORT-INTERFACE
G1 F1200 X53.931 Y160.069 E67.88445
G1 X53.945 Y172.055 E68.24324
G1 X141.39 Y172.071 E70.86083
G1 X168.934 Y172.088 E71.68534
G1 X246.066 Y172.067 E73.99422
G1 X246.062 Y127.938 E75.31518
G1 X211.429 Y127.928 E76.35189
G1 X58.13 Y127.953 E80.94076
G1 X57.689 Y127.98 E80.95398
G1 X53.98 Y127.98 E81.06501
G0 F6000 X52.34 Y126.341
G1 F1200 X247.627 Y126.372 E86.91075
G1 X247.631 Y144.48 E87.4528
G1 X247.612 Y173.613 E88.32487
G1 X163.065 Y173.579 E90.85571
G1 X52.423 Y173.576 E94.16768
G1 X52.417 Y145.829 E94.99827
G1 X52.34 Y126.341 E95.58163
G0 F6000 X52.543 Y127.214
G1 F1200 X53.779 Y128.45 E95.63395
G0 F6000 X53.777 Y129.504
G1 F1200 X52.558 Y130.723 E95.68556
G1 X52.557 Y130.621
G1 X53.774 Y131.839 E95.7371
G0 F6000 X53.771 Y132.904
G1 F1200 X52.571 Y134.104 E95.7879
G1 X52.57 Y134.029
G1 X53.769 Y135.227 E95.83863
G0 F6000 X53.766 Y136.303
G1 F1200 X52.584 Y137.485 E95.88867
G1 X52.583 Y137.436
G1 X53.764 Y138.616 E95.93864
G0 F6000 X53.762 Y139.702
G1 F1200 X52.598 Y140.866 E95.98792
G1 X52.597 Y140.844
G1 X53.759 Y142.006 E96.03711
G0 F6000 X53.756 Y143.102
G1 F1200 X52.611 Y144.246 E96.08556
G1 X52.61 Y144.251
G1 X53.753 Y145.394 E96.13395
G0 F6000 X53.751 Y146.501
G1 F1200 X52.617 Y147.634 E96.18193
G1 X52.617 Y147.652
G1 X53.748 Y148.783 E96.22981
G0 F6000 X53.746 Y149.9
G1 F1200 X52.618 Y151.028 E96.27756
G1 X52.617 Y151.047
G1 X53.743 Y152.172 E96.32521
G0 F6000 X53.74 Y153.3
G1 F1200 X52.619 Y154.421 E96.37267
G1 X52.618 Y154.442
G1 X53.737 Y155.561 E96.42004
G0 F6000 X53.735 Y156.699
G1 F1200 X52.62 Y157.814 E96.46724
G1 X52.619 Y157.836
G1 X53.733 Y158.95 E96.5144
G0 F6000 X53.73 Y160.098
G1 F1200 X52.62 Y161.208 E96.56139
G1 X52.62 Y161.231
G1 X53.733 Y162.345 E96.60853
G0 F6000 X53.734 Y163.488
G1 F1200 X52.621 Y164.601 E96.65564
G1 X52.62 Y164.626
G1 X53.737 Y165.743 E96.70293
G0 F6000 X53.738 Y166.878
G1 F1200 X52.622 Y167.995 E96.75019
G1 X52.621 Y168.021
G1 X53.741 Y169.141 E96.79761
G0 F6000 X53.742 Y170.269
G1 F1200 X52.622 Y171.388 E96.845
G1 X52.622 Y171.416
G1 X54.581 Y173.375 E96.92793
G0 F6000 X54.029 Y173.376
G1 F1200 X55.15 Y172.254 E96.97541
G0 F6000 X56.855 Y172.255
G1 F1200 X57.975 Y173.375 E97.02282
G0 F6000 X57.423 Y173.376
G1 F1200 X58.544 Y172.255 E97.07028
G0 F6000 X60.25 Y172.256
G1 F1200 X61.369 Y173.375 E97.11765
G0 F6000 X60.817 Y173.376
G1 F1200 X61.937 Y172.256 E97.16506
G0 F6000 X63.645 Y172.256
G1 F1200 X64.763 Y173.375 E97.21241
G0 F6000 X64.211 Y173.376
G1 F1200 X65.331 Y172.256 E97.25982
G0 F6000 X67.04 Y172.257
G1 F1200 X68.158 Y173.375 E97.30715
G0 F6000 X67.605 Y173.376
G1 F1200 X68.725 Y172.256 E97.35456
G0 F6000 X70.434 Y172.258
G1 F1200 X71.552 Y173.375 E97.40187
G0 F6000 X70.999 Y173.376
G1 F1200 X72.118 Y172.257 E97.44924
G0 F6000 X73.829 Y172.258
G1 F1200 X74.946 Y173.375 E97.49653
G0 F6000 X74.393 Y173.376
G1 F1200 X75.511 Y172.258 E97.54386
G0 F6000 X77.223 Y172.258
G1 F1200 X78.34 Y173.375 E97.59114
G0 F6000 X77.788 Y173.376
G1 F1200 X78.905 Y172.258 E97.63845
G0 F6000 X80.618 Y172.259
G1 F1200 X81.735 Y173.376 E97.68574
G0 F6000 X81.181 Y173.376
G1 F1200 X82.298 Y172.259 E97.73302
G0 F6000 X84.013 Y172.26
G1 F1200 X85.129 Y173.376 E97.78027
G0 F6000 X84.575 Y173.376
G1 F1200 X85.692 Y172.26 E97.82753
G0 F6000 X87.408 Y172.261
G1 F1200 X88.523 Y173.376 E97.87473
G0 F6000 X87.969 Y173.376
G1 F1200 X89.086 Y172.26 E97.922
G0 F6000 X90.803 Y172.261
G1 F1200 X91.917 Y173.376 E97.96918
G0 F6000 X91.363 Y173.376
G1 F1200 X92.479 Y172.261 E98.0164
G0 F6000 X94.197 Y172.262
G1 F1200 X95.311 Y173.376 E98.06356
G0 F6000 X94.757 Y173.376
G1 F1200 X95.873 Y172.261 E98.11078
G0 F6000 X97.592 Y172.263
G1 F1200 X98.705 Y173.376 E98.1579
G0 F6000 X98.152 Y173.376
G1 F1200 X99.266 Y172.262 E98.20506
G0 F6000 X100.986 Y172.263
G1 F1200 X102.099 Y173.376 E98.25218
G0 F6000 X101.546 Y173.376
G1 F1200 X102.659 Y172.263 E98.29929
