;FLAVOR:Marlin
;TIME:30822
;Filament used: 46.0569m
;Layer height: 0.28
;MINX:5.2
;MINY:84.7
;MINZ:0.28
;MAXX:294.8
;MAXY:215.3
;MAXZ:78.12
;Generated with Cura_SteamEngine 5.2.1
M140 S60
M105
M190 S60
M104 S210
M105
M109 S210
M82 ;absolute extrusion mode
M201 X500.00 Y500.00 Z100.00 E5000.00 ;Setup machine max acceleration
M203 X500.00 Y500.00 Z10.00 E50.00 ;Setup machine max feedrate
M204 P500.00 R1000.00 T500.00 ;Setup Print/Retract/Travel acceleration
M205 X8.00 Y8.00 Z0.40 E5.00 ;Setup Jerk
M220 S100 ;Reset Feedrate
M221 S100 ;Reset Flowrate

G28 ;Home
G29 ;Auto bed Level

G92 E0 ;Reset Extruder
G1 Z2.0 F3000 ;Move Z Axis up
G1 X10.1 Y20 Z0.28 F5000.0 ;Move to start position
G1 X10.1 Y200.0 Z0.28 F1500.0 E15 ;Draw the first line
G1 X10.4 Y200.0 Z0.28 F5000.0 ;Move to side a little
G1 X10.4 Y20 Z0.28 F1500.0 E30 ;Draw the second line
G92 E0 ;Reset Extruder
G1 Z2.0 F3000 ;Move Z Axis up

G92 E0
G92 E0
G1 F2700 E-7
;LAYER_COUNT:279
;LAYER:0
M107
G0 F6000 X14.103 Y84.913 Z0.28
;TYPE:SKIRT
G1 F2700 E0
G1 F1200 X15.03 Y84.772 E0.04366
G1 X15.901 Y84.713 E0.08431
G1 X16.53 Y84.7 E0.11361
G1 X62.837 Y84.701 E2.26985
G1 X63.538 Y84.711 E2.3025
G1 X64.474 Y84.764 E2.34615
G1 X65.392 Y84.895 E2.38933
G1 X66.575 Y85.115 E2.44536
G1 X67.252 Y85.249 E2.4775
G1 X69.713 Y85.668 E2.59374
G1 X72.234 Y86.024 E2.71229
G1 X74.711 Y86.303 E2.82836
G1 X77.254 Y86.516 E2.94719
G1 X79.736 Y86.653 E3.06294
G1 X82.265 Y86.722 E3.18074
G1 X84.789 Y86.718 E3.29827
G1 X87.304 Y86.644 E3.41543
G1 X89.803 Y86.499 E3.53199
G1 X92.308 Y86.283 E3.64907
G1 X94.824 Y85.994 E3.76699
G1 X97.252 Y85.645 E3.88121
G1 X101.466 Y84.884 E4.08061
G1 X102.396 Y84.757 E4.12431
G1 X103.113 Y84.713 E4.15776
G1 X103.742 Y84.7 E4.18706
G1 X196.038 Y84.701 E8.48475
G1 X196.739 Y84.711 E8.51739
G1 X197.675 Y84.764 E8.56105
G1 X198.593 Y84.895 E8.60423
G1 X199.776 Y85.115 E8.66026
G1 X200.453 Y85.249 E8.69239
G1 X202.914 Y85.668 E8.80863
G1 X205.435 Y86.024 E8.92719
G1 X207.912 Y86.303 E9.04326
G1 X210.455 Y86.516 E9.16208
G1 X212.937 Y86.653 E9.27783
G1 X215.466 Y86.722 E9.39564
G1 X217.99 Y86.718 E9.51316
G1 X220.505 Y86.644 E9.63032
G1 X223.004 Y86.499 E9.74688
G1 X225.509 Y86.283 E9.86396
G1 X228.025 Y85.994 E9.98189
G1 X230.453 Y85.645 E10.09611
G1 X234.667 Y84.884 E10.2955
G1 X235.597 Y84.757 E10.33921
G1 X236.313 Y84.713 E10.37261
G1 X236.942 Y84.7 E10.40191
G1 X283.235 Y84.701 E12.5575
G1 X283.933 Y84.71 E12.59001
G1 X284.869 Y84.762 E12.63366
G1 X285.798 Y84.894 E12.67735
G1 X286.712 Y85.104 E12.72102
G1 X287.605 Y85.391 E12.7647
G1 X288.47 Y85.754 E12.80838
G1 X289.301 Y86.188 E12.85203
G1 X290.092 Y86.692 E12.8957
G1 X290.837 Y87.262 E12.93938
G1 X291.531 Y87.893 E12.98306
G1 X292.168 Y88.58 E13.02668
G1 X292.745 Y89.32 E13.07038
G1 X293.257 Y90.106 E13.11406
G1 X293.7 Y90.933 E13.15774
G1 X294.071 Y91.794 E13.2014
G1 X294.367 Y92.684 E13.24507
G1 X294.586 Y93.596 E13.28875
G1 X294.727 Y94.523 E13.33241
G1 X294.787 Y95.401 E13.37339
G1 X294.8 Y96.03 E13.40268
G1 X294.799 Y203.7 E18.41625
G1 X294.79 Y204.427 E18.4501
G1 X294.739 Y205.364 E18.4938
G1 X294.607 Y206.292 E18.53744
G1 X294.398 Y207.206 E18.5811
G1 X294.111 Y208.099 E18.62478
G1 X293.749 Y208.965 E18.66849
G1 X293.315 Y209.796 E18.71214
G1 X292.811 Y210.587 E18.75581
G1 X292.242 Y211.332 E18.79946
G1 X291.611 Y212.027 E18.84317
G1 X290.924 Y212.665 E18.88683
G1 X290.185 Y213.242 E18.93049
G1 X289.399 Y213.754 E18.97417
G1 X288.573 Y214.197 E19.01781
G1 X287.711 Y214.569 E19.06153
G1 X286.822 Y214.865 E19.10516
G1 X285.91 Y215.085 E19.14884
G1 X284.983 Y215.226 E19.1925
G1 X284.099 Y215.287 E19.23377
G1 X283.47 Y215.3 E19.26306
G1 X16.765 Y215.299 E31.68196
G1 X16.067 Y215.29 E31.71447
G1 X15.131 Y215.238 E31.75812
G1 X14.202 Y215.106 E31.80181
G1 X13.288 Y214.896 E31.84548
G1 X12.395 Y214.609 E31.88916
G1 X11.53 Y214.246 E31.93284
G1 X10.699 Y213.812 E31.97649
G1 X9.908 Y213.308 E32.02016
G1 X9.163 Y212.738 E32.06384
G1 X8.469 Y212.107 E32.10752
G1 X7.832 Y211.42 E32.15115
G1 X7.255 Y210.68 E32.19484
G1 X6.743 Y209.894 E32.23852
G1 X6.3 Y209.067 E32.2822
G1 X5.929 Y208.206 E32.32586
G1 X5.633 Y207.316 E32.36953
G1 X5.414 Y206.404 E32.41321
G1 X5.273 Y205.477 E32.45687
G1 X5.213 Y204.588 E32.49836
G1 X5.2 Y203.958 E32.5277
G1 X5.201 Y96.225 E37.5442
G1 X5.21 Y95.56 E37.57517
G1 X5.263 Y94.624 E37.61882
G1 X5.395 Y93.695 E37.66251
G1 X5.606 Y92.781 E37.70619
G1 X5.894 Y91.889 E37.74984
G1 X6.257 Y91.024 E37.79352
G1 X6.692 Y90.193 E37.8372
G1 X7.196 Y89.403 E37.88083
G1 X7.766 Y88.658 E37.92451
G1 X8.398 Y87.964 E37.96822
G1 X9.086 Y87.327 E38.01188
G1 X9.826 Y86.751 E38.05554
G1 X10.612 Y86.239 E38.09922
G1 X11.439 Y85.797 E38.14289
G1 X12.301 Y85.427 E38.18657
G1 X13.191 Y85.131 E38.23024
G1 X14.103 Y84.913 E38.2739
G0 F6000 X14.445 Y85.257
G1 F1200 X15.359 Y85.143 E38.31679
G1 X15.912 Y85.113 E38.34258
G1 X16.53 Y85.1 E38.37136
G1 X62.68 Y85.1 E40.5203
G1 X63.532 Y85.111 E40.55998
G1 X64.451 Y85.164 E40.60284
G1 X65.319 Y85.289 E40.64367
G1 X67.178 Y85.642 E40.73178
G1 X69.662 Y86.065 E40.84911
G1 X72.17 Y86.419 E40.96705
G1 X74.704 Y86.704 E41.08579
G1 X77.197 Y86.913 E41.20228
G1 X79.738 Y87.053 E41.32078
G1 X82.255 Y87.122 E41.43803
G1 X84.802 Y87.118 E41.55663
G1 X87.304 Y87.045 E41.67318
G1 X89.824 Y86.898 E41.79072
G1 X92.355 Y86.68 E41.90901
G1 X94.891 Y86.389 E42.02787
G1 X97.328 Y86.039 E42.14252
G1 X101.538 Y85.278 E42.34173
G1 X102.45 Y85.154 E42.38459
G1 X103.124 Y85.113 E42.41603
G1 X103.742 Y85.1 E42.44481
G1 X196.032 Y85.101 E46.74222
G1 X196.733 Y85.111 E46.77486
G1 X197.652 Y85.164 E46.81773
G1 X198.52 Y85.289 E46.85856
G1 X200.379 Y85.642 E46.94667
G1 X202.863 Y86.065 E47.064
G1 X205.371 Y86.419 E47.18194
G1 X207.905 Y86.704 E47.30068
G1 X210.398 Y86.913 E47.41717
G1 X212.939 Y87.053 E47.53567
G1 X215.456 Y87.122 E47.65292
G1 X218.003 Y87.118 E47.77152
G1 X220.505 Y87.045 E47.88807
G1 X223.025 Y86.898 E48.00561
G1 X225.556 Y86.68 E48.1239
G1 X228.092 Y86.389 E48.24276
G1 X230.529 Y86.039 E48.3574
G1 X234.739 Y85.278 E48.55662
G1 X235.651 Y85.154 E48.59947
G1 X236.324 Y85.113 E48.63087
G1 X236.942 Y85.1 E48.65965
G1 X283.23 Y85.101 E50.81502
G1 X283.928 Y85.11 E50.84752
G1 X284.847 Y85.162 E50.89038
G1 X285.758 Y85.293 E50.93324
G1 X286.654 Y85.503 E50.97609
G1 X287.529 Y85.79 E51.01897
G1 X288.376 Y86.152 E51.06186
G1 X289.188 Y86.586 E51.10473
G1 X289.959 Y87.088 E51.14757
G1 X290.684 Y87.656 E51.19046
G1 X291.357 Y88.285 E51.23335
G1 X291.972 Y88.969 E51.27618
G1 X292.526 Y89.704 E51.31904
G1 X293.014 Y90.485 E51.36192
G1 X293.433 Y91.305 E51.4048
G1 X293.779 Y92.158 E51.44766
G1 X294.049 Y93.038 E51.49053
G1 X294.242 Y93.939 E51.53343
G1 X294.356 Y94.852 E51.57628
G1 X294.387 Y95.412 E51.60239
G1 X294.4 Y96.03 E51.63117
G1 X294.399 Y203.695 E56.64451
G1 X294.39 Y204.422 E56.67836
G1 X294.339 Y205.341 E56.72122
G1 X294.208 Y206.253 E56.76412
G1 X293.998 Y207.149 E56.80698
G1 X293.712 Y208.024 E56.84984
G1 X293.351 Y208.871 E56.89271
G1 X292.917 Y209.683 E56.93558
G1 X292.415 Y210.455 E56.97846
G1 X291.847 Y211.18 E57.02135
G1 X291.219 Y211.853 E57.06421
G1 X290.535 Y212.469 E57.10707
G1 X289.8 Y213.023 E57.14993
G1 X289.02 Y213.512 E57.1928
G1 X288.2 Y213.931 E57.23568
G1 X287.347 Y214.277 E57.27854
G1 X286.467 Y214.548 E57.32142
G1 X285.567 Y214.741 E57.36428
G1 X284.653 Y214.856 E57.40717
G1 X284.088 Y214.887 E57.43352
G1 X283.47 Y214.9 E57.4623
G1 X16.77 Y214.899 E69.88097
G1 X16.072 Y214.89 E69.91348
G1 X15.153 Y214.838 E69.95634
G1 X14.242 Y214.707 E69.99919
G1 X13.346 Y214.497 E70.04205
G1 X12.471 Y214.21 E70.08493
G1 X11.624 Y213.848 E70.12782
G1 X10.812 Y213.414 E70.17069
G1 X10.041 Y212.912 E70.21353
G1 X9.316 Y212.344 E70.25641
G1 X8.643 Y211.715 E70.29931
G1 X8.028 Y211.031 E70.34214
G1 X7.474 Y210.296 E70.385
G1 X6.986 Y209.515 E70.42788
G1 X6.567 Y208.695 E70.47076
G1 X6.221 Y207.842 E70.51362
G1 X5.951 Y206.962 E70.55648
G1 X5.758 Y206.061 E70.59939
G1 X5.644 Y205.148 E70.64223
G1 X5.613 Y204.577 E70.66886
G1 X5.6 Y203.958 E70.69769
G1 X5.601 Y96.231 E75.71391
G1 X5.61 Y95.566 E75.74488
G1 X5.662 Y94.646 E75.78778
G1 X5.794 Y93.735 E75.83065
G1 X6.005 Y92.839 E75.87351
G1 X6.292 Y91.964 E75.91639
G1 X6.655 Y91.118 E75.95926
G1 X7.089 Y90.306 E76.00213
G1 X7.592 Y89.535 E76.04499
G1 X8.161 Y88.811 E76.08787
G1 X8.789 Y88.139 E76.1307
G1 X9.474 Y87.523 E76.1736
G1 X10.21 Y86.97 E76.21646
G1 X10.991 Y86.482 E76.25935
G1 X11.811 Y86.064 E76.3022
G1 X12.665 Y85.719 E76.34509
G1 X13.545 Y85.449 E76.38795
G1 X14.445 Y85.257 E76.4308
G0 F6000 X14.784 Y85.609
G1 F1200 X15.923 Y85.513 E76.48403
G1 X16.53 Y85.5 E76.5123
G1 X62.68 Y85.5 E78.66124
G1 X63.526 Y85.511 E78.70063
G1 X64.428 Y85.564 E78.74271
G1 X65.246 Y85.682 E78.78119
G1 X67.105 Y86.035 E78.8693
G1 X69.61 Y86.461 E78.98762
G1 X72.14 Y86.819 E79.1066
G1 X74.659 Y87.102 E79.22463
G1 X77.177 Y87.313 E79.34229
G1 X79.706 Y87.453 E79.46023
G1 X82.245 Y87.522 E79.5785
G1 X84.779 Y87.518 E79.6965
G1 X87.338 Y87.443 E79.81571
G1 X89.884 Y87.295 E79.93446
G1 X92.395 Y87.079 E80.05181
G1 X94.926 Y86.788 E80.17044
G1 X97.372 Y86.436 E80.28551
G1 X101.609 Y85.671 E80.48599
G1 X102.504 Y85.55 E80.52805
G1 X103.135 Y85.513 E80.55748
G1 X103.742 Y85.5 E80.58575
G1 X196.026 Y85.501 E84.88288
G1 X196.727 Y85.511 E84.91553
G1 X197.629 Y85.564 E84.9576
G1 X198.447 Y85.682 E84.99608
G1 X200.306 Y86.035 E85.08419
G1 X202.811 Y86.461 E85.20251
G1 X205.341 Y86.819 E85.32149
G1 X207.86 Y87.102 E85.43953
G1 X210.378 Y87.313 E85.55718
G1 X212.907 Y87.453 E85.67513
G1 X215.446 Y87.522 E85.7934
G1 X217.98 Y87.518 E85.91139
G1 X220.539 Y87.443 E86.0306
G1 X223.085 Y87.295 E86.14935
G1 X225.596 Y87.079 E86.26671
G1 X228.127 Y86.788 E86.38534
G1 X230.573 Y86.436 E86.50041
G1 X234.81 Y85.671 E86.70089
G1 X235.705 Y85.55 E86.74294
G1 X236.335 Y85.513 E86.77233
G1 X236.942 Y85.5 E86.8006
G1 X283.225 Y85.501 E88.95573
G1 X283.923 Y85.51 E88.98823
G1 X284.824 Y85.561 E89.03026
G1 X285.718 Y85.693 E89.07234
G1 X286.596 Y85.902 E89.11436
G1 X287.453 Y86.189 E89.15644
G1 X288.28 Y86.55 E89.19846
G1 X289.073 Y86.983 E89.24053
G1 X289.824 Y87.484 E89.28257
G1 X290.528 Y88.05 E89.32463
G1 X291.179 Y88.676 E89.36669
G1 X291.772 Y89.357 E89.40873
G1 X292.302 Y90.088 E89.45078
G1 X292.766 Y90.863 E89.49284
G1 X293.16 Y91.676 E89.53491
G1 X293.48 Y92.52 E89.57694
G1 X293.724 Y93.39 E89.61901
G1 X293.89 Y94.278 E89.66108
G1 X293.987 Y95.423 E89.71458
G1 X294 Y96.03 E89.74285
G1 X293.999 Y203.69 E94.75595
G1 X293.99 Y204.417 E94.78981
G1 X293.939 Y205.319 E94.83188
G1 X293.808 Y206.213 E94.87395
G1 X293.599 Y207.091 E94.91598
G1 X293.313 Y207.948 E94.95804
G1 X292.952 Y208.776 E95.00011
G1 X292.52 Y209.568 E95.04211
G1 X292.019 Y210.32 E95.08419
G1 X291.453 Y211.024 E95.12625
G1 X290.828 Y211.675 E95.16827
G1 X290.147 Y212.269 E95.21035
G1 X289.416 Y212.8 E95.25242
G1 X288.642 Y213.264 E95.29444
G1 X287.829 Y213.658 E95.33651
G1 X286.985 Y213.978 E95.37854
G1 X286.115 Y214.223 E95.42063
G1 X285.228 Y214.389 E95.46265
G1 X284.077 Y214.487 E95.51644
G1 X283.47 Y214.5 E95.54471
G1 X16.775 Y214.499 E107.96314
G1 X16.077 Y214.49 E107.99565
G1 X15.176 Y214.439 E108.03767
G1 X14.282 Y214.307 E108.07975
G1 X13.404 Y214.098 E108.12178
G1 X12.547 Y213.811 E108.16386
G1 X11.72 Y213.45 E108.20588
G1 X10.927 Y213.017 E108.24795
G1 X10.176 Y212.516 E108.28998
G1 X9.472 Y211.95 E108.33205
G1 X8.821 Y211.324 E108.3741
G1 X8.228 Y210.643 E108.41615
G1 X7.698 Y209.912 E108.45819
G1 X7.234 Y209.137 E108.50025
G1 X6.84 Y208.324 E108.54232
G1 X6.52 Y207.48 E108.58435
G1 X6.276 Y206.61 E108.62643
G1 X6.11 Y205.722 E108.66849
G1 X6.013 Y204.567 E108.72246
G1 X6 Y203.958 E108.75083
G1 X6.001 Y96.236 E113.76681
G1 X6.01 Y95.571 E113.79778
G1 X6.062 Y94.669 E113.83985
G1 X6.194 Y93.776 E113.88189
G1 X6.404 Y92.898 E113.92392
G1 X6.691 Y92.041 E113.96601
G1 X7.053 Y91.214 E114.00804
G1 X7.486 Y90.422 E114.05007
G1 X7.988 Y89.671 E114.09214
G1 X8.555 Y88.967 E114.13423
G1 X9.181 Y88.317 E114.17625
G1 X9.862 Y87.724 E114.21829
G1 X10.594 Y87.194 E114.26038
G1 X11.369 Y86.731 E114.30241
G1 X12.182 Y86.338 E114.34446
G1 X13.027 Y86.018 E114.38653
G1 X13.896 Y85.775 E114.42855
G1 X14.784 Y85.609 E114.47062
G1 F2700 E107.47062
;MESH:cards.stl
G0 F6000 X16.62 Y95.035
G0 X16.8 Y203.7
;TYPE:WALL-INNER
G1 F2700 E114.47062
G1 F1200 X283.2 Y203.7 E126.87532
G1 X283.2 Y123.845 E130.5937
G1 X283.2 Y96.3 E131.87631
G1 X237.212 Y96.3 E134.0177
G1 X237.212 Y96.9 E134.04564
G1 X237.149 Y97.113 E134.05599
G1 X237.075 Y97.967 E134.0959
G1 X236.942 Y98.95 E134.14209
G1 X236.752 Y99.969 E134.19036
G1 X236.514 Y100.975 E134.23849
G1 X236.228 Y101.955 E134.28603
G1 X235.899 Y102.903 E134.33275
G1 X235.514 Y103.865 E134.381
G1 X235.086 Y104.793 E134.42859
G1 X234.612 Y105.696 E134.47608
G1 X234.096 Y106.575 E134.52354
G1 X233.537 Y107.426 E134.57095
G1 X232.946 Y108.24 E134.61779
G1 X232.295 Y109.044 E134.66596
G1 X231.635 Y109.785 E134.71217
G1 X230.896 Y110.532 E134.7611
G1 X230.146 Y111.219 E134.80846
G1 X229.36 Y111.874 E134.8561
G1 X228.543 Y112.484 E134.90357
G1 X227.699 Y113.055 E134.95102
G1 X226.85 Y113.57 E134.99726
G1 X225.928 Y114.068 E135.04606
G1 X225.005 Y114.507 E135.09365
G1 X224.066 Y114.9 E135.14105
G1 X223.122 Y115.242 E135.1878
G1 X222.129 Y115.545 E135.23614
G1 X221.146 Y115.794 E135.28336
G1 X220.139 Y115.994 E135.33117
G1 X219.129 Y116.145 E135.37872
G1 X218.115 Y116.245 E135.42616
G1 X217.124 Y116.294 E135.47237
G1 X216.074 Y116.294 E135.52126
G1 X215.055 Y116.243 E135.56877
G1 X214.039 Y116.141 E135.61631
G1 X213.032 Y115.989 E135.66373
G1 X212.053 Y115.793 E135.71023
G1 X211.042 Y115.537 E135.75879
G1 X210.066 Y115.236 E135.80635
G1 X209.123 Y114.894 E135.85306
G1 X208.166 Y114.495 E135.90134
G1 X207.245 Y114.054 E135.94888
G1 X206.349 Y113.568 E135.99635
G1 X205.477 Y113.039 E136.04384
G1 X204.631 Y112.467 E136.09139
G1 X203.816 Y111.853 E136.13891
G1 X203.033 Y111.201 E136.18635
G1 X202.302 Y110.532 E136.23249
G1 X201.579 Y109.798 E136.28047
G1 X200.884 Y109.021 E136.32901
G1 X200.254 Y108.238 E136.3758
G1 X199.647 Y107.403 E136.42387
G1 X199.088 Y106.549 E136.4714
G1 X198.572 Y105.669 E136.5189
G1 X198.1 Y104.765 E136.56639
G1 X197.686 Y103.863 E136.6126
G1 X197.289 Y102.876 E136.66214
G1 X196.961 Y101.924 E136.70903
G1 X196.685 Y100.974 E136.75509
G1 X196.439 Y99.939 E136.80463
G1 X196.262 Y98.976 E136.85022
G1 X196.122 Y97.938 E136.89899
G1 X196.052 Y97.114 E136.9375
G1 X196.017 Y97.09 E136.93947
G1 X195.987 Y96.899 E136.94848
G1 X195.987 Y96.3 E136.97637
G1 X104.012 Y96.3 E141.25911
G1 X104.012 Y96.9 E141.28705
G1 X103.949 Y97.113 E141.29739
G1 X103.875 Y97.967 E141.33731
G1 X103.742 Y98.95 E141.3835
G1 X103.552 Y99.969 E141.43176
G1 X103.314 Y100.975 E141.4799
G1 X103.028 Y101.955 E141.52744
G1 X102.699 Y102.903 E141.57416
G1 X102.314 Y103.865 E141.62241
G1 X101.886 Y104.793 E141.67
G1 X101.412 Y105.696 E141.71748
G1 X100.896 Y106.575 E141.76495
G1 X100.337 Y107.426 E141.81236
G1 X99.736 Y108.252 E141.85992
G1 X99.095 Y109.044 E141.90737
G1 X98.435 Y109.785 E141.95357
G1 X97.696 Y110.532 E142.0025
G1 X96.946 Y111.219 E142.04986
G1 X96.177 Y111.861 E142.09651
G1 X95.343 Y112.484 E142.14498
G1 X94.499 Y113.055 E142.19243
G1 X93.624 Y113.584 E142.24004
G1 X92.728 Y114.068 E142.28746
G1 X91.805 Y114.507 E142.33505
G1 X90.866 Y114.9 E142.38245
G1 X89.904 Y115.247 E142.43007
G1 X88.929 Y115.545 E142.47754
G1 X87.946 Y115.794 E142.52476
G1 X86.939 Y115.994 E142.57257
G1 X85.929 Y116.145 E142.62012
G1 X84.915 Y116.245 E142.66757
G1 X83.924 Y116.294 E142.71377
G1 X82.874 Y116.294 E142.76266
G1 X81.855 Y116.243 E142.81017
G1 X80.839 Y116.141 E142.85772
G1 X79.832 Y115.989 E142.90514
G1 X78.853 Y115.793 E142.95163
G1 X77.842 Y115.537 E143.00019
G1 X76.866 Y115.236 E143.04775
G1 X75.923 Y114.894 E143.09446
G1 X74.966 Y114.495 E143.14274
G1 X74.045 Y114.054 E143.19029
G1 X73.149 Y113.568 E143.23775
G1 X72.277 Y113.039 E143.28524
G1 X71.431 Y112.467 E143.33279
G1 X70.616 Y111.853 E143.38031
G1 X69.833 Y111.201 E143.42775
G1 X69.102 Y110.532 E143.47389
G1 X68.367 Y109.784 E143.52272
G1 X67.684 Y109.021 E143.57041
G1 X67.046 Y108.226 E143.61787
