;FLAVOR:Marlin
;TIME:4636
;Filament used: 5.70048m
;Layer height: 0.28
;MINX:105
;MINY:107
;MINZ:0.28
;MAXX:195
;MAXY:193
;MAXZ:29.12
;Generated with Cura_SteamEngine 5.2.1
M140 S60
M105
M190 S60
M104 S210
M105
M109 S210
M82 ;absolute extrusion mode
M201 X500.00 Y500.00 Z100.00 E5000.00 ;Setup machine max acceleration
M203 X500.00 Y500.00 Z10.00 E50.00 ;Setup machine max feedrate
M204 P500.00 R1000.00 T500.00 ;Setup Print/Retract/Travel acceleration
M205 X8.00 Y8.00 Z0.40 E5.00 ;Setup Jerk
M220 S100 ;Reset Feedrate
M221 S100 ;Reset Flowrate

G28 ;Home
G29 ;Auto bed Level

G92 E0 ;Reset Extruder
G1 Z2.0 F3000 ;Move Z Axis up
G1 X10.1 Y20 Z0.28 F5000.0 ;Move to start position
G1 X10.1 Y200.0 Z0.28 F1500.0 E15 ;Draw the first line
G1 X10.4 Y200.0 Z0.28 F5000.0 ;Move to side a little
G1 X10.4 Y20 Z0.28 F1500.0 E30 ;Draw the second line
G92 E0 ;Reset Extruder
G1 Z2.0 F3000 ;Move Z Axis up

G92 E0
G92 E0
G1 F2700 E-7
;LAYER_COUNT:104
;LAYER:0
M107
G0 F6000 X108.198 Y110.264 Z0.28
;TYPE:SKIRT
G1 F2700 E0
G1 F1200 X108.886 Y109.627 E0.04366
G1 X109.626 Y109.051 E0.08732
G1 X110.412 Y108.539 E0.131
G1 X111.239 Y108.097 E0.17467
G1 X112.101 Y107.727 E0.21835
G1 X112.991 Y107.431 E0.26202
G1 X113.903 Y107.213 E0.30568
G1 X114.83 Y107.072 E0.34935
G1 X115.701 Y107.013 E0.39
G1 X116.33 Y107 E0.41929
G1 X183.451 Y107.001 E3.54473
G1 X184.149 Y107.011 E3.57723
G1 X185.085 Y107.065 E3.62089
G1 X186.013 Y107.197 E3.66453
G1 X186.927 Y107.409 E3.70822
G1 X187.819 Y107.698 E3.75188
G1 X188.684 Y108.061 E3.79557
G1 X189.514 Y108.497 E3.83922
G1 X190.305 Y109.002 E3.88292
G1 X191.049 Y109.573 E3.92659
G1 X191.742 Y110.205 E3.97026
G1 X192.379 Y110.893 E4.01392
G1 X192.954 Y111.634 E4.0576
G1 X193.465 Y112.42 E4.10125
G1 X193.907 Y113.248 E4.14496
G1 X194.276 Y114.11 E4.18862
G1 X194.571 Y115 E4.23228
G1 X194.789 Y115.912 E4.27594
G1 X194.929 Y116.84 E4.31964
G1 X194.987 Y117.701 E4.35982
G1 X195 Y118.33 E4.38912
G1 X194.999 Y181.4 E7.32592
G1 X194.99 Y182.127 E7.35978
G1 X194.939 Y183.064 E7.40347
G1 X194.807 Y183.992 E7.44712
G1 X194.598 Y184.906 E7.49078
G1 X194.311 Y185.799 E7.53445
G1 X193.949 Y186.665 E7.57816
G1 X193.515 Y187.496 E7.62181
G1 X193.011 Y188.287 E7.66549
G1 X192.442 Y189.032 E7.70914
G1 X191.811 Y189.727 E7.75285
G1 X191.124 Y190.365 E7.7965
G1 X190.385 Y190.942 E7.84016
G1 X189.599 Y191.454 E7.88384
G1 X188.773 Y191.897 E7.92749
G1 X187.911 Y192.269 E7.9712
G1 X187.022 Y192.565 E8.01483
G1 X186.11 Y192.785 E8.05852
G1 X185.183 Y192.926 E8.10218
G1 X184.299 Y192.987 E8.14344
G1 X183.67 Y193 E8.17273
G1 X116.565 Y192.999 E11.29742
G1 X115.867 Y192.99 E11.32993
G1 X114.931 Y192.938 E11.37358
G1 X114.002 Y192.806 E11.41727
G1 X113.088 Y192.596 E11.46094
G1 X112.195 Y192.309 E11.50462
G1 X111.33 Y191.946 E11.5483
G1 X110.499 Y191.512 E11.59195
G1 X109.708 Y191.008 E11.63563
G1 X108.963 Y190.438 E11.67931
G1 X108.269 Y189.807 E11.72298
G1 X107.632 Y189.12 E11.76661
G1 X107.055 Y188.38 E11.8103
G1 X106.543 Y187.594 E11.85398
G1 X106.1 Y186.767 E11.89767
G1 X105.729 Y185.906 E11.94132
G1 X105.433 Y185.016 E11.98499
G1 X105.214 Y184.104 E12.02867
G1 X105.073 Y183.177 E12.07233
G1 X105.013 Y182.288 E12.11382
G1 X105 Y181.658 E12.14316
G1 X105.001 Y118.525 E15.0829
G1 X105.01 Y117.86 E15.11387
G1 X105.063 Y116.924 E15.15752
G1 X105.195 Y115.995 E15.20121
G1 X105.406 Y115.081 E15.24489
G1 X105.694 Y114.189 E15.28854
G1 X106.057 Y113.324 E15.33222
G1 X106.492 Y112.493 E15.3759
G1 X106.996 Y111.703 E15.41953
G1 X107.566 Y110.958 E15.46321
G1 X108.198 Y110.264 E15.50692
G0 F6000 X108.589 Y110.439
G1 F1200 X109.274 Y109.823 E15.54981
G1 X110.01 Y109.27 E15.59268
G1 X110.791 Y108.782 E15.63556
G1 X111.611 Y108.364 E15.67842
G1 X112.465 Y108.019 E15.72131
G1 X113.345 Y107.749 E15.76417
G1 X114.245 Y107.557 E15.80702
G1 X115.159 Y107.443 E15.84991
G1 X115.712 Y107.413 E15.8757
G1 X116.33 Y107.4 E15.90448
G1 X183.445 Y107.401 E19.02964
G1 X184.143 Y107.411 E19.06214
G1 X185.062 Y107.464 E19.105
G1 X185.973 Y107.597 E19.14787
G1 X186.869 Y107.808 E19.19074
G1 X187.743 Y108.096 E19.23359
G1 X188.59 Y108.459 E19.2765
G1 X189.401 Y108.894 E19.31935
G1 X190.171 Y109.398 E19.3622
G1 X190.895 Y109.967 E19.40508
G1 X191.567 Y110.597 E19.44797
G1 X192.182 Y111.282 E19.49084
G1 X192.735 Y112.018 E19.5337
G1 X193.222 Y112.799 E19.57656
G1 X193.639 Y113.62 E19.61944
G1 X193.984 Y114.474 E19.66233
G1 X194.253 Y115.354 E19.70517
G1 X194.445 Y116.255 E19.74807
G1 X194.558 Y117.168 E19.79091
G1 X194.587 Y117.712 E19.81628
G1 X194.6 Y118.33 E19.84506
G1 X194.599 Y181.395 E22.78163
G1 X194.59 Y182.122 E22.81548
G1 X194.539 Y183.041 E22.85834
G1 X194.408 Y183.953 E22.90124
G1 X194.198 Y184.849 E22.9441
G1 X193.912 Y185.724 E22.98696
G1 X193.551 Y186.571 E23.02983
G1 X193.117 Y187.383 E23.07271
G1 X192.615 Y188.155 E23.11559
G1 X192.047 Y188.88 E23.15847
G1 X191.419 Y189.553 E23.20133
G1 X190.735 Y190.169 E23.2442
G1 X190 Y190.723 E23.28705
G1 X189.22 Y191.212 E23.32992
G1 X188.4 Y191.631 E23.3728
G1 X187.547 Y191.977 E23.41566
G1 X186.667 Y192.248 E23.45854
G1 X185.767 Y192.441 E23.5014
G1 X184.853 Y192.556 E23.54429
G1 X184.288 Y192.587 E23.57064
G1 X183.67 Y192.6 E23.59942
G1 X116.57 Y192.599 E26.72388
G1 X115.872 Y192.59 E26.75639
G1 X114.953 Y192.538 E26.79925
G1 X114.042 Y192.407 E26.8421
G1 X113.146 Y192.197 E26.88496
G1 X112.271 Y191.91 E26.92783
G1 X111.424 Y191.548 E26.97073
G1 X110.612 Y191.114 E27.0136
G1 X109.841 Y190.612 E27.05644
G1 X109.116 Y190.044 E27.09932
G1 X108.443 Y189.415 E27.14222
G1 X107.828 Y188.731 E27.18505
G1 X107.274 Y187.996 E27.22791
G1 X106.786 Y187.215 E27.27079
G1 X106.367 Y186.395 E27.31367
G1 X106.021 Y185.542 E27.35653
G1 X105.751 Y184.662 E27.39939
G1 X105.558 Y183.761 E27.4423
G1 X105.444 Y182.848 E27.48514
G1 X105.413 Y182.277 E27.51177
G1 X105.4 Y181.658 E27.5406
G1 X105.401 Y118.531 E30.48006
G1 X105.41 Y117.866 E30.51102
G1 X105.462 Y116.946 E30.55393
G1 X105.594 Y116.035 E30.59679
G1 X105.805 Y115.139 E30.63966
G1 X106.092 Y114.264 E30.68254
G1 X106.455 Y113.418 E30.7254
G1 X106.889 Y112.606 E30.76827
G1 X107.392 Y111.835 E30.81114
G1 X107.961 Y111.111 E30.85402
G1 X108.589 Y110.439 E30.89685
G0 F6000 X108.981 Y110.617
G1 F1200 X109.662 Y110.024 E30.93889
G1 X110.394 Y109.494 E30.98097
G1 X111.169 Y109.031 E31.02301
G1 X111.982 Y108.638 E31.06506
G1 X112.827 Y108.318 E31.10713
G1 X113.696 Y108.075 E31.14915
G1 X114.584 Y107.909 E31.19121
G1 X115.723 Y107.813 E31.24444
G1 X116.33 Y107.8 E31.27271
G1 X183.439 Y107.801 E34.39759
G1 X184.137 Y107.811 E34.43009
G1 X185.039 Y107.864 E34.47217
G1 X185.932 Y107.996 E34.5142
G1 X186.81 Y108.207 E34.55625
G1 X187.666 Y108.495 E34.5983
G1 X188.493 Y108.857 E34.64034
G1 X189.285 Y109.292 E34.68241
G1 X190.036 Y109.794 E34.72447
G1 X190.739 Y110.361 E34.76653
G1 X191.389 Y110.988 E34.80858
G1 X191.981 Y111.67 E34.85063
G1 X192.511 Y112.401 E34.89268
G1 X192.973 Y113.177 E34.93473
G1 X193.366 Y113.99 E34.97678
G1 X193.684 Y114.835 E35.01882
G1 X193.927 Y115.705 E35.06088
G1 X194.092 Y116.593 E35.10294
G1 X194.187 Y117.723 E35.15574
G1 X194.2 Y118.33 E35.18401
G1 X194.199 Y181.39 E38.12035
G1 X194.19 Y182.117 E38.1542
G1 X194.139 Y183.019 E38.19627
G1 X194.008 Y183.913 E38.23835
G1 X193.799 Y184.791 E38.28037
G1 X193.513 Y185.648 E38.32244
G1 X193.152 Y186.476 E38.3645
G1 X192.72 Y187.268 E38.40651
G1 X192.219 Y188.02 E38.44858
G1 X191.653 Y188.724 E38.49065
G1 X191.028 Y189.375 E38.53267
G1 X190.347 Y189.969 E38.57475
G1 X189.616 Y190.5 E38.61682
G1 X188.842 Y190.964 E38.65884
G1 X188.029 Y191.358 E38.70091
G1 X187.185 Y191.678 E38.74294
G1 X186.315 Y191.923 E38.78502
G1 X185.428 Y192.089 E38.82704
G1 X184.277 Y192.187 E38.88083
G1 X183.67 Y192.2 E38.9091
G1 X116.575 Y192.199 E42.03333
G1 X115.877 Y192.19 E42.06583
G1 X114.976 Y192.139 E42.10785
G1 X114.082 Y192.007 E42.14993
G1 X113.204 Y191.798 E42.19196
G1 X112.347 Y191.511 E42.23404
G1 X111.52 Y191.15 E42.27606
G1 X110.727 Y190.717 E42.31813
G1 X109.976 Y190.216 E42.36017
G1 X109.272 Y189.65 E42.40223
G1 X108.621 Y189.024 E42.44428
G1 X108.028 Y188.343 E42.48633
G1 X107.498 Y187.612 E42.52838
G1 X107.034 Y186.837 E42.57044
G1 X106.64 Y186.024 E42.6125
G1 X106.32 Y185.18 E42.65453
G1 X106.076 Y184.31 E42.69661
G1 X105.91 Y183.422 E42.73867
G1 X105.813 Y182.267 E42.79264
G1 X105.8 Y181.658 E42.82101
G1 X105.801 Y118.536 E45.76023
G1 X105.81 Y117.871 E45.7912
G1 X105.862 Y116.969 E45.83327
G1 X105.994 Y116.076 E45.87531
G1 X106.204 Y115.198 E45.91734
G1 X106.491 Y114.341 E45.95943
G1 X106.853 Y113.514 E46.00146
G1 X107.286 Y112.722 E46.04349
G1 X107.788 Y111.971 E46.08556
G1 X108.355 Y111.267 E46.12765
G1 X108.981 Y110.617 E46.16967
G1 F2700 E39.16967
;MESH:companions.stl
G0 F6000 X116.42 Y117.335
G0 X116.6 Y181.4
;TYPE:WALL-INNER
G1 F2700 E46.16967
G1 F1200 X183.4 Y181.4 E49.28016
G1 X183.4 Y150 E50.74227
G1 X183.4 Y118.6 E52.20439
G1 X116.6 Y118.6 E55.31487
G1 X116.6 Y181.4 E58.23911
G0 F6000 X116.2 Y181.8
;TYPE:WALL-OUTER
G1 F1200 X183.8 Y181.8 E61.38684
G1 X183.8 Y150 E62.86759
G1 X183.8 Y118.2 E64.34833
G1 X116.2 Y118.2 E67.49607
G1 X116.2 Y181.8 E70.45755
G0 F6000 X116.47 Y181.53
G0 X116.7 Y181.04
G0 X116.96 Y181.04
;TYPE:SKIN
G1 F1200 X183.04 Y181.04 E73.53451
G1 X183.04 Y150 E74.97986
G1 X183.04 Y118.96 E76.42521
G1 X116.96 Y118.96 E79.50218
G1 X116.96 Y181.04 E82.39288
G0 F6000 X117.482 Y180.839
G1 F1200 X117.159 Y180.516 E82.41415
G0 F6000 X117.159 Y179.95
G1 F1200 X118.047 Y180.839 E82.47266
G0 F6000 X118.613 Y180.839
G1 F1200 X117.159 Y179.385 E82.56841
G0 F6000 X117.159 Y178.819
G1 F1200 X119.179 Y180.839 E82.70143
G0 F6000 X119.744 Y180.839
G1 F1200 X117.159 Y178.253 E82.87169
G0 F6000 X117.159 Y177.688
G1 F1200 X120.31 Y180.839 E83.07919
G0 F6000 X120.876 Y180.839
G1 F1200 X117.159 Y177.122 E83.32396
G0 F6000 X117.159 Y176.556
G1 F1200 X121.442 Y180.839 E83.606
G0 F6000 X122.007 Y180.839
G1 F1200 X117.159 Y175.991 E83.92525
G0 F6000 X117.159 Y175.425
G1 F1200 X122.573 Y180.839 E84.28177
G0 F6000 X123.139 Y180.839
G1 F1200 X117.159 Y174.859 E84.67557
G0 F6000 X117.159 Y174.294
G1 F1200 X123.704 Y180.839 E85.10656
G0 F6000 X124.27 Y180.839
G1 F1200 X117.159 Y173.728 E85.57484
G0 F6000 X117.159 Y173.162
G1 F1200 X124.836 Y180.839 E86.08038
G0 F6000 X125.401 Y180.839
G1 F1200 X117.159 Y172.596 E86.62316
G0 F6000 X117.159 Y172.031
G1 F1200 X125.967 Y180.839 E87.20318
G0 F6000 X126.533 Y180.839
G1 F1200 X117.159 Y171.465 E87.82048
G0 F6000 X117.159 Y170.899
G1 F1200 X127.098 Y180.839 E88.47501
G0 F6000 X127.664 Y180.839
G1 F1200 X117.159 Y170.334 E89.16678
G0 F6000 X117.159 Y169.768
G1 F1200 X128.23 Y180.839 E89.89583
G0 F6000 X128.795 Y180.839
G1 F1200 X117.159 Y169.202 E90.66211
G0 F6000 X117.159 Y168.637
G1 F1200 X129.361 Y180.839 E91.46563
G0 F6000 X129.927 Y180.839
G1 F1200 X117.159 Y168.071 E92.30643
G0 F6000 X117.159 Y167.505
G1 F1200 X130.493 Y180.839 E93.18449
G0 F6000 X131.058 Y180.839
G1 F1200 X117.159 Y166.94 E94.09977
G0 F6000 X117.159 Y166.374
G1 F1200 X131.624 Y180.839 E95.05231
G0 F6000 X132.19 Y180.839
G1 F1200 X117.159 Y165.808 E96.04213
G0 F6000 X117.159 Y165.243
G1 F1200 X132.755 Y180.839 E97.06915
G0 F6000 X133.321 Y180.839
G1 F1200 X117.159 Y164.677 E98.13345
G0 F6000 X117.159 Y164.111
G1 F1200 X133.887 Y180.839 E99.23502
G0 F6000 X134.452 Y180.839
G1 F1200 X117.159 Y163.546 E100.37379
G0 F6000 X117.159 Y162.98
G1 F1200 X135.018 Y180.839 E101.54983
G0 F6000 X135.584 Y180.839
G1 F1200 X117.159 Y162.414 E102.76315
G0 F6000 X117.159 Y161.848
G1 F1200 X136.149 Y180.839 E104.01371
G0 F6000 X136.715 Y180.839
G1 F1200 X117.159 Y161.283 E105.30151
G0 F6000 X117.159 Y160.717
G1 F1200 X137.281 Y180.839 E106.62657
G0 F6000 X137.846 Y180.839
G1 F1200 X117.159 Y160.151 E107.98888
G0 F6000 X117.159 Y159.586
G1 F1200 X138.412 Y180.839 E109.38843
G0 F6000 X138.978 Y180.839
G1 F1200 X117.159 Y159.02 E110.82525
G0 F6000 X117.159 Y158.454
G1 F1200 X139.543 Y180.839 E112.2993
G0 F6000 X140.109 Y180.839
G1 F1200 X117.159 Y157.889 E113.8106
G0 F6000 X117.159 Y157.323
G1 F1200 X140.675 Y180.839 E115.35917
G0 F6000 X141.241 Y180.839
G1 F1200 X117.159 Y156.757 E116.94501
G0 F6000 X117.159 Y156.192
G1 F1200 X141.806 Y180.839 E118.56806
G0 F6000 X142.372 Y180.839
G1 F1200 X117.159 Y155.626 E120.22838
G0 F6000 X117.159 Y155.06
G1 F1200 X142.938 Y180.839 E121.92597
G0 F6000 X143.503 Y180.839
G1 F1200 X117.159 Y154.495 E123.66076
G0 F6000 X117.159 Y153.929
G1 F1200 X144.069 Y180.839 E125.43283
G0 F6000 X144.635 Y180.839
G1 F1200 X117.159 Y153.363 E127.24217
G0 F6000 X117.159 Y152.797
G1 F1200 X145.2 Y180.839 E129.08876
G0 F6000 X145.766 Y180.839
G1 F1200 X117.159 Y152.232 E130.97258
G0 F6000 X117.159 Y151.666
G1 F1200 X146.332 Y180.839 E132.89367
G0 F6000 X146.897 Y180.839
G1 F1200 X117.159 Y151.1 E134.852
G0 F6000 X117.159 Y150.535
G1 F1200 X147.463 Y180.839 E136.84757
G0 F6000 X148.029 Y180.839
G1 F1200 X117.159 Y149.969 E138.88041
G0 F6000 X117.159 Y149.403
G1 F1200 X148.594 Y180.839 E140.95049
G0 F6000 X149.16 Y180.839
G1 F1200 X117.159 Y148.838 E143.05781
G0 F6000 X117.159 Y148.272
G1 F1200 X149.726 Y180.839 E145.2024
G0 F6000 X150.292 Y180.839
G1 F1200 X117.159 Y147.706 E147.38427
G0 F6000 X117.159 Y147.141
G1 F1200 X150.857 Y180.839 E149.60334
G0 F6000 X151.423 Y180.839
G1 F1200 X117.159 Y146.575 E151.85968
G0 F6000 X117.159 Y146.009
G1 F1200 X151.989 Y180.839 E154.1533
G0 F6000 X152.554 Y180.839
G1 F1200 X117.159 Y145.444 E156.48412
G0 F6000 X117.159 Y144.878
G1 F1200 X153.12 Y180.839 E158.85221
G0 F6000 X153.686 Y180.839
G1 F1200 X117.159 Y144.312 E161.25758
G0 F6000 X117.159 Y143.747
G1 F1200 X154.251 Y180.839 E163.70015
G0 F6000 X154.817 Y180.839
G1 F1200 X117.159 Y143.181 E166.17999
G0 F6000 X117.159 Y142.615
G1 F1200 X155.383 Y180.839 E168.69711
G0 F6000 X155.948 Y180.839
G1 F1200 X117.159 Y142.049 E171.25146
G0 F6000 X117.159 Y141.484
G1 F1200 X156.514 Y180.839 E173.84306
G0 F6000 X157.08 Y180.839
G1 F1200 X117.159 Y140.918 E176.47192
G0 F6000 X117.159 Y140.352
G1 F1200 X157.645 Y180.839 E179.13803
G0 F6000 X158.211 Y180.839
G1 F1200 X117.159 Y139.787 E181.84137
G0 F6000 X117.159 Y139.221
G1 F1200 X158.777 Y180.839 E184.58199
G0 F6000 X159.342 Y180.839
G1 F1200 X117.159 Y138.655 E187.35984
G0 F6000 X117.159 Y138.09
G1 F1200 X159.908 Y180.839 E190.17494
G0 F6000 X160.474 Y180.839
G1 F1200 X117.159 Y137.524 E193.02731
G0 F6000 X117.159 Y136.958
G1 F1200 X161.04 Y180.839 E195.91695
G0 F6000 X161.605 Y180.839
G1 F1200 X117.159 Y136.393 E198.84379
G0 F6000 X117.159 Y135.827
G1 F1200 X162.171 Y180.839 E201.80791
G0 F6000 X162.737 Y180.839
G1 F1200 X117.159 Y135.261 E204.8093
G0 F6000 X117.159 Y134.696
G1 F1200 X163.302 Y180.839 E207.84789
G0 F6000 X163.868 Y180.839
G1 F1200 X117.159 Y134.13 E210.92376
G0 F6000 X117.159 Y133.564
G1 F1200 X164.434 Y180.839 E214.0369
G0 F6000 X164.999 Y180.839
G1 F1200 X117.159 Y132.999 E217.18724
G0 F6000 X117.159 Y132.433
G1 F1200 X165.565 Y180.839 E220.37486
G0 F6000 X166.131 Y180.839
G1 F1200 X117.159 Y131.867 E223.59975
G0 F6000 X117.159 Y131.301
G1 F1200 X166.696 Y180.839 E226.86188
G0 F6000 X167.262 Y180.839
G1 F1200 X117.159 Y130.736 E230.16125
G0 F6000 X117.159 Y130.17
G1 F1200 X167.828 Y180.839 E233.49789
G0 F6000 X168.393 Y180.839
G1 F1200 X117.159 Y129.604 E236.87177
G0 F6000 X117.159 Y129.039
G1 F1200 X168.959 Y180.839 E240.28289
G0 F6000 X169.525 Y180.839
G1 F1200 X117.159 Y128.473 E243.73128
G0 F6000 X117.159 Y127.907
G1 F1200 X170.091 Y180.839 E247.21694
G0 F6000 X170.656 Y180.839
G1 F1200 X117.159 Y127.342 E250.73981
G0 F6000 X117.159 Y126.776
G1 F1200 X171.222 Y180.839 E254.29995
G0 F6000 X171.788 Y180.839
G1 F1200 X117.159 Y126.21 E257.89736
G0 F6000 X117.159 Y125.645
G1 F1200 X172.353 Y180.839 E261.53198
G0 F6000 X172.919 Y180.839
G1 F1200 X117.159 Y125.079 E265.20387
G0 F6000 X117.159 Y124.513
G1 F1200 X173.485 Y180.839 E268.91304
G0 F6000 X174.05 Y180.839
G1 F1200 X117.159 Y123.948 E272.65941
G0 F6000 X117.159 Y123.382
G1 F1200 X174.616 Y180.839 E276.44305
G0 F6000 X175.182 Y180.839
G1 F1200 X117.159 Y122.816 E280.26396
G0 F6000 X117.159 Y122.25
G1 F1200 X175.747 Y180.839 E284.12211
G0 F6000 X176.313 Y180.839
