;FLAVOR:Marlin
;TIME:12219
;Filament used: 9.4098m
;Layer height: 0.16
;MINX:95
;MINY:80.1
;MINZ:0.2
;MAXX:205
;MAXY:219.9
;MAXZ:16.88
;Generated with Cura_SteamEngine 5.2.1
M140 S50
M105
M190 S50
M104 S210
M105
M109 S210
M82 ;absolute extrusion mode
M201 X500.00 Y500.00 Z100.00 E5000.00 ;Setup machine max acceleration
M203 X500.00 Y500.00 Z10.00 E50.00 ;Setup machine max feedrate
M204 P500.00 R1000.00 T500.00 ;Setup Print/Retract/Travel acceleration
M205 X8.00 Y8.00 Z0.40 E5.00 ;Setup Jerk
M220 S100 ;Reset Feedrate
M221 S100 ;Reset Flowrate

G28 ;Home
G29 ;Auto bed Level

G92 E0 ;Reset Extruder
G1 Z2.0 F3000 ;Move Z Axis up
G1 X10.1 Y20 Z0.28 F5000.0 ;Move to start position
G1 X10.1 Y200.0 Z0.28 F1500.0 E15 ;Draw the first line
G1 X10.4 Y200.0 Z0.28 F5000.0 ;Move to side a little
G1 X10.4 Y20 Z0.28 F1500.0 E30 ;Draw the second line
G92 E0 ;Reset Extruder
G1 Z2.0 F3000 ;Move Z Axis up

G92 E0
G92 E0
G1 F2700 E-7
;LAYER_COUNT:86
;LAYER:0
M107
G0 F6000 X97.566 Y84.058 Z0.2
;TYPE:SKIRT
G1 F2700 E0
G1 F1200 X98.198 Y83.364 E0.03122
G1 X98.886 Y82.727 E0.0624
G1 X99.626 Y82.151 E0.09359
G1 X100.412 Y81.639 E0.12479
G1 X101.239 Y81.197 E0.15598
G1 X102.101 Y80.827 E0.18718
G1 X102.991 Y80.531 E0.21838
G1 X103.903 Y80.313 E0.24957
G1 X104.83 Y80.172 E0.28075
G1 X105.701 Y80.113 E0.30979
G1 X106.33 Y80.1 E0.33071
G1 X193.451 Y80.101 E3.22837
G1 X194.149 Y80.111 E3.25159
G1 X195.085 Y80.165 E3.28277
G1 X196.013 Y80.297 E3.31395
G1 X196.927 Y80.509 E3.34515
G1 X197.819 Y80.798 E3.37634
G1 X198.684 Y81.161 E3.40754
G1 X199.514 Y81.597 E3.43872
G1 X200.305 Y82.102 E3.46994
G1 X201.049 Y82.673 E3.50113
G1 X201.742 Y83.305 E3.53233
G1 X202.379 Y83.993 E3.56351
G1 X202.954 Y84.734 E3.59471
G1 X203.465 Y85.52 E3.62589
G1 X203.907 Y86.348 E3.6571
G1 X204.276 Y87.21 E3.68829
G1 X204.571 Y88.1 E3.71948
G1 X204.789 Y89.012 E3.75066
G1 X204.929 Y89.94 E3.78188
G1 X204.987 Y90.801 E3.81058
G1 X205 Y91.43 E3.83151
G1 X204.999 Y208.3 E7.71862
G1 X204.99 Y209.027 E7.7428
G1 X204.939 Y209.964 E7.77401
G1 X204.807 Y210.892 E7.80519
G1 X204.598 Y211.806 E7.83637
G1 X204.311 Y212.699 E7.86757
G1 X203.949 Y213.565 E7.89879
G1 X203.515 Y214.396 E7.92997
G1 X203.011 Y215.187 E7.96116
G1 X202.442 Y215.932 E7.99234
G1 X201.811 Y216.627 E8.02357
G1 X201.124 Y217.265 E8.05475
G1 X200.385 Y217.842 E8.08593
G1 X199.599 Y218.354 E8.11713
G1 X198.773 Y218.797 E8.14831
G1 X197.911 Y219.169 E8.17953
G1 X197.022 Y219.465 E8.2107
G1 X196.11 Y219.685 E8.2419
G1 X195.183 Y219.826 E8.27309
G1 X194.299 Y219.887 E8.30256
G1 X193.67 Y219.9 E8.32348
G1 X106.565 Y219.899 E11.22061
G1 X105.867 Y219.89 E11.24383
G1 X104.931 Y219.838 E11.27501
G1 X104.002 Y219.706 E11.30621
G1 X103.088 Y219.496 E11.33741
G1 X102.195 Y219.209 E11.3686
G1 X101.33 Y218.846 E11.3998
G1 X100.499 Y218.412 E11.43099
G1 X99.708 Y217.908 E11.46218
G1 X98.963 Y217.338 E11.49338
G1 X98.269 Y216.707 E11.52458
G1 X97.632 Y216.02 E11.55574
G1 X97.055 Y215.28 E11.58695
G1 X96.543 Y214.494 E11.61815
G1 X96.1 Y213.667 E11.64935
G1 X95.729 Y212.806 E11.68054
G1 X95.433 Y211.916 E11.71173
G1 X95.214 Y211.004 E11.74293
G1 X95.073 Y210.077 E11.77411
G1 X95.013 Y209.188 E11.80375
G1 X95 Y208.558 E11.82471
G1 X95.001 Y91.625 E15.71391
G1 X95.01 Y90.96 E15.73603
G1 X95.063 Y90.024 E15.76722
G1 X95.195 Y89.095 E15.79842
G1 X95.406 Y88.181 E15.82962
G1 X95.694 Y87.289 E15.8608
G1 X96.057 Y86.424 E15.892
G1 X96.492 Y85.593 E15.9232
G1 X96.996 Y84.803 E15.95437
G1 X97.566 Y84.058 E15.98556
G0 F6000 X97.961 Y84.211
G1 F1200 X98.589 Y83.539 E16.01616
G1 X99.274 Y82.923 E16.0468
G1 X100.01 Y82.37 E16.07742
G1 X100.791 Y81.882 E16.10805
G1 X101.611 Y81.464 E16.13866
G1 X102.465 Y81.119 E16.16929
G1 X103.345 Y80.849 E16.19991
G1 X104.245 Y80.657 E16.23052
G1 X105.159 Y80.543 E16.26115
G1 X105.712 Y80.513 E16.27957
G1 X106.33 Y80.5 E16.30013
G1 X193.445 Y80.501 E19.19759
G1 X194.143 Y80.511 E19.22081
G1 X195.062 Y80.564 E19.25142
G1 X195.973 Y80.697 E19.28204
G1 X196.869 Y80.908 E19.31266
G1 X197.743 Y81.196 E19.34327
G1 X198.59 Y81.559 E19.37392
G1 X199.401 Y81.994 E19.40453
G1 X200.171 Y82.498 E19.43513
G1 X200.895 Y83.067 E19.46576
G1 X201.567 Y83.697 E19.4964
G1 X202.182 Y84.382 E19.52702
G1 X202.735 Y85.118 E19.55764
G1 X203.222 Y85.899 E19.58825
G1 X203.639 Y86.72 E19.61887
G1 X203.984 Y87.574 E19.64951
G1 X204.253 Y88.454 E19.68012
G1 X204.445 Y89.355 E19.71076
G1 X204.558 Y90.268 E19.74135
G1 X204.587 Y90.812 E19.75947
G1 X204.6 Y91.43 E19.78003
G1 X204.599 Y208.295 E23.66698
G1 X204.59 Y209.022 E23.69116
G1 X204.539 Y209.941 E23.72177
G1 X204.408 Y210.853 E23.75242
G1 X204.198 Y211.749 E23.78303
G1 X203.912 Y212.624 E23.81364
G1 X203.551 Y213.471 E23.84427
G1 X203.117 Y214.283 E23.87489
G1 X202.615 Y215.055 E23.90552
G1 X202.047 Y215.78 E23.93615
G1 X201.419 Y216.453 E23.96677
G1 X200.735 Y217.069 E23.99738
G1 X200 Y217.623 E24.028
G1 X199.22 Y218.112 E24.05861
G1 X198.4 Y218.531 E24.08924
G1 X197.547 Y218.877 E24.11986
G1 X196.667 Y219.148 E24.15048
G1 X195.767 Y219.341 E24.1811
G1 X194.853 Y219.456 E24.21174
G1 X194.288 Y219.487 E24.23056
G1 X193.67 Y219.5 E24.25112
G1 X106.57 Y219.499 E27.14808
G1 X105.872 Y219.49 E27.17129
G1 X104.953 Y219.438 E27.20191
G1 X104.042 Y219.307 E27.23252
G1 X103.146 Y219.097 E27.26313
G1 X102.271 Y218.81 E27.29376
G1 X101.424 Y218.448 E27.32439
G1 X100.612 Y218.014 E27.35502
G1 X99.841 Y217.512 E27.38562
G1 X99.116 Y216.944 E27.41625
G1 X98.443 Y216.315 E27.44689
G1 X97.828 Y215.631 E27.47748
G1 X97.274 Y214.896 E27.50809
G1 X96.786 Y214.115 E27.53872
G1 X96.367 Y213.295 E27.56935
G1 X96.021 Y212.442 E27.59997
G1 X95.751 Y211.562 E27.63058
G1 X95.558 Y210.661 E27.66123
G1 X95.444 Y209.748 E27.69183
G1 X95.413 Y209.177 E27.71085
G1 X95.4 Y208.558 E27.73144
G1 X95.401 Y91.631 E31.62045
G1 X95.41 Y90.966 E31.64257
G1 X95.462 Y90.046 E31.67322
G1 X95.594 Y89.135 E31.70384
G1 X95.805 Y88.239 E31.73445
G1 X96.092 Y87.364 E31.76508
G1 X96.455 Y86.518 E31.7957
G1 X96.889 Y85.706 E31.82632
G1 X97.392 Y84.935 E31.85694
G1 X97.961 Y84.211 E31.88757
G0 F6000 X98.355 Y84.367
G1 F1200 X98.981 Y83.717 E31.91758
G1 X99.662 Y83.124 E31.94762
G1 X100.394 Y82.594 E31.97767
G1 X101.169 Y82.131 E32.0077
G1 X101.982 Y81.738 E32.03773
G1 X102.827 Y81.418 E32.06779
G1 X103.696 Y81.175 E32.0978
G1 X104.584 Y81.009 E32.12785
G1 X105.723 Y80.913 E32.16586
G1 X106.33 Y80.9 E32.18606
G1 X193.439 Y80.901 E35.08331
G1 X194.137 Y80.911 E35.10653
G1 X195.039 Y80.964 E35.13658
G1 X195.932 Y81.096 E35.16661
G1 X196.81 Y81.307 E35.19664
G1 X197.666 Y81.595 E35.22668
G1 X198.493 Y81.957 E35.25671
G1 X199.285 Y82.392 E35.28676
G1 X200.036 Y82.894 E35.31681
G1 X200.739 Y83.461 E35.34684
G1 X201.389 Y84.088 E35.37688
G1 X201.981 Y84.77 E35.40692
G1 X202.511 Y85.501 E35.43695
G1 X202.973 Y86.277 E35.46699
G1 X203.366 Y87.09 E35.49702
G1 X203.684 Y87.935 E35.52705
G1 X203.927 Y88.805 E35.5571
G1 X204.092 Y89.693 E35.58714
G1 X204.187 Y90.823 E35.62485
G1 X204.2 Y91.43 E35.64505
G1 X204.199 Y208.29 E39.53183
G1 X204.19 Y209.017 E39.55601
G1 X204.139 Y209.919 E39.58606
G1 X204.008 Y210.813 E39.61611
G1 X203.799 Y211.691 E39.64613
G1 X203.513 Y212.548 E39.67618
G1 X203.152 Y213.376 E39.70622
G1 X202.72 Y214.168 E39.73623
G1 X202.219 Y214.92 E39.76628
G1 X201.653 Y215.624 E39.79632
G1 X201.028 Y216.275 E39.82634
G1 X200.347 Y216.869 E39.8564
G1 X199.616 Y217.4 E39.88645
G1 X198.842 Y217.864 E39.91646
G1 X198.029 Y218.258 E39.94651
G1 X197.185 Y218.578 E39.97653
G1 X196.315 Y218.823 E40.00659
G1 X195.428 Y218.989 E40.03661
G1 X194.277 Y219.087 E40.07503
G1 X193.67 Y219.1 E40.09522
G1 X106.575 Y219.099 E42.99201
G1 X105.877 Y219.09 E43.01523
G1 X104.976 Y219.039 E43.04525
G1 X104.082 Y218.907 E43.0753
G1 X103.204 Y218.698 E43.10532
G1 X102.347 Y218.411 E43.13538
G1 X101.52 Y218.05 E43.16539
G1 X100.727 Y217.617 E43.19544
G1 X99.976 Y217.116 E43.22547
G1 X99.272 Y216.55 E43.25551
G1 X98.621 Y215.924 E43.28555
G1 X98.028 Y215.243 E43.31559
G1 X97.498 Y214.512 E43.34562
G1 X97.034 Y213.737 E43.37566
G1 X96.64 Y212.924 E43.40571
G1 X96.32 Y212.08 E43.43573
G1 X96.076 Y211.21 E43.46578
G1 X95.91 Y210.322 E43.49583
G1 X95.813 Y209.167 E43.53438
G1 X95.8 Y208.558 E43.55464
G1 X95.801 Y91.636 E47.44348
G1 X95.81 Y90.971 E47.4656
G1 X95.862 Y90.069 E47.49565
G1 X95.994 Y89.176 E47.52568
G1 X96.204 Y88.298 E47.5557
G1 X96.491 Y87.441 E47.58576
G1 X96.853 Y86.614 E47.61579
G1 X97.286 Y85.822 E47.64581
G1 X97.788 Y85.071 E47.67586
G1 X98.355 Y84.367 E47.70592
G1 F2700 E40.70592
;MESH:dice_and_control.stl
G0 F6000 X105.335 Y91.52
G0 X106.42 Y91.52
G0 X107 Y207.9
;TYPE:WALL-INNER
G1 F2700 E47.70592
G1 F1200 X193 Y207.9 E50.56629
G1 X193 Y135.1 E52.98763
G1 X193 Y92.1 E54.41782
G1 X107 Y92.1 E57.27819
G1 X107 Y207.9 E61.12971
G0 F6000 X106.6 Y208.3
G1 F1200 X193.4 Y208.3 E64.01669
G1 X193.4 Y135.1 E66.45133
G1 X193.4 Y91.7 E67.89482
G1 X106.6 Y91.7 E70.7818
G1 X106.6 Y208.3 E74.65994
G0 F6000 X106.2 Y208.7
;TYPE:WALL-OUTER
G1 F1200 X193.8 Y208.7 E77.57352
G1 X193.8 Y135.1 E80.02147
G1 X193.8 Y91.3 E81.47826
G1 X106.2 Y91.3 E84.39185
G1 X106.2 Y208.7 E88.29659
G0 F6000 X106.47 Y208.43
G0 X107.1 Y207.54
G0 X107.36 Y207.54
;TYPE:SKIN
G1 F1200 X192.64 Y207.54 E91.13301
G1 X192.64 Y135.1 E93.54238
G1 X192.64 Y92.46 E94.96059
G1 X107.36 Y92.46 E97.79702
G1 X107.36 Y207.54 E101.62459
G0 F6000 X107.778 Y207.339
G1 F1200 X107.558 Y207.119 E101.63494
G0 F6000 X107.558 Y206.553
G1 F1200 X108.344 Y207.339 E101.67191
G0 F6000 X108.91 Y207.339
G1 F1200 X107.558 Y205.987 E101.7355
G0 F6000 X107.558 Y205.422
G1 F1200 X109.475 Y207.339 E101.82567
G0 F6000 X110.041 Y207.339
G1 F1200 X107.558 Y204.856 E101.94247
G0 F6000 X107.558 Y204.29
G1 F1200 X110.607 Y207.339 E102.08588
G0 F6000 X111.172 Y207.339
G1 F1200 X107.558 Y203.725 E102.25587
G0 F6000 X107.558 Y203.159
G1 F1200 X111.738 Y207.339 E102.45249
G0 F6000 X112.304 Y207.339
G1 F1200 X107.558 Y202.593 E102.67573
G0 F6000 X107.558 Y202.028
G1 F1200 X112.869 Y207.339 E102.92554
G0 F6000 X113.435 Y207.339
G1 F1200 X107.558 Y201.462 E103.20198
G0 F6000 X107.558 Y200.896
G1 F1200 X114.001 Y207.339 E103.50503
G0 F6000 X114.566 Y207.339
G1 F1200 X107.558 Y200.331 E103.83467
G0 F6000 X107.558 Y199.765
G1 F1200 X115.132 Y207.339 E104.19093
G0 F6000 X115.698 Y207.339
G1 F1200 X107.558 Y199.199 E104.57381
G0 F6000 X107.558 Y198.634
G1 F1200 X116.263 Y207.339 E104.98326
G0 F6000 X116.829 Y207.339
G1 F1200 X107.558 Y198.068 E105.41934
G0 F6000 X107.558 Y197.502
G1 F1200 X117.395 Y207.339 E105.88205
G0 F6000 X117.96 Y207.339
G1 F1200 X107.558 Y196.937 E106.37132
G0 F6000 X107.558 Y196.371
G1 F1200 X118.526 Y207.339 E106.88723
G0 F6000 X119.092 Y207.339
G1 F1200 X107.558 Y195.805 E107.42975
G0 F6000 X107.558 Y195.239
G1 F1200 X119.658 Y207.339 E107.9989
G0 F6000 X120.223 Y207.339
G1 F1200 X107.558 Y194.674 E108.59462
G0 F6000 X107.558 Y194.108
G1 F1200 X120.789 Y207.339 E109.21696
G0 F6000 X121.355 Y207.339
G1 F1200 X107.558 Y193.542 E109.86593
G0 F6000 X107.558 Y192.977
G1 F1200 X121.92 Y207.339 E110.54148
G0 F6000 X122.486 Y207.339
G1 F1200 X107.558 Y192.411 E111.24364
G0 F6000 X107.558 Y191.845
G1 F1200 X123.052 Y207.339 E111.97244
G0 F6000 X123.617 Y207.339
G1 F1200 X107.558 Y191.28 E112.7278
G0 F6000 X107.558 Y190.714
G1 F1200 X124.183 Y207.339 E113.50979
G0 F6000 X124.749 Y207.339
G1 F1200 X107.558 Y190.148 E114.3184
G0 F6000 X107.558 Y189.583
G1 F1200 X125.314 Y207.339 E115.15359
G0 F6000 X125.88 Y207.339
G1 F1200 X107.558 Y189.017 E116.0154
G0 F6000 X107.558 Y188.451
G1 F1200 X126.446 Y207.339 E116.90383
G0 F6000 X127.011 Y207.339
G1 F1200 X107.558 Y187.886 E117.81884
G0 F6000 X107.558 Y187.32
G1 F1200 X127.577 Y207.339 E118.76048
G0 F6000 X128.143 Y207.339
G1 F1200 X107.558 Y186.754 E119.72873
G0 F6000 X107.558 Y186.188
G1 F1200 X128.708 Y207.339 E120.72359
G0 F6000 X129.274 Y207.339
G1 F1200 X107.558 Y185.623 E121.74504
G0 F6000 X107.558 Y185.057
G1 F1200 X129.84 Y207.339 E122.79312
G0 F6000 X130.406 Y207.339
G1 F1200 X107.558 Y184.491 E123.86782
G0 F6000 X107.558 Y183.926
G1 F1200 X130.971 Y207.339 E124.96909
G0 F6000 X131.537 Y207.339
G1 F1200 X107.558 Y183.36 E126.09699
G0 F6000 X107.558 Y182.794
G1 F1200 X132.103 Y207.339 E127.25151
G0 F6000 X132.668 Y207.339
G1 F1200 X107.558 Y182.229 E128.43261
G0 F6000 X107.558 Y181.663
G1 F1200 X133.234 Y207.339 E129.64033
G0 F6000 X133.8 Y207.339
G1 F1200 X107.558 Y181.097 E130.87467
G0 F6000 X107.558 Y180.532
G1 F1200 X134.365 Y207.339 E132.13559
G0 F6000 X134.931 Y207.339
G1 F1200 X107.558 Y179.966 E133.42313
G0 F6000 X107.558 Y179.4
G1 F1200 X135.497 Y207.339 E134.7373
G0 F6000 X136.062 Y207.339
G1 F1200 X107.558 Y178.835 E136.07804
G0 F6000 X107.558 Y178.269
G1 F1200 X136.628 Y207.339 E137.4454
G0 F6000 X137.194 Y207.339
G1 F1200 X107.558 Y177.703 E138.83939
G0 F6000 X107.558 Y177.138
G1 F1200 X137.759 Y207.339 E140.25995
G0 F6000 X138.325 Y207.339
G1 F1200 X107.558 Y176.572 E141.70714
G0 F6000 X107.558 Y176.006
G1 F1200 X138.891 Y207.339 E143.18095
G0 F6000 X139.457 Y207.339
G1 F1200 X107.558 Y175.44 E144.68138
G0 F6000 X107.558 Y174.875
G1 F1200 X140.022 Y207.339 E146.20839
G0 F6000 X140.588 Y207.339
G1 F1200 X107.558 Y174.309 E147.76202
G0 F6000 X107.558 Y173.743
G1 F1200 X141.154 Y207.339 E149.34227
G0 F6000 X141.719 Y207.339
G1 F1200 X107.558 Y173.178 E150.9491
G0 F6000 X107.558 Y172.612
G1 F1200 X142.285 Y207.339 E152.58255
G0 F6000 X142.851 Y207.339
G1 F1200 X107.558 Y172.046 E154.24262
G0 F6000 X107.558 Y171.481
G1 F1200 X143.416 Y207.339 E155.92927
G0 F6000 X143.982 Y207.339
G1 F1200 X107.558 Y170.915 E157.64255
G0 F6000 X107.558 Y170.349
G1 F1200 X144.548 Y207.339 E159.38244
G0 F6000 X145.113 Y207.339
G1 F1200 X107.558 Y169.784 E161.14891
G0 F6000 X107.558 Y169.218
G1 F1200 X145.679 Y207.339 E162.94201
G0 F6000 X146.245 Y207.339
G1 F1200 X107.558 Y168.652 E164.76173
G0 F6000 X107.558 Y168.087
G1 F1200 X146.81 Y207.339 E166.60802
G0 F6000 X147.376 Y207.339
G1 F1200 X107.558 Y167.521 E168.48094
G0 F6000 X107.558 Y166.955
G1 F1200 X147.942 Y207.339 E170.38048
G0 F6000 X148.507 Y207.339
G1 F1200 X107.558 Y166.39 E172.30659
G0 F6000 X107.558 Y165.824
G1 F1200 X149.073 Y207.339 E174.25933
G0 F6000 X149.639 Y207.339
G1 F1200 X107.558 Y165.258 E176.23869
G0 F6000 X107.558 Y164.692
G1 F1200 X150.205 Y207.339 E178.24468
G0 F6000 X150.77 Y207.339
G1 F1200 X107.558 Y164.127 E180.27724
G0 F6000 X107.558 Y163.561
G1 F1200 X151.336 Y207.339 E182.33642
G0 F6000 X151.902 Y207.339
G1 F1200 X107.558 Y162.995 E184.42223
G0 F6000 X107.558 Y162.43
G1 F1200 X152.467 Y207.339 E186.53461
G0 F6000 X153.033 Y207.339
G1 F1200 X107.558 Y161.864 E188.67361
G0 F6000 X107.558 Y161.298
G1 F1200 X153.599 Y207.339 E190.83924
G0 F6000 X154.164 Y207.339
G1 F1200 X107.558 Y160.733 E193.03144
G0 F6000 X107.558 Y160.167
G1 F1200 X154.73 Y207.339 E195.25027
G0 F6000 X155.296 Y207.339
G1 F1200 X107.558 Y159.601 E197.49572
G0 F6000 X107.558 Y159.036
G1 F1200 X155.861 Y207.339 E199.76774
G0 F6000 X156.427 Y207.339
G1 F1200 X107.558 Y158.47 E202.06639
G0 F6000 X107.558 Y157.904
G1 F1200 X156.993 Y207.339 E204.39166
G0 F6000 X157.558 Y207.339
G1 F1200 X107.558 Y157.339 E206.74351
G0 F6000 X107.558 Y156.773
G1 F1200 X158.124 Y207.339 E209.12198
G0 F6000 X158.69 Y207.339
G1 F1200 X107.558 Y156.207 E211.52707
G0 F6000 X107.558 Y155.641
G1 F1200 X159.256 Y207.339 E213.95879
G0 F6000 X159.821 Y207.339
G1 F1200 X107.558 Y155.076 E216.41708
G0 F6000 X107.558 Y154.51
G1 F1200 X160.387 Y207.339 E218.90199
G0 F6000 X160.953 Y207.339
G1 F1200 X107.558 Y153.944 E221.41353
G0 F6000 X107.558 Y153.379
G1 F1200 X161.518 Y207.339 E223.95164
G0 F6000 X162.084 Y207.339
G1 F1200 X107.558 Y152.813 E226.51638
G0 F6000 X107.558 Y152.247
G1 F1200 X162.65 Y207.339 E229.10774
G0 F6000 X163.215 Y207.339
G1 F1200 X107.558 Y151.682 E231.72567
G0 F6000 X107.558 Y151.116
G1 F1200 X163.781 Y207.339 E234.37023
G0 F6000 X164.347 Y207.339
G1 F1200 X107.558 Y150.55 E237.04141
G0 F6000 X107.558 Y149.985
G1 F1200 X164.912 Y207.339 E239.73916
G0 F6000 X165.478 Y207.339
G1 F1200 X107.558 Y149.419 E242.46354
G0 F6000 X107.558 Y148.853
G1 F1200 X166.044 Y207.339 E245.21455
G0 F6000 X166.609 Y207.339
