;FLAVOR:Marlin
;TIME:14528
;Filament used: 10.2274m
;Layer height: 0.16
;MINX:107
;MINY:83.6
;MINZ:0.2
;MAXX:193
;MAXY:216.4
;MAXZ:28.84
;Generated with Cura_SteamEngine 5.2.1
M140 S60
M105
M190 S60
M104 S210
M105
M109 S210
M82 ;absolute extrusion mode
M201 X500.00 Y500.00 Z100.00 E5000.00 ;Setup machine max acceleration
M203 X500.00 Y500.00 Z10.00 E50.00 ;Setup machine max feedrate
M204 P500.00 R1000.00 T500.00 ;Setup Print/Retract/Travel acceleration
M205 X8.00 Y8.00 Z0.40 E5.00 ;Setup Jerk
M220 S100 ;Reset Feedrate
M221 S100 ;Reset Flowrate

G28 ;Home
G29 ;Auto bed Level

G92 E0 ;Reset Extruder
G1 Z2.0 F3000 ;Move Z Axis up
G1 X10.1 Y20 Z0.28 F5000.0 ;Move to start position
G1 X10.1 Y200.0 Z0.28 F1500.0 E15 ;Draw the first line
G1 X10.4 Y200.0 Z0.28 F5000.0 ;Move to side a little
G1 X10.4 Y20 Z0.28 F1500.0 E30 ;Draw the second line
G92 E0 ;Reset Extruder
G1 Z2.0 F3000 ;Move Z Axis up

G92 E0
G92 E0
G1 F2700 E-7
;LAYER_COUNT:173
;LAYER:0
M107
G0 F6000 X109.566 Y87.558 Z0.2
;TYPE:SKIRT
G1 F2700 E0
G1 F1200 X110.198 Y86.864 E0.03122
G1 X110.886 Y86.227 E0.0624
G1 X111.626 Y85.651 E0.09359
G1 X112.412 Y85.139 E0.12479
G1 X113.239 Y84.697 E0.15598
G1 X114.101 Y84.327 E0.18718
G1 X114.991 Y84.031 E0.21838
G1 X115.903 Y83.813 E0.24957
G1 X116.83 Y83.672 E0.28075
G1 X117.701 Y83.613 E0.30979
G1 X118.33 Y83.6 E0.33071
G1 X181.451 Y83.601 E2.43013
G1 X182.149 Y83.611 E2.45334
G1 X183.085 Y83.665 E2.48453
G1 X184.013 Y83.797 E2.5157
G1 X184.927 Y84.009 E2.54691
G1 X185.819 Y84.298 E2.5781
G1 X186.684 Y84.661 E2.6093
G1 X187.514 Y85.097 E2.64048
G1 X188.305 Y85.602 E2.67169
G1 X189.049 Y86.173 E2.70289
G1 X189.742 Y86.805 E2.73408
G1 X190.379 Y87.493 E2.76527
G1 X190.954 Y88.234 E2.79646
G1 X191.465 Y89.02 E2.82764
G1 X191.907 Y89.848 E2.85886
G1 X192.276 Y90.71 E2.89005
G1 X192.571 Y91.6 E2.92123
G1 X192.789 Y92.512 E2.95242
G1 X192.929 Y93.44 E2.98364
G1 X192.987 Y94.301 E3.01234
G1 X193 Y94.93 E3.03326
G1 X192.999 Y204.8 E6.68755
G1 X192.99 Y205.527 E6.71174
G1 X192.939 Y206.464 E6.74295
G1 X192.807 Y207.392 E6.77412
G1 X192.598 Y208.306 E6.80531
G1 X192.311 Y209.199 E6.8365
G1 X191.949 Y210.065 E6.86772
G1 X191.515 Y210.896 E6.89891
G1 X191.011 Y211.687 E6.9301
G1 X190.442 Y212.432 E6.96128
G1 X189.811 Y213.127 E6.9925
G1 X189.124 Y213.765 E7.02368
G1 X188.385 Y214.342 E7.05487
G1 X187.599 Y214.854 E7.08607
G1 X186.773 Y215.297 E7.11724
G1 X185.911 Y215.669 E7.14847
G1 X185.022 Y215.965 E7.17963
G1 X184.11 Y216.185 E7.21084
G1 X183.183 Y216.326 E7.24202
G1 X182.299 Y216.387 E7.2715
G1 X181.67 Y216.4 E7.29242
G1 X118.565 Y216.399 E9.3913
G1 X117.867 Y216.39 E9.41452
G1 X116.931 Y216.338 E9.4457
G1 X116.002 Y216.206 E9.47691
G1 X115.088 Y215.996 E9.5081
G1 X114.195 Y215.709 E9.5393
G1 X113.33 Y215.346 E9.5705
G1 X112.499 Y214.912 E9.60168
G1 X111.708 Y214.408 E9.63287
G1 X110.963 Y213.838 E9.66407
G1 X110.269 Y213.207 E9.69527
G1 X109.632 Y212.52 E9.72643
G1 X109.055 Y211.78 E9.75764
G1 X108.543 Y210.994 E9.78884
G1 X108.1 Y210.167 E9.82005
G1 X107.729 Y209.306 E9.85123
G1 X107.433 Y208.416 E9.88242
G1 X107.214 Y207.504 E9.91362
G1 X107.073 Y206.577 E9.94481
G1 X107.013 Y205.688 E9.97444
G1 X107 Y205.058 E9.9954
G1 X107.001 Y95.125 E13.65179
G1 X107.01 Y94.46 E13.67391
G1 X107.063 Y93.524 E13.70509
G1 X107.195 Y92.595 E13.7363
G1 X107.406 Y91.681 E13.7675
G1 X107.694 Y90.789 E13.79867
G1 X108.057 Y89.924 E13.82987
G1 X108.492 Y89.093 E13.86107
G1 X108.996 Y88.303 E13.89224
G1 X109.566 Y87.558 E13.92344
G0 F6000 X109.961 Y87.711
G1 F1200 X110.589 Y87.039 E13.95403
G1 X111.274 Y86.423 E13.98467
G1 X112.01 Y85.87 E14.01529
G1 X112.791 Y85.382 E14.04592
G1 X113.611 Y84.964 E14.07653
G1 X114.465 Y84.619 E14.10716
G1 X115.345 Y84.349 E14.13778
G1 X116.245 Y84.157 E14.16839
G1 X117.159 Y84.043 E14.19902
G1 X117.712 Y84.013 E14.21744
G1 X118.33 Y84 E14.238
G1 X181.445 Y84.001 E16.33722
G1 X182.143 Y84.011 E16.36043
G1 X183.062 Y84.064 E16.39105
G1 X183.973 Y84.197 E16.42167
G1 X184.869 Y84.408 E16.45229
G1 X185.743 Y84.696 E16.48289
G1 X186.59 Y85.059 E16.51354
G1 X187.401 Y85.494 E16.54415
G1 X188.171 Y85.998 E16.57476
G1 X188.895 Y86.567 E16.60539
G1 X189.567 Y87.197 E16.63603
G1 X190.182 Y87.882 E16.66664
G1 X190.735 Y88.618 E16.69726
G1 X191.222 Y89.399 E16.72788
G1 X191.639 Y90.22 E16.7585
G1 X191.984 Y91.074 E16.78914
G1 X192.253 Y91.954 E16.81974
G1 X192.445 Y92.855 E16.85038
G1 X192.558 Y93.768 E16.88098
G1 X192.587 Y94.312 E16.8991
G1 X192.6 Y94.93 E16.91966
G1 X192.599 Y204.795 E20.57379
G1 X192.59 Y205.522 E20.59797
G1 X192.539 Y206.441 E20.62858
G1 X192.408 Y207.353 E20.65922
G1 X192.198 Y208.249 E20.68983
G1 X191.912 Y209.124 E20.72045
G1 X191.551 Y209.971 E20.75107
G1 X191.117 Y210.783 E20.7817
G1 X190.615 Y211.555 E20.81233
G1 X190.047 Y212.28 E20.84296
G1 X189.419 Y212.953 E20.87357
G1 X188.735 Y213.569 E20.90419
G1 X188 Y214.123 E20.9348
G1 X187.22 Y214.612 E20.96542
G1 X186.4 Y215.031 E20.99605
G1 X185.547 Y215.377 E21.02667
G1 X184.667 Y215.648 E21.05729
G1 X183.767 Y215.841 E21.08791
G1 X182.853 Y215.956 E21.11855
G1 X182.288 Y215.987 E21.13737
G1 X181.67 Y216 E21.15792
G1 X118.57 Y215.999 E23.25664
G1 X117.872 Y215.99 E23.27986
G1 X116.953 Y215.938 E23.31047
G1 X116.042 Y215.807 E23.34108
G1 X115.146 Y215.597 E23.37169
G1 X114.271 Y215.31 E23.40232
G1 X113.424 Y214.948 E23.43296
G1 X112.612 Y214.514 E23.46358
G1 X111.841 Y214.012 E23.49418
G1 X111.116 Y213.444 E23.52481
G1 X110.443 Y212.815 E23.55545
G1 X109.828 Y212.131 E23.58604
G1 X109.274 Y211.396 E23.61666
G1 X108.786 Y210.615 E23.64729
G1 X108.367 Y209.795 E23.67791
G1 X108.021 Y208.942 E23.70853
G1 X107.751 Y208.062 E23.73915
G1 X107.558 Y207.161 E23.76979
G1 X107.444 Y206.248 E23.8004
G1 X107.413 Y205.677 E23.81942
G1 X107.4 Y205.058 E23.84001
G1 X107.401 Y95.131 E27.49619
G1 X107.41 Y94.466 E27.51831
G1 X107.462 Y93.546 E27.54896
G1 X107.594 Y92.635 E27.57958
G1 X107.805 Y91.739 E27.6102
G1 X108.092 Y90.864 E27.64082
G1 X108.455 Y90.018 E27.67144
G1 X108.889 Y89.206 E27.70207
G1 X109.392 Y88.435 E27.73268
G1 X109.961 Y87.711 E27.76331
G0 F6000 X110.355 Y87.867
G1 F1200 X110.981 Y87.217 E27.79333
G1 X111.662 Y86.624 E27.82336
G1 X112.394 Y86.094 E27.85342
G1 X113.169 Y85.631 E27.88344
G1 X113.982 Y85.238 E27.91348
G1 X114.827 Y84.918 E27.94353
G1 X115.696 Y84.675 E27.97354
G1 X116.584 Y84.509 E28.00359
G1 X117.723 Y84.413 E28.04161
G1 X118.33 Y84.4 E28.0618
G1 X181.439 Y84.401 E30.16081
G1 X182.137 Y84.411 E30.18403
G1 X183.039 Y84.464 E30.21408
G1 X183.932 Y84.596 E30.24411
G1 X184.81 Y84.807 E30.27414
G1 X185.666 Y85.095 E30.30418
G1 X186.493 Y85.457 E30.33421
G1 X187.285 Y85.892 E30.36426
G1 X188.036 Y86.394 E30.39431
G1 X188.739 Y86.961 E30.42434
G1 X189.389 Y87.588 E30.45438
G1 X189.981 Y88.27 E30.48442
G1 X190.511 Y89.001 E30.51445
G1 X190.973 Y89.777 E30.54449
G1 X191.366 Y90.59 E30.57452
G1 X191.684 Y91.435 E30.60455
G1 X191.927 Y92.305 E30.6346
G1 X192.092 Y93.193 E30.66464
G1 X192.187 Y94.323 E30.70235
G1 X192.2 Y94.93 E30.72255
G1 X192.199 Y204.79 E34.37651
G1 X192.19 Y205.517 E34.40069
G1 X192.139 Y206.419 E34.43074
G1 X192.008 Y207.313 E34.46079
G1 X191.799 Y208.191 E34.49081
G1 X191.513 Y209.048 E34.52086
G1 X191.152 Y209.876 E34.5509
G1 X190.72 Y210.668 E34.5809
G1 X190.219 Y211.42 E34.61096
G1 X189.653 Y212.124 E34.641
G1 X189.028 Y212.775 E34.67102
G1 X188.347 Y213.369 E34.70107
G1 X187.616 Y213.9 E34.73112
G1 X186.842 Y214.364 E34.76114
G1 X186.029 Y214.758 E34.79119
G1 X185.185 Y215.078 E34.82121
G1 X184.315 Y215.323 E34.85127
G1 X183.428 Y215.489 E34.88129
G1 X182.277 Y215.587 E34.91971
G1 X181.67 Y215.6 E34.9399
G1 X118.575 Y215.599 E37.03845
G1 X117.877 Y215.59 E37.06167
G1 X116.976 Y215.539 E37.09168
G1 X116.082 Y215.407 E37.12174
G1 X115.204 Y215.198 E37.15176
G1 X114.347 Y214.911 E37.18182
G1 X113.52 Y214.55 E37.21183
G1 X112.727 Y214.117 E37.24188
G1 X111.976 Y213.616 E37.27191
G1 X111.272 Y213.05 E37.30195
G1 X110.621 Y212.424 E37.33199
G1 X110.028 Y211.743 E37.36202
G1 X109.498 Y211.012 E37.39205
G1 X109.034 Y210.237 E37.4221
G1 X108.64 Y209.424 E37.45215
G1 X108.32 Y208.58 E37.48217
G1 X108.076 Y207.71 E37.51222
G1 X107.91 Y206.822 E37.54227
G1 X107.813 Y205.667 E37.58082
G1 X107.8 Y205.058 E37.60108
G1 X107.801 Y95.136 E41.2571
G1 X107.81 Y94.471 E41.27922
G1 X107.862 Y93.569 E41.30927
G1 X107.994 Y92.676 E41.33929
G1 X108.204 Y91.798 E41.36932
G1 X108.491 Y90.941 E41.39938
G1 X108.853 Y90.114 E41.4294
G1 X109.286 Y89.322 E41.45943
G1 X109.788 Y88.571 E41.48947
G1 X110.355 Y87.867 E41.51954
G1 F2700 E34.51954
;MESH:dwarves.stl
G0 F6000 X117.335 Y95.02
G0 X118.42 Y95.02
G0 X119 Y204.4
;TYPE:WALL-INNER
G1 F2700 E41.51954
G1 F1200 X181 Y204.4 E43.58166
G1 X181 Y95.6 E47.20037
G1 X119 Y95.6 E49.2625
G1 X119 Y204.4 E52.8812
G0 F6000 X118.6 Y204.8
G1 F1200 X181.4 Y204.8 E54.96994
G1 X181.4 Y95.2 E58.61525
G1 X118.6 Y95.2 E60.70398
G1 X118.6 Y204.8 E64.34929
G0 F6000 X118.2 Y205.2
;TYPE:WALL-OUTER
G1 F1200 X181.8 Y205.2 E66.46464
G1 X181.8 Y94.8 E70.13656
G1 X118.2 Y94.8 E72.2519
G1 X118.2 Y205.2 E75.92382
G0 F6000 X118.47 Y204.93
G0 X119.1 Y204.04
G0 X119.36 Y204.04
;TYPE:SKIN
G1 F1200 X180.64 Y204.04 E77.962
G1 X180.64 Y126.6 E80.53767
G1 X180.64 Y95.96 E81.55676
G1 X119.36 Y95.96 E83.59494
G1 X119.36 Y204.04 E87.18969
G0 F6000 X120.117 Y203.839
G1 F1200 X119.559 Y203.281 E87.21594
G0 F6000 X119.559 Y202.715
G1 F1200 X120.683 Y203.839 E87.26881
G0 F6000 X121.249 Y203.839
G1 F1200 X119.559 Y202.149 E87.3483
G0 F6000 X119.559 Y201.584
G1 F1200 X121.814 Y203.839 E87.45437
G0 F6000 X122.38 Y203.839
G1 F1200 X119.559 Y201.018 E87.58706
G0 F6000 X119.559 Y200.452
G1 F1200 X122.946 Y203.839 E87.74638
G0 F6000 X123.511 Y203.839
G1 F1200 X119.559 Y199.887 E87.93227
G0 F6000 X119.559 Y199.321
G1 F1200 X124.077 Y203.839 E88.14478
G0 F6000 X124.643 Y203.839
G1 F1200 X119.559 Y198.755 E88.38391
G0 F6000 X119.559 Y198.19
G1 F1200 X125.208 Y203.839 E88.64963
G0 F6000 X125.774 Y203.839
G1 F1200 X119.559 Y197.624 E88.94196
G0 F6000 X119.559 Y197.058
G1 F1200 X126.34 Y203.839 E89.26092
G0 F6000 X126.905 Y203.839
G1 F1200 X119.559 Y196.492 E89.60647
G0 F6000 X119.559 Y195.927
G1 F1200 X127.471 Y203.839 E89.97863
G0 F6000 X128.037 Y203.839
G1 F1200 X119.559 Y195.361 E90.37741
G0 F6000 X119.559 Y194.795
G1 F1200 X128.602 Y203.839 E90.80279
G0 F6000 X129.168 Y203.839
G1 F1200 X119.559 Y194.23 E91.25477
G0 F6000 X119.559 Y193.664
G1 F1200 X129.734 Y203.839 E91.73337
G0 F6000 X130.299 Y203.839
G1 F1200 X119.559 Y193.098 E92.23857
G0 F6000 X119.559 Y192.533
G1 F1200 X130.865 Y203.839 E92.77037
G0 F6000 X131.431 Y203.839
G1 F1200 X119.559 Y191.967 E93.32879
G0 F6000 X119.559 Y191.401
G1 F1200 X131.997 Y203.839 E93.91383
G0 F6000 X132.562 Y203.839
G1 F1200 X119.559 Y190.836 E94.52546
G0 F6000 X119.559 Y190.27
G1 F1200 X133.128 Y203.839 E95.1637
G0 F6000 X133.694 Y203.839
G1 F1200 X119.559 Y189.704 E95.82857
G0 F6000 X119.559 Y189.139
G1 F1200 X134.259 Y203.839 E96.52001
G0 F6000 X134.825 Y203.839
G1 F1200 X119.559 Y188.573 E97.23808
G0 F6000 X119.559 Y188.007
G1 F1200 X135.391 Y203.839 E97.98276
G0 F6000 X135.956 Y203.839
G1 F1200 X119.559 Y187.441 E98.75405
G0 F6000 X119.559 Y186.876
G1 F1200 X136.522 Y203.839 E99.55194
G0 F6000 X137.088 Y203.839
G1 F1200 X119.559 Y186.31 E100.37645
G0 F6000 X119.559 Y185.744
G1 F1200 X137.653 Y203.839 E101.22756
G0 F6000 X138.219 Y203.839
G1 F1200 X119.559 Y185.179 E102.10527
G0 F6000 X119.559 Y184.613
G1 F1200 X138.785 Y203.839 E103.0096
G0 F6000 X139.35 Y203.839
G1 F1200 X119.559 Y184.047 E103.94053
G0 F6000 X119.559 Y183.482
G1 F1200 X139.916 Y203.839 E104.89806
G0 F6000 X140.482 Y203.839
G1 F1200 X119.559 Y182.916 E105.88222
G0 F6000 X119.559 Y182.35
G1 F1200 X141.048 Y203.839 E106.89299
G0 F6000 X141.613 Y203.839
G1 F1200 X119.559 Y181.785 E107.93035
G0 F6000 X119.559 Y181.219
G1 F1200 X142.179 Y203.839 E108.99432
G0 F6000 X142.745 Y203.839
G1 F1200 X119.559 Y180.653 E110.08492
G0 F6000 X119.559 Y180.088
G1 F1200 X143.31 Y203.839 E111.2021
G0 F6000 X143.876 Y203.839
G1 F1200 X119.559 Y179.522 E112.34589
G0 F6000 X119.559 Y178.956
G1 F1200 X144.442 Y203.839 E113.51631
G0 F6000 X145.007 Y203.839
G1 F1200 X119.559 Y178.391 E114.71331
G0 F6000 X119.559 Y177.825
G1 F1200 X145.573 Y203.839 E115.93693
G0 F6000 X146.139 Y203.839
G1 F1200 X119.559 Y177.259 E117.18717
G0 F6000 X119.559 Y176.693
G1 F1200 X146.704 Y203.839 E118.46401
G0 F6000 X147.27 Y203.839
G1 F1200 X119.559 Y176.128 E119.76745
G0 F6000 X119.559 Y175.562
G1 F1200 X147.836 Y203.839 E121.09751
G0 F6000 X148.401 Y203.839
G1 F1200 X119.559 Y174.996 E122.45418
G0 F6000 X119.559 Y174.431
G1 F1200 X148.967 Y203.839 E123.83744
G0 F6000 X149.533 Y203.839
G1 F1200 X119.559 Y173.865 E125.24732
G0 F6000 X119.559 Y173.299
G1 F1200 X150.098 Y203.839 E126.68381
G0 F6000 X150.664 Y203.839
G1 F1200 X119.559 Y172.734 E128.14689
G0 F6000 X119.559 Y172.168
G1 F1200 X151.23 Y203.839 E129.6366
G0 F6000 X151.796 Y203.839
G1 F1200 X119.559 Y171.602 E131.15293
G0 F6000 X119.559 Y171.037
G1 F1200 X152.361 Y203.839 E132.69583
G0 F6000 X152.927 Y203.839
G1 F1200 X119.559 Y170.471 E134.26536
G0 F6000 X119.559 Y169.905
G1 F1200 X153.493 Y203.839 E135.86151
G0 F6000 X154.058 Y203.839
G1 F1200 X119.559 Y169.34 E137.48424
G0 F6000 X119.559 Y168.774
G1 F1200 X154.624 Y203.839 E139.13359
G0 F6000 X155.19 Y203.839
G1 F1200 X119.559 Y168.208 E140.80956
G0 F6000 X119.559 Y167.642
G1 F1200 X155.755 Y203.839 E142.51214
G0 F6000 X156.321 Y203.839
G1 F1200 X119.559 Y167.077 E144.24131
G0 F6000 X119.559 Y166.511
G1 F1200 X156.887 Y203.839 E145.9971
G0 F6000 X157.452 Y203.839
G1 F1200 X119.559 Y165.945 E147.7795
G0 F6000 X119.559 Y165.38
G1 F1200 X158.018 Y203.839 E149.58849
G0 F6000 X158.584 Y203.839
G1 F1200 X119.559 Y164.814 E151.42411
G0 F6000 X119.559 Y164.248
G1 F1200 X159.149 Y203.839 E153.28632
G0 F6000 X159.715 Y203.839
G1 F1200 X119.559 Y163.683 E155.17514
G0 F6000 X119.559 Y163.117
G1 F1200 X160.281 Y203.839 E157.09058
G0 F6000 X160.846 Y203.839
G1 F1200 X119.559 Y162.551 E159.03261
G0 F6000 X119.559 Y161.986
G1 F1200 X161.412 Y203.839 E161.00125
G0 F6000 X161.978 Y203.839
G1 F1200 X119.559 Y161.42 E162.99651
G0 F6000 X119.559 Y160.854
G1 F1200 X162.544 Y203.839 E165.01839
G0 F6000 X163.109 Y203.839
G1 F1200 X119.559 Y160.289 E167.06685
G0 F6000 X119.559 Y159.723
G1 F1200 X163.675 Y203.839 E169.14193
G0 F6000 X164.241 Y203.839
G1 F1200 X119.559 Y159.157 E171.24364
G0 F6000 X119.559 Y158.592
G1 F1200 X164.806 Y203.839 E173.37192
G0 F6000 X165.372 Y203.839
G1 F1200 X119.559 Y158.026 E175.52682
G0 F6000 X119.559 Y157.46
G1 F1200 X165.938 Y203.839 E177.70835
G0 F6000 X166.503 Y203.839
G1 F1200 X119.559 Y156.894 E179.91647
G0 F6000 X119.559 Y156.329
G1 F1200 X167.069 Y203.839 E182.1512
G0 F6000 X167.635 Y203.839
G1 F1200 X119.559 Y155.763 E184.41254
G0 F6000 X119.559 Y155.197
G1 F1200 X168.2 Y203.839 E186.70049
G0 F6000 X168.766 Y203.839
G1 F1200 X119.559 Y154.632 E189.01504
G0 F6000 X119.559 Y154.066
G1 F1200 X169.332 Y203.839 E191.35621
G0 F6000 X169.897 Y203.839
G1 F1200 X119.559 Y153.5 E193.72397
G0 F6000 X119.559 Y152.935
G1 F1200 X170.463 Y203.839 E196.11834
G0 F6000 X171.029 Y203.839
G1 F1200 X119.559 Y152.369 E198.53933
G0 F6000 X119.559 Y151.803
G1 F1200 X171.595 Y203.839 E200.98695
G0 F6000 X172.16 Y203.839
G1 F1200 X119.559 Y151.238 E203.46114
G0 F6000 X119.559 Y150.672
G1 F1200 X172.726 Y203.839 E205.96195
G0 F6000 X173.292 Y203.839
G1 F1200 X119.559 Y150.106 E208.48939
G0 F6000 X119.559 Y149.541
G1 F1200 X173.857 Y203.839 E211.0434
G0 F6000 X174.423 Y203.839
G1 F1200 X119.559 Y148.975 E213.62403
G0 F6000 X119.559 Y148.409
G1 F1200 X174.989 Y203.839 E216.23129
G0 F6000 X175.554 Y203.839
G1 F1200 X119.559 Y147.844 E218.86512
G0 F6000 X119.559 Y147.278
G1 F1200 X176.12 Y203.839 E221.52558
G0 F6000 X176.686 Y203.839
G1 F1200 X119.559 Y146.712 E224.21266
G0 F6000 X119.559 Y146.146
G1 F1200 X177.251 Y203.839 E226.92633
G0 F6000 X177.817 Y203.839
G1 F1200 X119.559 Y145.581 E229.66661
G0 F6000 X119.559 Y145.015
G1 F1200 X178.383 Y203.839 E232.43351
G0 F6000 X178.948 Y203.839
G1 F1200 X119.559 Y144.449 E235.22701
G0 F6000 X119.559 Y143.884
