;FLAVOR:Marlin
;TIME:22053
;Filament used: 14.32m
;Layer height: 0.16
;MINX:75
;MINY:90.7
;MINZ:0.2
;MAXX:225
;MAXY:209.3
;MAXZ:28.92
;Generated with Cura_SteamEngine 5.2.1
M140 S60
M105
M190 S60
M104 S210
M105
M109 S210
M82 ;absolute extrusion mode
M201 X500.00 Y500.00 Z100.00 E5000.00 ;Setup machine max acceleration
M203 X500.00 Y500.00 Z10.00 E50.00 ;Setup machine max feedrate
M204 P500.00 R1000.00 T500.00 ;Setup Print/Retract/Travel acceleration
M205 X8.00 Y8.00 Z0.40 E5.00 ;Setup Jerk
M220 S100 ;Reset Feedrate
M221 S100 ;Reset Flowrate

G28 ;Home
G29 ;Auto bed Level

G92 E0 ;Reset Extruder
G1 Z2.0 F3000 ;Move Z Axis up
G1 X10.1 Y20 Z0.28 F5000.0 ;Move to start position
G1 X10.1 Y200.0 Z0.28 F1500.0 E15 ;Draw the first line
G1 X10.4 Y200.0 Z0.28 F5000.0 ;Move to side a little
G1 X10.4 Y20 Z0.28 F1500.0 E30 ;Draw the second line
G92 E0 ;Reset Extruder
G1 Z2.0 F3000 ;Move Z Axis up

G92 E0
G92 E0
G1 F2700 E-7
;LAYER_COUNT:198
;LAYER:0
M107
G0 F6000 X78.886 Y93.327 Z0.2
;TYPE:SKIRT
G1 F2700 E0
G1 F1200 X79.626 Y92.751 E0.03119
G1 X80.412 Y92.239 E0.06239
G1 X81.239 Y91.797 E0.09358
G1 X82.101 Y91.427 E0.12478
G1 X82.991 Y91.131 E0.15597
G1 X83.903 Y90.913 E0.18716
G1 X84.83 Y90.772 E0.21835
G1 X85.701 Y90.713 E0.24738
G1 X86.33 Y90.7 E0.26831
G1 X213.451 Y90.701 E4.49637
G1 X214.149 Y90.711 E4.51959
G1 X215.085 Y90.765 E4.55077
G1 X216.013 Y90.897 E4.58195
G1 X216.927 Y91.109 E4.61315
G1 X217.819 Y91.398 E4.64434
G1 X218.684 Y91.761 E4.67554
G1 X219.514 Y92.197 E4.70672
G1 X220.305 Y92.702 E4.73794
G1 X221.049 Y93.273 E4.76913
G1 X221.742 Y93.905 E4.80033
G1 X222.379 Y94.593 E4.83151
G1 X222.954 Y95.334 E4.86271
G1 X223.465 Y96.12 E4.89389
G1 X223.907 Y96.948 E4.92511
G1 X224.276 Y97.81 E4.95629
G1 X224.571 Y98.7 E4.98748
G1 X224.789 Y99.612 E5.01867
G1 X224.929 Y100.54 E5.04988
G1 X224.987 Y101.401 E5.07858
G1 X225 Y102.03 E5.09951
G1 X224.999 Y197.715 E8.282
G1 X224.989 Y198.442 E8.30619
G1 X224.936 Y199.379 E8.3374
G1 X224.804 Y200.307 E8.36858
G1 X224.593 Y201.221 E8.39978
G1 X224.304 Y202.113 E8.43096
G1 X223.941 Y202.978 E8.46216
G1 X223.506 Y203.809 E8.49336
G1 X223.001 Y204.599 E8.52454
G1 X222.431 Y205.344 E8.55574
G1 X221.8 Y206.038 E8.58694
G1 X221.111 Y206.675 E8.61815
G1 X220.371 Y207.251 E8.64934
G1 X219.585 Y207.762 E8.68052
G1 X218.758 Y208.204 E8.71171
G1 X217.896 Y208.574 E8.74291
G1 X217.006 Y208.869 E8.7741
G1 X216.094 Y209.088 E8.80529
G1 X215.167 Y209.228 E8.83647
G1 X214.299 Y209.287 E8.86541
G1 X213.67 Y209.3 E8.88633
G1 X86.565 Y209.299 E13.11386
G1 X85.867 Y209.29 E13.13708
G1 X84.931 Y209.238 E13.16826
G1 X84.002 Y209.106 E13.19947
G1 X83.088 Y208.896 E13.23066
G1 X82.195 Y208.609 E13.26186
G1 X81.33 Y208.246 E13.29306
G1 X80.499 Y207.812 E13.32424
G1 X79.708 Y207.308 E13.35544
G1 X78.963 Y206.738 E13.38664
G1 X78.269 Y206.107 E13.41783
G1 X77.632 Y205.42 E13.44899
G1 X77.055 Y204.68 E13.4802
G1 X76.543 Y203.894 E13.5114
G1 X76.1 Y203.067 E13.54261
G1 X75.729 Y202.206 E13.57379
G1 X75.433 Y201.316 E13.60499
G1 X75.214 Y200.404 E13.63618
G1 X75.073 Y199.477 E13.66737
G1 X75.013 Y198.588 E13.697
G1 X75 Y197.958 E13.71796
G1 X75.001 Y102.225 E16.90205
G1 X75.01 Y101.56 E16.92417
G1 X75.063 Y100.624 E16.95536
G1 X75.195 Y99.695 E16.98656
G1 X75.406 Y98.781 E17.01776
G1 X75.694 Y97.889 E17.04894
G1 X76.057 Y97.024 E17.08014
G1 X76.492 Y96.193 E17.11134
G1 X76.996 Y95.403 E17.14251
G1 X77.566 Y94.658 E17.1737
G1 X78.198 Y93.964 E17.20492
G1 X78.886 Y93.327 E17.23611
G0 F6000 X79.274 Y93.523
G1 F1200 X80.01 Y92.97 E17.26673
G1 X80.791 Y92.482 E17.29736
G1 X81.611 Y92.064 E17.32797
G1 X82.465 Y91.719 E17.35861
G1 X83.345 Y91.449 E17.38922
G1 X84.245 Y91.257 E17.41983
G1 X85.159 Y91.143 E17.45046
G1 X85.712 Y91.113 E17.46888
G1 X86.33 Y91.1 E17.48944
G1 X213.445 Y91.101 E21.71731
G1 X214.143 Y91.111 E21.74052
G1 X215.062 Y91.164 E21.77114
G1 X215.973 Y91.297 E21.80176
G1 X216.869 Y91.508 E21.83238
G1 X217.743 Y91.796 E21.86298
G1 X218.59 Y92.159 E21.89363
G1 X219.401 Y92.594 E21.92424
G1 X220.171 Y93.098 E21.95485
G1 X220.895 Y93.667 E21.98548
G1 X221.567 Y94.297 E22.01612
G1 X222.182 Y94.982 E22.04673
G1 X222.735 Y95.718 E22.07735
G1 X223.222 Y96.499 E22.10797
G1 X223.639 Y97.32 E22.13859
G1 X223.984 Y98.174 E22.16923
G1 X224.253 Y99.054 E22.19983
G1 X224.445 Y99.955 E22.23047
G1 X224.558 Y100.868 E22.26107
G1 X224.587 Y101.412 E22.27919
G1 X224.6 Y102.03 E22.29975
G1 X224.599 Y197.71 E25.48208
G1 X224.589 Y198.437 E25.50626
G1 X224.536 Y199.356 E25.53688
G1 X224.404 Y200.267 E25.5675
G1 X224.193 Y201.163 E25.59811
G1 X223.906 Y202.038 E25.62874
G1 X223.543 Y202.884 E25.65936
G1 X223.109 Y203.696 E25.68998
G1 X222.605 Y204.467 E25.72062
G1 X222.037 Y205.191 E25.75122
G1 X221.408 Y205.863 E25.78184
G1 X220.723 Y206.478 E25.81246
G1 X219.987 Y207.031 E25.84308
G1 X219.206 Y207.519 E25.87371
G1 X218.386 Y207.937 E25.90432
G1 X217.532 Y208.282 E25.93495
G1 X216.652 Y208.551 E25.96556
G1 X215.751 Y208.744 E25.99621
G1 X214.838 Y208.857 E26.0268
G1 X214.288 Y208.887 E26.04513
G1 X213.67 Y208.9 E26.06568
G1 X86.57 Y208.899 E30.29305
G1 X85.872 Y208.89 E30.31627
G1 X84.953 Y208.838 E30.34688
G1 X84.042 Y208.707 E30.37749
G1 X83.146 Y208.497 E30.4081
G1 X82.271 Y208.21 E30.43873
G1 X81.424 Y207.848 E30.46936
G1 X80.612 Y207.414 E30.49999
G1 X79.841 Y206.912 E30.53059
G1 X79.116 Y206.344 E30.56122
G1 X78.443 Y205.715 E30.59186
G1 X77.828 Y205.031 E30.62245
G1 X77.274 Y204.296 E30.65307
G1 X76.786 Y203.515 E30.6837
G1 X76.367 Y202.695 E30.71432
G1 X76.021 Y201.842 E30.74494
G1 X75.751 Y200.962 E30.77555
G1 X75.558 Y200.061 E30.8062
G1 X75.444 Y199.148 E30.8368
G1 X75.413 Y198.577 E30.85582
G1 X75.4 Y197.958 E30.87642
G1 X75.401 Y102.231 E34.06031
G1 X75.41 Y101.566 E34.08243
G1 X75.462 Y100.646 E34.11308
G1 X75.594 Y99.735 E34.14369
G1 X75.805 Y98.839 E34.17431
G1 X76.092 Y97.964 E34.20494
G1 X76.455 Y97.118 E34.23556
G1 X76.889 Y96.306 E34.26618
G1 X77.392 Y95.535 E34.2968
G1 X77.961 Y94.811 E34.32743
G1 X78.589 Y94.139 E34.35802
G1 X79.274 Y93.523 E34.38866
G0 F6000 X79.662 Y93.724
G1 F1200 X80.394 Y93.194 E34.41872
G1 X81.169 Y92.731 E34.44874
G1 X81.982 Y92.338 E34.47878
G1 X82.827 Y92.018 E34.50883
G1 X83.696 Y91.775 E34.53884
G1 X84.584 Y91.609 E34.56889
G1 X85.723 Y91.513 E34.6069
G1 X86.33 Y91.5 E34.6271
G1 X213.439 Y91.501 E38.85476
G1 X214.137 Y91.511 E38.87798
G1 X215.039 Y91.564 E38.90803
G1 X215.932 Y91.696 E38.93805
G1 X216.81 Y91.907 E38.96809
G1 X217.666 Y92.195 E38.99813
G1 X218.493 Y92.557 E39.02815
G1 X219.285 Y92.992 E39.05821
G1 X220.036 Y93.494 E39.08825
G1 X220.739 Y94.061 E39.11829
G1 X221.389 Y94.688 E39.14833
G1 X221.981 Y95.37 E39.17837
G1 X222.511 Y96.101 E39.2084
G1 X222.973 Y96.877 E39.23844
G1 X223.366 Y97.69 E39.26847
G1 X223.684 Y98.535 E39.2985
G1 X223.927 Y99.405 E39.32854
G1 X224.092 Y100.293 E39.35858
G1 X224.187 Y101.423 E39.3963
G1 X224.2 Y102.03 E39.41649
G1 X224.199 Y197.704 E42.59862
G1 X224.189 Y198.431 E42.62281
G1 X224.137 Y199.333 E42.65286
G1 X224.005 Y200.226 E42.68288
G1 X223.794 Y201.105 E42.71295
G1 X223.507 Y201.961 E42.74297
G1 X223.145 Y202.788 E42.773
G1 X222.711 Y203.58 E42.80304
G1 X222.209 Y204.331 E42.83308
G1 X221.643 Y205.034 E42.8631
G1 X221.016 Y205.685 E42.89316
G1 X220.335 Y206.277 E42.92318
G1 X219.604 Y206.807 E42.95321
G1 X218.828 Y207.27 E42.98326
G1 X218.015 Y207.663 E43.0133
G1 X217.17 Y207.983 E43.04335
G1 X216.301 Y208.226 E43.07336
G1 X215.413 Y208.391 E43.1034
G1 X214.277 Y208.487 E43.14132
G1 X213.67 Y208.5 E43.16151
G1 X86.575 Y208.499 E47.38871
G1 X85.877 Y208.49 E47.41193
G1 X84.976 Y208.439 E47.44194
G1 X84.082 Y208.307 E47.472
G1 X83.204 Y208.098 E47.50202
G1 X82.347 Y207.811 E47.53208
G1 X81.52 Y207.45 E47.56209
G1 X80.727 Y207.017 E47.59214
G1 X79.976 Y206.516 E47.62217
G1 X79.272 Y205.95 E47.65221
G1 X78.621 Y205.324 E47.68225
G1 X78.028 Y204.643 E47.71228
G1 X77.498 Y203.912 E47.74232
G1 X77.034 Y203.137 E47.77236
G1 X76.64 Y202.324 E47.80241
G1 X76.32 Y201.48 E47.83243
G1 X76.076 Y200.61 E47.86248
G1 X75.91 Y199.722 E47.89253
G1 X75.813 Y198.567 E47.93108
G1 X75.8 Y197.958 E47.95134
G1 X75.801 Y102.236 E51.13507
G1 X75.81 Y101.571 E51.15719
G1 X75.862 Y100.669 E51.18724
G1 X75.994 Y99.776 E51.21726
G1 X76.204 Y98.898 E51.24729
G1 X76.491 Y98.041 E51.27735
G1 X76.853 Y97.214 E51.30737
G1 X77.286 Y96.422 E51.33739
G1 X77.788 Y95.671 E51.36744
G1 X78.355 Y94.967 E51.3975
G1 X78.981 Y94.317 E51.42752
G1 X79.662 Y93.724 E51.45755
G1 F2700 E44.45755
;MESH:easterlings_units.stl
G0 F6000 X86.42 Y101.035
G0 X86.42 Y102.12
G0 X87 Y197.3
;TYPE:WALL-INNER
G1 F2700 E51.45755
G1 F1200 X213 Y197.3 E55.64833
G1 X213 Y170.882 E56.527
G1 X212.803 Y170.784 E56.53431
G1 X212.678 Y170.568 E56.54261
G1 X212.599 Y170.305 E56.55175
G1 X212.607 Y169.629 E56.57423
G1 X212.717 Y169.284 E56.58628
G1 X212.852 Y169.09 E56.59414
G1 X213 Y169.024 E56.59953
G1 X213 Y168.383 E56.62085
G1 X212.852 Y168.317 E56.62624
G1 X212.717 Y168.124 E56.63407
G1 X212.6 Y167.798 E56.64559
G1 X212.602 Y166.627 E56.68454
G1 X212.671 Y166.332 E56.69462
G1 X212.789 Y166.118 E56.70274
G1 X213 Y166.01 E56.71063
G1 X213 Y102.7 E58.81633
G1 X87 Y102.7 E63.0071
G1 X87 Y197.3 E66.15351
G0 F6000 X86.6 Y197.7
G1 F1200 X213.4 Y197.7 E70.3709
G1 X213.4 Y170.68 E71.26959
G1 X213.122 Y170.542 E71.27991
G1 X213.047 Y170.413 E71.28487
G1 X213 Y170.214 E71.29167
G1 X213.005 Y169.671 E71.30973
G1 X213.151 Y169.356 E71.32128
G1 X213.4 Y169.244 E71.33036
G1 X213.4 Y168.163 E71.36632
G1 X213.151 Y168.051 E71.3754
G1 X213.07 Y167.935 E71.3801
G1 X213 Y167.687 E71.38867
G1 X213.001 Y166.658 E71.4229
G1 X213.113 Y166.352 E71.43374
G1 X213.4 Y166.206 E71.44445
G1 X213.4 Y102.3 E73.56997
G1 X86.6 Y102.3 E77.78735
G1 X86.6 Y197.7 E80.96037
G0 F6000 X86.2 Y198.1
;TYPE:WALL-OUTER
G1 F1200 X213.8 Y198.1 E85.20436
G1 X213.8 Y170.579 E86.11972
G1 X213.8 Y170.379 E86.12637
G1 X213.6 Y170.379 E86.13302
G1 X213.44 Y170.3 E86.13895
G1 X213.4 Y170.197 E86.14263
G1 X213.405 Y169.707 E86.15893
G1 X213.45 Y169.622 E86.16213
G1 X213.6 Y169.555 E86.16759
G1 X213.8 Y169.555 E86.17424
G1 X213.8 Y167.852 E86.23089
G1 X213.6 Y167.852 E86.23754
G1 X213.45 Y167.785 E86.243
G1 X213.401 Y167.68 E86.24686
G1 X213.401 Y166.679 E86.28015
G1 X213.437 Y166.586 E86.28347
G1 X213.6 Y166.504 E86.28953
G1 X213.8 Y166.504 E86.29619
G1 X213.8 Y101.9 E88.44492
G1 X86.2 Y101.9 E92.68892
G1 X86.2 Y198.1 E95.88854
G0 F6000 X86.47 Y197.83
G0 X87.1 Y196.94
G0 X87.36 Y196.94
;TYPE:SKIN
G1 F1200 X212.64 Y196.94 E100.05537
G1 X212.64 Y171.146 E100.91328
G1 X212.64 Y171.081 E100.91545
G1 X212.498 Y170.974 E100.92136
G1 X212.307 Y170.635 E100.9343
G1 X212.241 Y170.266 E100.94677
G1 X212.245 Y169.539 E100.97095
G1 X212.39 Y169.129 E100.98541
G1 X212.582 Y168.853 E100.9966
G1 X212.64 Y168.811 E100.99898
G1 X212.64 Y168.596 E101.00613
G1 X212.582 Y168.554 E101.00851
G1 X212.39 Y168.278 E101.01969
G1 X212.243 Y167.772 E101.03722
G1 X212.241 Y166.629 E101.07524
G1 X212.333 Y166.209 E101.08954
G1 X212.479 Y165.936 E101.09983
G1 X212.64 Y165.815 E101.10653
G1 X212.64 Y103.06 E103.19377
G1 X87.36 Y103.06 E107.3606
G1 X87.36 Y196.94 E110.48306
G0 F6000 X88.127 Y196.739
G1 F1200 X87.56 Y196.171 E110.50976
G0 F6000 X87.56 Y195.606
G1 F1200 X88.693 Y196.739 E110.56305
G0 F6000 X89.258 Y196.739
G1 F1200 X87.56 Y195.04 E110.64294
G0 F6000 X87.56 Y194.474
G1 F1200 X89.824 Y196.739 E110.74946
G0 F6000 X90.39 Y196.739
G1 F1200 X87.56 Y193.909 E110.88257
G0 F6000 X87.56 Y193.343
G1 F1200 X90.955 Y196.739 E111.04228
G0 F6000 X91.521 Y196.739
G1 F1200 X87.56 Y192.777 E111.22862
G0 F6000 X87.56 Y192.212
G1 F1200 X92.087 Y196.739 E111.44156
G0 F6000 X92.652 Y196.739
G1 F1200 X87.56 Y191.646 E111.68109
G0 F6000 X87.56 Y191.08
G1 F1200 X93.218 Y196.739 E111.94725
G0 F6000 X93.784 Y196.739
G1 F1200 X87.56 Y190.515 E112.24001
G0 F6000 X87.56 Y189.949
G1 F1200 X94.349 Y196.739 E112.55937
G0 F6000 X94.915 Y196.739
G1 F1200 X87.56 Y189.383 E112.90535
G0 F6000 X87.56 Y188.818
G1 F1200 X95.481 Y196.739 E113.27793
G0 F6000 X96.047 Y196.739
G1 F1200 X87.56 Y188.252 E113.67713
G0 F6000 X87.56 Y187.686
G1 F1200 X96.612 Y196.739 E114.10293
G0 F6000 X97.178 Y196.739
G1 F1200 X87.56 Y187.12 E114.55536
G0 F6000 X87.56 Y186.555
G1 F1200 X97.744 Y196.739 E115.03438
G0 F6000 X98.309 Y196.739
G1 F1200 X87.56 Y185.989 E115.54
G0 F6000 X87.56 Y185.423
G1 F1200 X98.875 Y196.739 E116.07225
G0 F6000 X99.441 Y196.739
G1 F1200 X87.56 Y184.858 E116.6311
G0 F6000 X87.56 Y184.292
G1 F1200 X100.006 Y196.739 E117.21654
G0 F6000 X100.572 Y196.739
G1 F1200 X87.56 Y183.726 E117.82861
G0 F6000 X87.56 Y183.161
G1 F1200 X101.138 Y196.739 E118.46728
G0 F6000 X101.703 Y196.739
G1 F1200 X87.56 Y182.595 E119.13254
G0 F6000 X87.56 Y182.029
G1 F1200 X102.269 Y196.739 E119.82443
G0 F6000 X102.835 Y196.739
G1 F1200 X87.56 Y181.464 E120.54292
G0 F6000 X87.56 Y180.898
G1 F1200 X103.4 Y196.739 E121.28801
G0 F6000 X103.966 Y196.739
G1 F1200 X87.56 Y180.332 E122.05972
G0 F6000 X87.56 Y179.767
G1 F1200 X104.532 Y196.739 E122.85803
G0 F6000 X105.097 Y196.739
G1 F1200 X87.56 Y179.201 E123.68294
G0 F6000 X87.56 Y178.635
G1 F1200 X105.663 Y196.739 E124.53448
G0 F6000 X106.229 Y196.739
G1 F1200 X87.56 Y178.069 E125.41263
G0 F6000 X87.56 Y177.504
G1 F1200 X106.795 Y196.739 E126.31739
G0 F6000 X107.36 Y196.739
G1 F1200 X87.56 Y176.938 E127.24874
G0 F6000 X87.56 Y176.372
G1 F1200 X107.926 Y196.739 E128.20672
G0 F6000 X108.492 Y196.739
G1 F1200 X87.56 Y175.807 E129.1913
G0 F6000 X87.56 Y175.241
G1 F1200 X109.057 Y196.739 E130.20247
G0 F6000 X109.623 Y196.739
G1 F1200 X87.56 Y174.675 E131.24027
G0 F6000 X87.56 Y174.11
G1 F1200 X110.189 Y196.739 E132.30467
G0 F6000 X110.754 Y196.739
G1 F1200 X87.56 Y173.544 E133.39567
G0 F6000 X87.56 Y172.978
G1 F1200 X111.32 Y196.739 E134.51329
G0 F6000 X111.886 Y196.739
G1 F1200 X87.56 Y172.413 E135.65751
G0 F6000 X87.56 Y171.847
G1 F1200 X112.451 Y196.739 E136.82833
G0 F6000 X113.017 Y196.739
G1 F1200 X87.56 Y171.281 E138.02577
G0 F6000 X87.56 Y170.716
G1 F1200 X113.583 Y196.739 E139.24982
G0 F6000 X114.148 Y196.739
G1 F1200 X87.56 Y170.15 E140.50046
G0 F6000 X87.56 Y169.584
G1 F1200 X114.714 Y196.739 E141.77772
G0 F6000 X115.28 Y196.739
G1 F1200 X87.56 Y169.019 E143.08159
G0 F6000 X87.56 Y168.453
G1 F1200 X115.846 Y196.739 E144.41207
G0 F6000 X116.411 Y196.739
G1 F1200 X87.56 Y167.887 E145.76916
G0 F6000 X87.56 Y167.321
G1 F1200 X116.977 Y196.739 E147.15287
G0 F6000 X117.543 Y196.739
G1 F1200 X87.56 Y166.756 E148.56318
G0 F6000 X87.56 Y166.19
G1 F1200 X118.108 Y196.739 E150.00008
G0 F6000 X118.674 Y196.739
G1 F1200 X87.56 Y165.624 E151.46361
G0 F6000 X87.56 Y165.059
G1 F1200 X119.24 Y196.739 E152.95374
G0 F6000 X119.805 Y196.739
G1 F1200 X87.56 Y164.493 E154.47047
G0 F6000 X87.56 Y163.927
G1 F1200 X120.371 Y196.739 E156.01383
G0 F6000 X120.937 Y196.739
G1 F1200 X87.56 Y163.362 E157.58378
G0 F6000 X87.56 Y162.796
G1 F1200 X121.502 Y196.739 E159.18033
G0 F6000 X122.068 Y196.739
G1 F1200 X87.56 Y162.23 E160.8035
G0 F6000 X87.56 Y161.665
G1 F1200 X122.634 Y196.739 E162.45328
G0 F6000 X123.199 Y196.739
G1 F1200 X87.56 Y161.099 E164.12965
G0 F6000 X87.56 Y160.533
G1 F1200 X123.765 Y196.739 E165.83265
G0 F6000 X124.331 Y196.739
G1 F1200 X87.56 Y159.968 E167.56224
G0 F6000 X87.56 Y159.402
G1 F1200 X124.896 Y196.739 E169.31844
G0 F6000 X125.462 Y196.739
G1 F1200 X87.56 Y158.836 E171.10125
G0 F6000 X87.56 Y158.271
G1 F1200 X126.028 Y196.739 E172.91067
G0 F6000 X126.594 Y196.739
G1 F1200 X87.56 Y157.705 E174.74671
G0 F6000 X87.56 Y157.139
G1 F1200 X127.159 Y196.739 E176.60935
G0 F6000 X127.725 Y196.739
G1 F1200 X87.56 Y156.573 E178.49861
G0 F6000 X87.56 Y156.008
G1 F1200 X128.291 Y196.739 E180.41447
G0 F6000 X128.856 Y196.739
G1 F1200 X87.56 Y155.442 E182.35693
G0 F6000 X87.56 Y154.876
G1 F1200 X129.422 Y196.739 E184.32602
G0 F6000 X129.988 Y196.739
G1 F1200 X87.56 Y154.311 E186.3217
G0 F6000 X87.56 Y153.745
G1 F1200 X130.553 Y196.739 E188.34398
G0 F6000 X131.119 Y196.739
G1 F1200 X87.56 Y153.179 E190.39289
G0 F6000 X87.56 Y152.614
G1 F1200 X131.685 Y196.739 E192.46839
G0 F6000 X132.25 Y196.739
G1 F1200 X87.56 Y152.048 E194.5705
G0 F6000 X87.56 Y151.482
