;FLAVOR:Marlin
;TIME:20406
;Filament used: 12.9664m
;Layer height: 0.16
;MINX:75
;MINY:94.2
;MINZ:0.2
;MAXX:225
;MAXY:205.8
;MAXZ:28.96
;Generated with Cura_SteamEngine 5.2.1
M140 S60
M105
M190 S60
M104 S210
M105
M109 S210
M82 ;absolute extrusion mode
M201 X500.00 Y500.00 Z100.00 E5000.00 ;Setup machine max acceleration
M203 X500.00 Y500.00 Z10.00 E50.00 ;Setup machine max feedrate
M204 P500.00 R1000.00 T500.00 ;Setup Print/Retract/Travel acceleration
M205 X8.00 Y8.00 Z0.40 E5.00 ;Setup Jerk
M220 S100 ;Reset Feedrate
M221 S100 ;Reset Flowrate

G28 ;Home
G29 ;Auto bed Level

G92 E0 ;Reset Extruder
G1 Z2.0 F3000 ;Move Z Axis up
G1 X10.1 Y20 Z0.28 F5000.0 ;Move to start position
G1 X10.1 Y200.0 Z0.28 F1500.0 E15 ;Draw the first line
G1 X10.4 Y200.0 Z0.28 F5000.0 ;Move to side a little
G1 X10.4 Y20 Z0.28 F1500.0 E30 ;Draw the second line
G92 E0 ;Reset Extruder
G1 Z2.0 F3000 ;Move Z Axis up

G92 E0
G92 E0
G1 F2700 E-7
;LAYER_COUNT:199
;LAYER:0
M107
G0 F6000 X78.886 Y96.827 Z0.2
;TYPE:SKIRT
G1 F2700 E0
G1 F1200 X79.626 Y96.251 E0.03119
G1 X80.412 Y95.739 E0.06239
G1 X81.239 Y95.297 E0.09358
G1 X82.101 Y94.927 E0.12478
G1 X82.991 Y94.631 E0.15597
G1 X83.903 Y94.413 E0.18716
G1 X84.83 Y94.272 E0.21835
G1 X85.701 Y94.213 E0.24738
G1 X86.33 Y94.2 E0.26831
G1 X213.451 Y94.201 E4.49637
G1 X214.149 Y94.211 E4.51959
G1 X215.085 Y94.265 E4.55077
G1 X216.013 Y94.397 E4.58195
G1 X216.927 Y94.609 E4.61315
G1 X217.819 Y94.898 E4.64434
G1 X218.684 Y95.261 E4.67554
G1 X219.514 Y95.697 E4.70672
G1 X220.305 Y96.202 E4.73794
G1 X221.049 Y96.773 E4.76913
G1 X221.742 Y97.405 E4.80033
G1 X222.379 Y98.093 E4.83151
G1 X222.954 Y98.834 E4.86271
G1 X223.465 Y99.62 E4.89389
G1 X223.907 Y100.448 E4.92511
G1 X224.276 Y101.31 E4.95629
G1 X224.571 Y102.2 E4.98748
G1 X224.789 Y103.112 E5.01867
G1 X224.929 Y104.04 E5.04988
G1 X224.987 Y104.901 E5.07858
G1 X225 Y105.53 E5.09951
G1 X224.999 Y194.215 E8.04918
G1 X224.989 Y194.942 E8.07336
G1 X224.936 Y195.879 E8.10458
G1 X224.804 Y196.807 E8.13576
G1 X224.593 Y197.721 E8.16695
G1 X224.304 Y198.613 E8.19814
G1 X223.941 Y199.478 E8.22934
G1 X223.506 Y200.309 E8.26054
G1 X223.001 Y201.099 E8.29172
G1 X222.431 Y201.844 E8.32292
G1 X221.8 Y202.538 E8.35412
G1 X221.111 Y203.175 E8.38533
G1 X220.371 Y203.751 E8.41652
G1 X219.585 Y204.262 E8.4477
G1 X218.758 Y204.704 E8.47889
G1 X217.896 Y205.074 E8.51009
G1 X217.006 Y205.369 E8.54127
G1 X216.094 Y205.588 E8.57247
G1 X215.167 Y205.728 E8.60365
G1 X214.299 Y205.787 E8.63259
G1 X213.67 Y205.8 E8.65351
G1 X86.565 Y205.799 E12.88104
G1 X85.867 Y205.79 E12.90426
G1 X84.931 Y205.738 E12.93544
G1 X84.002 Y205.606 E12.96665
G1 X83.088 Y205.396 E12.99784
G1 X82.195 Y205.109 E13.02904
G1 X81.33 Y204.746 E13.06024
G1 X80.499 Y204.312 E13.09142
G1 X79.708 Y203.808 E13.12262
G1 X78.963 Y203.238 E13.15382
G1 X78.269 Y202.607 E13.18501
G1 X77.632 Y201.92 E13.21617
G1 X77.055 Y201.18 E13.24738
G1 X76.543 Y200.394 E13.27858
G1 X76.1 Y199.567 E13.30979
G1 X75.729 Y198.706 E13.34097
G1 X75.433 Y197.816 E13.37216
G1 X75.214 Y196.904 E13.40336
G1 X75.073 Y195.977 E13.43455
G1 X75.013 Y195.088 E13.46418
G1 X75 Y194.458 E13.48514
G1 X75.001 Y105.725 E16.43641
G1 X75.01 Y105.06 E16.45853
G1 X75.063 Y104.124 E16.48971
G1 X75.195 Y103.195 E16.52092
G1 X75.406 Y102.281 E16.55212
G1 X75.694 Y101.389 E16.5833
G1 X76.057 Y100.524 E16.6145
G1 X76.492 Y99.693 E16.6457
G1 X76.996 Y98.903 E16.67686
G1 X77.566 Y98.158 E16.70806
G1 X78.198 Y97.464 E16.73928
G1 X78.886 Y96.827 E16.77047
G0 F6000 X79.274 Y97.023
G1 F1200 X80.01 Y96.47 E16.80109
G1 X80.791 Y95.982 E16.83172
G1 X81.611 Y95.564 E16.86233
G1 X82.465 Y95.219 E16.89296
G1 X83.345 Y94.949 E16.92358
G1 X84.245 Y94.757 E16.95419
G1 X85.159 Y94.643 E16.98482
G1 X85.712 Y94.613 E17.00324
G1 X86.33 Y94.6 E17.0238
G1 X213.445 Y94.601 E21.25166
G1 X214.143 Y94.611 E21.27488
G1 X215.062 Y94.664 E21.3055
G1 X215.973 Y94.797 E21.33612
G1 X216.869 Y95.008 E21.36674
G1 X217.743 Y95.296 E21.39734
G1 X218.59 Y95.659 E21.42799
G1 X219.401 Y96.094 E21.4586
G1 X220.171 Y96.598 E21.48921
G1 X220.895 Y97.167 E21.51984
G1 X221.567 Y97.797 E21.55047
G1 X222.182 Y98.482 E21.58109
G1 X222.735 Y99.218 E21.61171
G1 X223.222 Y99.999 E21.64232
G1 X223.639 Y100.82 E21.67295
G1 X223.984 Y101.674 E21.70359
G1 X224.253 Y102.554 E21.73419
G1 X224.445 Y103.455 E21.76483
G1 X224.558 Y104.368 E21.79543
G1 X224.587 Y104.912 E21.81355
G1 X224.6 Y105.53 E21.83411
G1 X224.599 Y194.21 E24.78362
G1 X224.589 Y194.937 E24.8078
G1 X224.536 Y195.856 E24.83842
G1 X224.404 Y196.767 E24.86903
G1 X224.193 Y197.663 E24.89965
G1 X223.906 Y198.538 E24.93028
G1 X223.543 Y199.384 E24.9609
G1 X223.109 Y200.196 E24.99152
G1 X222.605 Y200.967 E25.02216
G1 X222.037 Y201.691 E25.05276
G1 X221.408 Y202.363 E25.08338
G1 X220.723 Y202.978 E25.11399
G1 X219.987 Y203.531 E25.14461
G1 X219.206 Y204.019 E25.17524
G1 X218.386 Y204.437 E25.20586
G1 X217.532 Y204.782 E25.23649
G1 X216.652 Y205.051 E25.2671
G1 X215.751 Y205.244 E25.29774
G1 X214.838 Y205.357 E25.32834
G1 X214.288 Y205.387 E25.34666
G1 X213.67 Y205.4 E25.36722
G1 X86.57 Y205.399 E29.59458
G1 X85.872 Y205.39 E29.6178
G1 X84.953 Y205.338 E29.64842
G1 X84.042 Y205.207 E29.67903
G1 X83.146 Y204.997 E29.70964
G1 X82.271 Y204.71 E29.74027
G1 X81.424 Y204.348 E29.7709
G1 X80.612 Y203.914 E29.80152
G1 X79.841 Y203.412 E29.83212
G1 X79.116 Y202.844 E29.86276
G1 X78.443 Y202.215 E29.8934
G1 X77.828 Y201.531 E29.92399
G1 X77.274 Y200.796 E29.9546
G1 X76.786 Y200.015 E29.98523
G1 X76.367 Y199.195 E30.01586
G1 X76.021 Y198.342 E30.04648
G1 X75.751 Y197.462 E30.07709
G1 X75.558 Y196.561 E30.10774
G1 X75.444 Y195.648 E30.13834
G1 X75.413 Y195.077 E30.15736
G1 X75.4 Y194.458 E30.17795
G1 X75.401 Y105.731 E33.12903
G1 X75.41 Y105.066 E33.15115
G1 X75.462 Y104.146 E33.18179
G1 X75.594 Y103.235 E33.21241
G1 X75.805 Y102.339 E33.24303
G1 X76.092 Y101.464 E33.27365
G1 X76.455 Y100.618 E33.30427
G1 X76.889 Y99.806 E33.3349
G1 X77.392 Y99.035 E33.36551
G1 X77.961 Y98.311 E33.39614
G1 X78.589 Y97.639 E33.42673
G1 X79.274 Y97.023 E33.45737
G0 F6000 X79.662 Y97.224
G1 F1200 X80.394 Y96.694 E33.48743
G1 X81.169 Y96.231 E33.51746
G1 X81.982 Y95.838 E33.54749
G1 X82.827 Y95.518 E33.57754
G1 X83.696 Y95.275 E33.60756
G1 X84.584 Y95.109 E33.6376
G1 X85.723 Y95.013 E33.67562
G1 X86.33 Y95 E33.69581
G1 X213.439 Y95.001 E37.92348
G1 X214.137 Y95.011 E37.94669
G1 X215.039 Y95.064 E37.97675
G1 X215.932 Y95.196 E38.00677
G1 X216.81 Y95.407 E38.0368
G1 X217.666 Y95.695 E38.06684
G1 X218.493 Y96.057 E38.09687
G1 X219.285 Y96.492 E38.12692
G1 X220.036 Y96.994 E38.15697
G1 X220.739 Y97.561 E38.18701
G1 X221.389 Y98.188 E38.21705
G1 X221.981 Y98.87 E38.24708
G1 X222.511 Y99.601 E38.27711
G1 X222.973 Y100.377 E38.30715
G1 X223.366 Y101.19 E38.33719
G1 X223.684 Y102.035 E38.36721
G1 X223.927 Y102.905 E38.39726
G1 X224.092 Y103.793 E38.4273
G1 X224.187 Y104.923 E38.46502
G1 X224.2 Y105.53 E38.48521
G1 X224.199 Y194.204 E41.43452
G1 X224.189 Y194.931 E41.4587
G1 X224.137 Y195.833 E41.48875
G1 X224.005 Y196.726 E41.51878
G1 X223.794 Y197.605 E41.54884
G1 X223.507 Y198.461 E41.57887
G1 X223.145 Y199.288 E41.6089
G1 X222.711 Y200.08 E41.63893
G1 X222.209 Y200.831 E41.66898
G1 X221.643 Y201.534 E41.699
G1 X221.016 Y202.185 E41.72906
G1 X220.335 Y202.777 E41.75907
G1 X219.604 Y203.307 E41.7891
G1 X218.828 Y203.77 E41.81916
G1 X218.015 Y204.163 E41.84919
G1 X217.17 Y204.483 E41.87924
G1 X216.301 Y204.726 E41.90926
G1 X215.413 Y204.891 E41.9393
G1 X214.277 Y204.987 E41.97721
G1 X213.67 Y205 E41.99741
G1 X86.575 Y204.999 E46.2246
G1 X85.877 Y204.99 E46.24782
G1 X84.976 Y204.939 E46.27784
G1 X84.082 Y204.807 E46.30789
G1 X83.204 Y204.598 E46.33791
G1 X82.347 Y204.311 E46.36797
G1 X81.52 Y203.95 E46.39798
G1 X80.727 Y203.517 E46.42804
G1 X79.976 Y203.016 E46.45806
G1 X79.272 Y202.45 E46.48811
G1 X78.621 Y201.824 E46.51815
G1 X78.028 Y201.143 E46.54818
G1 X77.498 Y200.412 E46.57821
G1 X77.034 Y199.637 E46.60825
G1 X76.64 Y198.824 E46.6383
G1 X76.32 Y197.98 E46.66832
G1 X76.076 Y197.11 E46.69838
G1 X75.91 Y196.222 E46.72842
G1 X75.813 Y195.067 E46.76697
G1 X75.8 Y194.458 E46.78723
G1 X75.801 Y105.736 E49.73814
G1 X75.81 Y105.071 E49.76026
G1 X75.862 Y104.169 E49.79031
G1 X75.994 Y103.276 E49.82033
G1 X76.204 Y102.398 E49.85036
G1 X76.491 Y101.541 E49.88042
G1 X76.853 Y100.714 E49.91045
G1 X77.286 Y99.922 E49.94047
G1 X77.788 Y99.171 E49.97051
G1 X78.355 Y98.467 E50.00058
G1 X78.981 Y97.817 E50.03059
G1 X79.662 Y97.224 E50.06063
G1 F2700 E43.06063
;MESH:easterlings_units.stl
G0 F6000 X86.42 Y104.535
G0 X86.42 Y105.62
G0 X87 Y193.8
;TYPE:WALL-INNER
G1 F2700 E50.06063
G1 F1200 X213 Y193.8 E54.2514
G1 X213 Y170.894 E55.01326
G1 X212.823 Y170.81 E55.01978
G1 X212.688 Y170.592 E55.0283
G1 X212.601 Y170.241 E55.04033
G1 X212.606 Y169.638 E55.06039
G1 X212.718 Y169.282 E55.0728
G1 X212.852 Y169.09 E55.08059
G1 X213 Y169.024 E55.08598
G1 X213 Y168.383 E55.1073
G1 X212.852 Y168.317 E55.11269
G1 X212.641 Y167.939 E55.12709
G1 X212.6 Y167.697 E55.13525
G1 X212.601 Y166.649 E55.17011
G1 X212.678 Y166.315 E55.18151
G1 X212.802 Y166.1 E55.18976
G1 X213 Y166.002 E55.19711
G1 X213 Y106.2 E57.18613
G1 X87 Y106.2 E61.37691
G1 X87 Y193.8 E64.2905
G0 F6000 X86.6 Y194.2
G1 F1200 X213.4 Y194.2 E68.50788
G1 X213.4 Y170.684 E69.29003
G1 X213.134 Y170.558 E69.29982
G1 X213.053 Y170.427 E69.30494
G1 X213.002 Y170.236 E69.31152
G1 X213.002 Y169.695 E69.32951
G1 X213.039 Y169.539 E69.33484
G1 X213.151 Y169.356 E69.34198
G1 X213.4 Y169.244 E69.35106
G1 X213.4 Y168.163 E69.38701
G1 X213.151 Y168.051 E69.39609
G1 X213.039 Y167.868 E69.40323
G1 X213 Y167.687 E69.40939
G1 X213.001 Y166.655 E69.44371
G1 X213.121 Y166.341 E69.45489
G1 X213.4 Y166.203 E69.46525
G1 X213.4 Y105.8 E71.47426
G1 X86.6 Y105.8 E75.69164
G1 X86.6 Y194.2 E78.63184
G0 F6000 X86.2 Y194.6
;TYPE:WALL-OUTER
G1 F1200 X213.8 Y194.6 E82.87583
G1 X213.8 Y170.579 E83.67477
G1 X213.8 Y170.379 E83.68143
G1 X213.6 Y170.379 E83.68808
G1 X213.444 Y170.306 E83.69381
G1 X213.4 Y170.198 E83.69769
G1 X213.405 Y169.707 E83.71402
G1 X213.45 Y169.622 E83.71722
G1 X213.6 Y169.555 E83.72268
G1 X213.8 Y169.555 E83.72933
G1 X213.8 Y167.852 E83.78597
G1 X213.6 Y167.852 E83.79263
G1 X213.45 Y167.785 E83.79809
G1 X213.401 Y167.681 E83.80191
G1 X213.404 Y166.659 E83.83591
G1 X213.44 Y166.583 E83.8387
G1 X213.6 Y166.504 E83.84464
G1 X213.8 Y166.504 E83.85129
G1 X213.8 Y105.4 E85.88362
G1 X86.2 Y105.4 E90.12761
G1 X86.2 Y194.6 E93.09441
G0 F6000 X86.47 Y194.33
G0 X87.1 Y193.44
G0 X87.36 Y193.44
;TYPE:SKIN
G1 F1200 X212.64 Y193.44 E97.26124
G1 X212.64 Y171.133 E98.00318
G1 X212.525 Y171.011 E98.00875
G1 X212.353 Y170.732 E98.01966
G1 X212.242 Y170.332 E98.03346
G1 X212.244 Y169.539 E98.05984
G1 X212.392 Y169.127 E98.0744
G1 X212.582 Y168.853 E98.08549
G1 X212.64 Y168.811 E98.08787
G1 X212.64 Y168.596 E98.09502
G1 X212.582 Y168.554 E98.0974
G1 X212.392 Y168.281 E98.10847
G1 X212.243 Y167.85 E98.12363
G1 X212.24 Y166.654 E98.16341
G1 X212.342 Y166.189 E98.17925
G1 X212.497 Y165.91 E98.18986
G1 X212.64 Y165.802 E98.19582
G1 X212.64 Y106.56 E100.16622
G1 X87.36 Y106.56 E104.33305
G1 X87.36 Y193.44 E107.22269
G0 F6000 X88.022 Y193.239
G1 F1200 X87.559 Y192.777 E107.24444
G0 F6000 X87.559 Y192.211
G1 F1200 X88.587 Y193.239 E107.2928
G0 F6000 X89.153 Y193.239
G1 F1200 X87.559 Y191.645 E107.36777
G0 F6000 X87.559 Y191.08
G1 F1200 X89.719 Y193.239 E107.46935
G0 F6000 X90.284 Y193.239
G1 F1200 X87.559 Y190.514 E107.59753
G0 F6000 X87.559 Y189.948
G1 F1200 X90.85 Y193.239 E107.75232
G0 F6000 X91.416 Y193.239
G1 F1200 X87.559 Y189.382 E107.93375
G0 F6000 X87.559 Y188.817
G1 F1200 X91.981 Y193.239 E108.14174
G0 F6000 X92.547 Y193.239
G1 F1200 X87.559 Y188.251 E108.37636
G0 F6000 X87.559 Y187.685
G1 F1200 X93.113 Y193.239 E108.63761
G0 F6000 X93.678 Y193.239
G1 F1200 X87.559 Y187.12 E108.92543
G0 F6000 X87.559 Y186.554
G1 F1200 X94.244 Y193.239 E109.23987
G0 F6000 X94.81 Y193.239
G1 F1200 X87.559 Y185.988 E109.58093
G0 F6000 X87.559 Y185.423
G1 F1200 X95.375 Y193.239 E109.94857
G0 F6000 X95.941 Y193.239
G1 F1200 X87.559 Y184.857 E110.34284
G0 F6000 X87.559 Y184.291
G1 F1200 X96.507 Y193.239 E110.76372
G0 F6000 X97.073 Y193.239
G1 F1200 X87.559 Y183.726 E111.21121
G0 F6000 X87.559 Y183.16
G1 F1200 X97.638 Y193.239 E111.68529
G0 F6000 X98.204 Y193.239
G1 F1200 X87.559 Y182.594 E112.186
G0 F6000 X87.559 Y182.029
G1 F1200 X98.77 Y193.239 E112.71331
G0 F6000 X99.335 Y193.239
G1 F1200 X87.559 Y181.463 E113.26722
G0 F6000 X87.559 Y180.897
G1 F1200 X99.901 Y193.239 E113.84775
G0 F6000 X100.467 Y193.239
G1 F1200 X87.559 Y180.332 E114.45488
G0 F6000 X87.559 Y179.766
G1 F1200 X101.032 Y193.239 E115.0886
G0 F6000 X101.598 Y193.239
G1 F1200 X87.559 Y179.2 E115.74896
G0 F6000 X87.559 Y178.634
G1 F1200 X102.164 Y193.239 E116.43593
G0 F6000 X102.729 Y193.239
G1 F1200 X87.559 Y178.069 E117.14948
G0 F6000 X87.559 Y177.503
G1 F1200 X103.295 Y193.239 E117.88965
G0 F6000 X103.861 Y193.239
G1 F1200 X87.559 Y176.937 E118.65645
G0 F6000 X87.559 Y176.372
G1 F1200 X104.426 Y193.239 E119.44982
G0 F6000 X104.992 Y193.239
G1 F1200 X87.559 Y175.806 E120.26982
G0 F6000 X87.559 Y175.24
G1 F1200 X105.558 Y193.239 E121.11643
G0 F6000 X106.123 Y193.239
G1 F1200 X87.559 Y174.675 E121.98963
G0 F6000 X87.559 Y174.109
G1 F1200 X106.689 Y193.239 E122.88945
G0 F6000 X107.255 Y193.239
G1 F1200 X87.559 Y173.543 E123.81588
G0 F6000 X87.559 Y172.978
G1 F1200 X107.821 Y193.239 E124.76892
G0 F6000 X108.386 Y193.239
G1 F1200 X87.559 Y172.412 E125.74856
G0 F6000 X87.559 Y171.846
G1 F1200 X108.952 Y193.239 E126.75482
G0 F6000 X109.518 Y193.239
G1 F1200 X87.559 Y171.281 E127.78768
G0 F6000 X87.559 Y170.715
G1 F1200 X110.083 Y193.239 E128.84714
G0 F6000 X110.649 Y193.239
G1 F1200 X87.559 Y170.149 E129.93323
G0 F6000 X87.559 Y169.584
G1 F1200 X111.215 Y193.239 E131.04591
G0 F6000 X111.78 Y193.239
G1 F1200 X87.559 Y169.018 E132.18519
G0 F6000 X87.559 Y168.452
G1 F1200 X112.346 Y193.239 E133.35109
G0 F6000 X112.912 Y193.239
G1 F1200 X87.559 Y167.886 E134.54362
G0 F6000 X87.559 Y167.321
G1 F1200 X113.477 Y193.239 E135.76272
G0 F6000 X114.043 Y193.239
G1 F1200 X87.559 Y166.755 E137.00845
G0 F6000 X87.559 Y166.189
G1 F1200 X114.609 Y193.239 E138.2808
G0 F6000 X115.174 Y193.239
G1 F1200 X87.559 Y165.624 E139.57973
G0 F6000 X87.559 Y165.058
G1 F1200 X115.74 Y193.239 E140.90527
G0 F6000 X116.306 Y193.239
G1 F1200 X87.559 Y164.492 E142.25744
G0 F6000 X87.559 Y163.927
G1 F1200 X116.872 Y193.239 E143.63621
G0 F6000 X117.437 Y193.239
G1 F1200 X87.559 Y163.361 E145.04158
G0 F6000 X87.559 Y162.795
G1 F1200 X118.003 Y193.239 E146.47358
G0 F6000 X118.569 Y193.239
G1 F1200 X87.559 Y162.23 E147.93217
G0 F6000 X87.559 Y161.664
G1 F1200 X119.134 Y193.239 E149.41736
G0 F6000 X119.7 Y193.239
G1 F1200 X87.559 Y161.098 E150.92917
G0 F6000 X87.559 Y160.533
G1 F1200 X120.266 Y193.239 E152.46759
G0 F6000 X120.831 Y193.239
G1 F1200 X87.559 Y159.967 E154.0326
G0 F6000 X87.559 Y159.401
G1 F1200 X121.397 Y193.239 E155.62423
G0 F6000 X121.963 Y193.239
G1 F1200 X87.559 Y158.835 E157.24249
G0 F6000 X87.559 Y158.27
G1 F1200 X122.528 Y193.239 E158.88733
G0 F6000 X123.094 Y193.239
G1 F1200 X87.559 Y157.704 E160.55879
G0 F6000 X87.559 Y157.138
G1 F1200 X123.66 Y193.239 E162.25687
G0 F6000 X124.225 Y193.239
G1 F1200 X87.559 Y156.573 E163.98152
G0 F6000 X87.559 Y156.007
G1 F1200 X124.791 Y193.239 E165.7328
G0 F6000 X125.357 Y193.239
G1 F1200 X87.559 Y155.441 E167.5107
G0 F6000 X87.559 Y154.876
G1 F1200 X125.922 Y193.239 E169.31518
G0 F6000 X126.488 Y193.239
G1 F1200 X87.559 Y154.31 E171.14628
G0 F6000 X87.559 Y153.744
G1 F1200 X127.054 Y193.239 E173.00401
G0 F6000 X127.62 Y193.239
G1 F1200 X87.559 Y153.179 E174.88833
G0 F6000 X87.559 Y152.613
G1 F1200 X128.185 Y193.239 E176.79925
G0 F6000 X128.751 Y193.239
G1 F1200 X87.559 Y152.047 E178.7368
G0 F6000 X87.559 Y151.482
G1 F1200 X129.317 Y193.239 E180.70094
G0 F6000 X129.882 Y193.239
G1 F1200 X87.559 Y150.916 E182.69169
G0 F6000 X87.559 Y150.35
G1 F1200 X130.448 Y193.239 E184.70905
G0 F6000 X131.014 Y193.239
G1 F1200 X87.559 Y149.785 E186.75302
G0 F6000 X87.559 Y149.219
G1 F1200 X131.579 Y193.239 E188.82359
