;FLAVOR:Marlin
;TIME:25767
;Filament used: 16.0787m
;Layer height: 0.2
;MINX:95
;MINY:63.1
;MINZ:0.2
;MAXX:205
;MAXY:236.9
;MAXZ:29
;Generated with Cura_SteamEngine 5.2.1
M140 S50
M105
M190 S50
M104 S210
M105
M109 S210
M82 ;absolute extrusion mode
M201 X500.00 Y500.00 Z100.00 E5000.00 ;Setup machine max acceleration
M203 X500.00 Y500.00 Z10.00 E50.00 ;Setup machine max feedrate
M204 P500.00 R1000.00 T500.00 ;Setup Print/Retract/Travel acceleration
M205 X8.00 Y8.00 Z0.40 E5.00 ;Setup Jerk
M220 S100 ;Reset Feedrate
M221 S100 ;Reset Flowrate

G28 ;Home
G29 ;Auto bed Level

G92 E0 ;Reset Extruder
G1 Z2.0 F3000 ;Move Z Axis up
G1 X10.1 Y20 Z0.28 F5000.0 ;Move to start position
G1 X10.1 Y200.0 Z0.28 F1500.0 E15 ;Draw the first line
G1 X10.4 Y200.0 Z0.28 F5000.0 ;Move to side a little
G1 X10.4 Y20 Z0.28 F1500.0 E30 ;Draw the second line
G92 E0 ;Reset Extruder
G1 Z2.0 F3000 ;Move Z Axis up

G92 E0
G92 E0
G1 F2700 E-7
;LAYER_COUNT:145
;LAYER:0
M107
G0 F6000 X96.996 Y67.803 Z0.2
;TYPE:SKIRT
G1 F2700 E0
G1 F1200 X97.566 Y67.058 E0.0312
G1 X98.198 Y66.364 E0.06242
G1 X98.886 Y65.727 E0.0936
G1 X99.626 Y65.151 E0.12479
G1 X100.412 Y64.639 E0.15599
G1 X101.239 Y64.197 E0.18718
G1 X102.101 Y63.827 E0.21838
G1 X102.991 Y63.531 E0.24958
G1 X103.903 Y63.313 E0.28077
G1 X104.83 Y63.172 E0.31195
G1 X105.701 Y63.113 E0.34099
G1 X106.33 Y63.1 E0.36191
G1 X193.451 Y63.101 E3.25957
G1 X194.149 Y63.111 E3.28279
G1 X195.085 Y63.165 E3.31397
G1 X196.013 Y63.297 E3.34515
G1 X196.927 Y63.509 E3.37635
G1 X197.819 Y63.798 E3.40754
G1 X198.684 Y64.161 E3.43874
G1 X199.514 Y64.597 E3.46992
G1 X200.305 Y65.102 E3.50114
G1 X201.049 Y65.673 E3.53233
G1 X201.742 Y66.305 E3.56352
G1 X202.379 Y66.993 E3.59471
G1 X202.954 Y67.734 E3.62591
G1 X203.465 Y68.52 E3.65709
G1 X203.907 Y69.348 E3.6883
G1 X204.276 Y70.21 E3.71949
G1 X204.571 Y71.1 E3.75068
G1 X204.789 Y72.012 E3.78186
G1 X204.929 Y72.94 E3.81308
G1 X204.987 Y73.801 E3.84178
G1 X205 Y74.43 E3.86271
G1 X204.999 Y225.3 E8.88066
G1 X204.99 Y226.027 E8.90484
G1 X204.939 Y226.964 E8.93606
G1 X204.807 Y227.892 E8.96723
G1 X204.598 Y228.806 E8.99842
G1 X204.311 Y229.699 E9.02961
G1 X203.949 Y230.565 E9.06083
G1 X203.515 Y231.396 E9.09201
G1 X203.011 Y232.187 E9.12321
G1 X202.442 Y232.932 E9.15439
G1 X201.811 Y233.627 E9.18561
G1 X201.124 Y234.265 E9.21679
G1 X200.385 Y234.842 E9.24798
G1 X199.599 Y235.354 E9.27918
G1 X198.773 Y235.797 E9.31035
G1 X197.911 Y236.169 E9.34158
G1 X197.022 Y236.465 E9.37274
G1 X196.11 Y236.685 E9.40394
G1 X195.183 Y236.826 E9.43513
G1 X194.299 Y236.887 E9.4646
G1 X193.67 Y236.9 E9.48553
G1 X106.565 Y236.899 E12.38265
G1 X105.867 Y236.89 E12.40587
G1 X104.931 Y236.838 E12.43705
G1 X104.002 Y236.706 E12.46826
G1 X103.088 Y236.496 E12.49945
G1 X102.195 Y236.209 E12.53065
G1 X101.33 Y235.846 E12.56185
G1 X100.499 Y235.412 E12.59303
G1 X99.708 Y234.908 E12.62423
G1 X98.963 Y234.338 E12.65543
G1 X98.269 Y233.707 E12.68662
G1 X97.632 Y233.02 E12.71778
G1 X97.055 Y232.28 E12.74899
G1 X96.543 Y231.494 E12.78019
G1 X96.1 Y230.667 E12.8114
G1 X95.729 Y229.806 E12.84258
G1 X95.433 Y228.916 E12.87377
G1 X95.214 Y228.004 E12.90497
G1 X95.073 Y227.077 E12.93616
G1 X95.013 Y226.188 E12.96579
G1 X95 Y225.558 E12.98675
G1 X95.001 Y74.625 E18.0068
G1 X95.01 Y73.96 E18.02892
G1 X95.063 Y73.024 E18.0601
G1 X95.195 Y72.095 E18.09131
G1 X95.406 Y71.181 E18.12251
G1 X95.694 Y70.289 E18.15369
G1 X96.057 Y69.424 E18.18489
G1 X96.492 Y68.593 E18.21609
G1 X96.996 Y67.803 E18.24725
G0 F6000 X97.392 Y67.935
G1 F1200 X97.961 Y67.211 E18.27788
G1 X98.589 Y66.539 E18.30847
G1 X99.274 Y65.923 E18.33911
G1 X100.01 Y65.37 E18.36973
G1 X100.791 Y64.882 E18.40036
G1 X101.611 Y64.464 E18.43097
G1 X102.465 Y64.119 E18.46161
G1 X103.345 Y63.849 E18.49222
G1 X104.245 Y63.657 E18.52283
G1 X105.159 Y63.543 E18.55347
G1 X105.712 Y63.513 E18.57189
G1 X106.33 Y63.5 E18.59245
G1 X193.445 Y63.501 E21.4899
G1 X194.143 Y63.511 E21.51312
G1 X195.062 Y63.564 E21.54374
G1 X195.973 Y63.697 E21.57436
G1 X196.869 Y63.908 E21.60498
G1 X197.743 Y64.196 E21.63558
G1 X198.59 Y64.559 E21.66623
G1 X199.401 Y64.994 E21.69684
G1 X200.171 Y65.498 E21.72745
G1 X200.895 Y66.067 E21.75808
G1 X201.567 Y66.697 E21.78871
G1 X202.182 Y67.382 E21.81933
G1 X202.735 Y68.118 E21.84995
G1 X203.222 Y68.899 E21.88056
G1 X203.639 Y69.72 E21.91119
G1 X203.984 Y70.574 E21.94183
G1 X204.253 Y71.454 E21.97243
G1 X204.445 Y72.355 E22.00307
G1 X204.558 Y73.268 E22.03367
G1 X204.587 Y73.812 E22.05179
G1 X204.6 Y74.43 E22.07235
G1 X204.599 Y225.295 E27.09014
G1 X204.59 Y226.022 E27.11432
G1 X204.539 Y226.941 E27.14493
G1 X204.408 Y227.853 E27.17558
G1 X204.198 Y228.749 E27.20619
G1 X203.912 Y229.624 E27.2368
G1 X203.551 Y230.471 E27.26743
G1 X203.117 Y231.283 E27.29805
G1 X202.615 Y232.055 E27.32868
G1 X202.047 Y232.78 E27.35931
G1 X201.419 Y233.453 E27.38993
G1 X200.735 Y234.069 E27.42054
G1 X200 Y234.623 E27.45116
G1 X199.22 Y235.112 E27.48178
G1 X198.4 Y235.531 E27.5124
G1 X197.547 Y235.877 E27.54302
G1 X196.667 Y236.148 E27.57364
G1 X195.767 Y236.341 E27.60426
G1 X194.853 Y236.456 E27.6349
G1 X194.288 Y236.487 E27.65372
G1 X193.67 Y236.5 E27.67428
G1 X106.57 Y236.499 E30.57124
G1 X105.872 Y236.49 E30.59445
G1 X104.953 Y236.438 E30.62507
G1 X104.042 Y236.307 E30.65568
G1 X103.146 Y236.097 E30.68629
G1 X102.271 Y235.81 E30.71692
G1 X101.424 Y235.448 E30.74755
G1 X100.612 Y235.014 E30.77818
G1 X99.841 Y234.512 E30.80878
G1 X99.116 Y233.944 E30.83941
G1 X98.443 Y233.315 E30.87005
G1 X97.828 Y232.631 E30.90064
G1 X97.274 Y231.896 E30.93125
G1 X96.786 Y231.115 E30.96188
G1 X96.367 Y230.295 E30.99251
G1 X96.021 Y229.442 E31.02313
G1 X95.751 Y228.562 E31.05374
G1 X95.558 Y227.661 E31.08439
G1 X95.444 Y226.748 E31.11499
G1 X95.413 Y226.177 E31.13401
G1 X95.4 Y225.558 E31.1546
G1 X95.401 Y74.631 E36.17446
G1 X95.41 Y73.966 E36.19658
G1 X95.462 Y73.046 E36.22723
G1 X95.594 Y72.135 E36.25784
G1 X95.805 Y71.239 E36.28846
G1 X96.092 Y70.364 E36.31909
G1 X96.455 Y69.518 E36.3497
G1 X96.889 Y68.706 E36.38033
G1 X97.392 Y67.935 E36.41095
G0 F6000 X97.788 Y68.071
G1 F1200 X98.355 Y67.367 E36.44101
G1 X98.981 Y66.717 E36.47103
G1 X99.662 Y66.124 E36.50106
G1 X100.394 Y65.594 E36.53112
G1 X101.169 Y65.131 E36.56114
G1 X101.982 Y64.738 E36.59118
G1 X102.827 Y64.418 E36.62123
G1 X103.696 Y64.175 E36.65124
G1 X104.584 Y64.009 E36.68129
G1 X105.723 Y63.913 E36.71931
G1 X106.33 Y63.9 E36.7395
G1 X193.439 Y63.901 E39.63676
G1 X194.137 Y63.911 E39.65998
G1 X195.039 Y63.964 E39.69003
G1 X195.932 Y64.096 E39.72005
G1 X196.81 Y64.307 E39.75009
G1 X197.666 Y64.595 E39.78012
G1 X198.493 Y64.957 E39.81015
G1 X199.285 Y65.392 E39.8402
G1 X200.036 Y65.894 E39.87025
G1 X200.739 Y66.461 E39.90029
G1 X201.389 Y67.088 E39.93033
G1 X201.981 Y67.77 E39.96036
G1 X202.511 Y68.501 E39.99039
G1 X202.973 Y69.277 E40.02043
G1 X203.366 Y70.09 E40.05047
G1 X203.684 Y70.935 E40.0805
G1 X203.927 Y71.805 E40.11054
G1 X204.092 Y72.693 E40.14058
G1 X204.187 Y73.823 E40.1783
G1 X204.2 Y74.43 E40.19849
G1 X204.199 Y225.29 E45.21611
G1 X204.19 Y226.017 E45.2403
G1 X204.139 Y226.919 E45.27034
G1 X204.008 Y227.813 E45.3004
G1 X203.799 Y228.691 E45.33042
G1 X203.513 Y229.548 E45.36046
G1 X203.152 Y230.376 E45.39051
G1 X202.72 Y231.168 E45.42051
G1 X202.219 Y231.92 E45.45057
G1 X201.653 Y232.624 E45.48061
G1 X201.028 Y233.275 E45.51063
G1 X200.347 Y233.869 E45.54068
G1 X199.616 Y234.4 E45.57073
G1 X198.842 Y234.864 E45.60075
G1 X198.029 Y235.258 E45.6308
G1 X197.185 Y235.578 E45.66082
G1 X196.315 Y235.823 E45.69088
G1 X195.428 Y235.989 E45.72089
G1 X194.277 Y236.087 E45.75932
G1 X193.67 Y236.1 E45.77951
G1 X106.575 Y236.099 E48.6763
G1 X105.877 Y236.09 E48.69952
G1 X104.976 Y236.039 E48.72953
G1 X104.082 Y235.907 E48.75959
G1 X103.204 Y235.698 E48.78961
G1 X102.347 Y235.411 E48.81967
G1 X101.52 Y235.05 E48.84968
G1 X100.727 Y234.617 E48.87973
G1 X99.976 Y234.116 E48.90976
G1 X99.272 Y233.55 E48.9398
G1 X98.621 Y232.924 E48.96984
G1 X98.028 Y232.243 E48.99988
G1 X97.498 Y231.512 E49.02991
G1 X97.034 Y230.737 E49.05995
G1 X96.64 Y229.924 E49.09
G1 X96.32 Y229.08 E49.12002
G1 X96.076 Y228.21 E49.15007
G1 X95.91 Y227.322 E49.18012
G1 X95.813 Y226.167 E49.21867
G1 X95.8 Y225.558 E49.23893
G1 X95.801 Y74.636 E54.25862
G1 X95.81 Y73.971 E54.28074
G1 X95.862 Y73.069 E54.31079
G1 X95.994 Y72.176 E54.34081
G1 X96.204 Y71.298 E54.37084
G1 X96.491 Y70.441 E54.4009
G1 X96.853 Y69.614 E54.43092
G1 X97.286 Y68.822 E54.46094
G1 X97.788 Y68.071 E54.49099
G1 F2700 E47.49099
;MESH:elves.stl
G0 F6000 X105.335 Y74.514
G0 X106.6 Y74.7
;TYPE:WALL-INNER
G1 F2700 E54.49099
G1 F1200 X106.6 Y225.3 E59.49997
G1 X193.4 Y225.3 E62.38695
G1 X193.4 Y118.1 E65.95243
G1 X193.4 Y74.7 E67.39592
G1 X106.6 Y74.7 E70.2829
G0 F6000 X106.2 Y74.3
;TYPE:WALL-OUTER
G1 F1200 X106.2 Y225.7 E75.31849
G1 X193.8 Y225.7 E78.23207
G1 X193.8 Y118.1 E81.81086
G1 X193.8 Y74.3 E83.26766
G1 X106.2 Y74.3 E86.18125
G0 F6000 X106.47 Y74.57
G0 X106.7 Y75.06
G0 X106.96 Y75.06
;TYPE:SKIN
G1 F1200 X106.96 Y224.94 E91.16627
G1 X193.04 Y224.94 E94.02931
G1 X193.04 Y118.1 E97.58282
G1 X193.04 Y75.06 E99.01434
G1 X106.96 Y75.06 E101.87737
G1 F2700 E94.87737
G0 F6000 X106.7 Y75.06
G0 X192.357 Y74.8
G1 F2700 E101.87737
G0 F6000 X192.357 Y75.26
G1 F1200 X192.84 Y75.743 E101.90009
G0 F6000 X192.84 Y76.308
G1 F1200 X191.791 Y75.26 E101.94941
G0 F6000 X191.225 Y75.26
G1 F1200 X192.84 Y76.874 E102.02535
G0 F6000 X192.84 Y77.44
G1 F1200 X190.66 Y75.26 E102.12789
G0 F6000 X190.094 Y75.26
G1 F1200 X192.84 Y78.005 E102.25703
G0 F6000 X192.84 Y78.571
G1 F1200 X189.528 Y75.26 E102.41279
G0 F6000 X188.962 Y75.26
G1 F1200 X192.84 Y79.137 E102.59518
G0 F6000 X192.84 Y79.702
G1 F1200 X188.397 Y75.26 E102.80414
G0 F6000 X187.831 Y75.26
G1 F1200 X192.84 Y80.268 E103.03972
G0 F6000 X192.84 Y80.834
G1 F1200 X187.265 Y75.26 E103.30193
G0 F6000 X186.7 Y75.26
G1 F1200 X192.84 Y81.4 E103.59074
G0 F6000 X192.84 Y81.965
G1 F1200 X186.134 Y75.26 E103.90614
G0 F6000 X185.568 Y75.26
G1 F1200 X192.84 Y82.531 E104.24817
G0 F6000 X192.84 Y83.097
G1 F1200 X185.003 Y75.26 E104.6168
G0 F6000 X184.437 Y75.26
G1 F1200 X192.84 Y83.662 E105.01203
G0 F6000 X192.84 Y84.228
G1 F1200 X183.871 Y75.26 E105.43388
G0 F6000 X183.306 Y75.26
G1 F1200 X192.84 Y84.794 E105.88233
G0 F6000 X192.84 Y85.359
G1 F1200 X182.74 Y75.26 E106.35738
G0 F6000 X182.174 Y75.26
G1 F1200 X192.84 Y85.925 E106.85905
G0 F6000 X192.84 Y86.491
G1 F1200 X181.609 Y75.26 E107.38732
G0 F6000 X181.043 Y75.26
G1 F1200 X192.84 Y87.056 E107.94219
G0 F6000 X192.84 Y87.622
G1 F1200 X180.477 Y75.26 E108.52369
G0 F6000 X179.912 Y75.26
G1 F1200 X192.84 Y88.188 E109.13178
G0 F6000 X192.84 Y88.753
G1 F1200 X179.346 Y75.26 E109.76647
G0 F6000 X178.78 Y75.26
G1 F1200 X192.84 Y89.319 E110.42779
G0 F6000 X192.84 Y89.885
G1 F1200 X178.214 Y75.26 E111.11573
G0 F6000 X177.649 Y75.26
G1 F1200 X192.84 Y90.45 E111.83024
G0 F6000 X192.84 Y91.016
G1 F1200 X177.083 Y75.26 E112.57138
G0 F6000 X176.517 Y75.26
G1 F1200 X192.84 Y91.582 E113.33914
G0 F6000 X192.84 Y92.148
G1 F1200 X175.952 Y75.26 E114.1335
G0 F6000 X175.386 Y75.26
G1 F1200 X192.84 Y92.713 E114.95446
G0 F6000 X192.84 Y93.279
G1 F1200 X174.82 Y75.26 E115.80204
G0 F6000 X174.255 Y75.26
G1 F1200 X192.84 Y93.845 E116.67622
G0 F6000 X192.84 Y94.41
G1 F1200 X173.689 Y75.26 E117.577
G0 F6000 X173.123 Y75.26
G1 F1200 X192.84 Y94.976 E118.50441
G0 F6000 X192.84 Y95.542
G1 F1200 X172.558 Y75.26 E119.45841
G0 F6000 X171.992 Y75.26
G1 F1200 X192.84 Y96.107 E120.43901
G0 F6000 X192.84 Y96.673
G1 F1200 X171.426 Y75.26 E121.44624
G0 F6000 X170.861 Y75.26
G1 F1200 X192.84 Y97.239 E122.48006
G0 F6000 X192.84 Y97.804
G1 F1200 X170.295 Y75.26 E123.54049
G0 F6000 X169.729 Y75.26
G1 F1200 X192.84 Y98.37 E124.62753
G0 F6000 X192.84 Y98.936
G1 F1200 X169.163 Y75.26 E125.7412
G0 F6000 X168.598 Y75.26
G1 F1200 X192.84 Y99.501 E126.88145
G0 F6000 X192.84 Y100.067
G1 F1200 X168.032 Y75.26 E128.04832
G0 F6000 X167.466 Y75.26
G1 F1200 X192.84 Y100.633 E129.24181
G0 F6000 X192.84 Y101.199
G1 F1200 X166.901 Y75.26 E130.4619
G0 F6000 X166.335 Y75.26
G1 F1200 X192.84 Y101.764 E131.70859
G0 F6000 X192.84 Y102.33
G1 F1200 X165.769 Y75.26 E132.98191
G0 F6000 X165.204 Y75.26
G1 F1200 X192.84 Y102.896 E134.28182
G0 F6000 X192.84 Y103.461
G1 F1200 X164.638 Y75.26 E135.60833
G0 F6000 X164.072 Y75.26
G1 F1200 X192.84 Y104.027 E136.96147
G0 F6000 X192.84 Y104.593
G1 F1200 X163.507 Y75.26 E138.3412
G0 F6000 X162.941 Y75.26
G1 F1200 X192.84 Y105.158 E139.74753
G0 F6000 X192.84 Y105.724
G1 F1200 X162.375 Y75.26 E141.18049
G0 F6000 X161.81 Y75.26
G1 F1200 X192.84 Y106.29 E142.64005
G0 F6000 X192.84 Y106.855
G1 F1200 X161.244 Y75.26 E144.1262
G0 F6000 X160.678 Y75.26
G1 F1200 X192.84 Y107.421 E145.63898
G0 F6000 X192.84 Y107.987
G1 F1200 X160.113 Y75.26 E147.17836
G0 F6000 X159.547 Y75.26
G1 F1200 X192.84 Y108.552 E148.74433
G0 F6000 X192.84 Y109.118
G1 F1200 X158.981 Y75.26 E150.33694
G0 F6000 X158.415 Y75.26
G1 F1200 X192.84 Y109.684 E151.95616
G0 F6000 X192.84 Y110.249
G1 F1200 X157.85 Y75.26 E153.60196
G0 F6000 X157.284 Y75.26
G1 F1200 X192.84 Y110.815 E155.27438
G0 F6000 X192.84 Y111.381
G1 F1200 X156.718 Y75.26 E156.97342
G0 F6000 X156.153 Y75.26
G1 F1200 X192.84 Y111.947 E158.69907
G0 F6000 X192.84 Y112.512
G1 F1200 X155.587 Y75.26 E160.45131
G0 F6000 X155.021 Y75.26
G1 F1200 X192.84 Y113.078 E162.23018
G0 F6000 X192.84 Y113.644
G1 F1200 X154.456 Y75.26 E164.03564
G0 F6000 X153.89 Y75.26
G1 F1200 X192.84 Y114.209 E165.86771
G0 F6000 X192.84 Y114.775
G1 F1200 X153.324 Y75.26 E167.7264
G0 F6000 X152.759 Y75.26
G1 F1200 X192.84 Y115.341 E169.61168
G0 F6000 X192.84 Y115.906
G1 F1200 X152.193 Y75.26 E171.52357
G0 F6000 X151.627 Y75.26
G1 F1200 X192.84 Y116.472 E173.46208
G0 F6000 X192.84 Y117.038
G1 F1200 X151.062 Y75.26 E175.42719
G0 F6000 X150.496 Y75.26
G1 F1200 X192.84 Y117.603 E177.4189
G0 F6000 X192.84 Y118.169
G1 F1200 X149.93 Y75.26 E179.43723
G0 F6000 X149.364 Y75.26
G1 F1200 X192.84 Y118.735 E181.48218
G0 F6000 X192.84 Y119.3
G1 F1200 X148.799 Y75.26 E183.55371
G0 F6000 X148.233 Y75.26
G1 F1200 X192.84 Y119.866 E185.65187
G0 F6000 X192.84 Y120.432
G1 F1200 X147.667 Y75.26 E187.77664
G0 F6000 X147.102 Y75.26
G1 F1200 X192.84 Y120.997 E189.92799
G0 F6000 X192.84 Y121.563
G1 F1200 X146.536 Y75.26 E192.10597
G0 F6000 X145.97 Y75.26
G1 F1200 X192.84 Y122.129 E194.31057
G0 F6000 X192.84 Y122.695
G1 F1200 X145.405 Y75.26 E196.54176
G0 F6000 X144.839 Y75.26
G1 F1200 X192.84 Y123.26 E198.79956
G0 F6000 X192.84 Y123.826
G1 F1200 X144.273 Y75.26 E201.08398
G0 F6000 X143.708 Y75.26
G1 F1200 X192.84 Y124.392 E203.395
G0 F6000 X192.84 Y124.957
G1 F1200 X143.142 Y75.26 E205.73261
G0 F6000 X142.576 Y75.26
G1 F1200 X192.84 Y125.523 E208.09686
G0 F6000 X192.84 Y126.089
G1 F1200 X142.011 Y75.26 E210.4877
G0 F6000 X141.445 Y75.26
G1 F1200 X192.84 Y126.654 E212.90514
G0 F6000 X192.84 Y127.22
G1 F1200 X140.879 Y75.26 E215.3492
G0 F6000 X140.314 Y75.26
G1 F1200 X192.84 Y127.786 E217.81986
G0 F6000 X192.84 Y128.351
G1 F1200 X139.748 Y75.26 E220.31712
G0 F6000 X139.182 Y75.26
G1 F1200 X192.84 Y128.917 E222.84101
G0 F6000 X192.84 Y129.483
G1 F1200 X138.616 Y75.26 E225.39151
G0 F6000 X138.051 Y75.26
G1 F1200 X192.84 Y130.048 E227.9686
G0 F6000 X192.84 Y130.614
G1 F1200 X137.485 Y75.26 E230.5723
G0 F6000 X136.919 Y75.26
G1 F1200 X192.84 Y131.18 E233.20263
G0 F6000 X192.84 Y131.746
G1 F1200 X136.354 Y75.26 E235.85956
G0 F6000 X135.788 Y75.26
G1 F1200 X192.84 Y132.311 E238.54309
G0 F6000 X192.84 Y132.877
G1 F1200 X135.222 Y75.26 E241.25324
G0 F6000 X134.657 Y75.26
G1 F1200 X192.84 Y133.443 E243.98999
G0 F6000 X192.84 Y134.008
G1 F1200 X134.091 Y75.26 E246.75334
G0 F6000 X133.525 Y75.26
G1 F1200 X192.84 Y134.574 E249.54331
G0 F6000 X192.84 Y135.14
G1 F1200 X132.96 Y75.26 E252.35988
G0 F6000 X132.394 Y75.26
G1 F1200 X192.84 Y135.705 E255.20305
G0 F6000 X192.84 Y136.271
G1 F1200 X131.828 Y75.26 E258.07285
G0 F6000 X131.263 Y75.26
G1 F1200 X192.84 Y136.837 E260.96924
G0 F6000 X192.84 Y137.402
G1 F1200 X130.697 Y75.26 E263.89223
G0 F6000 X130.131 Y75.26
G1 F1200 X192.84 Y137.968 E266.84185
G0 F6000 X192.84 Y138.534
G1 F1200 X129.566 Y75.26 E269.81806
