;FLAVOR:Marlin
;TIME:17006
;Filament used: 12.2173m
;Layer height: 0.16
;MINX:75
;MINY:102.2
;MINZ:0.2
;MAXX:225
;MAXY:197.8
;MAXZ:28.96
;Generated with Cura_SteamEngine 5.2.1
M140 S60
M105
M190 S60
M104 S210
M105
M109 S210
M82 ;absolute extrusion mode
M201 X500.00 Y500.00 Z100.00 E5000.00 ;Setup machine max acceleration
M203 X500.00 Y500.00 Z10.00 E50.00 ;Setup machine max feedrate
M204 P500.00 R1000.00 T500.00 ;Setup Print/Retract/Travel acceleration
M205 X8.00 Y8.00 Z0.40 E5.00 ;Setup Jerk
M220 S100 ;Reset Feedrate
M221 S100 ;Reset Flowrate

G28 ;Home
G29 ;Auto bed Level

G92 E0 ;Reset Extruder
G1 Z2.0 F3000 ;Move Z Axis up
G1 X10.1 Y20 Z0.28 F5000.0 ;Move to start position
G1 X10.1 Y200.0 Z0.28 F1500.0 E15 ;Draw the first line
G1 X10.4 Y200.0 Z0.28 F5000.0 ;Move to side a little
G1 X10.4 Y20 Z0.28 F1500.0 E30 ;Draw the second line
G92 E0 ;Reset Extruder
G1 Z2.0 F3000 ;Move Z Axis up

G92 E0
G92 E0
G1 F2700 E-7
;LAYER_COUNT:179
;LAYER:0
M107
G0 F6000 X79.626 Y104.251 Z0.2
;TYPE:SKIRT
G1 F2700 E0
G1 F1200 X80.412 Y103.739 E0.0312
G1 X81.239 Y103.297 E0.06239
G1 X82.101 Y102.927 E0.09359
G1 X82.991 Y102.631 E0.12478
G1 X83.903 Y102.413 E0.15597
G1 X84.83 Y102.272 E0.18716
G1 X85.701 Y102.213 E0.21619
G1 X86.33 Y102.2 E0.23712
G1 X213.451 Y102.201 E4.46518
G1 X214.149 Y102.211 E4.4884
G1 X215.085 Y102.265 E4.51958
G1 X216.013 Y102.397 E4.55076
G1 X216.927 Y102.609 E4.58196
G1 X217.819 Y102.898 E4.61315
G1 X218.684 Y103.261 E4.64435
G1 X219.514 Y103.697 E4.67553
G1 X220.305 Y104.202 E4.70675
G1 X221.049 Y104.773 E4.73794
G1 X221.742 Y105.405 E4.76914
G1 X222.379 Y106.093 E4.80032
G1 X222.954 Y106.834 E4.83152
G1 X223.465 Y107.62 E4.8627
G1 X223.907 Y108.448 E4.89392
G1 X224.276 Y109.31 E4.9251
G1 X224.571 Y110.2 E4.95629
G1 X224.789 Y111.112 E4.98748
G1 X224.929 Y112.04 E5.01869
G1 X224.987 Y112.901 E5.04739
G1 X225 Y113.53 E5.06832
G1 X224.999 Y186.2 E7.48533
G1 X224.99 Y186.927 E7.50951
G1 X224.939 Y187.864 E7.54072
G1 X224.807 Y188.792 E7.5719
G1 X224.598 Y189.706 E7.60308
G1 X224.311 Y190.599 E7.63428
G1 X223.949 Y191.465 E7.6655
G1 X223.515 Y192.296 E7.69668
G1 X223.011 Y193.087 E7.72788
G1 X222.442 Y193.832 E7.75906
G1 X221.811 Y194.527 E7.79028
G1 X221.124 Y195.165 E7.82146
G1 X220.385 Y195.742 E7.85265
G1 X219.599 Y196.254 E7.88385
G1 X218.773 Y196.697 E7.91502
G1 X217.911 Y197.069 E7.94625
G1 X217.022 Y197.365 E7.97741
G1 X216.11 Y197.585 E8.00861
G1 X215.183 Y197.726 E8.0398
G1 X214.299 Y197.787 E8.06927
G1 X213.67 Y197.8 E8.0902
G1 X86.565 Y197.799 E12.31773
G1 X85.867 Y197.79 E12.34094
G1 X84.931 Y197.738 E12.37212
G1 X84.002 Y197.606 E12.40333
G1 X83.088 Y197.396 E12.43452
G1 X82.195 Y197.109 E12.46572
G1 X81.33 Y196.746 E12.49692
G1 X80.499 Y196.312 E12.5281
G1 X79.708 Y195.808 E12.5593
G1 X78.963 Y195.238 E12.5905
G1 X78.269 Y194.607 E12.6217
G1 X77.632 Y193.92 E12.65286
G1 X77.055 Y193.18 E12.68407
G1 X76.543 Y192.394 E12.71527
G1 X76.1 Y191.567 E12.74647
G1 X75.729 Y190.706 E12.77765
G1 X75.433 Y189.816 E12.80885
G1 X75.214 Y188.904 E12.84004
G1 X75.073 Y187.977 E12.87123
G1 X75.013 Y187.088 E12.90087
G1 X75 Y186.458 E12.92183
G1 X75.001 Y113.725 E15.34093
G1 X75.01 Y113.06 E15.36305
G1 X75.063 Y112.124 E15.39424
G1 X75.195 Y111.195 E15.42545
G1 X75.406 Y110.281 E15.45664
G1 X75.694 Y109.389 E15.48782
G1 X76.057 Y108.524 E15.51902
G1 X76.492 Y107.693 E15.55022
G1 X76.996 Y106.903 E15.58139
G1 X77.566 Y106.158 E15.61259
G1 X78.198 Y105.464 E15.6438
G1 X78.886 Y104.827 E15.67499
G1 X79.626 Y104.251 E15.70618
G0 F6000 X80.01 Y104.47
G1 F1200 X80.791 Y103.982 E15.73681
G1 X81.611 Y103.564 E15.76742
G1 X82.465 Y103.219 E15.79806
G1 X83.345 Y102.949 E15.82867
G1 X84.245 Y102.757 E15.85928
G1 X85.159 Y102.643 E15.88991
G1 X85.712 Y102.613 E15.90833
G1 X86.33 Y102.6 E15.92889
G1 X213.445 Y102.601 E20.15676
G1 X214.143 Y102.611 E20.17997
G1 X215.062 Y102.664 E20.21059
G1 X215.973 Y102.797 E20.24121
G1 X216.869 Y103.008 E20.27183
G1 X217.743 Y103.296 E20.30244
G1 X218.59 Y103.659 E20.33308
G1 X219.401 Y104.094 E20.36369
G1 X220.171 Y104.598 E20.3943
G1 X220.895 Y105.167 E20.42493
G1 X221.567 Y105.797 E20.45557
G1 X222.182 Y106.482 E20.48619
G1 X222.735 Y107.218 E20.5168
G1 X223.222 Y107.999 E20.54742
G1 X223.639 Y108.82 E20.57804
G1 X223.984 Y109.674 E20.60868
G1 X224.253 Y110.554 E20.63928
G1 X224.445 Y111.455 E20.66992
G1 X224.558 Y112.368 E20.70052
G1 X224.587 Y112.912 E20.71864
G1 X224.6 Y113.53 E20.7392
G1 X224.599 Y186.195 E23.15605
G1 X224.59 Y186.922 E23.18023
G1 X224.539 Y187.841 E23.21084
G1 X224.408 Y188.753 E23.24149
G1 X224.198 Y189.649 E23.2721
G1 X223.912 Y190.524 E23.30271
G1 X223.551 Y191.371 E23.33334
G1 X223.117 Y192.183 E23.36396
G1 X222.615 Y192.955 E23.39459
G1 X222.047 Y193.68 E23.42522
G1 X221.419 Y194.353 E23.45584
G1 X220.735 Y194.969 E23.48645
G1 X220 Y195.523 E23.51707
G1 X219.22 Y196.012 E23.54769
G1 X218.4 Y196.431 E23.57831
G1 X217.547 Y196.777 E23.60893
G1 X216.667 Y197.048 E23.63955
G1 X215.767 Y197.241 E23.67017
G1 X214.853 Y197.356 E23.70081
G1 X214.288 Y197.387 E23.71963
G1 X213.67 Y197.4 E23.74019
G1 X86.57 Y197.399 E27.96755
G1 X85.872 Y197.39 E27.99077
G1 X84.953 Y197.338 E28.02138
G1 X84.042 Y197.207 E28.052
G1 X83.146 Y196.997 E28.0826
G1 X82.271 Y196.71 E28.11323
G1 X81.424 Y196.348 E28.14387
G1 X80.612 Y195.914 E28.17449
G1 X79.841 Y195.412 E28.20509
G1 X79.116 Y194.844 E28.23572
G1 X78.443 Y194.215 E28.26636
G1 X77.828 Y193.531 E28.29696
G1 X77.274 Y192.796 E28.32757
G1 X76.786 Y192.015 E28.3582
G1 X76.367 Y191.195 E28.38883
G1 X76.021 Y190.342 E28.41944
G1 X75.751 Y189.462 E28.45006
G1 X75.558 Y188.561 E28.48071
G1 X75.444 Y187.648 E28.51131
G1 X75.413 Y187.077 E28.53033
G1 X75.4 Y186.458 E28.55092
G1 X75.401 Y113.731 E30.96983
G1 X75.41 Y113.066 E30.99195
G1 X75.462 Y112.146 E31.0226
G1 X75.594 Y111.235 E31.05321
G1 X75.805 Y110.339 E31.08383
G1 X76.092 Y109.464 E31.11446
G1 X76.455 Y108.618 E31.14508
G1 X76.889 Y107.806 E31.1757
G1 X77.392 Y107.035 E31.20632
G1 X77.961 Y106.311 E31.23695
G1 X78.589 Y105.639 E31.26754
G1 X79.274 Y105.023 E31.29818
G1 X80.01 Y104.47 E31.3288
G0 F6000 X80.394 Y104.694
G1 F1200 X81.169 Y104.231 E31.35882
G1 X81.982 Y103.838 E31.38886
G1 X82.827 Y103.518 E31.41891
G1 X83.696 Y103.275 E31.44892
G1 X84.584 Y103.109 E31.47897
G1 X85.723 Y103.013 E31.51699
G1 X86.33 Y103 E31.53718
G1 X213.439 Y103.001 E35.76484
G1 X214.137 Y103.011 E35.78806
G1 X215.039 Y103.064 E35.81811
G1 X215.932 Y103.196 E35.84814
G1 X216.81 Y103.407 E35.87817
G1 X217.666 Y103.695 E35.90821
G1 X218.493 Y104.057 E35.93824
G1 X219.285 Y104.492 E35.96829
G1 X220.036 Y104.994 E35.99833
G1 X220.739 Y105.561 E36.02837
G1 X221.389 Y106.188 E36.05841
G1 X221.981 Y106.87 E36.08845
G1 X222.511 Y107.601 E36.11848
G1 X222.973 Y108.377 E36.14852
G1 X223.366 Y109.19 E36.17855
G1 X223.684 Y110.035 E36.20858
G1 X223.927 Y110.905 E36.23862
G1 X224.092 Y111.793 E36.26866
G1 X224.187 Y112.923 E36.30638
G1 X224.2 Y113.53 E36.32657
G1 X224.199 Y186.19 E38.74326
G1 X224.19 Y186.917 E38.76744
G1 X224.139 Y187.819 E38.79749
G1 X224.008 Y188.713 E38.82754
G1 X223.799 Y189.591 E38.85756
G1 X223.513 Y190.448 E38.88761
G1 X223.152 Y191.276 E38.91765
G1 X222.72 Y192.068 E38.94766
G1 X222.219 Y192.82 E38.97771
G1 X221.653 Y193.524 E39.00775
G1 X221.028 Y194.175 E39.03777
G1 X220.347 Y194.769 E39.06783
G1 X219.616 Y195.3 E39.09788
G1 X218.842 Y195.764 E39.12789
G1 X218.029 Y196.158 E39.15794
G1 X217.185 Y196.478 E39.18796
G1 X216.315 Y196.723 E39.21802
G1 X215.428 Y196.889 E39.24804
G1 X214.277 Y196.987 E39.28646
G1 X213.67 Y197 E39.30665
G1 X86.575 Y196.999 E43.53385
G1 X85.877 Y196.99 E43.55707
G1 X84.976 Y196.939 E43.58708
G1 X84.082 Y196.807 E43.61714
G1 X83.204 Y196.598 E43.64716
G1 X82.347 Y196.311 E43.67722
G1 X81.52 Y195.95 E43.70723
G1 X80.727 Y195.517 E43.73728
G1 X79.976 Y195.016 E43.76731
G1 X79.272 Y194.45 E43.79735
G1 X78.621 Y193.824 E43.82739
G1 X78.028 Y193.143 E43.85742
G1 X77.498 Y192.412 E43.88745
G1 X77.034 Y191.637 E43.9175
G1 X76.64 Y190.824 E43.94755
G1 X76.32 Y189.98 E43.97757
G1 X76.076 Y189.11 E44.00762
G1 X75.91 Y188.222 E44.03767
G1 X75.813 Y187.067 E44.07622
G1 X75.8 Y186.458 E44.09648
G1 X75.801 Y113.736 E46.51522
G1 X75.81 Y113.071 E46.53734
G1 X75.862 Y112.169 E46.56739
G1 X75.994 Y111.276 E46.59742
G1 X76.204 Y110.398 E46.62744
G1 X76.491 Y109.541 E46.6575
G1 X76.853 Y108.714 E46.68753
G1 X77.286 Y107.922 E46.71755
G1 X77.788 Y107.171 E46.74759
G1 X78.355 Y106.467 E46.77766
G1 X78.981 Y105.817 E46.80767
G1 X79.662 Y105.224 E46.83771
G1 X80.394 Y104.694 E46.86777
G1 F2700 E39.86777
;MESH:isengard_units.stl
G0 F6000 X86.414 Y112.535
G0 X86.414 Y113.614
G0 X87 Y185.8
;TYPE:WALL-INNER
G1 F2700 E46.86777
G1 F1200 X213 Y185.8 E51.05854
G1 X213 Y150 E52.24926
G1 X213 Y114.2 E53.43997
G1 X87 Y114.2 E57.63075
G1 X87 Y185.8 E60.01217
G0 F6000 X86.6 Y186.2
G1 F1200 X213.4 Y186.2 E64.22956
G1 X213.4 Y150 E65.43357
G1 X213.4 Y113.8 E66.63759
G1 X86.6 Y113.8 E70.85498
G1 X86.6 Y186.2 E73.26301
G0 F6000 X86.2 Y186.6
;TYPE:WALL-OUTER
G1 F1200 X213.8 Y186.6 E77.507
G1 X213.8 Y150 E78.72432
G1 X213.8 Y113.4 E79.94164
G1 X86.2 Y113.4 E84.18564
G1 X86.2 Y186.6 E86.62028
G0 F6000 X86.47 Y186.33
G0 X87.1 Y185.44
G0 X87.36 Y185.44
;TYPE:SKIN
G1 F1200 X212.64 Y185.44 E90.78711
G1 X212.64 Y150 E91.96585
G1 X212.64 Y114.56 E93.14459
G1 X87.36 Y114.56 E97.31142
G1 X87.36 Y185.44 E99.6689
G0 F6000 X87.941 Y185.239
G1 F1200 X87.559 Y184.857 E99.68686
G0 F6000 X87.559 Y184.291
G1 F1200 X88.507 Y185.239 E99.73146
G0 F6000 X89.072 Y185.239
G1 F1200 X87.559 Y183.726 E99.80262
G0 F6000 X87.559 Y183.16
G1 F1200 X89.638 Y185.239 E99.90041
G0 F6000 X90.204 Y185.239
G1 F1200 X87.559 Y182.594 E100.02482
G0 F6000 X87.559 Y182.029
G1 F1200 X90.769 Y185.239 E100.17581
G0 F6000 X91.335 Y185.239
G1 F1200 X87.559 Y181.463 E100.35342
G0 F6000 X87.559 Y180.897
G1 F1200 X91.901 Y185.239 E100.55766
G0 F6000 X92.466 Y185.239
G1 F1200 X87.559 Y180.332 E100.78847
G0 F6000 X87.559 Y179.766
G1 F1200 X93.032 Y185.239 E101.0459
G0 F6000 X93.598 Y185.239
G1 F1200 X87.559 Y179.2 E101.32996
G0 F6000 X87.559 Y178.634
G1 F1200 X94.163 Y185.239 E101.64061
G0 F6000 X94.729 Y185.239
G1 F1200 X87.559 Y178.069 E101.97787
G0 F6000 X87.559 Y177.503
G1 F1200 X95.295 Y185.239 E102.34175
G0 F6000 X95.861 Y185.239
G1 F1200 X87.559 Y176.937 E102.73225
G0 F6000 X87.559 Y176.372
G1 F1200 X96.426 Y185.239 E103.14932
G0 F6000 X96.992 Y185.239
G1 F1200 X87.559 Y175.806 E103.59302
G0 F6000 X87.559 Y175.24
G1 F1200 X97.558 Y185.239 E104.06334
G0 F6000 X98.123 Y185.239
G1 F1200 X87.559 Y174.675 E104.56024
G0 F6000 X87.559 Y174.109
G1 F1200 X98.689 Y185.239 E105.08376
G0 F6000 X99.255 Y185.239
G1 F1200 X87.559 Y173.543 E105.63391
G0 F6000 X87.559 Y172.978
G1 F1200 X99.82 Y185.239 E106.21063
G0 F6000 X100.386 Y185.239
G1 F1200 X87.559 Y172.412 E106.81397
G0 F6000 X87.559 Y171.846
G1 F1200 X100.952 Y185.239 E107.44394
G0 F6000 X101.517 Y185.239
G1 F1200 X87.559 Y171.281 E108.10048
G0 F6000 X87.559 Y170.715
G1 F1200 X102.083 Y185.239 E108.78364
G0 F6000 X102.649 Y185.239
G1 F1200 X87.559 Y170.149 E109.49343
G0 F6000 X87.559 Y169.584
G1 F1200 X103.214 Y185.239 E110.22979
G0 F6000 X103.78 Y185.239
G1 F1200 X87.559 Y169.018 E110.99278
G0 F6000 X87.559 Y168.452
G1 F1200 X104.346 Y185.239 E111.78239
G0 F6000 X104.912 Y185.239
G1 F1200 X87.559 Y167.886 E112.59862
G0 F6000 X87.559 Y167.321
G1 F1200 X105.477 Y185.239 E113.44143
G0 F6000 X106.043 Y185.239
G1 F1200 X87.559 Y166.755 E114.31086
G0 F6000 X87.559 Y166.189
G1 F1200 X106.609 Y185.239 E115.20691
G0 F6000 X107.174 Y185.239
G1 F1200 X87.559 Y165.624 E116.12954
G0 F6000 X87.559 Y165.058
G1 F1200 X107.74 Y185.239 E117.07879
G0 F6000 X108.306 Y185.239
G1 F1200 X87.559 Y164.492 E118.05467
G0 F6000 X87.559 Y163.927
G1 F1200 X108.871 Y185.239 E119.05712
G0 F6000 X109.437 Y185.239
G1 F1200 X87.559 Y163.361 E120.08619
G0 F6000 X87.559 Y162.795
G1 F1200 X110.003 Y185.239 E121.14189
G0 F6000 X110.568 Y185.239
G1 F1200 X87.559 Y162.23 E122.22416
G0 F6000 X87.559 Y161.664
G1 F1200 X111.134 Y185.239 E123.33306
G0 F6000 X111.7 Y185.239
G1 F1200 X87.559 Y161.098 E124.46858
G0 F6000 X87.559 Y160.533
G1 F1200 X112.265 Y185.239 E125.63067
G0 F6000 X112.831 Y185.239
G1 F1200 X87.559 Y159.967 E126.81939
G0 F6000 X87.559 Y159.401
G1 F1200 X113.397 Y185.239 E128.03473
G0 F6000 X113.962 Y185.239
G1 F1200 X87.559 Y158.835 E129.27667
G0 F6000 X87.559 Y158.27
G1 F1200 X114.528 Y185.239 E130.54521
G0 F6000 X115.094 Y185.239
G1 F1200 X87.559 Y157.704 E131.84037
G0 F6000 X87.559 Y157.138
G1 F1200 X115.66 Y185.239 E133.16216
G0 F6000 X116.225 Y185.239
G1 F1200 X87.559 Y156.573 E134.51052
G0 F6000 X87.559 Y156.007
G1 F1200 X116.791 Y185.239 E135.8855
G0 F6000 X117.357 Y185.239
G1 F1200 X87.559 Y155.441 E137.28711
G0 F6000 X87.559 Y154.876
G1 F1200 X117.922 Y185.239 E138.71529
G0 F6000 X118.488 Y185.239
G1 F1200 X87.559 Y154.31 E140.1701
G0 F6000 X87.559 Y153.744
G1 F1200 X119.054 Y185.239 E141.65152
G0 F6000 X119.619 Y185.239
G1 F1200 X87.559 Y153.179 E143.15953
G0 F6000 X87.559 Y152.613
G1 F1200 X120.185 Y185.239 E144.69415
G0 F6000 X120.751 Y185.239
G1 F1200 X87.559 Y152.047 E146.2554
G0 F6000 X87.559 Y151.482
G1 F1200 X121.316 Y185.239 E147.84323
G0 F6000 X121.882 Y185.239
G1 F1200 X87.559 Y150.916 E149.45768
G0 F6000 X87.559 Y150.35
G1 F1200 X122.448 Y185.239 E151.09875
G0 F6000 X123.013 Y185.239
G1 F1200 X87.559 Y149.785 E152.7664
G0 F6000 X87.559 Y149.219
G1 F1200 X123.579 Y185.239 E154.46067
G0 F6000 X124.145 Y185.239
G1 F1200 X87.559 Y148.653 E156.18156
G0 F6000 X87.559 Y148.087
G1 F1200 X124.711 Y185.239 E157.92908
G0 F6000 X125.276 Y185.239
G1 F1200 X87.559 Y147.522 E159.70317
G0 F6000 X87.559 Y146.956
G1 F1200 X125.842 Y185.239 E161.50388
G0 F6000 X126.408 Y185.239
G1 F1200 X87.559 Y146.39 E163.33122
G0 F6000 X87.559 Y145.825
G1 F1200 X126.973 Y185.239 E165.18514
G0 F6000 X127.539 Y185.239
G1 F1200 X87.559 Y145.259 E167.06567
G0 F6000 X87.559 Y144.693
G1 F1200 X128.105 Y185.239 E168.97283
G0 F6000 X128.67 Y185.239
G1 F1200 X87.559 Y144.128 E170.90657
G0 F6000 X87.559 Y143.562
G1 F1200 X129.236 Y185.239 E172.86693
G0 F6000 X129.802 Y185.239
G1 F1200 X87.559 Y142.996 E174.85391
G0 F6000 X87.559 Y142.431
G1 F1200 X130.367 Y185.239 E176.86746
G0 F6000 X130.933 Y185.239
G1 F1200 X87.559 Y141.865 E178.90764
G0 F6000 X87.559 Y141.299
G1 F1200 X131.499 Y185.239 E180.97445
G0 F6000 X132.064 Y185.239
G1 F1200 X87.559 Y140.734 E183.06783
G0 F6000 X87.559 Y140.168
G1 F1200 X132.63 Y185.239 E185.18783
G0 F6000 X133.196 Y185.239
G1 F1200 X87.559 Y139.602 E187.33445
G0 F6000 X87.559 Y139.036
G1 F1200 X133.761 Y185.239 E189.50768
G0 F6000 X134.327 Y185.239
G1 F1200 X87.559 Y138.471 E191.7075
G0 F6000 X87.559 Y137.905
G1 F1200 X134.893 Y185.239 E193.93395
G0 F6000 X135.459 Y185.239
G1 F1200 X87.559 Y137.339 E196.18701
G0 F6000 X87.559 Y136.774
G1 F1200 X136.024 Y185.239 E198.46666
G0 F6000 X136.59 Y185.239
G1 F1200 X87.559 Y136.208 E200.77293
G0 F6000 X87.559 Y135.642
G1 F1200 X137.156 Y185.239 E203.10582
G0 F6000 X137.721 Y185.239
G1 F1200 X87.559 Y135.077 E205.46529
G0 F6000 X87.559 Y134.511
G1 F1200 X138.287 Y185.239 E207.85137
G0 F6000 X138.853 Y185.239
G1 F1200 X87.559 Y133.945 E210.26409
G0 F6000 X87.559 Y133.38
G1 F1200 X139.418 Y185.239 E212.70338
G0 F6000 X139.984 Y185.239
G1 F1200 X87.559 Y132.814 E215.16929
G0 F6000 X87.559 Y132.248
G1 F1200 X140.55 Y185.239 E217.66182
G0 F6000 X141.115 Y185.239
G1 F1200 X87.559 Y131.683 E220.18093
G0 F6000 X87.559 Y131.117
G1 F1200 X141.681 Y185.239 E222.72666
G0 F6000 X142.247 Y185.239
G1 F1200 X87.559 Y130.551 E225.29902
G0 F6000 X87.559 Y129.986
G1 F1200 X142.812 Y185.239 E227.89795
G0 F6000 X143.378 Y185.239
G1 F1200 X87.559 Y129.42 E230.52351
G0 F6000 X87.559 Y128.854
G1 F1200 X143.944 Y185.239 E233.17568
G0 F6000 X144.509 Y185.239
G1 F1200 X87.559 Y128.288 E235.85446
G0 F6000 X87.559 Y127.723
G1 F1200 X145.075 Y185.239 E238.55984
G0 F6000 X145.641 Y185.239
G1 F1200 X87.559 Y127.157 E241.29184
G0 F6000 X87.559 Y126.591
G1 F1200 X146.207 Y185.239 E244.05046
G0 F6000 X146.772 Y185.239
G1 F1200 X87.559 Y126.026 E246.83566
G0 F6000 X87.559 Y125.46
