;FLAVOR:Marlin
;TIME:9777
;Filament used: 11.1843m
;Layer height: 0.28
;MINX:80.5
;MINY:95.2
;MINZ:0.28
;MAXX:219.5
;MAXY:204.8
;MAXZ:24.92
;Generated with Cura_SteamEngine 5.2.1
M140 S50
M105
M190 S50
M104 S210
M105
M109 S210
M82 ;absolute extrusion mode
M201 X500.00 Y500.00 Z100.00 E5000.00 ;Setup machine max acceleration
M203 X500.00 Y500.00 Z10.00 E50.00 ;Setup machine max feedrate
M204 P500.00 R1000.00 T500.00 ;Setup Print/Retract/Travel acceleration
M205 X8.00 Y8.00 Z0.40 E5.00 ;Setup Jerk
M220 S100 ;Reset Feedrate
M221 S100 ;Reset Flowrate

G28 ;Home
G29 ;Auto bed Level

G92 E0 ;Reset Extruder
G1 Z2.0 F3000 ;Move Z Axis up
G1 X10.1 Y20 Z0.28 F5000.0 ;Move to start position
G1 X10.1 Y200.0 Z0.28 F1500.0 E15 ;Draw the first line
G1 X10.4 Y200.0 Z0.28 F5000.0 ;Move to side a little
G1 X10.4 Y20 Z0.28 F1500.0 E30 ;Draw the second line
G92 E0 ;Reset Extruder
G1 Z2.0 F3000 ;Move Z Axis up

G92 E0
G92 E0
G1 F2700 E-7
;LAYER_COUNT:89
;LAYER:0
M107
G0 F6000 X84.386 Y97.827 Z0.28
;TYPE:SKIRT
G1 F2700 E0
G1 F1200 X85.126 Y97.251 E0.04367
G1 X85.912 Y96.739 E0.08735
G1 X86.739 Y96.297 E0.13101
G1 X87.601 Y95.927 E0.17469
G1 X88.491 Y95.631 E0.21836
G1 X89.403 Y95.413 E0.26203
G1 X90.33 Y95.272 E0.30569
G1 X91.201 Y95.213 E0.34634
G1 X91.83 Y95.2 E0.37563
G1 X207.951 Y95.201 E5.78271
G1 X208.649 Y95.211 E5.81522
G1 X209.585 Y95.265 E5.85887
G1 X210.513 Y95.397 E5.90252
G1 X211.427 Y95.609 E5.94621
G1 X212.319 Y95.898 E5.98987
G1 X213.184 Y96.261 E6.03355
G1 X214.014 Y96.697 E6.07721
G1 X214.805 Y97.202 E6.12091
G1 X215.549 Y97.773 E6.16458
G1 X216.242 Y98.405 E6.20825
G1 X216.879 Y99.093 E6.25191
G1 X217.454 Y99.834 E6.29558
G1 X217.965 Y100.62 E6.33924
G1 X218.407 Y101.448 E6.38294
G1 X218.776 Y102.31 E6.4266
G1 X219.071 Y103.2 E6.47026
G1 X219.289 Y104.112 E6.51393
G1 X219.429 Y105.04 E6.55763
G1 X219.487 Y105.901 E6.59781
G1 X219.5 Y106.53 E6.6271
G1 X219.499 Y193.2 E10.66282
G1 X219.49 Y193.927 E10.69668
G1 X219.439 Y194.864 E10.74037
G1 X219.307 Y195.792 E10.78402
G1 X219.098 Y196.706 E10.82768
G1 X218.811 Y197.599 E10.87135
G1 X218.449 Y198.465 E10.91506
G1 X218.015 Y199.296 E10.95871
G1 X217.511 Y200.087 E11.00239
G1 X216.942 Y200.832 E11.04604
G1 X216.311 Y201.527 E11.08975
G1 X215.624 Y202.165 E11.13341
G1 X214.885 Y202.742 E11.17706
G1 X214.099 Y203.254 E11.22074
G1 X213.273 Y203.697 E11.26439
G1 X212.411 Y204.069 E11.3081
G1 X211.522 Y204.365 E11.35173
G1 X210.61 Y204.585 E11.39542
G1 X209.683 Y204.726 E11.43908
G1 X208.799 Y204.787 E11.48034
G1 X208.17 Y204.8 E11.50963
G1 X92.065 Y204.799 E16.91597
G1 X91.367 Y204.79 E16.94847
G1 X90.431 Y204.738 E16.99213
G1 X89.502 Y204.606 E17.03582
G1 X88.588 Y204.396 E17.07949
G1 X87.695 Y204.109 E17.12316
G1 X86.83 Y203.746 E17.16684
G1 X85.999 Y203.312 E17.2105
G1 X85.208 Y202.808 E17.25417
G1 X84.463 Y202.238 E17.29785
G1 X83.769 Y201.607 E17.34153
G1 X83.132 Y200.92 E17.38515
G1 X82.555 Y200.18 E17.42885
G1 X82.043 Y199.394 E17.47253
G1 X81.6 Y198.567 E17.51621
G1 X81.229 Y197.706 E17.55987
G1 X80.933 Y196.816 E17.60354
G1 X80.714 Y195.904 E17.64721
G1 X80.573 Y194.977 E17.69088
G1 X80.513 Y194.088 E17.73237
G1 X80.5 Y193.458 E17.76171
G1 X80.501 Y106.725 E21.80036
G1 X80.51 Y106.06 E21.83133
G1 X80.563 Y105.124 E21.87498
G1 X80.695 Y104.195 E21.91867
G1 X80.906 Y103.281 E21.96235
G1 X81.194 Y102.389 E22.006
G1 X81.557 Y101.524 E22.04968
G1 X81.992 Y100.693 E22.09336
G1 X82.496 Y99.903 E22.13699
G1 X83.066 Y99.158 E22.18067
G1 X83.698 Y98.464 E22.22438
G1 X84.386 Y97.827 E22.26804
G0 F6000 X84.774 Y98.023
G1 F1200 X85.51 Y97.47 E22.3109
G1 X86.291 Y96.982 E22.35379
G1 X87.111 Y96.564 E22.39664
G1 X87.965 Y96.219 E22.43953
G1 X88.845 Y95.949 E22.48239
G1 X89.745 Y95.757 E22.52524
G1 X90.659 Y95.643 E22.56813
G1 X91.212 Y95.613 E22.59392
G1 X91.83 Y95.6 E22.6227
G1 X207.945 Y95.601 E28.0295
G1 X208.643 Y95.611 E28.06201
G1 X209.562 Y95.664 E28.10487
G1 X210.473 Y95.797 E28.14774
G1 X211.369 Y96.008 E28.19061
G1 X212.243 Y96.296 E28.23346
G1 X213.09 Y96.659 E28.27636
G1 X213.901 Y97.094 E28.31922
G1 X214.671 Y97.598 E28.36207
G1 X215.395 Y98.167 E28.40495
G1 X216.067 Y98.797 E28.44784
G1 X216.682 Y99.482 E28.49071
G1 X217.235 Y100.218 E28.53357
G1 X217.722 Y100.999 E28.57643
G1 X218.139 Y101.82 E28.61931
G1 X218.484 Y102.674 E28.6622
G1 X218.753 Y103.554 E28.70504
G1 X218.945 Y104.455 E28.74794
G1 X219.058 Y105.368 E28.79078
G1 X219.087 Y105.912 E28.81614
G1 X219.1 Y106.53 E28.84493
G1 X219.099 Y193.195 E32.88041
G1 X219.09 Y193.922 E32.91427
G1 X219.039 Y194.841 E32.95713
G1 X218.908 Y195.753 E33.00003
G1 X218.698 Y196.649 E33.04288
G1 X218.412 Y197.524 E33.08575
G1 X218.051 Y198.371 E33.12862
G1 X217.617 Y199.183 E33.17149
G1 X217.115 Y199.955 E33.21437
G1 X216.547 Y200.68 E33.25726
G1 X215.919 Y201.353 E33.30012
G1 X215.235 Y201.969 E33.34298
G1 X214.5 Y202.523 E33.38584
G1 X213.72 Y203.012 E33.4287
G1 X212.9 Y203.431 E33.47158
G1 X212.047 Y203.777 E33.51445
G1 X211.167 Y204.048 E33.55732
G1 X210.267 Y204.241 E33.60018
G1 X209.353 Y204.356 E33.64308
G1 X208.788 Y204.387 E33.66943
G1 X208.17 Y204.4 E33.69821
G1 X92.07 Y204.399 E39.10431
G1 X91.372 Y204.39 E39.13682
G1 X90.453 Y204.338 E39.17968
G1 X89.542 Y204.207 E39.22253
G1 X88.646 Y203.997 E39.26538
G1 X87.771 Y203.71 E39.30826
G1 X86.924 Y203.348 E39.35115
G1 X86.112 Y202.914 E39.39403
G1 X85.341 Y202.412 E39.43687
G1 X84.616 Y201.844 E39.47975
G1 X83.943 Y201.215 E39.52265
G1 X83.328 Y200.531 E39.56548
G1 X82.774 Y199.796 E39.60834
G1 X82.286 Y199.015 E39.65122
G1 X81.867 Y198.195 E39.6941
G1 X81.521 Y197.342 E39.73696
G1 X81.251 Y196.462 E39.77982
G1 X81.058 Y195.561 E39.82273
G1 X80.944 Y194.648 E39.86557
G1 X80.913 Y194.077 E39.8922
G1 X80.9 Y193.458 E39.92103
G1 X80.901 Y106.731 E43.9594
G1 X80.91 Y106.066 E43.99037
G1 X80.962 Y105.146 E44.03327
G1 X81.094 Y104.235 E44.07614
G1 X81.305 Y103.339 E44.119
G1 X81.592 Y102.464 E44.16188
G1 X81.955 Y101.618 E44.20475
G1 X82.389 Y100.806 E44.24762
G1 X82.892 Y100.035 E44.29048
G1 X83.461 Y99.311 E44.33336
G1 X84.089 Y98.639 E44.37619
G1 X84.774 Y98.023 E44.41909
G0 F6000 X85.162 Y98.224
G1 F1200 X85.894 Y97.694 E44.46117
G1 X86.669 Y97.231 E44.5032
G1 X87.482 Y96.838 E44.54525
G1 X88.327 Y96.518 E44.58733
G1 X89.196 Y96.275 E44.62934
G1 X90.084 Y96.109 E44.67141
G1 X91.223 Y96.013 E44.72463
G1 X91.83 Y96 E44.7529
G1 X207.939 Y96.001 E50.15942
G1 X208.637 Y96.011 E50.19193
G1 X209.539 Y96.064 E50.234
G1 X210.432 Y96.196 E50.27604
G1 X211.31 Y96.407 E50.31808
G1 X212.166 Y96.695 E50.36014
G1 X212.993 Y97.057 E50.40217
G1 X213.785 Y97.492 E50.44425
G1 X214.536 Y97.994 E50.48631
G1 X215.239 Y98.561 E50.52837
G1 X215.889 Y99.188 E50.57042
G1 X216.481 Y99.87 E50.61247
G1 X217.011 Y100.601 E50.65452
G1 X217.473 Y101.377 E50.69657
G1 X217.866 Y102.19 E50.73862
G1 X218.184 Y103.035 E50.78066
G1 X218.427 Y103.905 E50.82272
G1 X218.592 Y104.793 E50.86478
G1 X218.687 Y105.923 E50.91758
G1 X218.7 Y106.53 E50.94585
G1 X218.699 Y193.19 E54.9811
G1 X218.69 Y193.917 E55.01496
G1 X218.639 Y194.819 E55.05703
G1 X218.508 Y195.713 E55.0991
G1 X218.299 Y196.591 E55.14112
G1 X218.013 Y197.448 E55.18319
G1 X217.652 Y198.276 E55.22525
G1 X217.22 Y199.068 E55.26726
G1 X216.719 Y199.82 E55.30934
G1 X216.153 Y200.524 E55.3514
G1 X215.528 Y201.175 E55.39342
G1 X214.847 Y201.769 E55.4355
G1 X214.116 Y202.3 E55.47757
G1 X213.342 Y202.764 E55.51959
G1 X212.529 Y203.158 E55.56166
G1 X211.685 Y203.478 E55.60369
G1 X210.815 Y203.723 E55.64578
G1 X209.928 Y203.889 E55.6878
G1 X208.777 Y203.987 E55.74158
G1 X208.17 Y204 E55.76986
G1 X92.075 Y203.999 E61.17573
G1 X91.377 Y203.99 E61.20823
G1 X90.476 Y203.939 E61.25025
G1 X89.582 Y203.807 E61.29233
G1 X88.704 Y203.598 E61.33436
G1 X87.847 Y203.311 E61.37644
G1 X87.02 Y202.95 E61.41846
G1 X86.227 Y202.517 E61.46053
G1 X85.476 Y202.016 E61.50257
G1 X84.772 Y201.45 E61.54463
G1 X84.121 Y200.824 E61.58668
G1 X83.528 Y200.143 E61.62873
G1 X82.998 Y199.412 E61.67077
G1 X82.534 Y198.637 E61.71283
G1 X82.14 Y197.824 E61.7549
G1 X81.82 Y196.98 E61.79693
G1 X81.576 Y196.11 E61.83901
G1 X81.41 Y195.222 E61.88107
G1 X81.313 Y194.067 E61.93504
G1 X81.3 Y193.458 E61.96341
G1 X81.301 Y106.736 E66.00155
G1 X81.31 Y106.071 E66.03251
G1 X81.362 Y105.169 E66.07459
G1 X81.494 Y104.276 E66.11662
G1 X81.704 Y103.398 E66.15866
G1 X81.991 Y102.541 E66.20074
G1 X82.353 Y101.714 E66.24278
G1 X82.786 Y100.922 E66.28481
G1 X83.288 Y100.171 E66.32687
G1 X83.855 Y99.467 E66.36896
G1 X84.481 Y98.817 E66.41098
G1 X85.162 Y98.224 E66.45303
G1 F2700 E59.45303
;MESH:minions_hunt.stl
G0 F6000 X91.92 Y105.535
G0 X92.1 Y193.2
;TYPE:WALL-INNER
G1 F2700 E66.45303
G1 F1200 X207.9 Y193.2 E71.84516
G1 X207.9 Y150 E73.85673
G1 X207.9 Y106.8 E75.86831
G1 X92.1 Y106.8 E81.26044
G1 X92.1 Y193.2 E85.28359
G0 F6000 X91.7 Y193.6
;TYPE:WALL-OUTER
G1 F1200 X208.3 Y193.6 E90.71297
G1 X208.3 Y150 E92.74317
G1 X208.3 Y106.4 E94.77337
G1 X91.7 Y106.4 E100.20275
G1 X91.7 Y193.6 E104.26315
G0 F6000 X91.97 Y193.33
G0 X92.2 Y192.84
G0 X92.46 Y192.84
;TYPE:SKIN
G1 F1200 X207.54 Y192.84 E109.62176
G1 X207.54 Y150 E111.61657
G1 X207.54 Y107.16 E113.61138
G1 X92.46 Y107.16 E118.96998
G1 X92.46 Y192.84 E122.9596
G0 F6000 X93.078 Y192.639
G1 F1200 X92.659 Y192.22 E122.98719
G0 F6000 X92.659 Y191.654
G1 F1200 X93.644 Y192.639 E123.05206
G0 F6000 X94.209 Y192.639
G1 F1200 X92.659 Y191.089 E123.15413
G0 F6000 X92.659 Y190.523
G1 F1200 X94.775 Y192.639 E123.29347
G0 F6000 X95.341 Y192.639
G1 F1200 X92.659 Y189.957 E123.47009
G0 F6000 X92.659 Y189.392
G1 F1200 X95.907 Y192.639 E123.68394
G0 F6000 X96.472 Y192.639
G1 F1200 X92.659 Y188.826 E123.93503
G0 F6000 X92.659 Y188.26
G1 F1200 X97.038 Y192.639 E124.2234
G0 F6000 X97.604 Y192.639
G1 F1200 X92.659 Y187.695 E124.549
G0 F6000 X92.659 Y187.129
G1 F1200 X98.169 Y192.639 E124.91184
G0 F6000 X98.735 Y192.639
G1 F1200 X92.659 Y186.563 E125.31196
G0 F6000 X92.659 Y185.998
G1 F1200 X99.301 Y192.639 E125.74931
G0 F6000 X99.866 Y192.639
G1 F1200 X92.659 Y185.432 E126.22391
G0 F6000 X92.659 Y184.866
G1 F1200 X100.432 Y192.639 E126.73577
G0 F6000 X100.998 Y192.639
G1 F1200 X92.659 Y184.301 E127.28487
G0 F6000 X92.659 Y183.735
G1 F1200 X101.563 Y192.639 E127.87122
G0 F6000 X102.129 Y192.639
G1 F1200 X92.659 Y183.169 E128.49483
G0 F6000 X92.659 Y182.603
G1 F1200 X102.695 Y192.639 E129.15572
G0 F6000 X103.26 Y192.639
G1 F1200 X92.659 Y182.038 E129.85382
G0 F6000 X92.659 Y181.472
G1 F1200 X103.826 Y192.639 E130.58918
G0 F6000 X104.392 Y192.639
G1 F1200 X92.659 Y180.906 E131.36182
G0 F6000 X92.659 Y180.341
G1 F1200 X104.957 Y192.639 E132.17166
G0 F6000 X105.523 Y192.639
G1 F1200 X92.659 Y179.775 E133.01878
G0 F6000 X92.659 Y179.209
G1 F1200 X106.089 Y192.639 E133.90317
G0 F6000 X106.655 Y192.639
G1 F1200 X92.659 Y178.644 E134.8248
G0 F6000 X92.659 Y178.078
G1 F1200 X107.22 Y192.639 E135.78366
G0 F6000 X107.786 Y192.639
G1 F1200 X92.659 Y177.512 E136.7798
G0 F6000 X92.659 Y176.947
G1 F1200 X108.352 Y192.639 E137.81318
G0 F6000 X108.917 Y192.639
G1 F1200 X92.659 Y176.381 E138.8838
G0 F6000 X92.659 Y175.815
G1 F1200 X109.483 Y192.639 E139.99169
G0 F6000 X110.049 Y192.639
G1 F1200 X92.659 Y175.25 E141.13681
G0 F6000 X92.659 Y174.684
G1 F1200 X110.614 Y192.639 E142.31918
G0 F6000 X111.18 Y192.639
G1 F1200 X92.659 Y174.118 E143.53882
G0 F6000 X92.659 Y173.552
G1 F1200 X111.746 Y192.639 E144.79573
G0 F6000 X112.311 Y192.639
G1 F1200 X92.659 Y172.987 E146.08985
G0 F6000 X92.659 Y172.421
G1 F1200 X112.877 Y192.639 E147.42124
G0 F6000 X113.443 Y192.639
G1 F1200 X92.659 Y171.855 E148.7899
G0 F6000 X92.659 Y171.29
G1 F1200 X114.008 Y192.639 E150.19577
G0 F6000 X114.574 Y192.639
G1 F1200 X92.659 Y170.724 E151.63891
G0 F6000 X92.659 Y170.158
G1 F1200 X115.14 Y192.639 E153.11932
G0 F6000 X115.706 Y192.639
G1 F1200 X92.659 Y169.593 E154.63697
G0 F6000 X92.659 Y169.027
G1 F1200 X116.271 Y192.639 E156.19186
G0 F6000 X116.837 Y192.639
G1 F1200 X92.659 Y168.461 E157.78403
G0 F6000 X92.659 Y167.896
G1 F1200 X117.403 Y192.639 E159.41343
G0 F6000 X117.968 Y192.639
G1 F1200 X92.659 Y167.33 E161.08007
G0 F6000 X92.659 Y166.764
G1 F1200 X118.534 Y192.639 E162.78398
G0 F6000 X119.1 Y192.639
G1 F1200 X92.659 Y166.199 E164.52513
G0 F6000 X92.659 Y165.633
G1 F1200 X119.665 Y192.639 E166.30353
G0 F6000 X120.231 Y192.639
G1 F1200 X92.659 Y165.067 E168.11919
G0 F6000 X92.659 Y164.502
G1 F1200 X120.797 Y192.639 E169.97209
G0 F6000 X121.362 Y192.639
G1 F1200 X92.659 Y163.936 E171.86223
G0 F6000 X92.659 Y163.37
G1 F1200 X121.928 Y192.639 E173.78965
G0 F6000 X122.494 Y192.639
G1 F1200 X92.659 Y162.804 E175.75433
G0 F6000 X92.659 Y162.239
G1 F1200 X123.059 Y192.639 E177.75622
G0 F6000 X123.625 Y192.639
G1 F1200 X92.659 Y161.673 E179.79539
G0 F6000 X92.659 Y161.107
G1 F1200 X124.191 Y192.639 E181.87182
G0 F6000 X124.756 Y192.639
G1 F1200 X92.659 Y160.542 E183.98547
G0 F6000 X92.659 Y159.976
G1 F1200 X125.322 Y192.639 E186.13638
G0 F6000 X125.888 Y192.639
G1 F1200 X92.659 Y159.41 E188.32457
G0 F6000 X92.659 Y158.845
G1 F1200 X126.454 Y192.639 E190.54999
G0 F6000 X127.019 Y192.639
G1 F1200 X92.659 Y158.279 E192.81266
G0 F6000 X92.659 Y157.713
G1 F1200 X127.585 Y192.639 E195.11259
G0 F6000 X128.151 Y192.639
G1 F1200 X92.659 Y157.148 E197.44977
G0 F6000 X92.659 Y156.582
G1 F1200 X128.716 Y192.639 E199.82419
G0 F6000 X129.282 Y192.639
G1 F1200 X92.659 Y156.016 E202.23587
G0 F6000 X92.659 Y155.451
G1 F1200 X129.848 Y192.639 E204.6848
G0 F6000 X130.413 Y192.639
G1 F1200 X92.659 Y154.885 E207.17096
G0 F6000 X92.659 Y154.319
G1 F1200 X130.979 Y192.639 E209.6944
G0 F6000 X131.545 Y192.639
G1 F1200 X92.659 Y153.754 E212.25508
G0 F6000 X92.659 Y153.188
G1 F1200 X132.11 Y192.639 E214.85299
G0 F6000 X132.676 Y192.639
G1 F1200 X92.659 Y152.622 E217.48818
G0 F6000 X92.659 Y152.056
G1 F1200 X133.242 Y192.639 E220.16064
G0 F6000 X133.807 Y192.639
G1 F1200 X92.659 Y151.491 E222.87031
G0 F6000 X92.659 Y150.925
G1 F1200 X134.373 Y192.639 E225.61725
G0 F6000 X134.939 Y192.639
G1 F1200 X92.659 Y150.359 E228.40146
G0 F6000 X92.659 Y149.794
G1 F1200 X135.504 Y192.639 E231.22287
G0 F6000 X136.07 Y192.639
G1 F1200 X92.659 Y149.228 E234.08156
G0 F6000 X92.659 Y148.662
G1 F1200 X136.636 Y192.639 E236.97752
G0 F6000 X137.202 Y192.639
G1 F1200 X92.659 Y148.097 E239.91072
G0 F6000 X92.659 Y147.531
G1 F1200 X137.767 Y192.639 E242.88116
G0 F6000 X138.333 Y192.639
G1 F1200 X92.659 Y146.965 E245.88887
G0 F6000 X92.659 Y146.4
G1 F1200 X138.899 Y192.639 E248.93382
G0 F6000 X139.464 Y192.639
G1 F1200 X92.659 Y145.834 E252.01601
G0 F6000 X92.659 Y145.268
G1 F1200 X140.03 Y192.639 E255.13547
G0 F6000 X140.596 Y192.639
G1 F1200 X92.659 Y144.703 E258.29217
G0 F6000 X92.659 Y144.137
G1 F1200 X141.161 Y192.639 E261.48611
G0 F6000 X141.727 Y192.639
G1 F1200 X92.659 Y143.571 E264.71732
G0 F6000 X92.659 Y143.005
G1 F1200 X142.293 Y192.639 E267.98581
G0 F6000 X142.858 Y192.639
G1 F1200 X92.659 Y142.44 E271.2915
G0 F6000 X92.659 Y141.874
G1 F1200 X143.424 Y192.639 E274.63446
G0 F6000 X143.99 Y192.639
G1 F1200 X92.659 Y141.308 E278.01469
G0 F6000 X92.659 Y140.743
G1 F1200 X144.555 Y192.639 E281.43213
G0 F6000 X145.121 Y192.639
G1 F1200 X92.659 Y140.177 E284.88684
G0 F6000 X92.659 Y139.611
G1 F1200 X145.687 Y192.639 E288.37883
G0 F6000 X146.253 Y192.639
G1 F1200 X92.659 Y139.046 E291.90805
G0 F6000 X92.659 Y138.48
G1 F1200 X146.818 Y192.639 E295.47452
G0 F6000 X147.384 Y192.639
G1 F1200 X92.659 Y137.914 E299.07825
G0 F6000 X92.659 Y137.349
G1 F1200 X147.95 Y192.639 E302.71922
G0 F6000 X148.515 Y192.639
G1 F1200 X92.659 Y136.783 E306.39744
G0 F6000 X92.659 Y136.217
G1 F1200 X149.081 Y192.639 E310.11292
G0 F6000 X149.647 Y192.639
G1 F1200 X92.659 Y135.652 E313.86565
G0 F6000 X92.659 Y135.086
G1 F1200 X150.212 Y192.639 E317.65561
G0 F6000 X150.778 Y192.639
G1 F1200 X92.659 Y134.52 E321.48284
G0 F6000 X92.659 Y133.955
G1 F1200 X151.344 Y192.639 E325.34732
G0 F6000 X151.909 Y192.639
G1 F1200 X92.659 Y133.389 E329.24903
G0 F6000 X92.659 Y132.823
G1 F1200 X152.475 Y192.639 E333.18802
G0 F6000 X153.041 Y192.639
G1 F1200 X92.659 Y132.257 E337.16428
G0 F6000 X92.659 Y131.692
G1 F1200 X153.606 Y192.639 E341.17774
G0 F6000 X154.172 Y192.639
