;FLAVOR:Marlin
;TIME:5585
;Filament used: 6.88932m
;Layer height: 0.28
;MINX:107
;MINY:94.8
;MINZ:0.28
;MAXX:193
;MAXY:205.2
;MAXZ:29.12
;Generated with Cura_SteamEngine 5.2.1
M140 S50
M105
M190 S50
M104 S210
M105
M109 S210
M82 ;absolute extrusion mode
M201 X500.00 Y500.00 Z100.00 E5000.00 ;Setup machine max acceleration
M203 X500.00 Y500.00 Z10.00 E50.00 ;Setup machine max feedrate
M204 P500.00 R1000.00 T500.00 ;Setup Print/Retract/Travel acceleration
M205 X8.00 Y8.00 Z0.40 E5.00 ;Setup Jerk
M220 S100 ;Reset Feedrate
M221 S100 ;Reset Flowrate

G28 ;Home
G29 ;Auto bed Level

G92 E0 ;Reset Extruder
G1 Z2.0 F3000 ;Move Z Axis up
G1 X10.1 Y20 Z0.28 F5000.0 ;Move to start position
G1 X10.1 Y200.0 Z0.28 F1500.0 E15 ;Draw the first line
G1 X10.4 Y200.0 Z0.28 F5000.0 ;Move to side a little
G1 X10.4 Y20 Z0.28 F1500.0 E30 ;Draw the second line
G92 E0 ;Reset Extruder
G1 Z2.0 F3000 ;Move Z Axis up

G92 E0
G92 E0
G1 F2700 E-7
;LAYER_COUNT:104
;LAYER:0
M107
G0 F6000 X109.566 Y98.758 Z0.28
;TYPE:SKIRT
G1 F2700 E0
G1 F1200 X110.198 Y98.064 E0.04371
G1 X110.886 Y97.427 E0.08737
G1 X111.626 Y96.851 E0.13103
G1 X112.412 Y96.339 E0.17471
G1 X113.239 Y95.897 E0.21838
G1 X114.101 Y95.527 E0.26205
G1 X114.991 Y95.231 E0.30573
G1 X115.903 Y95.013 E0.34939
G1 X116.83 Y94.872 E0.39305
G1 X117.701 Y94.813 E0.4337
G1 X118.33 Y94.8 E0.463
G1 X181.451 Y94.801 E3.40218
G1 X182.149 Y94.811 E3.43468
G1 X183.085 Y94.865 E3.47834
G1 X184.013 Y94.997 E3.52199
G1 X184.927 Y95.209 E3.56567
G1 X185.819 Y95.498 E3.60934
G1 X186.684 Y95.861 E3.65302
G1 X187.514 Y96.297 E3.69667
G1 X188.305 Y96.802 E3.74037
G1 X189.049 Y97.373 E3.78404
G1 X189.742 Y98.005 E3.82771
G1 X190.379 Y98.693 E3.87137
G1 X190.954 Y99.434 E3.91505
G1 X191.465 Y100.22 E3.9587
G1 X191.907 Y101.048 E4.00241
G1 X192.276 Y101.91 E4.04607
G1 X192.571 Y102.8 E4.08973
G1 X192.789 Y103.712 E4.13339
G1 X192.929 Y104.64 E4.17709
G1 X192.987 Y105.501 E4.21727
G1 X193 Y106.13 E4.24657
G1 X192.999 Y193.6 E8.31954
G1 X192.99 Y194.327 E8.35339
G1 X192.939 Y195.264 E8.39709
G1 X192.807 Y196.192 E8.44073
G1 X192.598 Y197.106 E8.48439
G1 X192.311 Y197.999 E8.52807
G1 X191.949 Y198.865 E8.57178
G1 X191.515 Y199.696 E8.61543
G1 X191.011 Y200.487 E8.6591
G1 X190.442 Y201.232 E8.70275
G1 X189.811 Y201.927 E8.74646
G1 X189.124 Y202.565 E8.79012
G1 X188.385 Y203.142 E8.83378
G1 X187.599 Y203.654 E8.87746
G1 X186.773 Y204.097 E8.9211
G1 X185.911 Y204.469 E8.96482
G1 X185.022 Y204.765 E9.00845
G1 X184.11 Y204.985 E9.05213
G1 X183.183 Y205.126 E9.09579
G1 X182.299 Y205.187 E9.13706
G1 X181.67 Y205.2 E9.16635
G1 X118.565 Y205.199 E12.10478
G1 X117.867 Y205.19 E12.13729
G1 X116.931 Y205.138 E12.18094
G1 X116.002 Y205.006 E12.22463
G1 X115.088 Y204.796 E12.2683
G1 X114.195 Y204.509 E12.31198
G1 X113.33 Y204.146 E12.35566
G1 X112.499 Y203.712 E12.39931
G1 X111.708 Y203.208 E12.44299
G1 X110.963 Y202.638 E12.48667
G1 X110.269 Y202.007 E12.53034
G1 X109.632 Y201.32 E12.57397
G1 X109.055 Y200.58 E12.61766
G1 X108.543 Y199.794 E12.66134
G1 X108.1 Y198.967 E12.70503
G1 X107.729 Y198.106 E12.74868
G1 X107.433 Y197.216 E12.79235
G1 X107.214 Y196.304 E12.83603
G1 X107.073 Y195.377 E12.87969
G1 X107.013 Y194.488 E12.92118
G1 X107 Y193.858 E12.95052
G1 X107.001 Y106.325 E17.02642
G1 X107.01 Y105.66 E17.05739
G1 X107.063 Y104.724 E17.10105
G1 X107.195 Y103.795 E17.14474
G1 X107.406 Y102.881 E17.18842
G1 X107.694 Y101.989 E17.23206
G1 X108.057 Y101.124 E17.27575
G1 X108.492 Y100.293 E17.31942
G1 X108.996 Y99.503 E17.36306
G1 X109.566 Y98.758 E17.40673
G0 F6000 X109.961 Y98.911
G1 F1200 X110.589 Y98.239 E17.44956
G1 X111.274 Y97.623 E17.49246
G1 X112.01 Y97.07 E17.53533
G1 X112.791 Y96.582 E17.57821
G1 X113.611 Y96.164 E17.62107
G1 X114.465 Y95.819 E17.66395
G1 X115.345 Y95.549 E17.70682
G1 X116.245 Y95.357 E17.74967
G1 X117.159 Y95.243 E17.79256
G1 X117.712 Y95.213 E17.81834
G1 X118.33 Y95.2 E17.84713
G1 X181.445 Y95.201 E20.78603
G1 X182.143 Y95.211 E20.81853
G1 X183.062 Y95.264 E20.86139
G1 X183.973 Y95.397 E20.90426
G1 X184.869 Y95.608 E20.94713
G1 X185.743 Y95.896 E20.98998
G1 X186.59 Y96.259 E21.03289
G1 X187.401 Y96.694 E21.07574
G1 X188.171 Y97.198 E21.11859
G1 X188.895 Y97.767 E21.16147
G1 X189.567 Y98.397 E21.20436
G1 X190.182 Y99.082 E21.24723
G1 X190.735 Y99.818 E21.29009
G1 X191.222 Y100.599 E21.33295
G1 X191.639 Y101.42 E21.37583
G1 X191.984 Y102.274 E21.41872
G1 X192.253 Y103.154 E21.46157
G1 X192.445 Y104.055 E21.50446
G1 X192.558 Y104.968 E21.5473
G1 X192.587 Y105.512 E21.57267
G1 X192.6 Y106.13 E21.60145
G1 X192.599 Y193.595 E25.67419
G1 X192.59 Y194.322 E25.70804
G1 X192.539 Y195.241 E25.7509
G1 X192.408 Y196.153 E25.7938
G1 X192.198 Y197.049 E25.83665
G1 X191.912 Y197.924 E25.87952
G1 X191.551 Y198.771 E25.92239
G1 X191.117 Y199.583 E25.96526
G1 X190.615 Y200.355 E26.00814
G1 X190.047 Y201.08 E26.05103
G1 X189.419 Y201.753 E26.09389
G1 X188.735 Y202.369 E26.13675
G1 X188 Y202.923 E26.17961
G1 X187.22 Y203.412 E26.22248
G1 X186.4 Y203.831 E26.26536
G1 X185.547 Y204.177 E26.30822
G1 X184.667 Y204.448 E26.35109
G1 X183.767 Y204.641 E26.39395
G1 X182.853 Y204.756 E26.43685
G1 X182.288 Y204.787 E26.4632
G1 X181.67 Y204.8 E26.49198
G1 X118.57 Y204.799 E29.43018
G1 X117.872 Y204.79 E29.46269
G1 X116.953 Y204.738 E29.50555
G1 X116.042 Y204.607 E29.5484
G1 X115.146 Y204.397 E29.59126
G1 X114.271 Y204.11 E29.63413
G1 X113.424 Y203.748 E29.67703
G1 X112.612 Y203.314 E29.7199
G1 X111.841 Y202.812 E29.76274
G1 X111.116 Y202.244 E29.80562
G1 X110.443 Y201.615 E29.84852
G1 X109.828 Y200.931 E29.89135
G1 X109.274 Y200.196 E29.93421
G1 X108.786 Y199.415 E29.97709
G1 X108.367 Y198.595 E30.01997
G1 X108.021 Y197.742 E30.06283
G1 X107.751 Y196.862 E30.10569
G1 X107.558 Y195.961 E30.1486
G1 X107.444 Y195.048 E30.19144
G1 X107.413 Y194.477 E30.21807
G1 X107.4 Y193.858 E30.2469
G1 X107.401 Y106.331 E34.32252
G1 X107.41 Y105.666 E34.35349
G1 X107.462 Y104.746 E34.3964
G1 X107.594 Y103.835 E34.43926
G1 X107.805 Y102.939 E34.48212
G1 X108.092 Y102.064 E34.525
G1 X108.455 Y101.218 E34.56787
G1 X108.889 Y100.406 E34.61074
G1 X109.392 Y99.635 E34.65361
G1 X109.961 Y98.911 E34.69648
G0 F6000 X110.355 Y99.067
G1 F1200 X110.981 Y98.417 E34.7385
G1 X111.662 Y97.824 E34.78055
G1 X112.394 Y97.294 E34.82263
G1 X113.169 Y96.831 E34.86467
G1 X113.982 Y96.438 E34.90672
G1 X114.827 Y96.118 E34.94879
G1 X115.696 Y95.875 E34.99081
G1 X116.584 Y95.709 E35.03287
G1 X117.723 Y95.613 E35.0861
G1 X118.33 Y95.6 E35.11437
G1 X181.439 Y95.601 E38.05299
G1 X182.137 Y95.611 E38.08549
G1 X183.039 Y95.664 E38.12757
G1 X183.932 Y95.796 E38.1696
G1 X184.81 Y96.007 E38.21165
G1 X185.666 Y96.295 E38.2537
G1 X186.493 Y96.657 E38.29574
G1 X187.285 Y97.092 E38.33781
G1 X188.036 Y97.594 E38.37988
G1 X188.739 Y98.161 E38.42193
G1 X189.389 Y98.788 E38.46398
G1 X189.981 Y99.47 E38.50604
G1 X190.511 Y100.201 E38.54808
G1 X190.973 Y100.977 E38.59013
G1 X191.366 Y101.79 E38.63218
G1 X191.684 Y102.635 E38.67422
G1 X191.927 Y103.505 E38.71628
G1 X192.092 Y104.393 E38.75834
G1 X192.187 Y105.523 E38.81114
G1 X192.2 Y106.13 E38.83941
G1 X192.199 Y193.59 E42.91192
G1 X192.19 Y194.317 E42.94577
G1 X192.139 Y195.219 E42.98784
G1 X192.008 Y196.113 E43.02991
G1 X191.799 Y196.991 E43.07194
G1 X191.513 Y197.848 E43.11401
G1 X191.152 Y198.676 E43.15607
G1 X190.72 Y199.468 E43.19808
G1 X190.219 Y200.22 E43.24015
G1 X189.653 Y200.924 E43.28221
G1 X189.028 Y201.575 E43.32424
G1 X188.347 Y202.169 E43.36631
G1 X187.616 Y202.7 E43.40839
G1 X186.842 Y203.164 E43.45041
G1 X186.029 Y203.558 E43.49247
G1 X185.185 Y203.878 E43.5345
G1 X184.315 Y204.123 E43.57659
G1 X183.428 Y204.289 E43.61861
G1 X182.277 Y204.387 E43.6724
G1 X181.67 Y204.4 E43.70067
G1 X118.575 Y204.399 E46.63864
G1 X117.877 Y204.39 E46.67114
G1 X116.976 Y204.339 E46.71316
G1 X116.082 Y204.207 E46.75524
G1 X115.204 Y203.998 E46.79727
G1 X114.347 Y203.711 E46.83935
G1 X113.52 Y203.35 E46.88137
G1 X112.727 Y202.917 E46.92344
G1 X111.976 Y202.416 E46.96548
G1 X111.272 Y201.85 E47.00754
G1 X110.621 Y201.224 E47.0496
G1 X110.028 Y200.543 E47.09164
G1 X109.498 Y199.812 E47.13369
G1 X109.034 Y199.037 E47.17575
G1 X108.64 Y198.224 E47.21782
G1 X108.32 Y197.38 E47.25985
G1 X108.076 Y196.51 E47.30192
G1 X107.91 Y195.622 E47.34398
G1 X107.813 Y194.467 E47.39796
G1 X107.8 Y193.858 E47.42632
G1 X107.801 Y106.336 E51.50171
G1 X107.81 Y105.671 E51.53268
G1 X107.862 Y104.769 E51.57475
G1 X107.994 Y103.876 E51.61678
G1 X108.204 Y102.998 E51.65882
G1 X108.491 Y102.141 E51.7009
G1 X108.853 Y101.314 E51.74294
G1 X109.286 Y100.522 E51.78497
G1 X109.788 Y99.771 E51.82703
G1 X110.355 Y99.067 E51.86912
G1 F2700 E44.86912
;MESH:nazgul.stl
G0 F6000 X117.335 Y106.22
G0 X118.6 Y193.6
;TYPE:WALL-INNER
G1 F2700 E51.86912
G1 F1200 X181.4 Y193.6 E54.79336
G1 X181.4 Y137.8 E57.39164
G1 X181.4 Y106.4 E58.85375
G1 X118.6 Y106.4 E61.77798
G1 X118.6 Y193.6 E65.83838
G0 F6000 X118.2 Y194
;TYPE:WALL-OUTER
G1 F1200 X181.8 Y194 E68.79986
G1 X181.8 Y137.8 E71.41677
G1 X181.8 Y106 E72.89751
G1 X118.2 Y106 E75.85899
G1 X118.2 Y194 E79.95664
G0 F6000 X118.47 Y193.73
G0 X118.7 Y193.24
G0 X118.96 Y193.24
;TYPE:SKIN
G1 F1200 X181.04 Y193.24 E82.84735
G1 X181.04 Y137.8 E85.42887
G1 X181.04 Y106.76 E86.87422
G1 X118.96 Y106.76 E89.76492
G1 X118.96 Y193.24 E93.79179
G0 F6000 X119.5 Y193.039
G1 F1200 X119.158 Y192.697 E93.81432
G0 F6000 X119.158 Y192.132
G1 F1200 X120.066 Y193.039 E93.87408
G0 F6000 X120.631 Y193.039
G1 F1200 X119.158 Y191.566 E93.97108
G0 F6000 X119.158 Y191
G1 F1200 X121.197 Y193.039 E94.10535
G0 F6000 X121.763 Y193.039
G1 F1200 X119.158 Y190.435 E94.27686
G0 F6000 X119.158 Y189.869
G1 F1200 X122.328 Y193.039 E94.48561
G0 F6000 X122.894 Y193.039
G1 F1200 X119.158 Y189.303 E94.73163
G0 F6000 X119.158 Y188.738
G1 F1200 X123.46 Y193.039 E95.01489
G0 F6000 X124.025 Y193.039
G1 F1200 X119.158 Y188.172 E95.33539
G0 F6000 X119.158 Y187.606
G1 F1200 X124.591 Y193.039 E95.69316
G0 F6000 X125.157 Y193.039
G1 F1200 X119.158 Y187.041 E96.08818
G0 F6000 X119.158 Y186.475
G1 F1200 X125.722 Y193.039 E96.52043
G0 F6000 X126.288 Y193.039
G1 F1200 X119.158 Y185.909 E96.98995
G0 F6000 X119.158 Y185.344
G1 F1200 X126.854 Y193.039 E97.49671
G0 F6000 X127.419 Y193.039
G1 F1200 X119.158 Y184.778 E98.04071
G0 F6000 X119.158 Y184.212
G1 F1200 X127.985 Y193.039 E98.62198
G0 F6000 X128.551 Y193.039
G1 F1200 X119.158 Y183.646 E99.24053
G0 F6000 X119.158 Y183.081
G1 F1200 X129.116 Y193.039 E99.89628
G0 F6000 X129.682 Y193.039
G1 F1200 X119.158 Y182.515 E100.5893
G0 F6000 X119.158 Y181.949
G1 F1200 X130.248 Y193.039 E101.3196
G0 F6000 X130.814 Y193.039
G1 F1200 X119.158 Y181.384 E102.08713
G0 F6000 X119.158 Y180.818
G1 F1200 X131.379 Y193.039 E102.89191
G0 F6000 X131.945 Y193.039
G1 F1200 X119.158 Y180.252 E103.73395
G0 F6000 X119.158 Y179.687
G1 F1200 X132.511 Y193.039 E104.61324
G0 F6000 X133.076 Y193.039
G1 F1200 X119.158 Y179.121 E105.52976
G0 F6000 X119.158 Y178.555
G1 F1200 X133.642 Y193.039 E106.48356
G0 F6000 X134.208 Y193.039
G1 F1200 X119.158 Y177.99 E107.47459
G0 F6000 X119.158 Y177.424
G1 F1200 X134.773 Y193.039 E108.50287
G0 F6000 X135.339 Y193.039
G1 F1200 X119.158 Y176.858 E109.56842
G0 F6000 X119.158 Y176.293
G1 F1200 X135.905 Y193.039 E110.6712
G0 F6000 X136.47 Y193.039
G1 F1200 X119.158 Y175.727 E111.81123
G0 F6000 X119.158 Y175.161
G1 F1200 X137.036 Y193.039 E112.98852
G0 F6000 X137.602 Y193.039
G1 F1200 X119.158 Y174.595 E114.20309
G0 F6000 X119.158 Y174.03
G1 F1200 X138.167 Y193.039 E115.45487
G0 F6000 X138.733 Y193.039
G1 F1200 X119.158 Y173.464 E116.74391
G0 F6000 X119.158 Y172.898
G1 F1200 X139.299 Y193.039 E118.07023
G0 F6000 X139.865 Y193.039
G1 F1200 X119.158 Y172.333 E119.43379
G0 F6000 X119.158 Y171.767
G1 F1200 X140.43 Y193.039 E120.83459
G0 F6000 X140.996 Y193.039
G1 F1200 X119.158 Y171.201 E122.27266
G0 F6000 X119.158 Y170.636
G1 F1200 X141.562 Y193.039 E123.74797
G0 F6000 X142.127 Y193.039
G1 F1200 X119.158 Y170.07 E125.26052
G0 F6000 X119.158 Y169.504
G1 F1200 X142.693 Y193.039 E126.81034
G0 F6000 X143.259 Y193.039
G1 F1200 X119.158 Y168.939 E128.39739
G0 F6000 X119.158 Y168.373
G1 F1200 X143.824 Y193.039 E130.02169
G0 F6000 X144.39 Y193.039
G1 F1200 X119.158 Y167.807 E131.68326
G0 F6000 X119.158 Y167.242
G1 F1200 X144.956 Y193.039 E133.38207
G0 F6000 X145.521 Y193.039
G1 F1200 X119.158 Y166.676 E135.11812
G0 F6000 X119.158 Y166.11
G1 F1200 X146.087 Y193.039 E136.89144
G0 F6000 X146.653 Y193.039
G1 F1200 X119.158 Y165.545 E138.702
G0 F6000 X119.158 Y164.979
G1 F1200 X147.218 Y193.039 E140.5498
G0 F6000 X147.784 Y193.039
G1 F1200 X119.158 Y164.413 E142.43487
G0 F6000 X119.158 Y163.847
G1 F1200 X148.35 Y193.039 E144.35721
G0 F6000 X148.915 Y193.039
G1 F1200 X119.158 Y163.282 E146.31676
G0 F6000 X119.158 Y162.716
G1 F1200 X149.481 Y193.039 E148.31358
G0 F6000 X150.047 Y193.039
G1 F1200 X119.158 Y162.15 E150.34768
G0 F6000 X119.158 Y161.585
G1 F1200 X150.613 Y193.039 E152.41901
G0 F6000 X151.178 Y193.039
G1 F1200 X119.158 Y161.019 E154.52758
G0 F6000 X119.158 Y160.453
G1 F1200 X151.744 Y193.039 E156.67343
G0 F6000 X152.31 Y193.039
G1 F1200 X119.158 Y159.888 E158.85651
G0 F6000 X119.158 Y159.322
G1 F1200 X152.875 Y193.039 E161.07683
G0 F6000 X153.441 Y193.039
G1 F1200 X119.158 Y158.756 E163.33442
G0 F6000 X119.158 Y158.191
G1 F1200 X154.007 Y193.039 E165.62926
G0 F6000 X154.572 Y193.039
G1 F1200 X119.158 Y157.625 E167.96133
G0 F6000 X119.158 Y157.059
G1 F1200 X155.138 Y193.039 E170.33068
G0 F6000 X155.704 Y193.039
G1 F1200 X119.158 Y156.494 E172.73726
G0 F6000 X119.158 Y155.928
G1 F1200 X156.269 Y193.039 E175.18108
G0 F6000 X156.835 Y193.039
G1 F1200 X119.158 Y155.362 E177.66218
G0 F6000 X119.158 Y154.796
G1 F1200 X157.401 Y193.039 E180.18054
G0 F6000 X157.966 Y193.039
G1 F1200 X119.158 Y154.231 E182.73612
G0 F6000 X119.158 Y153.665
G1 F1200 X158.532 Y193.039 E185.32896
G0 F6000 X159.098 Y193.039
G1 F1200 X119.158 Y153.099 E187.95908
G0 F6000 X119.158 Y152.534
G1 F1200 X159.664 Y193.039 E190.62643
G0 F6000 X160.229 Y193.039
G1 F1200 X119.158 Y151.968 E193.33103
G0 F6000 X119.158 Y151.402
G1 F1200 X160.795 Y193.039 E196.0729
G0 F6000 X161.361 Y193.039
G1 F1200 X119.158 Y150.837 E198.852
G0 F6000 X119.158 Y150.271
G1 F1200 X161.926 Y193.039 E201.66835
G0 F6000 X162.492 Y193.039
G1 F1200 X119.158 Y149.705 E204.52197
G0 F6000 X119.158 Y149.14
G1 F1200 X163.058 Y193.039 E207.41283
G0 F6000 X163.623 Y193.039
G1 F1200 X119.158 Y148.574 E210.34092
G0 F6000 X119.158 Y148.008
G1 F1200 X164.189 Y193.039 E213.30629
G0 F6000 X164.755 Y193.039
G1 F1200 X119.158 Y147.443 E216.3089
G0 F6000 X119.158 Y146.877
G1 F1200 X165.32 Y193.039 E219.34874
G0 F6000 X165.886 Y193.039
G1 F1200 X119.158 Y146.311 E222.42586
G0 F6000 X119.158 Y145.746
G1 F1200 X166.452 Y193.039 E225.54022
G0 F6000 X167.017 Y193.039
G1 F1200 X119.158 Y145.18 E228.69182
G0 F6000 X119.158 Y144.614
G1 F1200 X167.583 Y193.039 E231.88069
G0 F6000 X168.149 Y193.039
G1 F1200 X119.158 Y144.048 E235.10683
G0 F6000 X119.158 Y143.483
G1 F1200 X168.714 Y193.039 E238.37017
G0 F6000 X169.28 Y193.039
G1 F1200 X119.158 Y142.917 E241.67079
G0 F6000 X119.158 Y142.351
G1 F1200 X169.846 Y193.039 E245.00868
G0 F6000 X170.412 Y193.039
G1 F1200 X119.158 Y141.786 E248.38382
G0 F6000 X119.158 Y141.22
G1 F1200 X170.977 Y193.039 E251.79618
G0 F6000 X171.543 Y193.039
G1 F1200 X119.158 Y140.654 E255.24583
G0 F6000 X119.158 Y140.089
G1 F1200 X172.109 Y193.039 E258.73271
G0 F6000 X172.674 Y193.039
G1 F1200 X119.158 Y139.523 E262.25683
G0 F6000 X119.158 Y138.957
G1 F1200 X173.24 Y193.039 E265.81822
G0 F6000 X173.806 Y193.039
G1 F1200 X119.158 Y138.392 E269.41685
G0 F6000 X119.158 Y137.826
G1 F1200 X174.371 Y193.039 E273.05272
G0 F6000 X174.937 Y193.039
G1 F1200 X119.158 Y137.26 E276.72586
G0 F6000 X119.158 Y136.695
G1 F1200 X175.503 Y193.039 E280.43624
G0 F6000 X176.068 Y193.039
G1 F1200 X119.158 Y136.129 E284.18387
G0 F6000 X119.158 Y135.563
G1 F1200 X176.634 Y193.039 E287.96876
G0 F6000 X177.2 Y193.039
G1 F1200 X119.158 Y134.997 E291.79092
G0 F6000 X119.158 Y134.432
G1 F1200 X177.765 Y193.039 E295.65029
G0 F6000 X178.331 Y193.039
G1 F1200 X119.158 Y133.866 E299.54694
G0 F6000 X119.158 Y133.3
