;FLAVOR:Marlin
;TIME:20759
;Filament used: 14.0372m
;Layer height: 0.16
;MINX:91
;MINY:79.1
;MINZ:0.2
;MAXX:209
;MAXY:220.9
;MAXZ:28.84
;Generated with Cura_SteamEngine 5.2.1
M140 S50
M105
M190 S50
M104 S210
M105
M109 S210
M82 ;absolute extrusion mode
M201 X500.00 Y500.00 Z100.00 E5000.00 ;Setup machine max acceleration
M203 X500.00 Y500.00 Z10.00 E50.00 ;Setup machine max feedrate
M204 P500.00 R1000.00 T500.00 ;Setup Print/Retract/Travel acceleration
M205 X8.00 Y8.00 Z0.40 E5.00 ;Setup Jerk
M220 S100 ;Reset Feedrate
M221 S100 ;Reset Flowrate

G28 ;Home
G29 ;Auto bed Level

G92 E0 ;Reset Extruder
G1 Z2.0 F3000 ;Move Z Axis up
G1 X10.1 Y20 Z0.28 F5000.0 ;Move to start position
G1 X10.1 Y200.0 Z0.28 F1500.0 E15 ;Draw the first line
G1 X10.4 Y200.0 Z0.28 F5000.0 ;Move to side a little
G1 X10.4 Y20 Z0.28 F1500.0 E30 ;Draw the second line
G92 E0 ;Reset Extruder
G1 Z2.0 F3000 ;Move Z Axis up

G92 E0
G92 E0
G1 F2700 E-7
;LAYER_COUNT:176
;LAYER:0
M107
G0 F6000 X93.566 Y83.058 Z0.2
;TYPE:SKIRT
G1 F2700 E0
G1 F1200 X94.198 Y82.364 E0.03122
G1 X94.886 Y81.727 E0.0624
G1 X95.626 Y81.151 E0.09359
G1 X96.412 Y80.639 E0.12479
G1 X97.239 Y80.197 E0.15598
G1 X98.101 Y79.827 E0.18718
G1 X98.991 Y79.531 E0.21838
G1 X99.903 Y79.313 E0.24957
G1 X100.83 Y79.172 E0.28075
G1 X101.701 Y79.113 E0.30979
G1 X102.33 Y79.1 E0.33071
G1 X197.451 Y79.101 E3.49445
G1 X198.149 Y79.111 E3.51767
G1 X199.085 Y79.165 E3.54885
G1 X200.013 Y79.297 E3.58003
G1 X200.927 Y79.509 E3.61123
G1 X201.819 Y79.798 E3.64242
G1 X202.684 Y80.161 E3.67362
G1 X203.514 Y80.597 E3.7048
G1 X204.305 Y81.102 E3.73602
G1 X205.049 Y81.673 E3.76721
G1 X205.742 Y82.305 E3.79841
G1 X206.379 Y82.993 E3.82959
G1 X206.954 Y83.734 E3.86079
G1 X207.465 Y84.52 E3.89197
G1 X207.907 Y85.348 E3.92319
G1 X208.276 Y86.21 E3.95437
G1 X208.571 Y87.1 E3.98556
G1 X208.789 Y88.012 E4.01675
G1 X208.929 Y88.94 E4.04796
G1 X208.987 Y89.801 E4.07666
G1 X209 Y90.43 E4.09759
G1 X208.999 Y209.3 E8.05122
G1 X208.99 Y210.027 E8.0754
G1 X208.939 Y210.964 E8.10661
G1 X208.807 Y211.892 E8.13779
G1 X208.598 Y212.806 E8.16897
G1 X208.311 Y213.699 E8.20017
G1 X207.949 Y214.565 E8.23139
G1 X207.515 Y215.396 E8.26257
G1 X207.011 Y216.187 E8.29377
G1 X206.442 Y216.932 E8.32495
G1 X205.811 Y217.627 E8.35617
G1 X205.124 Y218.265 E8.38735
G1 X204.385 Y218.842 E8.41853
G1 X203.599 Y219.354 E8.44973
G1 X202.773 Y219.797 E8.48091
G1 X201.911 Y220.169 E8.51213
G1 X201.022 Y220.465 E8.5433
G1 X200.11 Y220.685 E8.5745
G1 X199.183 Y220.826 E8.60569
G1 X198.299 Y220.887 E8.63516
G1 X197.67 Y220.9 E8.65609
G1 X102.565 Y220.899 E11.81929
G1 X101.867 Y220.89 E11.84251
G1 X100.931 Y220.838 E11.87369
G1 X100.002 Y220.706 E11.9049
G1 X99.088 Y220.496 E11.93609
G1 X98.195 Y220.209 E11.96729
G1 X97.33 Y219.846 E11.99849
G1 X96.499 Y219.412 E12.02967
G1 X95.708 Y218.908 E12.06086
G1 X94.963 Y218.338 E12.09206
G1 X94.269 Y217.707 E12.12326
G1 X93.632 Y217.02 E12.15442
G1 X93.055 Y216.28 E12.18563
G1 X92.543 Y215.494 E12.21683
G1 X92.1 Y214.667 E12.24804
G1 X91.729 Y213.806 E12.27922
G1 X91.433 Y212.916 E12.31041
G1 X91.214 Y212.004 E12.34161
G1 X91.073 Y211.077 E12.3728
G1 X91.013 Y210.188 E12.40243
G1 X91 Y209.558 E12.42339
G1 X91.001 Y90.625 E16.37912
G1 X91.01 Y89.96 E16.40124
G1 X91.063 Y89.024 E16.43242
G1 X91.195 Y88.095 E16.46363
G1 X91.406 Y87.181 E16.49483
G1 X91.694 Y86.289 E16.526
G1 X92.057 Y85.424 E16.5572
G1 X92.492 Y84.593 E16.5884
G1 X92.996 Y83.803 E16.61957
G1 X93.566 Y83.058 E16.65077
G0 F6000 X93.961 Y83.211
G1 F1200 X94.589 Y82.539 E16.68136
G1 X95.274 Y81.923 E16.712
G1 X96.01 Y81.37 E16.74262
G1 X96.791 Y80.882 E16.77325
G1 X97.611 Y80.464 E16.80386
G1 X98.465 Y80.119 E16.8345
G1 X99.345 Y79.849 E16.86511
G1 X100.245 Y79.657 E16.89572
G1 X101.159 Y79.543 E16.92635
G1 X101.712 Y79.513 E16.94477
G1 X102.33 Y79.5 E16.96533
G1 X197.445 Y79.501 E20.12887
G1 X198.143 Y79.511 E20.15209
G1 X199.062 Y79.564 E20.18271
G1 X199.973 Y79.697 E20.21333
G1 X200.869 Y79.908 E20.24394
G1 X201.743 Y80.196 E20.27455
G1 X202.59 Y80.559 E20.3052
G1 X203.401 Y80.994 E20.33581
G1 X204.171 Y81.498 E20.36642
G1 X204.895 Y82.067 E20.39704
G1 X205.567 Y82.697 E20.42768
G1 X206.182 Y83.382 E20.4583
G1 X206.735 Y84.118 E20.48892
G1 X207.222 Y84.899 E20.51953
G1 X207.639 Y85.72 E20.55016
G1 X207.984 Y86.574 E20.58079
G1 X208.253 Y87.454 E20.6114
G1 X208.445 Y88.355 E20.64204
G1 X208.558 Y89.268 E20.67264
G1 X208.587 Y89.812 E20.69076
G1 X208.6 Y90.43 E20.71132
G1 X208.599 Y209.295 E24.66478
G1 X208.59 Y210.022 E24.68896
G1 X208.539 Y210.941 E24.71958
G1 X208.408 Y211.853 E24.75022
G1 X208.198 Y212.749 E24.78083
G1 X207.912 Y213.624 E24.81145
G1 X207.551 Y214.471 E24.84207
G1 X207.117 Y215.283 E24.87269
G1 X206.615 Y216.055 E24.90332
G1 X206.047 Y216.78 E24.93395
G1 X205.419 Y217.453 E24.96457
G1 X204.735 Y218.069 E24.99519
G1 X204 Y218.623 E25.0258
G1 X203.22 Y219.112 E25.05642
G1 X202.4 Y219.531 E25.08705
G1 X201.547 Y219.877 E25.11766
G1 X200.667 Y220.148 E25.14829
G1 X199.767 Y220.341 E25.1789
G1 X198.853 Y220.456 E25.20954
G1 X198.288 Y220.487 E25.22836
G1 X197.67 Y220.5 E25.24892
G1 X102.57 Y220.499 E28.41196
G1 X101.872 Y220.49 E28.43518
G1 X100.953 Y220.438 E28.46579
G1 X100.042 Y220.307 E28.4964
G1 X99.146 Y220.097 E28.52701
G1 X98.271 Y219.81 E28.55764
G1 X97.424 Y219.448 E28.58828
G1 X96.612 Y219.014 E28.6189
G1 X95.841 Y218.512 E28.6495
G1 X95.116 Y217.944 E28.68013
G1 X94.443 Y217.315 E28.71077
G1 X93.828 Y216.631 E28.74137
G1 X93.274 Y215.896 E28.77198
G1 X92.786 Y215.115 E28.80261
G1 X92.367 Y214.295 E28.83324
G1 X92.021 Y213.442 E28.86385
G1 X91.751 Y212.562 E28.89447
G1 X91.558 Y211.661 E28.92511
G1 X91.444 Y210.748 E28.95572
G1 X91.413 Y210.177 E28.97474
G1 X91.4 Y209.558 E28.99533
G1 X91.401 Y90.631 E32.95086
G1 X91.41 Y89.966 E32.97298
G1 X91.462 Y89.046 E33.00363
G1 X91.594 Y88.135 E33.03424
G1 X91.805 Y87.239 E33.06486
G1 X92.092 Y86.364 E33.09549
G1 X92.455 Y85.518 E33.1261
G1 X92.889 Y84.706 E33.15673
G1 X93.392 Y83.935 E33.18735
G1 X93.961 Y83.211 E33.21797
G0 F6000 X94.355 Y83.367
G1 F1200 X94.981 Y82.717 E33.24799
G1 X95.662 Y82.124 E33.27802
G1 X96.394 Y81.594 E33.30808
G1 X97.169 Y81.131 E33.33811
G1 X97.982 Y80.738 E33.36814
G1 X98.827 Y80.418 E33.39819
G1 X99.696 Y80.175 E33.4282
G1 X100.584 Y80.009 E33.45825
G1 X101.723 Y79.913 E33.49627
G1 X102.33 Y79.9 E33.51646
G1 X197.439 Y79.901 E36.6798
G1 X198.137 Y79.911 E36.70302
G1 X199.039 Y79.964 E36.73307
G1 X199.932 Y80.096 E36.76309
G1 X200.81 Y80.307 E36.79313
G1 X201.666 Y80.595 E36.82317
G1 X202.493 Y80.957 E36.85319
G1 X203.285 Y81.392 E36.88325
G1 X204.036 Y81.894 E36.91329
G1 X204.739 Y82.461 E36.94333
G1 X205.389 Y83.088 E36.97337
G1 X205.981 Y83.77 E37.00341
G1 X206.511 Y84.501 E37.03344
G1 X206.973 Y85.277 E37.06348
G1 X207.366 Y86.09 E37.09351
G1 X207.684 Y86.935 E37.12354
G1 X207.927 Y87.805 E37.15358
G1 X208.092 Y88.693 E37.18362
G1 X208.187 Y89.823 E37.22134
G1 X208.2 Y90.43 E37.24153
G1 X208.199 Y209.29 E41.19483
G1 X208.19 Y210.017 E41.21901
G1 X208.139 Y210.919 E41.24906
G1 X208.008 Y211.813 E41.27912
G1 X207.799 Y212.691 E41.30913
G1 X207.513 Y213.548 E41.33918
G1 X207.152 Y214.376 E41.36923
G1 X206.72 Y215.168 E41.39923
G1 X206.219 Y215.92 E41.42929
G1 X205.653 Y216.624 E41.45933
G1 X205.028 Y217.275 E41.48935
G1 X204.347 Y217.869 E41.5194
G1 X203.616 Y218.4 E41.54945
G1 X202.842 Y218.864 E41.57947
G1 X202.029 Y219.258 E41.60952
G1 X201.185 Y219.578 E41.63954
G1 X200.315 Y219.823 E41.6696
G1 X199.428 Y219.989 E41.69961
G1 X198.277 Y220.087 E41.73803
G1 X197.67 Y220.1 E41.75823
G1 X102.575 Y220.099 E44.9211
G1 X101.877 Y220.09 E44.94432
G1 X100.976 Y220.039 E44.97433
G1 X100.082 Y219.907 E45.00439
G1 X99.204 Y219.698 E45.03441
G1 X98.347 Y219.411 E45.06447
G1 X97.52 Y219.05 E45.09448
G1 X96.727 Y218.617 E45.12453
G1 X95.976 Y218.116 E45.15456
G1 X95.272 Y217.55 E45.1846
G1 X94.621 Y216.924 E45.21464
G1 X94.028 Y216.243 E45.24468
G1 X93.498 Y215.512 E45.27471
G1 X93.034 Y214.737 E45.30475
G1 X92.64 Y213.924 E45.3348
G1 X92.32 Y213.08 E45.36482
G1 X92.076 Y212.21 E45.39487
G1 X91.91 Y211.322 E45.42492
G1 X91.813 Y210.167 E45.46347
G1 X91.8 Y209.558 E45.48373
G1 X91.801 Y90.636 E49.43909
G1 X91.81 Y89.971 E49.46121
G1 X91.862 Y89.069 E49.49126
G1 X91.994 Y88.176 E49.52129
G1 X92.204 Y87.298 E49.55131
G1 X92.491 Y86.441 E49.58137
G1 X92.853 Y85.614 E49.6114
G1 X93.286 Y84.822 E49.64142
G1 X93.788 Y84.071 E49.67146
G1 X94.355 Y83.367 E49.70153
G1 F2700 E42.70153
;MESH:northmen.stl
G0 F6000 X101.335 Y90.52
G0 X102.42 Y90.52
G0 X103 Y208.9
;TYPE:WALL-INNER
G1 F2700 E49.70153
G1 F1200 X197 Y208.9 E52.82798
G1 X197 Y138.1 E55.1828
G1 X197 Y91.1 E56.74603
G1 X103 Y91.1 E59.87248
G1 X103 Y208.9 E63.79052
G0 F6000 X102.6 Y209.3
G1 F1200 X197.4 Y209.3 E66.94358
G1 X197.4 Y138.1 E69.31171
G1 X197.4 Y90.7 E70.88824
G1 X102.6 Y90.7 E74.0413
G1 X102.6 Y209.3 E77.98595
G0 F6000 X102.2 Y209.7
;TYPE:WALL-OUTER
G1 F1200 X197.8 Y209.7 E81.16562
G1 X197.8 Y138.1 E83.54704
G1 X197.8 Y90.3 E85.13688
G1 X102.2 Y90.3 E88.31655
G1 X102.2 Y209.7 E92.28781
G0 F6000 X102.47 Y209.43
G0 X103.1 Y208.54
G0 X103.36 Y208.54
;TYPE:SKIN
G1 F1200 X196.64 Y208.54 E95.39031
G1 X196.64 Y138.1 E97.73316
G1 X196.64 Y91.46 E99.28441
G1 X103.36 Y91.46 E102.38691
G1 X103.36 Y208.54 E106.28101
G0 F6000 X103.687 Y208.339
G1 F1200 X103.559 Y208.211 E106.28703
G0 F6000 X103.559 Y207.645
G1 F1200 X104.252 Y208.339 E106.31965
G0 F6000 X104.818 Y208.339
G1 F1200 X103.559 Y207.079 E106.37889
G0 F6000 X103.559 Y206.514
G1 F1200 X105.384 Y208.339 E106.46474
G0 F6000 X105.95 Y208.339
G1 F1200 X103.559 Y205.948 E106.5772
G0 F6000 X103.559 Y205.382
G1 F1200 X106.515 Y208.339 E106.71627
G0 F6000 X107.081 Y208.339
G1 F1200 X103.559 Y204.817 E106.88193
G0 F6000 X103.559 Y204.251
G1 F1200 X107.647 Y208.339 E107.07422
G0 F6000 X108.212 Y208.339
G1 F1200 X103.559 Y203.685 E107.2931
G0 F6000 X103.559 Y203.119
G1 F1200 X108.778 Y208.339 E107.53861
G0 F6000 X109.344 Y208.339
G1 F1200 X103.559 Y202.554 E107.81072
G0 F6000 X103.559 Y201.988
G1 F1200 X109.909 Y208.339 E108.10943
G0 F6000 X110.475 Y208.339
G1 F1200 X103.559 Y201.422 E108.43476
G0 F6000 X103.559 Y200.857
G1 F1200 X111.041 Y208.339 E108.78669
G0 F6000 X111.606 Y208.339
G1 F1200 X103.559 Y200.291 E109.16522
G0 F6000 X103.559 Y199.725
G1 F1200 X112.172 Y208.339 E109.57037
G0 F6000 X112.738 Y208.339
G1 F1200 X103.559 Y199.16 E110.00213
G0 F6000 X103.559 Y198.594
G1 F1200 X113.303 Y208.339 E110.46048
G0 F6000 X113.869 Y208.339
G1 F1200 X103.559 Y198.028 E110.94545
G0 F6000 X103.559 Y197.463
G1 F1200 X114.435 Y208.339 E111.45703
G0 F6000 X115.001 Y208.339
G1 F1200 X103.559 Y196.897 E111.99522
G0 F6000 X103.559 Y196.331
G1 F1200 X115.566 Y208.339 E112.56002
G0 F6000 X116.132 Y208.339
G1 F1200 X103.559 Y195.766 E113.15141
G0 F6000 X103.559 Y195.2
G1 F1200 X116.698 Y208.339 E113.76943
G0 F6000 X117.263 Y208.339
G1 F1200 X103.559 Y194.634 E114.41405
G0 F6000 X103.559 Y194.068
G1 F1200 X117.829 Y208.339 E115.08529
G0 F6000 X118.395 Y208.339
G1 F1200 X103.559 Y193.503 E115.78313
G0 F6000 X103.559 Y192.937
G1 F1200 X118.96 Y208.339 E116.50757
G0 F6000 X119.526 Y208.339
G1 F1200 X103.559 Y192.371 E117.25863
G0 F6000 X103.559 Y191.806
G1 F1200 X120.092 Y208.339 E118.03629
G0 F6000 X120.657 Y208.339
G1 F1200 X103.559 Y191.24 E118.84055
G0 F6000 X103.559 Y190.674
G1 F1200 X121.223 Y208.339 E119.67144
G0 F6000 X121.789 Y208.339
G1 F1200 X103.559 Y190.109 E120.52892
G0 F6000 X103.559 Y189.543
G1 F1200 X122.354 Y208.339 E121.413
G0 F6000 X122.92 Y208.339
G1 F1200 X103.559 Y188.977 E122.32371
G0 F6000 X103.559 Y188.412
G1 F1200 X123.486 Y208.339 E123.26101
G0 F6000 X124.051 Y208.339
G1 F1200 X103.559 Y187.846 E124.22492
G0 F6000 X103.559 Y187.28
G1 F1200 X124.617 Y208.339 E125.21545
G0 F6000 X125.183 Y208.339
G1 F1200 X103.559 Y186.715 E126.23257
G0 F6000 X103.559 Y186.149
G1 F1200 X125.749 Y208.339 E127.27632
G0 F6000 X126.314 Y208.339
G1 F1200 X103.559 Y185.583 E128.34667
G0 F6000 X103.559 Y185.018
G1 F1200 X126.88 Y208.339 E129.44362
G0 F6000 X127.446 Y208.339
G1 F1200 X103.559 Y184.452 E130.56719
G0 F6000 X103.559 Y183.886
G1 F1200 X128.011 Y208.339 E131.71736
G0 F6000 X128.577 Y208.339
G1 F1200 X103.559 Y183.32 E132.89416
G0 F6000 X103.559 Y182.755
G1 F1200 X129.143 Y208.339 E134.09755
G0 F6000 X129.708 Y208.339
G1 F1200 X103.559 Y182.189 E135.32754
G0 F6000 X103.559 Y181.623
G1 F1200 X130.274 Y208.339 E136.58416
G0 F6000 X130.84 Y208.339
G1 F1200 X103.559 Y181.058 E137.86737
G0 F6000 X103.559 Y180.492
G1 F1200 X131.405 Y208.339 E139.17718
G0 F6000 X131.971 Y208.339
G1 F1200 X103.559 Y179.926 E140.51362
G0 F6000 X103.559 Y179.361
G1 F1200 X132.537 Y208.339 E141.87666
G0 F6000 X133.102 Y208.339
G1 F1200 X103.559 Y178.795 E143.26629
G0 F6000 X103.559 Y178.229
G1 F1200 X133.668 Y208.339 E144.68255
G0 F6000 X134.234 Y208.339
G1 F1200 X103.559 Y177.664 E146.12541
G0 F6000 X103.559 Y177.098
G1 F1200 X134.8 Y208.339 E147.59489
G0 F6000 X135.365 Y208.339
G1 F1200 X103.559 Y176.532 E149.09097
G0 F6000 X103.559 Y175.967
G1 F1200 X135.931 Y208.339 E150.61365
G0 F6000 X136.497 Y208.339
G1 F1200 X103.559 Y175.401 E152.16295
G0 F6000 X103.559 Y174.835
G1 F1200 X137.062 Y208.339 E153.73885
G0 F6000 X137.628 Y208.339
G1 F1200 X103.559 Y174.27 E155.34136
G0 F6000 X103.559 Y173.704
G1 F1200 X138.194 Y208.339 E156.97048
G0 F6000 X138.759 Y208.339
G1 F1200 X103.559 Y173.138 E158.6262
G0 F6000 X103.559 Y172.572
G1 F1200 X139.325 Y208.339 E160.30855
G0 F6000 X139.891 Y208.339
G1 F1200 X103.559 Y172.007 E162.0175
G0 F6000 X103.559 Y171.441
G1 F1200 X140.456 Y208.339 E163.75304
G0 F6000 X141.022 Y208.339
G1 F1200 X103.559 Y170.875 E165.51521
G0 F6000 X103.559 Y170.31
G1 F1200 X141.588 Y208.339 E167.30398
G0 F6000 X142.153 Y208.339
G1 F1200 X103.559 Y169.744 E169.11934
G0 F6000 X103.559 Y169.178
G1 F1200 X142.719 Y208.339 E170.96133
G0 F6000 X143.285 Y208.339
G1 F1200 X103.559 Y168.613 E172.82992
G0 F6000 X103.559 Y168.047
G1 F1200 X143.85 Y208.339 E174.72511
G0 F6000 X144.416 Y208.339
G1 F1200 X103.559 Y167.481 E176.64692
G0 F6000 X103.559 Y166.916
G1 F1200 X144.982 Y208.339 E178.59533
G0 F6000 X145.548 Y208.339
G1 F1200 X103.559 Y166.35 E180.57037
G0 F6000 X103.559 Y165.784
G1 F1200 X146.113 Y208.339 E182.572
G0 F6000 X146.679 Y208.339
G1 F1200 X103.559 Y165.219 E184.60023
G0 F6000 X103.559 Y164.653
G1 F1200 X147.245 Y208.339 E186.65509
G0 F6000 X147.81 Y208.339
G1 F1200 X103.559 Y164.087 E188.73654
G0 F6000 X103.559 Y163.521
G1 F1200 X148.376 Y208.339 E190.84462
G0 F6000 X148.942 Y208.339
G1 F1200 X103.559 Y162.956 E192.9793
G0 F6000 X103.559 Y162.39
G1 F1200 X149.507 Y208.339 E195.14058
G0 F6000 X150.073 Y208.339
G1 F1200 X103.559 Y161.824 E197.32848
G0 F6000 X103.559 Y161.259
G1 F1200 X150.639 Y208.339 E199.54297
G0 F6000 X151.204 Y208.339
G1 F1200 X103.559 Y160.693 E201.78407
G0 F6000 X103.559 Y160.127
G1 F1200 X151.77 Y208.339 E204.05179
G0 F6000 X152.336 Y208.339
G1 F1200 X103.559 Y159.562 E206.34611
G0 F6000 X103.559 Y158.996
G1 F1200 X152.901 Y208.339 E208.66703
G0 F6000 X153.467 Y208.339
G1 F1200 X103.559 Y158.43 E211.01458
G0 F6000 X103.559 Y157.865
G1 F1200 X154.033 Y208.339 E213.38872
G0 F6000 X154.598 Y208.339
G1 F1200 X103.559 Y157.299 E215.78946
G0 F6000 X103.559 Y156.733
G1 F1200 X155.164 Y208.339 E218.21683
G0 F6000 X155.73 Y208.339
G1 F1200 X103.559 Y156.168 E220.67079
G0 F6000 X103.559 Y155.602
G1 F1200 X156.296 Y208.339 E223.15138
G0 F6000 X156.861 Y208.339
G1 F1200 X103.559 Y155.036 E225.65856
G0 F6000 X103.559 Y154.471
G1 F1200 X157.427 Y208.339 E228.19235
G0 F6000 X157.993 Y208.339
G1 F1200 X103.559 Y153.905 E230.75276
G0 F6000 X103.559 Y153.339
G1 F1200 X158.558 Y208.339 E233.33976
G0 F6000 X159.124 Y208.339
G1 F1200 X103.559 Y152.773 E235.95339
G0 F6000 X103.559 Y152.208
G1 F1200 X159.69 Y208.339 E238.59363
G0 F6000 X160.255 Y208.339
G1 F1200 X103.559 Y151.642 E241.26045
G0 F6000 X103.559 Y151.076
G1 F1200 X160.821 Y208.339 E243.95391
G0 F6000 X161.387 Y208.339
G1 F1200 X103.559 Y150.511 E246.67396
G0 F6000 X103.559 Y149.945
G1 F1200 X161.952 Y208.339 E249.42061
G0 F6000 X162.518 Y208.339
G1 F1200 X103.559 Y149.379 E252.19388
