;FLAVOR:Marlin
;TIME:6584
;Filament used: 9.63595m
;Layer height: 0.28
;MINX:95
;MINY:80.6
;MINZ:0.28
;MAXX:205
;MAXY:219.4
;MAXZ:17.08
;Generated with Cura_SteamEngine 5.2.1
M140 S50
M105
M190 S50
M104 S210
M105
M109 S210
M82 ;absolute extrusion mode
M201 X500.00 Y500.00 Z100.00 E5000.00 ;Setup machine max acceleration
M203 X500.00 Y500.00 Z10.00 E50.00 ;Setup machine max feedrate
M204 P500.00 R1000.00 T500.00 ;Setup Print/Retract/Travel acceleration
M205 X8.00 Y8.00 Z0.40 E5.00 ;Setup Jerk
M220 S100 ;Reset Feedrate
M221 S100 ;Reset Flowrate

G28 ;Home
G29 ;Auto bed Level

G92 E0 ;Reset Extruder
G1 Z2.0 F3000 ;Move Z Axis up
G1 X10.1 Y20 Z0.28 F5000.0 ;Move to start position
G1 X10.1 Y200.0 Z0.28 F1500.0 E15 ;Draw the first line
G1 X10.4 Y200.0 Z0.28 F5000.0 ;Move to side a little
G1 X10.4 Y20 Z0.28 F1500.0 E30 ;Draw the second line
G92 E0 ;Reset Extruder
G1 Z2.0 F3000 ;Move Z Axis up

G92 E0
G92 E0
G1 F2700 E-7
;LAYER_COUNT:61
;LAYER:0
M107
G0 F6000 X97.566 Y84.558 Z0.28
;TYPE:SKIRT
G1 F2700 E0
G1 F1200 X98.198 Y83.864 E0.04371
G1 X98.886 Y83.227 E0.08737
G1 X99.626 Y82.651 E0.13103
G1 X100.412 Y82.139 E0.17471
G1 X101.239 Y81.697 E0.21838
G1 X102.101 Y81.327 E0.26205
G1 X102.991 Y81.031 E0.30573
G1 X103.903 Y80.813 E0.34939
G1 X104.83 Y80.672 E0.39305
G1 X105.701 Y80.613 E0.4337
G1 X106.33 Y80.6 E0.463
G1 X193.451 Y80.601 E4.51972
G1 X194.149 Y80.611 E4.55222
G1 X195.085 Y80.665 E4.59588
G1 X196.013 Y80.797 E4.63953
G1 X196.927 Y81.009 E4.68322
G1 X197.819 Y81.298 E4.72688
G1 X198.684 Y81.661 E4.77056
G1 X199.514 Y82.097 E4.81421
G1 X200.305 Y82.602 E4.85791
G1 X201.049 Y83.173 E4.90158
G1 X201.742 Y83.805 E4.94526
G1 X202.379 Y84.493 E4.98891
G1 X202.954 Y85.234 E5.03259
G1 X203.465 Y86.02 E5.07624
G1 X203.907 Y86.848 E5.11995
G1 X204.276 Y87.71 E5.16361
G1 X204.571 Y88.6 E5.20727
G1 X204.789 Y89.512 E5.25093
G1 X204.929 Y90.44 E5.29463
G1 X204.987 Y91.301 E5.33481
G1 X205 Y91.93 E5.36411
G1 X204.999 Y207.8 E10.7595
G1 X204.99 Y208.527 E10.79336
G1 X204.939 Y209.464 E10.83705
G1 X204.807 Y210.392 E10.8807
G1 X204.598 Y211.306 E10.92436
G1 X204.311 Y212.199 E10.96803
G1 X203.949 Y213.065 E11.01174
G1 X203.515 Y213.896 E11.05539
G1 X203.011 Y214.687 E11.09907
G1 X202.442 Y215.432 E11.14272
G1 X201.811 Y216.127 E11.18643
G1 X201.124 Y216.765 E11.23008
G1 X200.385 Y217.342 E11.27374
G1 X199.599 Y217.854 E11.31742
G1 X198.773 Y218.297 E11.36107
G1 X197.911 Y218.669 E11.40478
G1 X197.022 Y218.965 E11.44841
G1 X196.11 Y219.185 E11.4921
G1 X195.183 Y219.326 E11.53576
G1 X194.299 Y219.387 E11.57702
G1 X193.67 Y219.4 E11.60631
G1 X106.565 Y219.399 E15.66229
G1 X105.867 Y219.39 E15.69479
G1 X104.931 Y219.338 E15.73844
G1 X104.002 Y219.206 E15.78214
G1 X103.088 Y218.996 E15.8258
G1 X102.195 Y218.709 E15.86948
G1 X101.33 Y218.346 E15.91316
G1 X100.499 Y217.912 E15.95682
G1 X99.708 Y217.408 E16.00049
G1 X98.963 Y216.838 E16.04417
G1 X98.269 Y216.207 E16.08785
G1 X97.632 Y215.52 E16.13147
G1 X97.055 Y214.78 E16.17516
G1 X96.543 Y213.994 E16.21884
G1 X96.1 Y213.167 E16.26253
G1 X95.729 Y212.306 E16.30618
G1 X95.433 Y211.416 E16.34986
G1 X95.214 Y210.504 E16.39353
G1 X95.073 Y209.577 E16.43719
G1 X95.013 Y208.688 E16.47868
G1 X95 Y208.058 E16.50803
G1 X95.001 Y92.125 E21.90635
G1 X95.01 Y91.46 E21.93732
G1 X95.063 Y90.524 E21.98097
G1 X95.195 Y89.595 E22.02467
G1 X95.406 Y88.681 E22.06835
G1 X95.694 Y87.789 E22.11199
G1 X96.057 Y86.924 E22.15567
G1 X96.492 Y86.093 E22.19935
G1 X96.996 Y85.303 E22.24298
G1 X97.566 Y84.558 E22.28666
G0 F6000 X97.961 Y84.711
G1 F1200 X98.589 Y84.039 E22.32949
G1 X99.274 Y83.423 E22.37239
G1 X100.01 Y82.87 E22.41525
G1 X100.791 Y82.382 E22.45814
G1 X101.611 Y81.964 E22.50099
G1 X102.465 Y81.619 E22.54388
G1 X103.345 Y81.349 E22.58674
G1 X104.245 Y81.157 E22.62959
G1 X105.159 Y81.043 E22.67248
G1 X105.712 Y81.013 E22.69827
G1 X106.33 Y81 E22.72705
G1 X193.445 Y81.001 E26.78349
G1 X194.143 Y81.011 E26.816
G1 X195.062 Y81.064 E26.85886
G1 X195.973 Y81.197 E26.90173
G1 X196.869 Y81.408 E26.94459
G1 X197.743 Y81.696 E26.98744
G1 X198.59 Y82.059 E27.03035
G1 X199.401 Y82.494 E27.07321
G1 X200.171 Y82.998 E27.11606
G1 X200.895 Y83.567 E27.15894
G1 X201.567 Y84.197 E27.20183
G1 X202.182 Y84.882 E27.24469
G1 X202.735 Y85.618 E27.28756
G1 X203.222 Y86.399 E27.33042
G1 X203.639 Y87.22 E27.3733
G1 X203.984 Y88.074 E27.41618
G1 X204.253 Y88.954 E27.45903
G1 X204.445 Y89.855 E27.50193
G1 X204.558 Y90.768 E27.54477
G1 X204.587 Y91.312 E27.57013
G1 X204.6 Y91.93 E27.59892
G1 X204.599 Y207.795 E32.99408
G1 X204.59 Y208.522 E33.02793
G1 X204.539 Y209.441 E33.07079
G1 X204.408 Y210.353 E33.11369
G1 X204.198 Y211.249 E33.15654
G1 X203.912 Y212.124 E33.19941
G1 X203.551 Y212.971 E33.24228
G1 X203.117 Y213.783 E33.28515
G1 X202.615 Y214.555 E33.32803
G1 X202.047 Y215.28 E33.37092
G1 X201.419 Y215.953 E33.41378
G1 X200.735 Y216.569 E33.45664
G1 X200 Y217.123 E33.4995
G1 X199.22 Y217.612 E33.54237
G1 X198.4 Y218.031 E33.58525
G1 X197.547 Y218.377 E33.62811
G1 X196.667 Y218.648 E33.67098
G1 X195.767 Y218.841 E33.71385
G1 X194.853 Y218.956 E33.75674
G1 X194.288 Y218.987 E33.78309
G1 X193.67 Y219 E33.81187
G1 X106.57 Y218.999 E37.86761
G1 X105.872 Y218.99 E37.90012
G1 X104.953 Y218.938 E37.94298
G1 X104.042 Y218.807 E37.98583
G1 X103.146 Y218.597 E38.02869
G1 X102.271 Y218.31 E38.07157
G1 X101.424 Y217.948 E38.11446
G1 X100.612 Y217.514 E38.15733
G1 X99.841 Y217.012 E38.20017
G1 X99.116 Y216.444 E38.24305
G1 X98.443 Y215.815 E38.28595
G1 X97.828 Y215.131 E38.32878
G1 X97.274 Y214.396 E38.37164
G1 X96.786 Y213.615 E38.41452
G1 X96.367 Y212.795 E38.4574
G1 X96.021 Y211.942 E38.50026
G1 X95.751 Y211.062 E38.54312
G1 X95.558 Y210.161 E38.58603
G1 X95.444 Y209.248 E38.62887
G1 X95.413 Y208.677 E38.6555
G1 X95.4 Y208.058 E38.68433
G1 X95.401 Y92.131 E44.08238
G1 X95.41 Y91.466 E44.11334
G1 X95.462 Y90.546 E44.15625
G1 X95.594 Y89.635 E44.19911
G1 X95.805 Y88.739 E44.24198
G1 X96.092 Y87.864 E44.28486
G1 X96.455 Y87.018 E44.32772
G1 X96.889 Y86.206 E44.37059
G1 X97.392 Y85.435 E44.41346
G1 X97.961 Y84.711 E44.45634
G0 F6000 X98.355 Y84.867
G1 F1200 X98.981 Y84.217 E44.49836
G1 X99.662 Y83.624 E44.54041
G1 X100.394 Y83.094 E44.58249
G1 X101.169 Y82.631 E44.62452
G1 X101.982 Y82.238 E44.66657
G1 X102.827 Y81.918 E44.70865
G1 X103.696 Y81.675 E44.75066
G1 X104.584 Y81.509 E44.79273
G1 X105.723 Y81.413 E44.84595
G1 X106.33 Y81.4 E44.87422
G1 X193.439 Y81.401 E48.93038
G1 X194.137 Y81.411 E48.96289
G1 X195.039 Y81.464 E49.00496
G1 X195.932 Y81.596 E49.047
G1 X196.81 Y81.807 E49.08904
G1 X197.666 Y82.095 E49.1311
G1 X198.493 Y82.457 E49.17313
G1 X199.285 Y82.892 E49.21521
G1 X200.036 Y83.394 E49.25727
G1 X200.739 Y83.961 E49.29933
G1 X201.389 Y84.588 E49.34138
G1 X201.981 Y85.27 E49.38343
G1 X202.511 Y86.001 E49.42548
G1 X202.973 Y86.777 E49.46753
G1 X203.366 Y87.59 E49.50958
G1 X203.684 Y88.435 E49.55162
G1 X203.927 Y89.305 E49.59368
G1 X204.092 Y90.193 E49.63573
G1 X204.187 Y91.323 E49.68854
G1 X204.2 Y91.93 E49.71681
G1 X204.199 Y207.79 E55.11174
G1 X204.19 Y208.517 E55.14559
G1 X204.139 Y209.419 E55.18766
G1 X204.008 Y210.313 E55.22973
G1 X203.799 Y211.191 E55.27176
G1 X203.513 Y212.048 E55.31383
G1 X203.152 Y212.876 E55.35589
G1 X202.72 Y213.668 E55.39789
G1 X202.219 Y214.42 E55.43997
G1 X201.653 Y215.124 E55.48203
G1 X201.028 Y215.775 E55.52405
G1 X200.347 Y216.369 E55.56613
G1 X199.616 Y216.9 E55.6082
G1 X198.842 Y217.364 E55.65022
G1 X198.029 Y217.758 E55.69229
G1 X197.185 Y218.078 E55.73432
G1 X196.315 Y218.323 E55.77641
G1 X195.428 Y218.489 E55.81843
G1 X194.277 Y218.587 E55.87222
G1 X193.67 Y218.6 E55.90049
G1 X106.575 Y218.599 E59.956
G1 X105.877 Y218.59 E59.9885
G1 X104.976 Y218.539 E60.03052
G1 X104.082 Y218.407 E60.0726
G1 X103.204 Y218.198 E60.11463
G1 X102.347 Y217.911 E60.15671
G1 X101.52 Y217.55 E60.19873
G1 X100.727 Y217.117 E60.2408
G1 X99.976 Y216.616 E60.28284
G1 X99.272 Y216.05 E60.3249
G1 X98.621 Y215.424 E60.36695
G1 X98.028 Y214.743 E60.409
G1 X97.498 Y214.012 E60.45105
G1 X97.034 Y213.237 E60.49311
G1 X96.64 Y212.424 E60.53517
G1 X96.32 Y211.58 E60.5772
G1 X96.076 Y210.71 E60.61928
G1 X95.91 Y209.822 E60.66134
G1 X95.813 Y208.667 E60.71531
G1 X95.8 Y208.058 E60.74368
G1 X95.801 Y92.136 E66.14149
G1 X95.81 Y91.471 E66.17246
G1 X95.862 Y90.569 E66.21453
G1 X95.994 Y89.676 E66.25656
G1 X96.204 Y88.798 E66.2986
G1 X96.491 Y87.941 E66.34068
G1 X96.853 Y87.114 E66.38272
G1 X97.286 Y86.322 E66.42475
G1 X97.788 Y85.571 E66.46681
G1 X98.355 Y84.867 E66.50891
G1 F2700 E59.50891
;MESH:other_tokens.stl
G0 F6000 X105.335 Y92.02
G0 X106.6 Y207.8
;TYPE:WALL-INNER
G1 F2700 E66.50891
G1 F1200 X193.4 Y207.8 E70.55068
G1 X193.4 Y135.6 E73.91261
G1 X193.4 Y92.2 E75.9335
G1 X106.6 Y92.2 E79.97527
G1 X106.6 Y207.8 E85.35809
G0 F6000 X106.2 Y208.2
;TYPE:WALL-OUTER
G1 F1200 X193.8 Y208.2 E89.43711
G1 X193.8 Y135.6 E92.81767
G1 X193.8 Y91.8 E94.85718
G1 X106.2 Y91.8 E98.93621
G1 X106.2 Y208.2 E104.35628
G0 F6000 X106.47 Y207.93
G0 X106.7 Y207.44
G0 X106.96 Y207.44
;TYPE:SKIN
G1 F1200 X193.04 Y207.44 E108.36452
G1 X193.04 Y135.6 E111.70969
G1 X193.04 Y92.56 E113.71382
G1 X106.96 Y92.56 E117.72206
G1 X106.96 Y207.44 E123.07136
G0 F6000 X107.678 Y207.239
G1 F1200 X107.159 Y206.719 E123.10557
G0 F6000 X107.159 Y206.154
G1 F1200 X108.244 Y207.239 E123.17702
G0 F6000 X108.81 Y207.239
G1 F1200 X107.159 Y205.588 E123.28574
G0 F6000 X107.159 Y205.022
G1 F1200 X109.375 Y207.239 E123.4317
G0 F6000 X109.941 Y207.239
G1 F1200 X107.159 Y204.457 E123.6149
G0 F6000 X107.159 Y203.891
G1 F1200 X110.507 Y207.239 E123.83537
G0 F6000 X111.073 Y207.239
G1 F1200 X107.159 Y203.325 E124.09311
G0 F6000 X107.159 Y202.76
G1 F1200 X111.638 Y207.239 E124.38806
G0 F6000 X112.204 Y207.239
G1 F1200 X107.159 Y202.194 E124.72028
G0 F6000 X107.159 Y201.628
G1 F1200 X112.77 Y207.239 E125.08978
G0 F6000 X113.335 Y207.239
G1 F1200 X107.159 Y201.062 E125.49651
G0 F6000 X107.159 Y200.497
G1 F1200 X113.901 Y207.239 E125.94048
G0 F6000 X114.467 Y207.239
G1 F1200 X107.159 Y199.931 E126.42173
G0 F6000 X107.159 Y199.365
G1 F1200 X115.032 Y207.239 E126.94021
G0 F6000 X115.598 Y207.239
G1 F1200 X107.159 Y198.8 E127.49593
G0 F6000 X107.159 Y198.234
G1 F1200 X116.164 Y207.239 E128.08893
G0 F6000 X116.729 Y207.239
G1 F1200 X107.159 Y197.668 E128.71916
G0 F6000 X107.159 Y197.103
G1 F1200 X117.295 Y207.239 E129.38663
G0 F6000 X117.861 Y207.239
G1 F1200 X107.159 Y196.537 E130.09138
G0 F6000 X107.159 Y195.971
G1 F1200 X118.426 Y207.239 E130.83336
G0 F6000 X118.992 Y207.239
G1 F1200 X107.159 Y195.406 E131.61259
G0 F6000 X107.159 Y194.84
G1 F1200 X119.558 Y207.239 E132.42908
G0 F6000 X120.124 Y207.239
G1 F1200 X107.159 Y194.274 E133.28285
G0 F6000 X107.159 Y193.709
G1 F1200 X120.689 Y207.239 E134.17382
G0 F6000 X121.255 Y207.239
G1 F1200 X107.159 Y193.143 E135.10207
G0 F6000 X107.159 Y192.577
G1 F1200 X121.821 Y207.239 E136.06759
G0 F6000 X122.386 Y207.239
G1 F1200 X107.159 Y192.012 E137.07031
G0 F6000 X107.159 Y191.446
G1 F1200 X122.952 Y207.239 E138.11031
G0 F6000 X123.518 Y207.239
G1 F1200 X107.159 Y190.88 E139.18757
G0 F6000 X107.159 Y190.314
G1 F1200 X124.083 Y207.239 E140.30208
G0 F6000 X124.649 Y207.239
G1 F1200 X107.159 Y189.749 E141.45383
G0 F6000 X107.159 Y189.183
G1 F1200 X125.215 Y207.239 E142.64285
G0 F6000 X125.78 Y207.239
G1 F1200 X107.159 Y188.617 E143.8691
G0 F6000 X107.159 Y188.052
G1 F1200 X126.346 Y207.239 E145.1326
G0 F6000 X126.912 Y207.239
G1 F1200 X107.159 Y187.486 E146.43337
G0 F6000 X107.159 Y186.92
G1 F1200 X127.477 Y207.239 E147.77138
G0 F6000 X128.043 Y207.239
G1 F1200 X107.159 Y186.355 E149.14662
G0 F6000 X107.159 Y185.789
G1 F1200 X128.609 Y207.239 E150.55914
G0 F6000 X129.174 Y207.239
G1 F1200 X107.159 Y185.223 E152.0089
G0 F6000 X107.159 Y184.658
G1 F1200 X129.74 Y207.239 E153.4959
G0 F6000 X130.306 Y207.239
G1 F1200 X107.159 Y184.092 E155.02017
G0 F6000 X107.159 Y183.526
G1 F1200 X130.872 Y207.239 E156.58171
G0 F6000 X131.437 Y207.239
G1 F1200 X107.159 Y182.961 E158.18046
G0 F6000 X107.159 Y182.395
G1 F1200 X132.003 Y207.239 E159.81648
G0 F6000 X132.569 Y207.239
G1 F1200 X107.159 Y181.829 E161.48977
G0 F6000 X107.159 Y181.263
G1 F1200 X133.134 Y207.239 E163.2003
G0 F6000 X133.7 Y207.239
G1 F1200 X107.159 Y180.698 E164.94807
G0 F6000 X107.159 Y180.132
G1 F1200 X134.266 Y207.239 E166.73311
G0 F6000 X134.831 Y207.239
G1 F1200 X107.159 Y179.566 E168.55539
G0 F6000 X107.159 Y179.001
G1 F1200 X135.397 Y207.239 E170.41492
G0 F6000 X135.963 Y207.239
G1 F1200 X107.159 Y178.435 E172.31171
G0 F6000 X107.159 Y177.869
G1 F1200 X136.528 Y207.239 E174.24574
G0 F6000 X137.094 Y207.239
G1 F1200 X107.159 Y177.304 E176.21701
G0 F6000 X107.159 Y176.738
G1 F1200 X137.66 Y207.239 E178.22555
G0 F6000 X138.225 Y207.239
G1 F1200 X107.159 Y176.172 E180.27134
G0 F6000 X107.159 Y175.607
G1 F1200 X138.791 Y207.239 E182.35436
G0 F6000 X139.357 Y207.239
G1 F1200 X107.159 Y175.041 E184.47465
G0 F6000 X107.159 Y174.475
G1 F1200 X139.922 Y207.239 E186.63218
G0 F6000 X140.488 Y207.239
G1 F1200 X107.159 Y173.91 E188.82695
G0 F6000 X107.159 Y173.344
G1 F1200 X141.054 Y207.239 E191.059
G0 F6000 X141.62 Y207.239
G1 F1200 X107.159 Y172.778 E193.32831
G0 F6000 X107.159 Y172.213
G1 F1200 X142.185 Y207.239 E195.63484
G0 F6000 X142.751 Y207.239
G1 F1200 X107.159 Y171.647 E197.97863
G0 F6000 X107.159 Y171.081
G1 F1200 X143.317 Y207.239 E200.3597
G0 F6000 X143.882 Y207.239
G1 F1200 X107.159 Y170.515 E202.778
G0 F6000 X107.159 Y169.95
G1 F1200 X144.448 Y207.239 E205.23354
G0 F6000 X145.014 Y207.239
G1 F1200 X107.159 Y169.384 E207.72636
G0 F6000 X107.159 Y168.818
G1 F1200 X145.579 Y207.239 E210.25642
G0 F6000 X146.145 Y207.239
G1 F1200 X107.159 Y168.253 E212.82371
G0 F6000 X107.159 Y167.687
G1 F1200 X146.711 Y207.239 E215.42828
G0 F6000 X147.276 Y207.239
G1 F1200 X107.159 Y167.121 E218.07008
G0 F6000 X107.159 Y166.556
G1 F1200 X147.842 Y207.239 E220.74913
G0 F6000 X148.408 Y207.239
G1 F1200 X107.159 Y165.99 E223.46545
G0 F6000 X107.159 Y165.424
G1 F1200 X148.973 Y207.239 E226.219
G0 F6000 X149.539 Y207.239
G1 F1200 X107.159 Y164.859 E229.0098
G0 F6000 X107.159 Y164.293
G1 F1200 X150.105 Y207.239 E231.83787
G0 F6000 X150.671 Y207.239
G1 F1200 X107.159 Y163.727 E234.7032
G0 F6000 X107.159 Y163.162
G1 F1200 X151.236 Y207.239 E237.60575
G0 F6000 X151.802 Y207.239
G1 F1200 X107.159 Y162.596 E240.54557
G0 F6000 X107.159 Y162.03
G1 F1200 X152.368 Y207.239 E243.52266
G0 F6000 X152.933 Y207.239
G1 F1200 X107.159 Y161.465 E246.53695
G0 F6000 X107.159 Y160.899
G1 F1200 X153.499 Y207.239 E249.58852
G0 F6000 X154.065 Y207.239
G1 F1200 X107.159 Y160.333 E252.67736
G0 F6000 X107.159 Y159.767
G1 F1200 X154.63 Y207.239 E255.80344
G0 F6000 X155.196 Y207.239
G1 F1200 X107.159 Y159.202 E258.96676
G0 F6000 X107.159 Y158.636
G1 F1200 X155.762 Y207.239 E262.16735
G0 F6000 X156.327 Y207.239
G1 F1200 X107.159 Y158.07 E265.40518
G0 F6000 X107.159 Y157.505
G1 F1200 X156.893 Y207.239 E268.68025
G0 F6000 X157.459 Y207.239
G1 F1200 X107.159 Y156.939 E271.99259
G0 F6000 X107.159 Y156.373
G1 F1200 X158.024 Y207.239 E275.34217
G0 F6000 X158.59 Y207.239
G1 F1200 X107.159 Y155.808 E278.72899
G0 F6000 X107.159 Y155.242
G1 F1200 X159.156 Y207.239 E282.15308
G0 F6000 X159.721 Y207.239
G1 F1200 X107.159 Y154.676 E285.61441
G0 F6000 X107.159 Y154.111
G1 F1200 X160.287 Y207.239 E289.11298
G0 F6000 X160.853 Y207.239
G1 F1200 X107.159 Y153.545 E292.64882
G0 F6000 X107.159 Y152.979
G1 F1200 X161.419 Y207.239 E296.22194
G0 F6000 X161.984 Y207.239
G1 F1200 X107.159 Y152.414 E299.83226
G0 F6000 X107.159 Y151.848
G1 F1200 X162.55 Y207.239 E303.47985
G0 F6000 X163.116 Y207.239
G1 F1200 X107.159 Y151.282 E307.16471
G0 F6000 X107.159 Y150.716
G1 F1200 X163.681 Y207.239 E310.88681
G0 F6000 X164.247 Y207.239
G1 F1200 X107.159 Y150.151 E314.64616
G0 F6000 X107.159 Y149.585
G1 F1200 X164.813 Y207.239 E318.44277
G0 F6000 X165.378 Y207.239
G1 F1200 X107.159 Y149.019 E322.27663
G0 F6000 X107.159 Y148.454
G1 F1200 X165.944 Y207.239 E326.14772
G0 F6000 X166.51 Y207.239
G1 F1200 X107.159 Y147.888 E330.05608
G0 F6000 X107.159 Y147.322
G1 F1200 X167.075 Y207.239 E334.00169
G0 F6000 X167.641 Y207.239
G1 F1200 X107.159 Y146.757 E337.98453
