;FLAVOR:Marlin
;TIME:9015
;Filament used: 14.3705m
;Layer height: 0.28
;MINX:91
;MINY:79.1
;MINZ:0.28
;MAXX:209
;MAXY:220.9
;MAXZ:29.12
;Generated with Cura_SteamEngine 5.2.1
M140 S50
M105
M190 S50
M104 S210
M105
M109 S210
M82 ;absolute extrusion mode
M201 X500.00 Y500.00 Z100.00 E5000.00 ;Setup machine max acceleration
M203 X500.00 Y500.00 Z10.00 E50.00 ;Setup machine max feedrate
M204 P500.00 R1000.00 T500.00 ;Setup Print/Retract/Travel acceleration
M205 X8.00 Y8.00 Z0.40 E5.00 ;Setup Jerk
M220 S100 ;Reset Feedrate
M221 S100 ;Reset Flowrate

G28 ;Home
G29 ;Auto bed Level

G92 E0 ;Reset Extruder
G1 Z2.0 F3000 ;Move Z Axis up
G1 X10.1 Y20 Z0.28 F5000.0 ;Move to start position
G1 X10.1 Y200.0 Z0.28 F1500.0 E15 ;Draw the first line
G1 X10.4 Y200.0 Z0.28 F5000.0 ;Move to side a little
G1 X10.4 Y20 Z0.28 F1500.0 E30 ;Draw the second line
G92 E0 ;Reset Extruder
G1 Z2.0 F3000 ;Move Z Axis up

G92 E0
G92 E0
G1 F2700 E-7
;LAYER_COUNT:104
;LAYER:0
M107
G0 F6000 X93.566 Y83.058 Z0.28
;TYPE:SKIRT
G1 F2700 E0
G1 F1200 X94.198 Y82.364 E0.04371
G1 X94.886 Y81.727 E0.08737
G1 X95.626 Y81.151 E0.13103
G1 X96.412 Y80.639 E0.17471
G1 X97.239 Y80.197 E0.21838
G1 X98.101 Y79.827 E0.26205
G1 X98.991 Y79.531 E0.30573
G1 X99.903 Y79.313 E0.34939
G1 X100.83 Y79.172 E0.39305
G1 X101.701 Y79.113 E0.4337
G1 X102.33 Y79.1 E0.463
G1 X197.451 Y79.101 E4.89223
G1 X198.149 Y79.111 E4.92474
G1 X199.085 Y79.165 E4.96839
G1 X200.013 Y79.297 E5.01204
G1 X200.927 Y79.509 E5.05573
G1 X201.819 Y79.798 E5.09939
G1 X202.684 Y80.161 E5.14307
G1 X203.514 Y80.597 E5.18673
G1 X204.305 Y81.102 E5.23043
G1 X205.049 Y81.673 E5.2741
G1 X205.742 Y82.305 E5.31777
G1 X206.379 Y82.993 E5.36143
G1 X206.954 Y83.734 E5.4051
G1 X207.465 Y84.52 E5.44876
G1 X207.907 Y85.348 E5.49246
G1 X208.276 Y86.21 E5.53612
G1 X208.571 Y87.1 E5.57978
G1 X208.789 Y88.012 E5.62344
G1 X208.929 Y88.94 E5.66714
G1 X208.987 Y89.801 E5.70733
G1 X209 Y90.43 E5.73662
G1 X208.999 Y209.3 E11.27171
G1 X208.99 Y210.027 E11.30556
G1 X208.939 Y210.964 E11.34926
G1 X208.807 Y211.892 E11.3929
G1 X208.598 Y212.806 E11.43656
G1 X208.311 Y213.699 E11.48024
G1 X207.949 Y214.565 E11.52394
G1 X207.515 Y215.396 E11.5676
G1 X207.011 Y216.187 E11.61127
G1 X206.442 Y216.932 E11.65492
G1 X205.811 Y217.627 E11.69863
G1 X205.124 Y218.265 E11.74229
G1 X204.385 Y218.842 E11.78595
G1 X203.599 Y219.354 E11.82963
G1 X202.773 Y219.797 E11.87327
G1 X201.911 Y220.169 E11.91699
G1 X201.022 Y220.465 E11.96062
G1 X200.11 Y220.685 E12.0043
G1 X199.183 Y220.826 E12.04796
G1 X198.299 Y220.887 E12.08923
G1 X197.67 Y220.9 E12.11852
G1 X102.565 Y220.899 E16.54701
G1 X101.867 Y220.89 E16.57951
G1 X100.931 Y220.838 E16.62316
G1 X100.002 Y220.706 E16.66686
G1 X99.088 Y220.496 E16.71052
G1 X98.195 Y220.209 E16.7542
G1 X97.33 Y219.846 E16.79788
G1 X96.499 Y219.412 E16.84154
G1 X95.708 Y218.908 E16.88521
G1 X94.963 Y218.338 E16.92889
G1 X94.269 Y217.707 E16.97256
G1 X93.632 Y217.02 E17.01619
G1 X93.055 Y216.28 E17.05988
G1 X92.543 Y215.494 E17.10356
G1 X92.1 Y214.667 E17.14725
G1 X91.729 Y213.806 E17.1909
G1 X91.433 Y212.916 E17.23458
G1 X91.214 Y212.004 E17.27825
G1 X91.073 Y211.077 E17.32191
G1 X91.013 Y210.188 E17.3634
G1 X91 Y209.558 E17.39275
G1 X91.001 Y90.625 E22.93076
G1 X91.01 Y89.96 E22.96173
G1 X91.063 Y89.024 E23.00539
G1 X91.195 Y88.095 E23.04908
G1 X91.406 Y87.181 E23.09276
G1 X91.694 Y86.289 E23.1364
G1 X92.057 Y85.424 E23.18008
G1 X92.492 Y84.593 E23.22376
G1 X92.996 Y83.803 E23.26739
G1 X93.566 Y83.058 E23.31107
G0 F6000 X93.961 Y83.211
G1 F1200 X94.589 Y82.539 E23.3539
G1 X95.274 Y81.923 E23.3968
G1 X96.01 Y81.37 E23.43967
G1 X96.791 Y80.882 E23.48255
G1 X97.611 Y80.464 E23.52541
G1 X98.465 Y80.119 E23.56829
G1 X99.345 Y79.849 E23.61116
G1 X100.245 Y79.657 E23.65401
G1 X101.159 Y79.543 E23.6969
G1 X101.712 Y79.513 E23.72268
G1 X102.33 Y79.5 E23.75147
G1 X197.445 Y79.501 E28.18042
G1 X198.143 Y79.511 E28.21292
G1 X199.062 Y79.564 E28.25579
G1 X199.973 Y79.697 E28.29866
G1 X200.869 Y79.908 E28.34152
G1 X201.743 Y80.196 E28.38437
G1 X202.59 Y80.559 E28.42728
G1 X203.401 Y80.994 E28.47013
G1 X204.171 Y81.498 E28.51298
G1 X204.895 Y82.067 E28.55586
G1 X205.567 Y82.697 E28.59875
G1 X206.182 Y83.382 E28.64162
G1 X206.735 Y84.118 E28.68449
G1 X207.222 Y84.899 E28.72734
G1 X207.639 Y85.72 E28.77022
G1 X207.984 Y86.574 E28.81311
G1 X208.253 Y87.454 E28.85596
G1 X208.445 Y88.355 E28.89885
G1 X208.558 Y89.268 E28.94169
G1 X208.587 Y89.812 E28.96706
G1 X208.6 Y90.43 E28.99584
G1 X208.599 Y209.295 E34.53069
G1 X208.59 Y210.022 E34.56455
G1 X208.539 Y210.941 E34.60741
G1 X208.408 Y211.853 E34.65031
G1 X208.198 Y212.749 E34.69316
G1 X207.912 Y213.624 E34.73603
G1 X207.551 Y214.471 E34.7789
G1 X207.117 Y215.283 E34.82177
G1 X206.615 Y216.055 E34.86465
G1 X206.047 Y216.78 E34.90754
G1 X205.419 Y217.453 E34.9504
G1 X204.735 Y218.069 E34.99326
G1 X204 Y218.623 E35.03612
G1 X203.22 Y219.112 E35.07899
G1 X202.4 Y219.531 E35.12186
G1 X201.547 Y219.877 E35.16473
G1 X200.667 Y220.148 E35.2076
G1 X199.767 Y220.341 E35.25046
G1 X198.853 Y220.456 E35.29336
G1 X198.288 Y220.487 E35.31971
G1 X197.67 Y220.5 E35.34849
G1 X102.57 Y220.499 E39.77674
G1 X101.872 Y220.49 E39.80925
G1 X100.953 Y220.438 E39.85211
G1 X100.042 Y220.307 E39.89497
G1 X99.146 Y220.097 E39.93782
G1 X98.271 Y219.81 E39.9807
G1 X97.424 Y219.448 E40.02359
G1 X96.612 Y219.014 E40.06646
G1 X95.841 Y218.512 E40.1093
G1 X95.116 Y217.944 E40.15219
G1 X94.443 Y217.315 E40.19508
G1 X93.828 Y216.631 E40.23791
G1 X93.274 Y215.896 E40.28077
G1 X92.786 Y215.115 E40.32365
G1 X92.367 Y214.295 E40.36653
G1 X92.021 Y213.442 E40.40939
G1 X91.751 Y212.562 E40.45225
G1 X91.558 Y211.661 E40.49516
G1 X91.444 Y210.748 E40.538
G1 X91.413 Y210.177 E40.56463
G1 X91.4 Y209.558 E40.59346
G1 X91.401 Y90.631 E46.1312
G1 X91.41 Y89.966 E46.16217
G1 X91.462 Y89.046 E46.20508
G1 X91.594 Y88.135 E46.24794
G1 X91.805 Y87.239 E46.2908
G1 X92.092 Y86.364 E46.33368
G1 X92.455 Y85.518 E46.37655
G1 X92.889 Y84.706 E46.41942
G1 X93.392 Y83.935 E46.46228
G1 X93.961 Y83.211 E46.50516
G0 F6000 X94.355 Y83.367
G1 F1200 X94.981 Y82.717 E46.54718
G1 X95.662 Y82.124 E46.58923
G1 X96.394 Y81.594 E46.63131
G1 X97.169 Y81.131 E46.67335
G1 X97.982 Y80.738 E46.7154
G1 X98.827 Y80.418 E46.75747
G1 X99.696 Y80.175 E46.79949
G1 X100.584 Y80.009 E46.84155
G1 X101.723 Y79.913 E46.89478
G1 X102.33 Y79.9 E46.92305
G1 X197.439 Y79.901 E51.35172
G1 X198.137 Y79.911 E51.38423
G1 X199.039 Y79.964 E51.4263
G1 X199.932 Y80.096 E51.46833
G1 X200.81 Y80.307 E51.51038
G1 X201.666 Y80.595 E51.55243
G1 X202.493 Y80.957 E51.59447
G1 X203.285 Y81.392 E51.63655
G1 X204.036 Y81.894 E51.67861
G1 X204.739 Y82.461 E51.72066
G1 X205.389 Y83.088 E51.76272
G1 X205.981 Y83.77 E51.80477
G1 X206.511 Y84.501 E51.84681
G1 X206.973 Y85.277 E51.88887
G1 X207.366 Y86.09 E51.93091
G1 X207.684 Y86.935 E51.97295
G1 X207.927 Y87.805 E52.01502
G1 X208.092 Y88.693 E52.05707
G1 X208.187 Y89.823 E52.10988
G1 X208.2 Y90.43 E52.13815
G1 X208.199 Y209.29 E57.67277
G1 X208.19 Y210.017 E57.70662
G1 X208.139 Y210.919 E57.74869
G1 X208.008 Y211.813 E57.79076
G1 X207.799 Y212.691 E57.83279
G1 X207.513 Y213.548 E57.87486
G1 X207.152 Y214.376 E57.91692
G1 X206.72 Y215.168 E57.95892
G1 X206.219 Y215.92 E58.001
G1 X205.653 Y216.624 E58.04306
G1 X205.028 Y217.275 E58.08508
G1 X204.347 Y217.869 E58.12716
G1 X203.616 Y218.4 E58.16923
G1 X202.842 Y218.864 E58.21125
G1 X202.029 Y219.258 E58.25332
G1 X201.185 Y219.578 E58.29535
G1 X200.315 Y219.823 E58.33744
G1 X199.428 Y219.989 E58.37946
G1 X198.277 Y220.087 E58.43325
G1 X197.67 Y220.1 E58.46152
G1 X102.575 Y220.099 E62.88954
G1 X101.877 Y220.09 E62.92204
G1 X100.976 Y220.039 E62.96407
G1 X100.082 Y219.907 E63.00615
G1 X99.204 Y219.698 E63.04817
G1 X98.347 Y219.411 E63.09026
G1 X97.52 Y219.05 E63.13227
G1 X96.727 Y218.617 E63.17434
G1 X95.976 Y218.116 E63.21638
G1 X95.272 Y217.55 E63.25844
G1 X94.621 Y216.924 E63.3005
G1 X94.028 Y216.243 E63.34255
G1 X93.498 Y215.512 E63.38459
G1 X93.034 Y214.737 E63.42665
G1 X92.64 Y213.924 E63.46872
G1 X92.32 Y213.08 E63.51075
G1 X92.076 Y212.21 E63.55282
G1 X91.91 Y211.322 E63.59489
G1 X91.813 Y210.167 E63.64886
G1 X91.8 Y209.558 E63.67722
G1 X91.801 Y90.636 E69.21473
G1 X91.81 Y89.971 E69.2457
G1 X91.862 Y89.069 E69.28777
G1 X91.994 Y88.176 E69.3298
G1 X92.204 Y87.298 E69.37184
G1 X92.491 Y86.441 E69.41392
G1 X92.853 Y85.614 E69.45596
G1 X93.286 Y84.822 E69.49799
G1 X93.788 Y84.071 E69.54005
G1 X94.355 Y83.367 E69.58214
G1 F2700 E62.58214
;MESH:rohan.stl
G0 F6000 X101.335 Y90.514
G0 X102.6 Y90.7
;TYPE:WALL-INNER
G1 F2700 E69.58214
G1 F1200 X102.6 Y209.3 E75.10465
G1 X197.4 Y209.3 E79.51894
G1 X197.4 Y138.1 E82.83431
G1 X197.4 Y90.7 E85.04145
G1 X102.6 Y90.7 E89.45574
G0 F6000 X102.2 Y90.3
;TYPE:WALL-OUTER
G1 F1200 X102.2 Y209.7 E95.0155
G1 X197.8 Y209.7 E99.46704
G1 X197.8 Y138.1 E102.80103
G1 X197.8 Y90.3 E105.0268
G1 X102.2 Y90.3 E109.47834
G0 F6000 X102.47 Y90.57
G0 X102.7 Y91.06
G0 X102.96 Y91.06
;TYPE:SKIN
G1 F1200 X102.96 Y208.94 E114.96733
G1 X197.04 Y208.94 E119.34808
G1 X197.04 Y138.1 E122.64669
G1 X197.04 Y91.06 E124.83707
G1 X102.96 Y91.06 E129.21783
G1 F2700 E122.21783
G0 F6000 X102.7 Y91.06
G0 X197.228 Y90.872
G0 X197.3 Y91.622
G1 F2700 E129.21783
G0 F6000 X196.84 Y91.622
G1 F1200 X196.477 Y91.259 E129.24173
G0 F6000 X195.911 Y91.259
G1 F1200 X196.84 Y92.188 E129.30291
G0 F6000 X196.84 Y92.754
G1 F1200 X195.346 Y91.259 E129.40133
G0 F6000 X194.78 Y91.259
G1 F1200 X196.84 Y93.319 E129.53698
G0 F6000 X196.84 Y93.885
G1 F1200 X194.214 Y91.259 E129.70991
G0 F6000 X193.648 Y91.259
G1 F1200 X196.84 Y94.451 E129.92011
G0 F6000 X196.84 Y95.016
G1 F1200 X193.083 Y91.259 E130.16751
G0 F6000 X192.517 Y91.259
G1 F1200 X196.84 Y95.582 E130.45219
G0 F6000 X196.84 Y96.148
G1 F1200 X191.951 Y91.259 E130.77414
G0 F6000 X191.386 Y91.259
G1 F1200 X196.84 Y96.713 E131.13329
G0 F6000 X196.84 Y97.279
G1 F1200 X190.82 Y91.259 E131.52972
G0 F6000 X190.254 Y91.259
G1 F1200 X196.84 Y97.845 E131.96342
G0 F6000 X196.84 Y98.41
G1 F1200 X189.689 Y91.259 E132.43432
G0 F6000 X189.123 Y91.259
G1 F1200 X196.84 Y98.976 E132.9425
G0 F6000 X196.84 Y99.542
G1 F1200 X188.557 Y91.259 E133.48795
G0 F6000 X187.992 Y91.259
G1 F1200 X196.84 Y100.107 E134.07061
G0 F6000 X196.84 Y100.673
G1 F1200 X187.426 Y91.259 E134.69053
G0 F6000 X186.86 Y91.259
G1 F1200 X196.84 Y101.239 E135.34773
G0 F6000 X196.84 Y101.804
G1 F1200 X186.295 Y91.259 E136.04214
G0 F6000 X185.729 Y91.259
G1 F1200 X196.84 Y102.37 E136.77382
G0 F6000 X196.84 Y102.936
G1 F1200 X185.163 Y91.259 E137.54277
G0 F6000 X184.598 Y91.259
G1 F1200 X196.84 Y103.502 E138.34896
G0 F6000 X196.84 Y104.067
G1 F1200 X184.032 Y91.259 E139.19239
G0 F6000 X183.466 Y91.259
G1 F1200 X196.84 Y104.633 E140.07309
G0 F6000 X196.84 Y105.199
G1 F1200 X182.9 Y91.259 E140.99106
G0 F6000 X182.335 Y91.259
G1 F1200 X196.84 Y105.764 E141.94624
G0 F6000 X196.84 Y106.33
G1 F1200 X181.769 Y91.259 E142.93869
G0 F6000 X181.203 Y91.259
G1 F1200 X196.84 Y106.896 E143.96841
G0 F6000 X196.84 Y107.461
G1 F1200 X180.638 Y91.259 E145.03534
G0 F6000 X180.072 Y91.259
G1 F1200 X196.84 Y108.027 E146.13955
G0 F6000 X196.84 Y108.593
G1 F1200 X179.506 Y91.259 E147.28102
G0 F6000 X178.941 Y91.259
G1 F1200 X196.84 Y109.158 E148.4597
G0 F6000 X196.84 Y109.724
G1 F1200 X178.375 Y91.259 E149.67565
G0 F6000 X177.809 Y91.259
G1 F1200 X196.84 Y110.29 E150.92887
G0 F6000 X196.84 Y110.855
G1 F1200 X177.244 Y91.259 E152.2193
G0 F6000 X176.678 Y91.259
G1 F1200 X196.84 Y111.421 E153.54701
G0 F6000 X196.84 Y111.987
G1 F1200 X176.112 Y91.259 E154.91198
G0 F6000 X175.547 Y91.259
G1 F1200 X196.84 Y112.553 E156.31419
G0 F6000 X196.84 Y113.118
G1 F1200 X174.981 Y91.259 E157.75365
G0 F6000 X174.415 Y91.259
G1 F1200 X196.84 Y113.684 E159.23037
G0 F6000 X196.84 Y114.25
G1 F1200 X173.849 Y91.259 E160.74437
G0 F6000 X173.284 Y91.259
G1 F1200 X196.84 Y114.815 E162.29557
G0 F6000 X196.84 Y115.381
G1 F1200 X172.718 Y91.259 E163.88405
G0 F6000 X172.152 Y91.259
G1 F1200 X196.84 Y115.947 E165.50979
G0 F6000 X196.84 Y116.512
G1 F1200 X171.587 Y91.259 E167.17275
G0 F6000 X171.021 Y91.259
G1 F1200 X196.84 Y117.078 E168.87297
G0 F6000 X196.84 Y117.644
G1 F1200 X170.455 Y91.259 E170.61047
G0 F6000 X169.89 Y91.259
G1 F1200 X196.84 Y118.209 E172.38517
G0 F6000 X196.84 Y118.775
G1 F1200 X169.324 Y91.259 E174.19715
G0 F6000 X168.758 Y91.259
G1 F1200 X196.84 Y119.341 E176.0464
G0 F6000 X196.84 Y119.906
G1 F1200 X168.193 Y91.259 E177.93285
G0 F6000 X167.627 Y91.259
G1 F1200 X196.84 Y120.472 E179.85657
G0 F6000 X196.84 Y121.038
G1 F1200 X167.061 Y91.259 E181.81757
G0 F6000 X166.496 Y91.259
G1 F1200 X196.84 Y121.603 E183.81578
G0 F6000 X196.84 Y122.169
G1 F1200 X165.93 Y91.259 E185.85125
G0 F6000 X165.364 Y91.259
G1 F1200 X196.84 Y122.735 E187.924
G0 F6000 X196.84 Y123.301
G1 F1200 X164.799 Y91.259 E190.03399
G0 F6000 X164.233 Y91.259
G1 F1200 X196.84 Y123.866 E192.18122
G0 F6000 X196.84 Y124.432
G1 F1200 X163.667 Y91.259 E194.36571
G0 F6000 X163.101 Y91.259
G1 F1200 X196.84 Y124.998 E196.58749
G0 F6000 X196.84 Y125.563
G1 F1200 X162.536 Y91.259 E198.84646
G0 F6000 X161.97 Y91.259
G1 F1200 X196.84 Y126.129 E201.14271
G0 F6000 X196.84 Y126.695
G1 F1200 X161.404 Y91.259 E203.47623
G0 F6000 X160.839 Y91.259
G1 F1200 X196.84 Y127.26 E205.84696
G0 F6000 X196.84 Y127.826
G1 F1200 X160.273 Y91.259 E208.25496
G0 F6000 X159.707 Y91.259
G1 F1200 X196.84 Y128.392 E210.70023
G0 F6000 X196.84 Y128.957
G1 F1200 X159.142 Y91.259 E213.18271
G0 F6000 X158.576 Y91.259
G1 F1200 X196.84 Y129.523 E215.70246
G0 F6000 X196.84 Y130.089
G1 F1200 X158.01 Y91.259 E218.25948
G0 F6000 X157.445 Y91.259
G1 F1200 X196.84 Y130.654 E220.85371
G0 F6000 X196.84 Y131.22
G1 F1200 X156.879 Y91.259 E223.48521
G0 F6000 X156.313 Y91.259
G1 F1200 X196.84 Y131.786 E226.15398
G0 F6000 X196.84 Y132.352
G1 F1200 X155.748 Y91.259 E228.85999
G0 F6000 X155.182 Y91.259
G1 F1200 X196.84 Y132.917 E231.60324
G0 F6000 X196.84 Y133.483
G1 F1200 X154.616 Y91.259 E234.38376
G0 F6000 X154.05 Y91.259
G1 F1200 X196.84 Y134.049 E237.20156
G0 F6000 X196.84 Y134.614
G1 F1200 X153.485 Y91.259 E240.05656
G0 F6000 X152.919 Y91.259
G1 F1200 X196.84 Y135.18 E242.94883
G0 F6000 X196.84 Y135.746
G1 F1200 X152.353 Y91.259 E245.87838
G0 F6000 X151.788 Y91.259
G1 F1200 X196.84 Y136.311 E248.84513
G0 F6000 X196.84 Y136.877
G1 F1200 X151.222 Y91.259 E251.84915
G0 F6000 X150.656 Y91.259
G1 F1200 X196.84 Y137.443 E254.89045
G0 F6000 X196.84 Y138.008
G1 F1200 X150.091 Y91.259 E257.96895
G0 F6000 X149.525 Y91.259
G1 F1200 X196.84 Y138.574 E261.08472
G0 F6000 X196.84 Y139.14
G1 F1200 X148.959 Y91.259 E264.23777
G0 F6000 X148.394 Y91.259
G1 F1200 X196.84 Y139.705 E267.42802
G0 F6000 X196.84 Y140.271
G1 F1200 X147.828 Y91.259 E270.65554
G0 F6000 X147.262 Y91.259
G1 F1200 X196.84 Y140.837 E273.92034
G0 F6000 X196.84 Y141.402
G1 F1200 X146.697 Y91.259 E277.22234
G0 F6000 X146.131 Y91.259
G1 F1200 X196.84 Y141.968 E280.56162
G0 F6000 X196.84 Y142.534
G1 F1200 X145.565 Y91.259 E283.93816
G0 F6000 X145 Y91.259
G1 F1200 X196.84 Y143.1 E287.35195
G0 F6000 X196.84 Y143.665
G1 F1200 X144.434 Y91.259 E290.80297
G0 F6000 X143.868 Y91.259
G1 F1200 X196.84 Y144.231 E294.29127
G0 F6000 X196.84 Y144.797
G1 F1200 X143.302 Y91.259 E297.81684
G0 F6000 X142.737 Y91.259
G1 F1200 X196.84 Y145.362 E301.37961
G0 F6000 X196.84 Y145.928
G1 F1200 X142.171 Y91.259 E304.97966
G0 F6000 X141.605 Y91.259
G1 F1200 X196.84 Y146.494 E308.61698
G0 F6000 X196.84 Y147.059
G1 F1200 X141.04 Y91.259 E312.2915
G0 F6000 X140.474 Y91.259
G1 F1200 X196.84 Y147.625 E316.0033
G0 F6000 X196.84 Y148.191
G1 F1200 X139.908 Y91.259 E319.75237
G0 F6000 X139.343 Y91.259
G1 F1200 X196.84 Y148.756 E323.53865
G0 F6000 X196.84 Y149.322
G1 F1200 X138.777 Y91.259 E327.36219
G0 F6000 X138.211 Y91.259
G1 F1200 X196.84 Y149.888 E331.22301
G0 F6000 X196.84 Y150.453
G1 F1200 X137.646 Y91.259 E335.12104
G0 F6000 X137.08 Y91.259
G1 F1200 X196.84 Y151.019 E339.05634
G0 F6000 X196.84 Y151.585
G1 F1200 X136.514 Y91.259 E343.02891
G0 F6000 X135.949 Y91.259
G1 F1200 X196.84 Y152.15 E347.03868
G0 F6000 X196.84 Y152.716
G1 F1200 X135.383 Y91.259 E351.08573
G0 F6000 X134.817 Y91.259
