;FLAVOR:Marlin
;TIME:10099
;Filament used: 15.6297m
;Layer height: 0.28
;MINX:95
;MINY:63.1
;MINZ:0.28
;MAXX:205
;MAXY:236.9
;MAXZ:29.12
;Generated with Cura_SteamEngine 5.2.1
M140 S50
M105
M190 S50
M104 S210
M105
M109 S210
M82 ;absolute extrusion mode
M201 X500.00 Y500.00 Z100.00 E5000.00 ;Setup machine max acceleration
M203 X500.00 Y500.00 Z10.00 E50.00 ;Setup machine max feedrate
M204 P500.00 R1000.00 T500.00 ;Setup Print/Retract/Travel acceleration
M205 X8.00 Y8.00 Z0.40 E5.00 ;Setup Jerk
M220 S100 ;Reset Feedrate
M221 S100 ;Reset Flowrate

G28 ;Home
G29 ;Auto bed Level

G92 E0 ;Reset Extruder
G1 Z2.0 F3000 ;Move Z Axis up
G1 X10.1 Y20 Z0.28 F5000.0 ;Move to start position
G1 X10.1 Y200.0 Z0.28 F1500.0 E15 ;Draw the first line
G1 X10.4 Y200.0 Z0.28 F5000.0 ;Move to side a little
G1 X10.4 Y20 Z0.28 F1500.0 E30 ;Draw the second line
G92 E0 ;Reset Extruder
G1 Z2.0 F3000 ;Move Z Axis up

G92 E0
G92 E0
G1 F2700 E-7
;LAYER_COUNT:104
;LAYER:0
M107
G0 F6000 X96.996 Y67.803 Z0.28
;TYPE:SKIRT
G1 F2700 E0
G1 F1200 X97.566 Y67.058 E0.04368
G1 X98.198 Y66.364 E0.08739
G1 X98.886 Y65.727 E0.13105
G1 X99.626 Y65.151 E0.17471
G1 X100.412 Y64.639 E0.21839
G1 X101.239 Y64.197 E0.26205
G1 X102.101 Y63.827 E0.30573
G1 X102.991 Y63.531 E0.34941
G1 X103.903 Y63.313 E0.39307
G1 X104.83 Y63.172 E0.43673
G1 X105.701 Y63.113 E0.47738
G1 X106.33 Y63.1 E0.50668
G1 X193.451 Y63.101 E4.5634
G1 X194.149 Y63.111 E4.5959
G1 X195.085 Y63.165 E4.63956
G1 X196.013 Y63.297 E4.6832
G1 X196.927 Y63.509 E4.72689
G1 X197.819 Y63.798 E4.77056
G1 X198.684 Y64.161 E4.81424
G1 X199.514 Y64.597 E4.85789
G1 X200.305 Y65.102 E4.90159
G1 X201.049 Y65.673 E4.94526
G1 X201.742 Y66.305 E4.98893
G1 X202.379 Y66.993 E5.03259
G1 X202.954 Y67.734 E5.07627
G1 X203.465 Y68.52 E5.11992
G1 X203.907 Y69.348 E5.16363
G1 X204.276 Y70.21 E5.20729
G1 X204.571 Y71.1 E5.25095
G1 X204.789 Y72.012 E5.29461
G1 X204.929 Y72.94 E5.33831
G1 X204.987 Y73.801 E5.37849
G1 X205 Y74.43 E5.40779
G1 X204.999 Y225.3 E12.43293
G1 X204.99 Y226.027 E12.46678
G1 X204.939 Y226.964 E12.51048
G1 X204.807 Y227.892 E12.55412
G1 X204.598 Y228.806 E12.59778
G1 X204.311 Y229.699 E12.64146
G1 X203.949 Y230.565 E12.68516
G1 X203.515 Y231.396 E12.72882
G1 X203.011 Y232.187 E12.77249
G1 X202.442 Y232.932 E12.81614
G1 X201.811 Y233.627 E12.85985
G1 X201.124 Y234.265 E12.90351
G1 X200.385 Y234.842 E12.94717
G1 X199.599 Y235.354 E12.99085
G1 X198.773 Y235.797 E13.03449
G1 X197.911 Y236.169 E13.07821
G1 X197.022 Y236.465 E13.12184
G1 X196.11 Y236.685 E13.16552
G1 X195.183 Y236.826 E13.20918
G1 X194.299 Y236.887 E13.25044
G1 X193.67 Y236.9 E13.27974
G1 X106.565 Y236.899 E17.33571
G1 X105.867 Y236.89 E17.36822
G1 X104.931 Y236.838 E17.41187
G1 X104.002 Y236.706 E17.45556
G1 X103.088 Y236.496 E17.49923
G1 X102.195 Y236.209 E17.54291
G1 X101.33 Y235.846 E17.58659
G1 X100.499 Y235.412 E17.63024
G1 X99.708 Y234.908 E17.67392
G1 X98.963 Y234.338 E17.7176
G1 X98.269 Y233.707 E17.76127
G1 X97.632 Y233.02 E17.8049
G1 X97.055 Y232.28 E17.84859
G1 X96.543 Y231.494 E17.89227
G1 X96.1 Y230.667 E17.93596
G1 X95.729 Y229.806 E17.97961
G1 X95.433 Y228.916 E18.02328
G1 X95.214 Y228.004 E18.06696
G1 X95.073 Y227.077 E18.11062
G1 X95.013 Y226.188 E18.15211
G1 X95 Y225.558 E18.18145
G1 X95.001 Y74.625 E25.20952
G1 X95.01 Y73.96 E25.24049
G1 X95.063 Y73.024 E25.28415
G1 X95.195 Y72.095 E25.32784
G1 X95.406 Y71.181 E25.37152
G1 X95.694 Y70.289 E25.41516
G1 X96.057 Y69.424 E25.45885
G1 X96.492 Y68.593 E25.50252
G1 X96.996 Y67.803 E25.54616
G0 F6000 X97.392 Y67.935
G1 F1200 X97.961 Y67.211 E25.58903
G1 X98.589 Y66.539 E25.63186
G1 X99.274 Y65.923 E25.67476
G1 X100.01 Y65.37 E25.71762
G1 X100.791 Y64.882 E25.76051
G1 X101.611 Y64.464 E25.80336
G1 X102.465 Y64.119 E25.84625
G1 X103.345 Y63.849 E25.88911
G1 X104.245 Y63.657 E25.93197
G1 X105.159 Y63.543 E25.97485
G1 X105.712 Y63.513 E26.00064
G1 X106.33 Y63.5 E26.02943
G1 X193.445 Y63.501 E30.08586
G1 X194.143 Y63.511 E30.11837
G1 X195.062 Y63.564 E30.16123
G1 X195.973 Y63.697 E30.2041
G1 X196.869 Y63.908 E30.24697
G1 X197.743 Y64.196 E30.28982
G1 X198.59 Y64.559 E30.33273
G1 X199.401 Y64.994 E30.37558
G1 X200.171 Y65.498 E30.41843
G1 X200.895 Y66.067 E30.46131
G1 X201.567 Y66.697 E30.5042
G1 X202.182 Y67.382 E30.54707
G1 X202.735 Y68.118 E30.58993
G1 X203.222 Y68.899 E30.63279
G1 X203.639 Y69.72 E30.67567
G1 X203.984 Y70.574 E30.71856
G1 X204.253 Y71.454 E30.7614
G1 X204.445 Y72.355 E30.8043
G1 X204.558 Y73.268 E30.84714
G1 X204.587 Y73.812 E30.8725
G1 X204.6 Y74.43 E30.90129
G1 X204.599 Y225.295 E37.92619
G1 X204.59 Y226.022 E37.96005
G1 X204.539 Y226.941 E38.00291
G1 X204.408 Y227.853 E38.04581
G1 X204.198 Y228.749 E38.08866
G1 X203.912 Y229.624 E38.13153
G1 X203.551 Y230.471 E38.1744
G1 X203.117 Y231.283 E38.21727
G1 X202.615 Y232.055 E38.26015
G1 X202.047 Y232.78 E38.30304
G1 X201.419 Y233.453 E38.3459
G1 X200.735 Y234.069 E38.38876
G1 X200 Y234.623 E38.43162
G1 X199.22 Y235.112 E38.47449
G1 X198.4 Y235.531 E38.51736
G1 X197.547 Y235.877 E38.56023
G1 X196.667 Y236.148 E38.6031
G1 X195.767 Y236.341 E38.64596
G1 X194.853 Y236.456 E38.68886
G1 X194.288 Y236.487 E38.71521
G1 X193.67 Y236.5 E38.74399
G1 X106.57 Y236.499 E42.79973
G1 X105.872 Y236.49 E42.83223
G1 X104.953 Y236.438 E42.8751
G1 X104.042 Y236.307 E42.91795
G1 X103.146 Y236.097 E42.9608
G1 X102.271 Y235.81 E43.00368
G1 X101.424 Y235.448 E43.04657
G1 X100.612 Y235.014 E43.08945
G1 X99.841 Y234.512 E43.13229
G1 X99.116 Y233.944 E43.17517
G1 X98.443 Y233.315 E43.21807
G1 X97.828 Y232.631 E43.2609
G1 X97.274 Y231.896 E43.30376
G1 X96.786 Y231.115 E43.34664
G1 X96.367 Y230.295 E43.38952
G1 X96.021 Y229.442 E43.43238
G1 X95.751 Y228.562 E43.47524
G1 X95.558 Y227.661 E43.51815
G1 X95.444 Y226.748 E43.56099
G1 X95.413 Y226.177 E43.58762
G1 X95.4 Y225.558 E43.61645
G1 X95.401 Y74.631 E50.64424
G1 X95.41 Y73.966 E50.67521
G1 X95.462 Y73.046 E50.71812
G1 X95.594 Y72.135 E50.76098
G1 X95.805 Y71.239 E50.80384
G1 X96.092 Y70.364 E50.84672
G1 X96.455 Y69.518 E50.88959
G1 X96.889 Y68.706 E50.93246
G1 X97.392 Y67.935 E50.97532
G0 F6000 X97.788 Y68.071
G1 F1200 X98.355 Y67.367 E51.01742
G1 X98.981 Y66.717 E51.05944
G1 X99.662 Y66.124 E51.10148
G1 X100.394 Y65.594 E51.14357
G1 X101.169 Y65.131 E51.1856
G1 X101.982 Y64.738 E51.22765
G1 X102.827 Y64.418 E51.26972
G1 X103.696 Y64.175 E51.31174
G1 X104.584 Y64.009 E51.35381
G1 X105.723 Y63.913 E51.40703
G1 X106.33 Y63.9 E51.4353
G1 X193.439 Y63.901 E55.49146
G1 X194.137 Y63.911 E55.52397
G1 X195.039 Y63.964 E55.56604
G1 X195.932 Y64.096 E55.60807
G1 X196.81 Y64.307 E55.65012
G1 X197.666 Y64.595 E55.69217
G1 X198.493 Y64.957 E55.73421
G1 X199.285 Y65.392 E55.77629
G1 X200.036 Y65.894 E55.81835
G1 X200.739 Y66.461 E55.8604
G1 X201.389 Y67.088 E55.90246
G1 X201.981 Y67.77 E55.94451
G1 X202.511 Y68.501 E55.98655
G1 X202.973 Y69.277 E56.02861
G1 X203.366 Y70.09 E56.07065
G1 X203.684 Y70.935 E56.11269
G1 X203.927 Y71.805 E56.15476
G1 X204.092 Y72.693 E56.19681
G1 X204.187 Y73.823 E56.24962
G1 X204.2 Y74.43 E56.27789
G1 X204.199 Y225.29 E63.30256
G1 X204.19 Y226.017 E63.33641
G1 X204.139 Y226.919 E63.37848
G1 X204.008 Y227.813 E63.42056
G1 X203.799 Y228.691 E63.46258
G1 X203.513 Y229.548 E63.50465
G1 X203.152 Y230.376 E63.54671
G1 X202.72 Y231.168 E63.58872
G1 X202.219 Y231.92 E63.63079
G1 X201.653 Y232.624 E63.67286
G1 X201.028 Y233.275 E63.71488
G1 X200.347 Y233.869 E63.75696
G1 X199.616 Y234.4 E63.79903
G1 X198.842 Y234.864 E63.84105
G1 X198.029 Y235.258 E63.88312
G1 X197.185 Y235.578 E63.92515
G1 X196.315 Y235.823 E63.96723
G1 X195.428 Y235.989 E64.00925
G1 X194.277 Y236.087 E64.06304
G1 X193.67 Y236.1 E64.09131
G1 X106.575 Y236.099 E68.14682
G1 X105.877 Y236.09 E68.17933
G1 X104.976 Y236.039 E68.22135
G1 X104.082 Y235.907 E68.26343
G1 X103.204 Y235.698 E68.30545
G1 X102.347 Y235.411 E68.34754
G1 X101.52 Y235.05 E68.38955
G1 X100.727 Y234.617 E68.43162
G1 X99.976 Y234.116 E68.47366
G1 X99.272 Y233.55 E68.51572
G1 X98.621 Y232.924 E68.55778
G1 X98.028 Y232.243 E68.59983
G1 X97.498 Y231.512 E68.64187
G1 X97.034 Y230.737 E68.68393
G1 X96.64 Y229.924 E68.726
G1 X96.32 Y229.08 E68.76803
G1 X96.076 Y228.21 E68.8101
G1 X95.91 Y227.322 E68.85217
G1 X95.813 Y226.167 E68.90614
G1 X95.8 Y225.558 E68.9345
G1 X95.801 Y74.636 E75.96206
G1 X95.81 Y73.971 E75.99303
G1 X95.862 Y73.069 E76.0351
G1 X95.994 Y72.176 E76.07714
G1 X96.204 Y71.298 E76.11917
G1 X96.491 Y70.441 E76.16126
G1 X96.853 Y69.614 E76.20329
G1 X97.286 Y68.822 E76.24532
G1 X97.788 Y68.071 E76.28738
G1 F2700 E69.28738
;MESH:rohan.stl
G0 F6000 X105.335 Y74.514
G0 X106.6 Y74.7
;TYPE:WALL-INNER
G1 F2700 E76.28738
G1 F1200 X106.6 Y225.3 E83.29995
G1 X193.4 Y225.3 E87.34172
G1 X193.4 Y118.1 E92.3334
G1 X193.4 Y74.7 E94.35429
G1 X106.6 Y74.7 E98.39606
G0 F6000 X106.2 Y74.3
;TYPE:WALL-OUTER
G1 F1200 X106.2 Y225.7 E105.44588
G1 X193.8 Y225.7 E109.5249
G1 X193.8 Y118.1 E114.53521
G1 X193.8 Y74.3 E116.57472
G1 X106.2 Y74.3 E120.65374
G0 F6000 X106.47 Y74.57
G0 X106.7 Y75.06
G0 X106.96 Y75.06
;TYPE:SKIN
G1 F1200 X106.96 Y224.94 E127.63278
G1 X193.04 Y224.94 E131.64103
G1 X193.04 Y75.06 E138.62007
G1 X106.96 Y75.06 E142.62832
G1 F2700 E135.62832
G0 F6000 X106.7 Y75.06
G0 X192.357 Y74.8
G1 F2700 E142.62832
G0 F6000 X192.357 Y75.26
G1 F1200 X192.84 Y75.743 E142.66012
G0 F6000 X192.84 Y76.308
G1 F1200 X191.791 Y75.26 E142.72917
G0 F6000 X191.225 Y75.26
G1 F1200 X192.84 Y76.874 E142.83549
G0 F6000 X192.84 Y77.44
G1 F1200 X190.66 Y75.26 E142.97904
G0 F6000 X190.094 Y75.26
G1 F1200 X192.84 Y78.005 E143.15984
G0 F6000 X192.84 Y78.571
G1 F1200 X189.528 Y75.26 E143.37791
G0 F6000 X188.962 Y75.26
G1 F1200 X192.84 Y79.137 E143.63325
G0 F6000 X192.84 Y79.702
G1 F1200 X188.397 Y75.26 E143.92579
G0 F6000 X187.831 Y75.26
G1 F1200 X192.84 Y80.268 E144.25561
G0 F6000 X192.84 Y80.834
G1 F1200 X187.265 Y75.26 E144.6227
G0 F6000 X186.7 Y75.26
G1 F1200 X192.84 Y81.4 E145.02703
G0 F6000 X192.84 Y81.965
G1 F1200 X186.134 Y75.26 E145.4686
G0 F6000 X185.568 Y75.26
G1 F1200 X192.84 Y82.531 E145.94744
G0 F6000 X192.84 Y83.097
G1 F1200 X185.003 Y75.26 E146.46352
G0 F6000 X184.437 Y75.26
G1 F1200 X192.84 Y83.662 E147.01684
G0 F6000 X192.84 Y84.228
G1 F1200 X183.871 Y75.26 E147.60743
G0 F6000 X183.306 Y75.26
G1 F1200 X192.84 Y84.794 E148.23526
G0 F6000 X192.84 Y85.359
G1 F1200 X182.74 Y75.26 E148.90033
G0 F6000 X182.174 Y75.26
G1 F1200 X192.84 Y85.925 E149.60267
G0 F6000 X192.84 Y86.491
G1 F1200 X181.609 Y75.26 E150.34225
G0 F6000 X181.043 Y75.26
G1 F1200 X192.84 Y87.056 E151.11907
G0 F6000 X192.84 Y87.622
G1 F1200 X180.477 Y75.26 E151.93316
G0 F6000 X179.912 Y75.26
G1 F1200 X192.84 Y88.188 E152.78449
G0 F6000 X192.84 Y88.753
G1 F1200 X179.346 Y75.26 E153.67306
G0 F6000 X178.78 Y75.26
G1 F1200 X192.84 Y89.319 E154.59891
G0 F6000 X192.84 Y89.885
G1 F1200 X178.214 Y75.26 E155.56202
G0 F6000 X177.649 Y75.26
G1 F1200 X192.84 Y90.45 E156.56234
G0 F6000 X192.84 Y91.016
G1 F1200 X177.083 Y75.26 E157.59993
G0 F6000 X176.517 Y75.26
G1 F1200 X192.84 Y91.582 E158.6748
G0 F6000 X192.84 Y92.148
G1 F1200 X175.952 Y75.26 E159.7869
G0 F6000 X175.386 Y75.26
G1 F1200 X192.84 Y92.713 E160.93624
G0 F6000 X192.84 Y93.279
G1 F1200 X174.82 Y75.26 E162.12286
G0 F6000 X174.255 Y75.26
G1 F1200 X192.84 Y93.845 E163.34671
G0 F6000 X192.84 Y94.41
G1 F1200 X173.689 Y75.26 E164.60781
G0 F6000 X173.123 Y75.26
G1 F1200 X192.84 Y94.976 E165.90617
G0 F6000 X192.84 Y95.542
G1 F1200 X172.558 Y75.26 E167.24178
G0 F6000 X171.992 Y75.26
G1 F1200 X192.84 Y96.107 E168.61462
G0 F6000 X192.84 Y96.673
G1 F1200 X171.426 Y75.26 E170.02473
G0 F6000 X170.861 Y75.26
G1 F1200 X192.84 Y97.239 E171.47209
G0 F6000 X192.84 Y97.804
G1 F1200 X170.295 Y75.26 E172.95668
G0 F6000 X169.729 Y75.26
G1 F1200 X192.84 Y98.37 E174.47855
G0 F6000 X192.84 Y98.936
G1 F1200 X169.163 Y75.26 E176.03769
G0 F6000 X168.598 Y75.26
G1 F1200 X192.84 Y99.501 E177.63403
G0 F6000 X192.84 Y100.067
G1 F1200 X168.032 Y75.26 E179.26765
G0 F6000 X167.466 Y75.26
G1 F1200 X192.84 Y100.633 E180.93854
G0 F6000 X192.84 Y101.199
G1 F1200 X166.901 Y75.26 E182.64666
G0 F6000 X166.335 Y75.26
G1 F1200 X192.84 Y101.764 E184.39203
G0 F6000 X192.84 Y102.33
G1 F1200 X165.769 Y75.26 E186.17467
G0 F6000 X165.204 Y75.26
G1 F1200 X192.84 Y102.896 E187.99455
G0 F6000 X192.84 Y103.461
G1 F1200 X164.638 Y75.26 E189.85166
G0 F6000 X164.072 Y75.26
G1 F1200 X192.84 Y104.027 E191.74605
G0 F6000 X192.84 Y104.593
G1 F1200 X163.507 Y75.26 E193.67768
G0 F6000 X162.941 Y75.26
G1 F1200 X192.84 Y105.158 E195.64655
G0 F6000 X192.84 Y105.724
G1 F1200 X162.375 Y75.26 E197.65269
G0 F6000 X161.81 Y75.26
G1 F1200 X192.84 Y106.29 E199.69606
G0 F6000 X192.84 Y106.855
G1 F1200 X161.244 Y75.26 E201.77668
G0 F6000 X160.678 Y75.26
G1 F1200 X192.84 Y107.421 E203.89457
G0 F6000 X192.84 Y107.987
G1 F1200 X160.113 Y75.26 E206.0497
G0 F6000 X159.547 Y75.26
G1 F1200 X192.84 Y108.552 E208.24207
G0 F6000 X192.84 Y109.118
G1 F1200 X158.981 Y75.26 E210.47171
G0 F6000 X158.415 Y75.26
G1 F1200 X192.84 Y109.684 E212.73862
G0 F6000 X192.84 Y110.249
G1 F1200 X157.85 Y75.26 E215.04274
G0 F6000 X157.284 Y75.26
G1 F1200 X192.84 Y110.815 E217.38413
G0 F6000 X192.84 Y111.381
G1 F1200 X156.718 Y75.26 E219.76279
G0 F6000 X156.153 Y75.26
G1 F1200 X192.84 Y111.947 E222.17869
G0 F6000 X192.84 Y112.512
G1 F1200 X155.587 Y75.26 E224.63183
G0 F6000 X155.021 Y75.26
G1 F1200 X192.84 Y113.078 E227.12225
G0 F6000 X192.84 Y113.644
G1 F1200 X154.456 Y75.26 E229.6499
G0 F6000 X153.89 Y75.26
G1 F1200 X192.84 Y114.209 E232.21479
G0 F6000 X192.84 Y114.775
G1 F1200 X153.324 Y75.26 E234.81695
G0 F6000 X152.759 Y75.26
G1 F1200 X192.84 Y115.341 E237.45636
G0 F6000 X192.84 Y115.906
G1 F1200 X152.193 Y75.26 E240.133
G0 F6000 X151.627 Y75.26
G1 F1200 X192.84 Y116.472 E242.84691
G0 F6000 X192.84 Y117.038
G1 F1200 X151.062 Y75.26 E245.59806
G0 F6000 X150.496 Y75.26
G1 F1200 X192.84 Y117.603 E248.38646
G0 F6000 X192.84 Y118.169
G1 F1200 X149.93 Y75.26 E251.21212
G0 F6000 X149.364 Y75.26
G1 F1200 X192.84 Y118.735 E254.07506
G0 F6000 X192.84 Y119.3
G1 F1200 X148.799 Y75.26 E256.9752
G0 F6000 X148.233 Y75.26
G1 F1200 X192.84 Y119.866 E259.91261
G0 F6000 X192.84 Y120.432
G1 F1200 X147.667 Y75.26 E262.8873
G0 F6000 X147.102 Y75.26
G1 F1200 X192.84 Y120.997 E265.89919
G0 F6000 X192.84 Y121.563
G1 F1200 X146.536 Y75.26 E268.94835
G0 F6000 X145.97 Y75.26
G1 F1200 X192.84 Y122.129 E272.03479
G0 F6000 X192.84 Y122.695
G1 F1200 X145.405 Y75.26 E275.15847
G0 F6000 X144.839 Y75.26
G1 F1200 X192.84 Y123.26 E278.31938
G0 F6000 X192.84 Y123.826
G1 F1200 X144.273 Y75.26 E281.51757
G0 F6000 X143.708 Y75.26
G1 F1200 X192.84 Y124.392 E284.753
G0 F6000 X192.84 Y124.957
G1 F1200 X143.142 Y75.26 E288.02566
G0 F6000 X142.576 Y75.26
G1 F1200 X192.84 Y125.523 E291.3356
G0 F6000 X192.84 Y126.089
G1 F1200 X142.011 Y75.26 E294.68277
G0 F6000 X141.445 Y75.26
G1 F1200 X192.84 Y126.654 E298.06719
G0 F6000 X192.84 Y127.22
G1 F1200 X140.879 Y75.26 E301.48888
G0 F6000 X140.314 Y75.26
G1 F1200 X192.84 Y127.786 E304.9478
G0 F6000 X192.84 Y128.351
G1 F1200 X139.748 Y75.26 E308.44397
G0 F6000 X139.182 Y75.26
G1 F1200 X192.84 Y128.917 E311.97741
G0 F6000 X192.84 Y129.483
G1 F1200 X138.616 Y75.26 E315.54812
G0 F6000 X138.051 Y75.26
G1 F1200 X192.84 Y130.048 E319.15603
G0 F6000 X192.84 Y130.614
G1 F1200 X137.485 Y75.26 E322.80122
G0 F6000 X136.919 Y75.26
G1 F1200 X192.84 Y131.18 E326.48368
G0 F6000 X192.84 Y131.746
G1 F1200 X136.354 Y75.26 E330.20338
G0 F6000 X135.788 Y75.26
G1 F1200 X192.84 Y132.311 E333.96032
G0 F6000 X192.84 Y132.877
G1 F1200 X135.222 Y75.26 E337.75453
G0 F6000 X134.657 Y75.26
G1 F1200 X192.84 Y133.443 E341.58598
G0 F6000 X192.84 Y134.008
G1 F1200 X134.091 Y75.26 E345.45467
G0 F6000 X133.525 Y75.26
G1 F1200 X192.84 Y134.574 E349.36063
G0 F6000 X192.84 Y135.14
G1 F1200 X132.96 Y75.26 E353.30383
G0 F6000 X132.394 Y75.26
G1 F1200 X192.84 Y135.705 E357.28427
G0 F6000 X192.84 Y136.271
G1 F1200 X131.828 Y75.26 E361.30198
G0 F6000 X131.263 Y75.26
G1 F1200 X192.84 Y136.837 E365.35693
G0 F6000 X192.84 Y137.402
G1 F1200 X130.697 Y75.26 E369.44912
G0 F6000 X130.131 Y75.26
G1 F1200 X192.84 Y137.968 E373.57859
G0 F6000 X192.84 Y138.534
G1 F1200 X129.566 Y75.26 E377.74529
