;FLAVOR:Marlin
;TIME:18614
;Filament used: 13.985m
;Layer height: 0.16
;MINX:75
;MINY:92.7
;MINZ:0.2
;MAXX:225
;MAXY:207.3
;MAXZ:29
;Generated with Cura_SteamEngine 5.2.1
M140 S60
M105
M190 S60
M104 S210
M105
M109 S210
M82 ;absolute extrusion mode
M201 X500.00 Y500.00 Z100.00 E5000.00 ;Setup machine max acceleration
M203 X500.00 Y500.00 Z10.00 E50.00 ;Setup machine max feedrate
M204 P500.00 R1000.00 T500.00 ;Setup Print/Retract/Travel acceleration
M205 X8.00 Y8.00 Z0.40 E5.00 ;Setup Jerk
M220 S100 ;Reset Feedrate
M221 S100 ;Reset Flowrate

G28 ;Home
G29 ;Auto bed Level

G92 E0 ;Reset Extruder
G1 Z2.0 F3000 ;Move Z Axis up
G1 X10.1 Y20 Z0.28 F5000.0 ;Move to start position
G1 X10.1 Y200.0 Z0.28 F1500.0 E15 ;Draw the first line
G1 X10.4 Y200.0 Z0.28 F5000.0 ;Move to side a little
G1 X10.4 Y20 Z0.28 F1500.0 E30 ;Draw the second line
G92 E0 ;Reset Extruder
G1 Z2.0 F3000 ;Move Z Axis up

G92 E0
G92 E0
G1 F2700 E-7
;LAYER_COUNT:172
;LAYER:0
M107
G0 F6000 X78.886 Y95.327 Z0.2
;TYPE:SKIRT
G1 F2700 E0
G1 F1200 X79.626 Y94.751 E0.03119
G1 X80.412 Y94.239 E0.06239
G1 X81.239 Y93.797 E0.09358
G1 X82.101 Y93.427 E0.12478
G1 X82.991 Y93.131 E0.15597
G1 X83.903 Y92.913 E0.18716
G1 X84.83 Y92.772 E0.21835
G1 X85.701 Y92.713 E0.24738
G1 X86.33 Y92.7 E0.26831
G1 X213.451 Y92.701 E4.49637
G1 X214.149 Y92.711 E4.51959
G1 X215.085 Y92.765 E4.55077
G1 X216.013 Y92.897 E4.58195
G1 X216.927 Y93.109 E4.61315
G1 X217.819 Y93.398 E4.64434
G1 X218.684 Y93.761 E4.67554
G1 X219.514 Y94.197 E4.70672
G1 X220.305 Y94.702 E4.73794
G1 X221.049 Y95.273 E4.76913
G1 X221.742 Y95.905 E4.80033
G1 X222.379 Y96.593 E4.83151
G1 X222.954 Y97.334 E4.86271
G1 X223.465 Y98.12 E4.89389
G1 X223.907 Y98.948 E4.92511
G1 X224.276 Y99.81 E4.95629
G1 X224.571 Y100.7 E4.98748
G1 X224.789 Y101.612 E5.01867
G1 X224.929 Y102.54 E5.04988
G1 X224.987 Y103.401 E5.07858
G1 X225 Y104.03 E5.09951
G1 X224.999 Y195.7 E8.14846
G1 X224.99 Y196.427 E8.17265
G1 X224.939 Y197.364 E8.20386
G1 X224.807 Y198.292 E8.23503
G1 X224.598 Y199.206 E8.26622
G1 X224.311 Y200.099 E8.29741
G1 X223.949 Y200.965 E8.32863
G1 X223.515 Y201.796 E8.35981
G1 X223.011 Y202.587 E8.39101
G1 X222.442 Y203.332 E8.42219
G1 X221.811 Y204.027 E8.45341
G1 X221.124 Y204.665 E8.48459
G1 X220.385 Y205.242 E8.51578
G1 X219.599 Y205.754 E8.54698
G1 X218.773 Y206.197 E8.57815
G1 X217.911 Y206.569 E8.60938
G1 X217.022 Y206.865 E8.64054
G1 X216.11 Y207.085 E8.67175
G1 X215.183 Y207.226 E8.70293
G1 X214.299 Y207.287 E8.7324
G1 X213.67 Y207.3 E8.75333
G1 X86.565 Y207.299 E12.98086
G1 X85.867 Y207.29 E13.00408
G1 X84.931 Y207.238 E13.03526
G1 X84.002 Y207.106 E13.06647
G1 X83.088 Y206.896 E13.09766
G1 X82.195 Y206.609 E13.12885
G1 X81.33 Y206.246 E13.16006
G1 X80.499 Y205.812 E13.19124
G1 X79.708 Y205.308 E13.22243
G1 X78.963 Y204.738 E13.25363
G1 X78.269 Y204.107 E13.28483
G1 X77.632 Y203.42 E13.31599
G1 X77.055 Y202.68 E13.3472
G1 X76.543 Y201.894 E13.3784
G1 X76.1 Y201.067 E13.4096
G1 X75.729 Y200.206 E13.44079
G1 X75.433 Y199.316 E13.47198
G1 X75.214 Y198.404 E13.50318
G1 X75.073 Y197.477 E13.53436
G1 X75.013 Y196.588 E13.564
G1 X75 Y195.958 E13.58496
G1 X75.001 Y104.225 E16.63601
G1 X75.01 Y103.56 E16.65813
G1 X75.063 Y102.624 E16.68931
G1 X75.195 Y101.695 E16.72052
G1 X75.406 Y100.781 E16.75172
G1 X75.694 Y99.889 E16.7829
G1 X76.057 Y99.024 E16.8141
G1 X76.492 Y98.193 E16.84529
G1 X76.996 Y97.403 E16.87646
G1 X77.566 Y96.658 E16.90766
G1 X78.198 Y95.964 E16.93888
G1 X78.886 Y95.327 E16.97006
G0 F6000 X79.274 Y95.523
G1 F1200 X80.01 Y94.97 E17.00068
G1 X80.791 Y94.482 E17.03131
G1 X81.611 Y94.064 E17.06193
G1 X82.465 Y93.719 E17.09256
G1 X83.345 Y93.449 E17.12318
G1 X84.245 Y93.257 E17.15378
G1 X85.159 Y93.143 E17.18442
G1 X85.712 Y93.113 E17.20284
G1 X86.33 Y93.1 E17.2234
G1 X213.445 Y93.101 E21.45126
G1 X214.143 Y93.111 E21.47448
G1 X215.062 Y93.164 E21.5051
G1 X215.973 Y93.297 E21.53572
G1 X216.869 Y93.508 E21.56633
G1 X217.743 Y93.796 E21.59694
G1 X218.59 Y94.159 E21.62759
G1 X219.401 Y94.594 E21.6582
G1 X220.171 Y95.098 E21.68881
G1 X220.895 Y95.667 E21.71943
G1 X221.567 Y96.297 E21.75007
G1 X222.182 Y96.982 E21.78069
G1 X222.735 Y97.718 E21.81131
G1 X223.222 Y98.499 E21.84192
G1 X223.639 Y99.32 E21.87255
G1 X223.984 Y100.174 E21.90318
G1 X224.253 Y101.054 E21.93379
G1 X224.445 Y101.955 E21.96443
G1 X224.558 Y102.868 E21.99503
G1 X224.587 Y103.412 E22.01315
G1 X224.6 Y104.03 E22.03371
G1 X224.599 Y195.695 E25.0825
G1 X224.59 Y196.422 E25.10668
G1 X224.539 Y197.341 E25.13729
G1 X224.408 Y198.253 E25.16794
G1 X224.198 Y199.149 E25.19854
G1 X223.912 Y200.024 E25.22916
G1 X223.551 Y200.871 E25.25979
G1 X223.117 Y201.683 E25.29041
G1 X222.615 Y202.455 E25.32104
G1 X222.047 Y203.18 E25.35167
G1 X221.419 Y203.853 E25.38228
G1 X220.735 Y204.469 E25.4129
G1 X220 Y205.023 E25.44351
G1 X219.22 Y205.512 E25.47413
G1 X218.4 Y205.931 E25.50476
G1 X217.547 Y206.277 E25.53538
G1 X216.667 Y206.548 E25.566
G1 X215.767 Y206.741 E25.59662
G1 X214.853 Y206.856 E25.62726
G1 X214.288 Y206.887 E25.64608
G1 X213.67 Y206.9 E25.66664
G1 X86.57 Y206.899 E29.894
G1 X85.872 Y206.89 E29.91722
G1 X84.953 Y206.838 E29.94783
G1 X84.042 Y206.707 E29.97844
G1 X83.146 Y206.497 E30.00905
G1 X82.271 Y206.21 E30.03968
G1 X81.424 Y205.848 E30.07032
G1 X80.612 Y205.414 E30.10094
G1 X79.841 Y204.912 E30.13154
G1 X79.116 Y204.344 E30.16217
G1 X78.443 Y203.715 E30.19281
G1 X77.828 Y203.031 E30.2234
G1 X77.274 Y202.296 E30.25402
G1 X76.786 Y201.515 E30.28465
G1 X76.367 Y200.695 E30.31527
G1 X76.021 Y199.842 E30.34589
G1 X75.751 Y198.962 E30.37651
G1 X75.558 Y198.061 E30.40715
G1 X75.444 Y197.148 E30.43775
G1 X75.413 Y196.577 E30.45677
G1 X75.4 Y195.958 E30.47737
G1 X75.401 Y104.231 E33.52822
G1 X75.41 Y103.566 E33.55034
G1 X75.462 Y102.646 E33.58099
G1 X75.594 Y101.735 E33.6116
G1 X75.805 Y100.839 E33.64222
G1 X76.092 Y99.964 E33.67285
G1 X76.455 Y99.118 E33.70347
G1 X76.889 Y98.306 E33.73409
G1 X77.392 Y97.535 E33.76471
G1 X77.961 Y96.811 E33.79534
G1 X78.589 Y96.139 E33.82593
G1 X79.274 Y95.523 E33.85657
G0 F6000 X79.662 Y95.724
G1 F1200 X80.394 Y95.194 E33.88663
G1 X81.169 Y94.731 E33.91665
G1 X81.982 Y94.338 E33.94669
G1 X82.827 Y94.018 E33.97674
G1 X83.696 Y93.775 E34.00675
G1 X84.584 Y93.609 E34.0368
G1 X85.723 Y93.513 E34.07481
G1 X86.33 Y93.5 E34.09501
G1 X213.439 Y93.501 E38.32267
G1 X214.137 Y93.511 E38.34589
G1 X215.039 Y93.564 E38.37594
G1 X215.932 Y93.696 E38.40597
G1 X216.81 Y93.907 E38.436
G1 X217.666 Y94.195 E38.46604
G1 X218.493 Y94.557 E38.49606
G1 X219.285 Y94.992 E38.52612
G1 X220.036 Y95.494 E38.55616
G1 X220.739 Y96.061 E38.5862
G1 X221.389 Y96.688 E38.61624
G1 X221.981 Y97.37 E38.64628
G1 X222.511 Y98.101 E38.67631
G1 X222.973 Y98.877 E38.70635
G1 X223.366 Y99.69 E38.73638
G1 X223.684 Y100.535 E38.76641
G1 X223.927 Y101.405 E38.79645
G1 X224.092 Y102.293 E38.82649
G1 X224.187 Y103.423 E38.86421
G1 X224.2 Y104.03 E38.8844
G1 X224.199 Y195.69 E41.93303
G1 X224.19 Y196.417 E41.95721
G1 X224.139 Y197.319 E41.98726
G1 X224.008 Y198.213 E42.01731
G1 X223.799 Y199.091 E42.04733
G1 X223.513 Y199.948 E42.07738
G1 X223.152 Y200.776 E42.10742
G1 X222.72 Y201.568 E42.13743
G1 X222.219 Y202.32 E42.16748
G1 X221.653 Y203.024 E42.19752
G1 X221.028 Y203.675 E42.22754
G1 X220.347 Y204.269 E42.2576
G1 X219.616 Y204.8 E42.28765
G1 X218.842 Y205.264 E42.31766
G1 X218.029 Y205.658 E42.34771
G1 X217.185 Y205.978 E42.37773
G1 X216.315 Y206.223 E42.40779
G1 X215.428 Y206.389 E42.43781
G1 X214.277 Y206.487 E42.47623
G1 X213.67 Y206.5 E42.49642
G1 X86.575 Y206.499 E46.72362
G1 X85.877 Y206.49 E46.74684
G1 X84.976 Y206.439 E46.77685
G1 X84.082 Y206.307 E46.80691
G1 X83.204 Y206.098 E46.83693
G1 X82.347 Y205.811 E46.86699
G1 X81.52 Y205.45 E46.897
G1 X80.727 Y205.017 E46.92705
G1 X79.976 Y204.516 E46.95708
G1 X79.272 Y203.95 E46.98712
G1 X78.621 Y203.324 E47.01716
G1 X78.028 Y202.643 E47.04719
G1 X77.498 Y201.912 E47.07723
G1 X77.034 Y201.137 E47.10727
G1 X76.64 Y200.324 E47.13732
G1 X76.32 Y199.48 E47.16734
G1 X76.076 Y198.61 E47.19739
G1 X75.91 Y197.722 E47.22744
G1 X75.813 Y196.567 E47.26599
G1 X75.8 Y195.958 E47.28625
G1 X75.801 Y104.236 E50.33693
G1 X75.81 Y103.571 E50.35905
G1 X75.862 Y102.669 E50.38911
G1 X75.994 Y101.776 E50.41913
G1 X76.204 Y100.898 E50.44916
G1 X76.491 Y100.041 E50.47922
G1 X76.853 Y99.214 E50.50924
G1 X77.286 Y98.422 E50.53926
G1 X77.788 Y97.671 E50.56931
G1 X78.355 Y96.967 E50.59937
G1 X78.981 Y96.317 E50.62939
G1 X79.662 Y95.724 E50.65942
G1 F2700 E43.65942
;MESH:sauron_units.stl
G0 F6000 X86.42 Y103.035
G0 X86.42 Y104.12
G0 X87 Y195.3
;TYPE:WALL-INNER
G1 F2700 E50.65942
G1 F1200 X213 Y195.3 E54.8502
G1 X213 Y150 E56.35688
G1 X213 Y104.7 E57.86357
G1 X87 Y104.7 E62.05434
G1 X87 Y195.3 E65.06771
G0 F6000 X86.6 Y195.7
G1 F1200 X213.4 Y195.7 E69.2851
G1 X213.4 Y150 E70.80509
G1 X213.4 Y104.3 E72.32507
G1 X86.6 Y104.3 E76.54246
G1 X86.6 Y195.7 E79.58244
G0 F6000 X86.2 Y196.1
;TYPE:WALL-OUTER
G1 F1200 X213.8 Y196.1 E83.82643
G1 X213.8 Y150 E85.35972
G1 X213.8 Y103.9 E86.89301
G1 X86.2 Y103.9 E91.13701
G1 X86.2 Y196.1 E94.20359
G0 F6000 X86.47 Y195.83
G0 X87.1 Y194.94
G0 X87.36 Y194.94
;TYPE:SKIN
G1 F1200 X212.64 Y194.94 E98.37042
G1 X212.64 Y150 E99.86513
G1 X212.64 Y105.06 E101.35984
G1 X87.36 Y105.06 E105.52667
G1 X87.36 Y194.94 E108.51609
G0 F6000 X87.824 Y194.739
G1 F1200 X87.56 Y194.474 E108.52853
G0 F6000 X87.56 Y193.909
G1 F1200 X88.39 Y194.739 E108.56757
G0 F6000 X88.956 Y194.739
G1 F1200 X87.56 Y193.343 E108.63324
G0 F6000 X87.56 Y192.777
G1 F1200 X89.521 Y194.739 E108.7255
G0 F6000 X90.087 Y194.739
G1 F1200 X87.56 Y192.212 E108.84436
G0 F6000 X87.56 Y191.646
G1 F1200 X90.653 Y194.739 E108.98985
G0 F6000 X91.218 Y194.739
G1 F1200 X87.56 Y191.08 E109.16193
G0 F6000 X87.56 Y190.515
G1 F1200 X91.784 Y194.739 E109.36062
G0 F6000 X92.35 Y194.739
G1 F1200 X87.56 Y189.949 E109.58592
G0 F6000 X87.56 Y189.383
G1 F1200 X92.915 Y194.739 E109.83783
G0 F6000 X93.481 Y194.739
G1 F1200 X87.56 Y188.818 E110.11634
G0 F6000 X87.56 Y188.252
G1 F1200 X94.047 Y194.739 E110.42146
G0 F6000 X94.613 Y194.739
G1 F1200 X87.56 Y187.686 E110.75322
G0 F6000 X87.56 Y187.12
G1 F1200 X95.178 Y194.739 E111.11157
G0 F6000 X95.744 Y194.739
G1 F1200 X87.56 Y186.555 E111.49652
G0 F6000 X87.56 Y185.989
G1 F1200 X96.31 Y194.739 E111.90809
G0 F6000 X96.875 Y194.739
G1 F1200 X87.56 Y185.423 E112.34626
G0 F6000 X87.56 Y184.858
G1 F1200 X97.441 Y194.739 E112.81103
G0 F6000 X98.007 Y194.739
G1 F1200 X87.56 Y184.292 E113.30243
G0 F6000 X87.56 Y183.726
G1 F1200 X98.572 Y194.739 E113.82042
G0 F6000 X99.138 Y194.739
G1 F1200 X87.56 Y183.161 E114.36502
G0 F6000 X87.56 Y182.595
G1 F1200 X99.704 Y194.739 E114.93623
G0 F6000 X100.269 Y194.739
G1 F1200 X87.56 Y182.029 E115.53405
G0 F6000 X87.56 Y181.464
G1 F1200 X100.835 Y194.739 E116.15846
G0 F6000 X101.401 Y194.739
G1 F1200 X87.56 Y180.898 E116.8095
G0 F6000 X87.56 Y180.332
G1 F1200 X101.966 Y194.739 E117.48714
G0 F6000 X102.532 Y194.739
G1 F1200 X87.56 Y179.767 E118.19138
G0 F6000 X87.56 Y179.201
G1 F1200 X103.098 Y194.739 E118.92224
G0 F6000 X103.663 Y194.739
G1 F1200 X87.56 Y178.635 E119.6797
G0 F6000 X87.56 Y178.069
G1 F1200 X104.229 Y194.739 E120.46378
G0 F6000 X104.795 Y194.739
G1 F1200 X87.56 Y177.504 E121.27446
G0 F6000 X87.56 Y176.938
G1 F1200 X105.361 Y194.739 E122.11176
G0 F6000 X105.926 Y194.739
G1 F1200 X87.56 Y176.372 E122.97567
G0 F6000 X87.56 Y175.807
G1 F1200 X106.492 Y194.739 E123.86617
G0 F6000 X107.058 Y194.739
G1 F1200 X87.56 Y175.241 E124.7833
G0 F6000 X87.56 Y174.675
G1 F1200 X107.623 Y194.739 E125.72702
G0 F6000 X108.189 Y194.739
G1 F1200 X87.56 Y174.11 E126.69735
G0 F6000 X87.56 Y173.544
G1 F1200 X108.755 Y194.739 E127.6943
G0 F6000 X109.32 Y194.739
G1 F1200 X87.56 Y172.978 E128.71784
G0 F6000 X87.56 Y172.413
G1 F1200 X109.886 Y194.739 E129.76799
G0 F6000 X110.452 Y194.739
G1 F1200 X87.56 Y171.847 E130.84476
G0 F6000 X87.56 Y171.281
G1 F1200 X111.017 Y194.739 E131.94813
G0 F6000 X111.583 Y194.739
G1 F1200 X87.56 Y170.716 E133.0781
G0 F6000 X87.56 Y170.15
G1 F1200 X112.149 Y194.739 E134.23469
G0 F6000 X112.714 Y194.739
G1 F1200 X87.56 Y169.584 E135.41788
G0 F6000 X87.56 Y169.019
G1 F1200 X113.28 Y194.739 E136.62767
G0 F6000 X113.846 Y194.739
G1 F1200 X87.56 Y168.453 E137.86408
G0 F6000 X87.56 Y167.887
G1 F1200 X114.411 Y194.739 E139.12709
G0 F6000 X114.977 Y194.739
G1 F1200 X87.56 Y167.321 E140.41673
G0 F6000 X87.56 Y166.756
G1 F1200 X115.543 Y194.739 E141.73296
G0 F6000 X116.109 Y194.739
G1 F1200 X87.56 Y166.19 E143.07582
G0 F6000 X87.56 Y165.624
G1 F1200 X116.674 Y194.739 E144.44528
G0 F6000 X117.24 Y194.739
G1 F1200 X87.56 Y165.059 E145.84133
G0 F6000 X87.56 Y164.493
G1 F1200 X117.806 Y194.739 E147.26401
G0 F6000 X118.371 Y194.739
G1 F1200 X87.56 Y163.927 E148.71329
G0 F6000 X87.56 Y163.362
G1 F1200 X118.937 Y194.739 E150.18917
G0 F6000 X119.503 Y194.739
G1 F1200 X87.56 Y162.796 E151.69167
G0 F6000 X87.56 Y162.23
G1 F1200 X120.068 Y194.739 E153.22077
G0 F6000 X120.634 Y194.739
G1 F1200 X87.56 Y161.665 E154.77647
G0 F6000 X87.56 Y161.099
G1 F1200 X121.2 Y194.739 E156.35879
G0 F6000 X121.765 Y194.739
G1 F1200 X87.56 Y160.533 E157.96771
G0 F6000 X87.56 Y159.968
G1 F1200 X122.331 Y194.739 E159.60324
G0 F6000 X122.897 Y194.739
G1 F1200 X87.56 Y159.402 E161.26538
G0 F6000 X87.56 Y158.836
G1 F1200 X123.462 Y194.739 E162.95412
G0 F6000 X124.028 Y194.739
G1 F1200 X87.56 Y158.271 E164.66947
G0 F6000 X87.56 Y157.705
G1 F1200 X124.594 Y194.739 E166.41143
G0 F6000 X125.16 Y194.739
G1 F1200 X87.56 Y157.139 E168.18002
G0 F6000 X87.56 Y156.573
G1 F1200 X125.725 Y194.739 E169.97521
G0 F6000 X126.291 Y194.739
G1 F1200 X87.56 Y156.008 E171.797
G0 F6000 X87.56 Y155.442
G1 F1200 X126.857 Y194.739 E173.64541
G0 F6000 X127.422 Y194.739
G1 F1200 X87.56 Y154.876 E175.52042
G0 F6000 X87.56 Y154.311
G1 F1200 X127.988 Y194.739 E177.42203
G0 F6000 X128.554 Y194.739
G1 F1200 X87.56 Y153.745 E179.35026
G0 F6000 X87.56 Y153.179
G1 F1200 X129.119 Y194.739 E181.30509
G0 F6000 X129.685 Y194.739
G1 F1200 X87.56 Y152.614 E183.28652
G0 F6000 X87.56 Y152.048
G1 F1200 X130.251 Y194.739 E185.29457
G0 F6000 X130.816 Y194.739
G1 F1200 X87.56 Y151.482 E187.32923
G0 F6000 X87.56 Y150.917
G1 F1200 X131.382 Y194.739 E189.39048
G0 F6000 X131.948 Y194.739
G1 F1200 X87.56 Y150.351 E191.47835
G0 F6000 X87.56 Y149.785
G1 F1200 X132.513 Y194.739 E193.59283
G0 F6000 X133.079 Y194.739
G1 F1200 X87.56 Y149.22 E195.7339
G0 F6000 X87.56 Y148.654
G1 F1200 X133.645 Y194.739 E197.9016
G0 F6000 X134.21 Y194.739
G1 F1200 X87.56 Y148.088 E200.0959
G0 F6000 X87.56 Y147.522
G1 F1200 X134.776 Y194.739 E202.31682
G0 F6000 X135.342 Y194.739
G1 F1200 X87.56 Y146.957 E204.56434
G0 F6000 X87.56 Y146.391
G1 F1200 X135.908 Y194.739 E206.83848
G0 F6000 X136.473 Y194.739
G1 F1200 X87.56 Y145.825 E209.13922
G0 F6000 X87.56 Y145.26
G1 F1200 X137.039 Y194.739 E211.46656
G0 F6000 X137.605 Y194.739
G1 F1200 X87.56 Y144.694 E213.82052
G0 F6000 X87.56 Y144.128
G1 F1200 X138.17 Y194.739 E216.20108
G0 F6000 X138.736 Y194.739
G1 F1200 X87.56 Y143.563 E218.60825
G0 F6000 X87.56 Y142.997
G1 F1200 X139.302 Y194.739 E221.04203
G0 F6000 X139.867 Y194.739
G1 F1200 X87.56 Y142.431 E223.50242
G0 F6000 X87.56 Y141.866
G1 F1200 X140.433 Y194.739 E225.9894
G0 F6000 X140.999 Y194.739
G1 F1200 X87.56 Y141.3 E228.50301
G0 F6000 X87.56 Y140.734
G1 F1200 X141.564 Y194.739 E231.04321
G0 F6000 X142.13 Y194.739
G1 F1200 X87.56 Y140.169 E233.61002
G0 F6000 X87.56 Y139.603
G1 F1200 X142.696 Y194.739 E236.20345
G0 F6000 X143.261 Y194.739
G1 F1200 X87.56 Y139.037 E238.82347
G0 F6000 X87.56 Y138.472
G1 F1200 X143.827 Y194.739 E241.4701
G0 F6000 X144.393 Y194.739
G1 F1200 X87.56 Y137.906 E244.14335
G0 F6000 X87.56 Y137.34
G1 F1200 X144.959 Y194.739 E246.84322
G0 F6000 X145.524 Y194.739
G1 F1200 X87.56 Y136.774 E249.5697
G0 F6000 X87.56 Y136.209
G1 F1200 X146.09 Y194.739 E252.32277
G0 F6000 X146.656 Y194.739
G1 F1200 X87.56 Y135.643 E255.10246
G0 F6000 X87.56 Y135.077
G1 F1200 X147.221 Y194.739 E257.90876
G0 F6000 X147.787 Y194.739
G1 F1200 X87.56 Y134.512 E260.74165
G0 F6000 X87.56 Y133.946
G1 F1200 X148.353 Y194.739 E263.60117
G0 F6000 X148.918 Y194.739
G1 F1200 X87.56 Y133.38 E266.48728
