;FLAVOR:Marlin
;TIME:19260
;Filament used: 14.5285m
;Layer height: 0.16
;MINX:75
;MINY:89.7
;MINZ:0.2
;MAXX:225
;MAXY:210.3
;MAXZ:29
;Generated with Cura_SteamEngine 5.2.1
M140 S60
M105
M190 S60
M104 S210
M105
M109 S210
M82 ;absolute extrusion mode
M201 X500.00 Y500.00 Z100.00 E5000.00 ;Setup machine max acceleration
M203 X500.00 Y500.00 Z10.00 E50.00 ;Setup machine max feedrate
M204 P500.00 R1000.00 T500.00 ;Setup Print/Retract/Travel acceleration
M205 X8.00 Y8.00 Z0.40 E5.00 ;Setup Jerk
M220 S100 ;Reset Feedrate
M221 S100 ;Reset Flowrate

G28 ;Home
G29 ;Auto bed Level

G92 E0 ;Reset Extruder
G1 Z2.0 F3000 ;Move Z Axis up
G1 X10.1 Y20 Z0.28 F5000.0 ;Move to start position
G1 X10.1 Y200.0 Z0.28 F1500.0 E15 ;Draw the first line
G1 X10.4 Y200.0 Z0.28 F5000.0 ;Move to side a little
G1 X10.4 Y20 Z0.28 F1500.0 E30 ;Draw the second line
G92 E0 ;Reset Extruder
G1 Z2.0 F3000 ;Move Z Axis up

G92 E0
G92 E0
G1 F2700 E-7
;LAYER_COUNT:172
;LAYER:0
M107
G0 F6000 X78.886 Y92.327 Z0.2
;TYPE:SKIRT
G1 F2700 E0
G1 F1200 X79.626 Y91.751 E0.03119
G1 X80.412 Y91.239 E0.06239
G1 X81.239 Y90.797 E0.09358
G1 X82.101 Y90.427 E0.12478
G1 X82.991 Y90.131 E0.15597
G1 X83.903 Y89.913 E0.18716
G1 X84.83 Y89.772 E0.21835
G1 X85.701 Y89.713 E0.24738
G1 X86.33 Y89.7 E0.26831
G1 X213.451 Y89.701 E4.49637
G1 X214.149 Y89.711 E4.51959
G1 X215.085 Y89.765 E4.55077
G1 X216.013 Y89.897 E4.58195
G1 X216.927 Y90.109 E4.61315
G1 X217.819 Y90.398 E4.64434
G1 X218.684 Y90.761 E4.67554
G1 X219.514 Y91.197 E4.70672
G1 X220.305 Y91.702 E4.73794
G1 X221.049 Y92.273 E4.76913
G1 X221.742 Y92.905 E4.80033
G1 X222.379 Y93.593 E4.83151
G1 X222.954 Y94.334 E4.86271
G1 X223.465 Y95.12 E4.89389
G1 X223.907 Y95.948 E4.92511
G1 X224.276 Y96.81 E4.95629
G1 X224.571 Y97.7 E4.98748
G1 X224.789 Y98.612 E5.01867
G1 X224.929 Y99.54 E5.04988
G1 X224.987 Y100.401 E5.07858
G1 X225 Y101.03 E5.09951
G1 X224.999 Y198.7 E8.34802
G1 X224.99 Y199.427 E8.37221
G1 X224.939 Y200.364 E8.40342
G1 X224.807 Y201.292 E8.43459
G1 X224.598 Y202.206 E8.46578
G1 X224.311 Y203.099 E8.49698
G1 X223.949 Y203.965 E8.52819
G1 X223.515 Y204.796 E8.55938
G1 X223.011 Y205.587 E8.59057
G1 X222.442 Y206.332 E8.62175
G1 X221.811 Y207.027 E8.65297
G1 X221.124 Y207.665 E8.68416
G1 X220.385 Y208.242 E8.71534
G1 X219.599 Y208.754 E8.74654
G1 X218.773 Y209.197 E8.77771
G1 X217.911 Y209.569 E8.80894
G1 X217.022 Y209.865 E8.8401
G1 X216.11 Y210.085 E8.87131
G1 X215.183 Y210.226 E8.90249
G1 X214.299 Y210.287 E8.93197
G1 X213.67 Y210.3 E8.95289
G1 X86.565 Y210.299 E13.18042
G1 X85.867 Y210.29 E13.20364
G1 X84.931 Y210.238 E13.23482
G1 X84.002 Y210.106 E13.26603
G1 X83.088 Y209.896 E13.29722
G1 X82.195 Y209.609 E13.32842
G1 X81.33 Y209.246 E13.35962
G1 X80.499 Y208.812 E13.3908
G1 X79.708 Y208.308 E13.42199
G1 X78.963 Y207.738 E13.45319
G1 X78.269 Y207.107 E13.48439
G1 X77.632 Y206.42 E13.51555
G1 X77.055 Y205.68 E13.54676
G1 X76.543 Y204.894 E13.57796
G1 X76.1 Y204.067 E13.60916
G1 X75.729 Y203.206 E13.64035
G1 X75.433 Y202.316 E13.67154
G1 X75.214 Y201.404 E13.70274
G1 X75.073 Y200.477 E13.73392
G1 X75.013 Y199.588 E13.76356
G1 X75 Y198.958 E13.78452
G1 X75.001 Y101.225 E17.03513
G1 X75.01 Y100.56 E17.05725
G1 X75.063 Y99.624 E17.08843
G1 X75.195 Y98.695 E17.11964
G1 X75.406 Y97.781 E17.15084
G1 X75.694 Y96.889 E17.18202
G1 X76.057 Y96.024 E17.21322
G1 X76.492 Y95.193 E17.24441
G1 X76.996 Y94.403 E17.27558
G1 X77.566 Y93.658 E17.30678
G1 X78.198 Y92.964 E17.338
G1 X78.886 Y92.327 E17.36919
G0 F6000 X79.274 Y92.523
G1 F1200 X80.01 Y91.97 E17.39981
G1 X80.791 Y91.482 E17.43044
G1 X81.611 Y91.064 E17.46105
G1 X82.465 Y90.719 E17.49168
G1 X83.345 Y90.449 E17.5223
G1 X84.245 Y90.257 E17.55291
G1 X85.159 Y90.143 E17.58354
G1 X85.712 Y90.113 E17.60196
G1 X86.33 Y90.1 E17.62252
G1 X213.445 Y90.101 E21.85038
G1 X214.143 Y90.111 E21.8736
G1 X215.062 Y90.164 E21.90422
G1 X215.973 Y90.297 E21.93484
G1 X216.869 Y90.508 E21.96545
G1 X217.743 Y90.796 E21.99606
G1 X218.59 Y91.159 E22.02671
G1 X219.401 Y91.594 E22.05732
G1 X220.171 Y92.098 E22.08793
G1 X220.895 Y92.667 E22.11856
G1 X221.567 Y93.297 E22.14919
G1 X222.182 Y93.982 E22.17981
G1 X222.735 Y94.718 E22.21043
G1 X223.222 Y95.499 E22.24104
G1 X223.639 Y96.32 E22.27167
G1 X223.984 Y97.174 E22.3023
G1 X224.253 Y98.054 E22.33291
G1 X224.445 Y98.955 E22.36355
G1 X224.558 Y99.868 E22.39415
G1 X224.587 Y100.412 E22.41227
G1 X224.6 Y101.03 E22.43283
G1 X224.599 Y198.695 E25.68118
G1 X224.59 Y199.422 E25.70536
G1 X224.539 Y200.341 E25.73597
G1 X224.408 Y201.253 E25.76662
G1 X224.198 Y202.149 E25.79723
G1 X223.912 Y203.024 E25.82784
G1 X223.551 Y203.871 E25.85847
G1 X223.117 Y204.683 E25.88909
G1 X222.615 Y205.455 E25.91972
G1 X222.047 Y206.18 E25.95035
G1 X221.419 Y206.853 E25.98097
G1 X220.735 Y207.469 E26.01158
G1 X220 Y208.023 E26.0422
G1 X219.22 Y208.512 E26.07282
G1 X218.4 Y208.931 E26.10344
G1 X217.547 Y209.277 E26.13406
G1 X216.667 Y209.548 E26.16468
G1 X215.767 Y209.741 E26.1953
G1 X214.853 Y209.856 E26.22594
G1 X214.288 Y209.887 E26.24476
G1 X213.67 Y209.9 E26.26532
G1 X86.57 Y209.899 E30.49268
G1 X85.872 Y209.89 E30.5159
G1 X84.953 Y209.838 E30.54651
G1 X84.042 Y209.707 E30.57712
G1 X83.146 Y209.497 E30.60773
G1 X82.271 Y209.21 E30.63836
G1 X81.424 Y208.848 E30.669
G1 X80.612 Y208.414 E30.69962
G1 X79.841 Y207.912 E30.73022
G1 X79.116 Y207.344 E30.76085
G1 X78.443 Y206.715 E30.79149
G1 X77.828 Y206.031 E30.82209
G1 X77.274 Y205.296 E30.8527
G1 X76.786 Y204.515 E30.88333
G1 X76.367 Y203.695 E30.91396
G1 X76.021 Y202.842 E30.94457
G1 X75.751 Y201.962 E30.97519
G1 X75.558 Y201.061 E31.00584
G1 X75.444 Y200.148 E31.03644
G1 X75.413 Y199.577 E31.05546
G1 X75.4 Y198.958 E31.07605
G1 X75.401 Y101.231 E34.32646
G1 X75.41 Y100.566 E34.34858
G1 X75.462 Y99.646 E34.37923
G1 X75.594 Y98.735 E34.40985
G1 X75.805 Y97.839 E34.44046
G1 X76.092 Y96.964 E34.47109
G1 X76.455 Y96.118 E34.50171
G1 X76.889 Y95.306 E34.53233
G1 X77.392 Y94.535 E34.56295
G1 X77.961 Y93.811 E34.59358
G1 X78.589 Y93.139 E34.62417
G1 X79.274 Y92.523 E34.65481
G0 F6000 X79.662 Y92.724
G1 F1200 X80.394 Y92.194 E34.68487
G1 X81.169 Y91.731 E34.7149
G1 X81.982 Y91.338 E34.74493
G1 X82.827 Y91.018 E34.77498
G1 X83.696 Y90.775 E34.80499
G1 X84.584 Y90.609 E34.83504
G1 X85.723 Y90.513 E34.87306
G1 X86.33 Y90.5 E34.89325
G1 X213.439 Y90.501 E39.12091
G1 X214.137 Y90.511 E39.14413
G1 X215.039 Y90.564 E39.17418
G1 X215.932 Y90.696 E39.20421
G1 X216.81 Y90.907 E39.23424
G1 X217.666 Y91.195 E39.26428
G1 X218.493 Y91.557 E39.29431
G1 X219.285 Y91.992 E39.32436
G1 X220.036 Y92.494 E39.35441
G1 X220.739 Y93.061 E39.38444
G1 X221.389 Y93.688 E39.41448
G1 X221.981 Y94.37 E39.44452
G1 X222.511 Y95.101 E39.47455
G1 X222.973 Y95.877 E39.50459
G1 X223.366 Y96.69 E39.53462
G1 X223.684 Y97.535 E39.56465
G1 X223.927 Y98.405 E39.5947
G1 X224.092 Y99.293 E39.62474
G1 X224.187 Y100.423 E39.66245
G1 X224.2 Y101.03 E39.68265
G1 X224.199 Y198.69 E42.93083
G1 X224.19 Y199.417 E42.95501
G1 X224.139 Y200.319 E42.98506
G1 X224.008 Y201.213 E43.01511
G1 X223.799 Y202.091 E43.04513
G1 X223.513 Y202.948 E43.07518
G1 X223.152 Y203.776 E43.10522
G1 X222.72 Y204.568 E43.13523
G1 X222.219 Y205.32 E43.16528
G1 X221.653 Y206.024 E43.19533
G1 X221.028 Y206.675 E43.22534
G1 X220.347 Y207.269 E43.2554
G1 X219.616 Y207.8 E43.28545
G1 X218.842 Y208.264 E43.31547
G1 X218.029 Y208.658 E43.34551
G1 X217.185 Y208.978 E43.37554
G1 X216.315 Y209.223 E43.4056
G1 X215.428 Y209.389 E43.43561
G1 X214.277 Y209.487 E43.47403
G1 X213.67 Y209.5 E43.49423
G1 X86.575 Y209.499 E47.72142
G1 X85.877 Y209.49 E47.74464
G1 X84.976 Y209.439 E47.77466
G1 X84.082 Y209.307 E47.80471
G1 X83.204 Y209.098 E47.83473
G1 X82.347 Y208.811 E47.86479
G1 X81.52 Y208.45 E47.8948
G1 X80.727 Y208.017 E47.92485
G1 X79.976 Y207.516 E47.95488
G1 X79.272 Y206.95 E47.98493
G1 X78.621 Y206.324 E48.01496
G1 X78.028 Y205.643 E48.045
G1 X77.498 Y204.912 E48.07503
G1 X77.034 Y204.137 E48.10507
G1 X76.64 Y203.324 E48.13512
G1 X76.32 Y202.48 E48.16514
G1 X76.076 Y201.61 E48.1952
G1 X75.91 Y200.722 E48.22524
G1 X75.813 Y199.567 E48.26379
G1 X75.8 Y198.958 E48.28405
G1 X75.801 Y101.236 E51.5343
G1 X75.81 Y100.571 E51.55642
G1 X75.862 Y99.669 E51.58647
G1 X75.994 Y98.776 E51.61649
G1 X76.204 Y97.898 E51.64652
G1 X76.491 Y97.041 E51.67658
G1 X76.853 Y96.214 E51.70661
G1 X77.286 Y95.422 E51.73663
G1 X77.788 Y94.671 E51.76667
G1 X78.355 Y93.967 E51.79674
G1 X78.981 Y93.317 E51.82675
G1 X79.662 Y92.724 E51.85679
G1 F2700 E44.85679
;MESH:sauron_units.stl
G0 F6000 X86.42 Y100.035
G0 X86.42 Y101.12
G0 X87 Y198.3
;TYPE:WALL-INNER
G1 F2700 E51.85679
G1 F1200 X213 Y198.3 E56.04756
G1 X213 Y101.7 E59.26049
G1 X87 Y101.7 E63.45127
G1 X87 Y198.3 E66.6642
G0 F6000 X86.6 Y198.7
G1 F1200 X213.4 Y198.7 E70.88158
G1 X213.4 Y101.3 E74.12112
G1 X86.6 Y101.3 E78.33851
G1 X86.6 Y198.7 E81.57804
G0 F6000 X86.2 Y199.1
;TYPE:WALL-OUTER
G1 F1200 X213.8 Y199.1 E85.82204
G1 X213.8 Y100.9 E89.08818
G1 X86.2 Y100.9 E93.33217
G1 X86.2 Y199.1 E96.59832
G0 F6000 X86.47 Y198.83
G0 X87.1 Y197.94
G0 X87.36 Y197.94
;TYPE:SKIN
G1 F1200 X212.64 Y197.94 E100.76515
G1 X212.64 Y150 E102.35964
G1 X212.64 Y102.06 E103.95413
G1 X87.36 Y102.06 E108.12096
G1 X87.36 Y197.94 E111.30994
G0 F6000 X87.996 Y197.739
G1 F1200 X87.559 Y197.302 E111.3305
G0 F6000 X87.559 Y196.736
G1 F1200 X88.562 Y197.739 E111.37768
G0 F6000 X89.127 Y197.739
G1 F1200 X87.559 Y196.171 E111.45143
G0 F6000 X87.559 Y195.605
G1 F1200 X89.693 Y197.739 E111.55181
G0 F6000 X90.259 Y197.739
G1 F1200 X87.559 Y195.039 E111.67881
G0 F6000 X87.559 Y194.474
G1 F1200 X90.825 Y197.739 E111.83241
G0 F6000 X91.39 Y197.739
G1 F1200 X87.559 Y193.908 E112.0126
G0 F6000 X87.559 Y193.342
G1 F1200 X91.956 Y197.739 E112.21943
G0 F6000 X92.522 Y197.739
G1 F1200 X87.559 Y192.777 E112.45285
G0 F6000 X87.559 Y192.211
G1 F1200 X93.087 Y197.739 E112.71287
G0 F6000 X93.653 Y197.739
G1 F1200 X87.559 Y191.645 E112.99951
G0 F6000 X87.559 Y191.08
G1 F1200 X94.219 Y197.739 E113.31275
G0 F6000 X94.784 Y197.739
G1 F1200 X87.559 Y190.514 E113.65259
G0 F6000 X87.559 Y189.948
G1 F1200 X95.35 Y197.739 E114.01906
G0 F6000 X95.916 Y197.739
G1 F1200 X87.559 Y189.382 E114.41215
G0 F6000 X87.559 Y188.817
G1 F1200 X96.481 Y197.739 E114.83181
G0 F6000 X97.047 Y197.739
G1 F1200 X87.559 Y188.251 E115.2781
G0 F6000 X87.559 Y187.685
G1 F1200 X97.613 Y197.739 E115.75101
G0 F6000 X98.178 Y197.739
G1 F1200 X87.559 Y187.12 E116.25049
G0 F6000 X87.559 Y186.554
G1 F1200 X98.744 Y197.739 E116.7766
G0 F6000 X99.31 Y197.739
G1 F1200 X87.559 Y185.988 E117.32933
G0 F6000 X87.559 Y185.423
G1 F1200 X99.876 Y197.739 E117.90866
G0 F6000 X100.441 Y197.739
G1 F1200 X87.559 Y184.857 E118.51459
G0 F6000 X87.559 Y184.291
G1 F1200 X101.007 Y197.739 E119.14714
G0 F6000 X101.573 Y197.739
G1 F1200 X87.559 Y183.726 E119.8063
G0 F6000 X87.559 Y183.16
G1 F1200 X102.138 Y197.739 E120.49205
G0 F6000 X102.704 Y197.739
G1 F1200 X87.559 Y182.594 E121.20442
G0 F6000 X87.559 Y182.029
G1 F1200 X103.27 Y197.739 E121.94339
G0 F6000 X103.835 Y197.739
G1 F1200 X87.559 Y181.463 E122.70897
G0 F6000 X87.559 Y180.897
G1 F1200 X104.401 Y197.739 E123.50116
G0 F6000 X104.967 Y197.739
G1 F1200 X87.559 Y180.332 E124.31996
G0 F6000 X87.559 Y179.766
G1 F1200 X105.532 Y197.739 E125.16535
G0 F6000 X106.098 Y197.739
G1 F1200 X87.559 Y179.2 E126.03737
G0 F6000 X87.559 Y178.634
G1 F1200 X106.664 Y197.739 E126.93601
G0 F6000 X107.229 Y197.739
G1 F1200 X87.559 Y178.069 E127.86123
G0 F6000 X87.559 Y177.503
G1 F1200 X107.795 Y197.739 E128.81307
G0 F6000 X108.361 Y197.739
G1 F1200 X87.559 Y176.937 E129.79153
G0 F6000 X87.559 Y176.372
G1 F1200 X108.926 Y197.739 E130.79657
G0 F6000 X109.492 Y197.739
G1 F1200 X87.559 Y175.806 E131.82823
G0 F6000 X87.559 Y175.24
G1 F1200 X110.058 Y197.739 E132.88651
G0 F6000 X110.624 Y197.739
G1 F1200 X87.559 Y174.675 E133.9714
G0 F6000 X87.559 Y174.109
G1 F1200 X111.189 Y197.739 E135.08288
G0 F6000 X111.755 Y197.739
G1 F1200 X87.559 Y173.543 E136.22099
G0 F6000 X87.559 Y172.978
G1 F1200 X112.321 Y197.739 E137.38569
G0 F6000 X112.886 Y197.739
G1 F1200 X87.559 Y172.412 E138.577
G0 F6000 X87.559 Y171.846
G1 F1200 X113.452 Y197.739 E139.79492
G0 F6000 X114.018 Y197.739
G1 F1200 X87.559 Y171.281 E141.03945
G0 F6000 X87.559 Y170.715
G1 F1200 X114.583 Y197.739 E142.31058
G0 F6000 X115.149 Y197.739
G1 F1200 X87.559 Y170.149 E143.60832
G0 F6000 X87.559 Y169.584
G1 F1200 X115.715 Y197.739 E144.93267
G0 F6000 X116.28 Y197.739
G1 F1200 X87.559 Y169.018 E146.28362
G0 F6000 X87.559 Y168.452
G1 F1200 X116.846 Y197.739 E147.66119
G0 F6000 X117.412 Y197.739
G1 F1200 X87.559 Y167.886 E149.06538
G0 F6000 X87.559 Y167.321
G1 F1200 X117.977 Y197.739 E150.49615
G0 F6000 X118.543 Y197.739
G1 F1200 X87.559 Y166.755 E151.95355
G0 F6000 X87.559 Y166.189
G1 F1200 X119.109 Y197.739 E153.43756
G0 F6000 X119.674 Y197.739
G1 F1200 X87.559 Y165.624 E154.94815
G0 F6000 X87.559 Y165.058
G1 F1200 X120.24 Y197.739 E156.48537
G0 F6000 X120.806 Y197.739
G1 F1200 X87.559 Y164.492 E158.0492
G0 F6000 X87.559 Y163.927
G1 F1200 X121.372 Y197.739 E159.63964
G0 F6000 X121.937 Y197.739
G1 F1200 X87.559 Y163.361 E161.25668
G0 F6000 X87.559 Y162.795
G1 F1200 X122.503 Y197.739 E162.90033
G0 F6000 X123.069 Y197.739
G1 F1200 X87.559 Y162.23 E164.57059
G0 F6000 X87.559 Y161.664
G1 F1200 X123.634 Y197.739 E166.26745
G0 F6000 X124.2 Y197.739
G1 F1200 X87.559 Y161.098 E167.99093
G0 F6000 X87.559 Y160.533
G1 F1200 X124.766 Y197.739 E169.74101
G0 F6000 X125.331 Y197.739
G1 F1200 X87.559 Y159.967 E171.51769
G0 F6000 X87.559 Y159.401
G1 F1200 X125.897 Y197.739 E173.32099
G0 F6000 X126.463 Y197.739
G1 F1200 X87.559 Y158.835 E175.15092
G0 F6000 X87.559 Y158.27
G1 F1200 X127.028 Y197.739 E177.00742
G0 F6000 X127.594 Y197.739
G1 F1200 X87.559 Y157.704 E178.89054
G0 F6000 X87.559 Y157.138
G1 F1200 X128.16 Y197.739 E180.80029
G0 F6000 X128.725 Y197.739
G1 F1200 X87.559 Y156.573 E182.73661
G0 F6000 X87.559 Y156.007
G1 F1200 X129.291 Y197.739 E184.69955
G0 F6000 X129.857 Y197.739
G1 F1200 X87.559 Y155.441 E186.68912
G0 F6000 X87.559 Y154.876
G1 F1200 X130.423 Y197.739 E188.70529
G0 F6000 X130.988 Y197.739
G1 F1200 X87.559 Y154.31 E190.74806
G0 F6000 X87.559 Y153.744
G1 F1200 X131.554 Y197.739 E192.81745
G0 F6000 X132.12 Y197.739
G1 F1200 X87.559 Y153.179 E194.91344
G0 F6000 X87.559 Y152.613
G1 F1200 X132.685 Y197.739 E197.03603
G0 F6000 X133.251 Y197.739
G1 F1200 X87.559 Y152.047 E199.18524
G0 F6000 X87.559 Y151.482
G1 F1200 X133.817 Y197.739 E201.36105
G0 F6000 X134.382 Y197.739
G1 F1200 X87.559 Y150.916 E203.56346
G0 F6000 X87.559 Y150.35
G1 F1200 X134.948 Y197.739 E205.79249
G0 F6000 X135.514 Y197.739
G1 F1200 X87.559 Y149.785 E208.04812
G0 F6000 X87.559 Y149.219
G1 F1200 X136.079 Y197.739 E210.33036
G0 F6000 X136.645 Y197.739
G1 F1200 X87.559 Y148.653 E212.63921
G0 F6000 X87.559 Y148.087
G1 F1200 X137.211 Y197.739 E214.97469
G0 F6000 X137.776 Y197.739
G1 F1200 X87.559 Y147.522 E217.33674
G0 F6000 X87.559 Y146.956
G1 F1200 X138.342 Y197.739 E219.72542
G0 F6000 X138.908 Y197.739
G1 F1200 X87.559 Y146.39 E222.14072
G0 F6000 X87.559 Y145.825
G1 F1200 X139.473 Y197.739 E224.58259
G0 F6000 X140.039 Y197.739
G1 F1200 X87.559 Y145.259 E227.05109
G0 F6000 X87.559 Y144.693
G1 F1200 X140.605 Y197.739 E229.54621
G0 F6000 X141.171 Y197.739
G1 F1200 X87.559 Y144.128 E232.06793
G0 F6000 X87.559 Y143.562
G1 F1200 X141.736 Y197.739 E234.61625
G0 F6000 X142.302 Y197.739
G1 F1200 X87.559 Y142.996 E237.1912
G0 F6000 X87.559 Y142.431
G1 F1200 X142.868 Y197.739 E239.79274
G0 F6000 X143.433 Y197.739
G1 F1200 X87.559 Y141.865 E242.42088
G0 F6000 X87.559 Y141.299
G1 F1200 X143.999 Y197.739 E245.07565
G0 F6000 X144.565 Y197.739
G1 F1200 X87.559 Y140.734 E247.75701
G0 F6000 X87.559 Y140.168
G1 F1200 X145.13 Y197.739 E250.46497
G0 F6000 X145.696 Y197.739
G1 F1200 X87.559 Y139.602 E253.19956
G0 F6000 X87.559 Y139.036
G1 F1200 X146.262 Y197.739 E255.96077
G0 F6000 X146.827 Y197.739
G1 F1200 X87.559 Y138.471 E258.74855
G0 F6000 X87.559 Y137.905
G1 F1200 X147.393 Y197.739 E261.56296
G0 F6000 X147.959 Y197.739
G1 F1200 X87.559 Y137.339 E264.40399
G0 F6000 X87.559 Y136.774
G1 F1200 X148.524 Y197.739 E267.2716
G0 F6000 X149.09 Y197.739
