;FLAVOR:Marlin
;TIME:14070
;Filament used: 16.4862m
;Layer height: 0.28
;MINX:91
;MINY:64.4
;MINZ:0.28
;MAXX:209
;MAXY:235.6
;MAXZ:29.12
;Generated with Cura_SteamEngine 5.2.1
M140 S60
M105
M190 S60
M104 S210
M105
M109 S210
M82 ;absolute extrusion mode
M201 X500.00 Y500.00 Z100.00 E5000.00 ;Setup machine max acceleration
M203 X500.00 Y500.00 Z10.00 E50.00 ;Setup machine max feedrate
M204 P500.00 R1000.00 T500.00 ;Setup Print/Retract/Travel acceleration
M205 X8.00 Y8.00 Z0.40 E5.00 ;Setup Jerk
M220 S100 ;Reset Feedrate
M221 S100 ;Reset Flowrate

G28 ;Home
G29 ;Auto bed Level

G92 E0 ;Reset Extruder
G1 Z2.0 F3000 ;Move Z Axis up
G1 X10.1 Y20 Z0.28 F5000.0 ;Move to start position
G1 X10.1 Y200.0 Z0.28 F1500.0 E15 ;Draw the first line
G1 X10.4 Y200.0 Z0.28 F5000.0 ;Move to side a little
G1 X10.4 Y20 Z0.28 F1500.0 E30 ;Draw the second line
G92 E0 ;Reset Extruder
G1 Z2.0 F3000 ;Move Z Axis up

G92 E0
G92 E0
G1 F2700 E-7
;LAYER_COUNT:104
;LAYER:0
M107
G0 F6000 X92.996 Y69.103 Z0.28
;TYPE:SKIRT
G1 F2700 E0
G1 F1200 X93.566 Y68.358 E0.04368
G1 X94.198 Y67.664 E0.08739
G1 X94.886 Y67.027 E0.13105
G1 X95.626 Y66.451 E0.17471
G1 X96.412 Y65.939 E0.21839
G1 X97.239 Y65.497 E0.26205
G1 X98.101 Y65.127 E0.30573
G1 X98.991 Y64.831 E0.34941
G1 X99.903 Y64.613 E0.39307
G1 X100.83 Y64.472 E0.43673
G1 X101.701 Y64.413 E0.47738
G1 X102.33 Y64.4 E0.50668
G1 X197.451 Y64.401 E4.93591
G1 X198.149 Y64.411 E4.96842
G1 X199.085 Y64.465 E5.01207
G1 X200.013 Y64.597 E5.05572
G1 X200.927 Y64.809 E5.09941
G1 X201.819 Y65.098 E5.14307
G1 X202.684 Y65.461 E5.18675
G1 X203.514 Y65.897 E5.23041
G1 X204.305 Y66.402 E5.2741
G1 X205.049 Y66.973 E5.31778
G1 X205.742 Y67.605 E5.36145
G1 X206.379 Y68.293 E5.40511
G1 X206.954 Y69.034 E5.44878
G1 X207.465 Y69.82 E5.49244
G1 X207.907 Y70.648 E5.53614
G1 X208.276 Y71.51 E5.5798
G1 X208.571 Y72.4 E5.62346
G1 X208.789 Y73.312 E5.66712
G1 X208.929 Y74.24 E5.71082
G1 X208.987 Y75.101 E5.75101
G1 X209 Y75.73 E5.7803
G1 X208.999 Y224 E12.68437
G1 X208.99 Y224.727 E12.71823
G1 X208.939 Y225.664 E12.76192
G1 X208.807 Y226.592 E12.80557
G1 X208.598 Y227.506 E12.84923
G1 X208.311 Y228.399 E12.89291
G1 X207.949 Y229.265 E12.93661
G1 X207.515 Y230.096 E12.98027
G1 X207.011 Y230.887 E13.02394
G1 X206.442 Y231.632 E13.06759
G1 X205.811 Y232.327 E13.1113
G1 X205.124 Y232.965 E13.15496
G1 X204.385 Y233.542 E13.19861
G1 X203.599 Y234.054 E13.24229
G1 X202.773 Y234.497 E13.28594
G1 X201.911 Y234.869 E13.32965
G1 X201.022 Y235.165 E13.37328
G1 X200.11 Y235.385 E13.41697
G1 X199.183 Y235.526 E13.46063
G1 X198.299 Y235.587 E13.50189
G1 X197.67 Y235.6 E13.53119
G1 X102.565 Y235.599 E17.95967
G1 X101.867 Y235.59 E17.99218
G1 X100.931 Y235.538 E18.03583
G1 X100.002 Y235.406 E18.07952
G1 X99.088 Y235.196 E18.12319
G1 X98.195 Y234.909 E18.16687
G1 X97.33 Y234.546 E18.21055
G1 X96.499 Y234.112 E18.2542
G1 X95.708 Y233.608 E18.29788
G1 X94.963 Y233.038 E18.34156
G1 X94.269 Y232.407 E18.38523
G1 X93.632 Y231.72 E18.42886
G1 X93.055 Y230.98 E18.47255
G1 X92.543 Y230.194 E18.51623
G1 X92.1 Y229.367 E18.55992
G1 X91.729 Y228.506 E18.60357
G1 X91.433 Y227.616 E18.64724
G1 X91.214 Y226.704 E18.69092
G1 X91.073 Y225.777 E18.73458
G1 X91.013 Y224.888 E18.77607
G1 X91 Y224.258 E18.80541
G1 X91.001 Y75.925 E25.71242
G1 X91.01 Y75.26 E25.74339
G1 X91.063 Y74.324 E25.78704
G1 X91.195 Y73.395 E25.83073
G1 X91.406 Y72.481 E25.87441
G1 X91.694 Y71.589 E25.91806
G1 X92.057 Y70.724 E25.96174
G1 X92.492 Y69.893 E26.00541
G1 X92.996 Y69.103 E26.04905
G0 F6000 X93.392 Y69.235
G1 F1200 X93.961 Y68.511 E26.09193
G1 X94.589 Y67.839 E26.13475
G1 X95.274 Y67.223 E26.17765
G1 X96.01 Y66.67 E26.22052
G1 X96.791 Y66.182 E26.2634
G1 X97.611 Y65.764 E26.30626
G1 X98.465 Y65.419 E26.34915
G1 X99.345 Y65.149 E26.39201
G1 X100.245 Y64.957 E26.43486
G1 X101.159 Y64.843 E26.47775
G1 X101.712 Y64.813 E26.50354
G1 X102.33 Y64.8 E26.53232
G1 X197.445 Y64.801 E30.96127
G1 X198.143 Y64.811 E30.99378
G1 X199.062 Y64.864 E31.03664
G1 X199.973 Y64.997 E31.07951
G1 X200.869 Y65.208 E31.12237
G1 X201.743 Y65.496 E31.16522
G1 X202.59 Y65.859 E31.20813
G1 X203.401 Y66.294 E31.25098
G1 X204.171 Y66.798 E31.29384
G1 X204.895 Y67.367 E31.33671
G1 X205.567 Y67.997 E31.37961
G1 X206.182 Y68.682 E31.42247
G1 X206.735 Y69.418 E31.46534
G1 X207.222 Y70.199 E31.5082
G1 X207.639 Y71.02 E31.55107
G1 X207.984 Y71.874 E31.59396
G1 X208.253 Y72.754 E31.63681
G1 X208.445 Y73.655 E31.67971
G1 X208.558 Y74.568 E31.72254
G1 X208.587 Y75.112 E31.74791
G1 X208.6 Y75.73 E31.77669
G1 X208.599 Y223.995 E38.68053
G1 X208.59 Y224.722 E38.71439
G1 X208.539 Y225.641 E38.75725
G1 X208.408 Y226.553 E38.80015
G1 X208.198 Y227.449 E38.843
G1 X207.912 Y228.324 E38.88587
G1 X207.551 Y229.171 E38.92874
G1 X207.117 Y229.983 E38.97161
G1 X206.615 Y230.755 E39.01449
G1 X206.047 Y231.48 E39.05738
G1 X205.419 Y232.153 E39.10024
G1 X204.735 Y232.769 E39.1431
G1 X204 Y233.323 E39.18596
G1 X203.22 Y233.812 E39.22883
G1 X202.4 Y234.231 E39.2717
G1 X201.547 Y234.577 E39.31457
G1 X200.667 Y234.848 E39.35744
G1 X199.767 Y235.041 E39.4003
G1 X198.853 Y235.156 E39.4432
G1 X198.288 Y235.187 E39.46955
G1 X197.67 Y235.2 E39.49833
G1 X102.57 Y235.199 E43.92658
G1 X101.872 Y235.19 E43.95909
G1 X100.953 Y235.138 E44.00195
G1 X100.042 Y235.007 E44.04481
G1 X99.146 Y234.797 E44.08766
G1 X98.271 Y234.51 E44.13054
G1 X97.424 Y234.148 E44.17343
G1 X96.612 Y233.714 E44.2163
G1 X95.841 Y233.212 E44.25914
G1 X95.116 Y232.644 E44.30203
G1 X94.443 Y232.015 E44.34492
G1 X93.828 Y231.331 E44.38775
G1 X93.274 Y230.596 E44.43061
G1 X92.786 Y229.815 E44.47349
G1 X92.367 Y228.995 E44.51637
G1 X92.021 Y228.142 E44.55923
G1 X91.751 Y227.262 E44.60209
G1 X91.558 Y226.361 E44.645
G1 X91.444 Y225.448 E44.68784
G1 X91.413 Y224.877 E44.71447
G1 X91.4 Y224.258 E44.7433
G1 X91.401 Y75.931 E51.65003
G1 X91.41 Y75.266 E51.68099
G1 X91.462 Y74.346 E51.7239
G1 X91.594 Y73.435 E51.76676
G1 X91.805 Y72.539 E51.80963
G1 X92.092 Y71.664 E51.85251
G1 X92.455 Y70.818 E51.89537
G1 X92.889 Y70.006 E51.93825
G1 X93.392 Y69.235 E51.98111
G0 F6000 X93.788 Y69.371
G1 F1200 X94.355 Y68.667 E52.0232
G1 X94.981 Y68.017 E52.06522
G1 X95.662 Y67.424 E52.10727
G1 X96.394 Y66.894 E52.14935
G1 X97.169 Y66.431 E52.19139
G1 X97.982 Y66.038 E52.23344
G1 X98.827 Y65.718 E52.27551
G1 X99.696 Y65.475 E52.31753
G1 X100.584 Y65.309 E52.35959
G1 X101.723 Y65.213 E52.41282
G1 X102.33 Y65.2 E52.44109
G1 X197.439 Y65.201 E56.86976
G1 X198.137 Y65.211 E56.90227
G1 X199.039 Y65.264 E56.94434
G1 X199.932 Y65.396 E56.98637
G1 X200.81 Y65.607 E57.02842
G1 X201.666 Y65.895 E57.07047
G1 X202.493 Y66.257 E57.11251
G1 X203.285 Y66.692 E57.15459
G1 X204.036 Y67.194 E57.19665
G1 X204.739 Y67.761 E57.2387
G1 X205.389 Y68.388 E57.28076
G1 X205.981 Y69.07 E57.32281
G1 X206.511 Y69.801 E57.36485
G1 X206.973 Y70.577 E57.40691
G1 X207.366 Y71.39 E57.44895
G1 X207.684 Y72.235 E57.49099
G1 X207.927 Y73.105 E57.53306
G1 X208.092 Y73.993 E57.57511
G1 X208.187 Y75.123 E57.62792
G1 X208.2 Y75.73 E57.65619
G1 X208.199 Y223.99 E64.55979
G1 X208.19 Y224.717 E64.59365
G1 X208.139 Y225.619 E64.63572
G1 X208.008 Y226.513 E64.67779
G1 X207.799 Y227.391 E64.71981
G1 X207.513 Y228.248 E64.76188
G1 X207.152 Y229.076 E64.80394
G1 X206.72 Y229.868 E64.84595
G1 X206.219 Y230.62 E64.88803
G1 X205.653 Y231.324 E64.93009
G1 X205.028 Y231.975 E64.97211
G1 X204.347 Y232.569 E65.01419
G1 X203.616 Y233.1 E65.05626
G1 X202.842 Y233.564 E65.09828
G1 X202.029 Y233.958 E65.14035
G1 X201.185 Y234.278 E65.18238
G1 X200.315 Y234.523 E65.22447
G1 X199.428 Y234.689 E65.26649
G1 X198.277 Y234.787 E65.32027
G1 X197.67 Y234.8 E65.34855
G1 X102.575 Y234.799 E69.77657
G1 X101.877 Y234.79 E69.80907
G1 X100.976 Y234.739 E69.85109
G1 X100.082 Y234.607 E69.89317
G1 X99.204 Y234.398 E69.9352
G1 X98.347 Y234.111 E69.97728
G1 X97.52 Y233.75 E70.0193
G1 X96.727 Y233.317 E70.06137
G1 X95.976 Y232.816 E70.10341
G1 X95.272 Y232.25 E70.14547
G1 X94.621 Y231.624 E70.18752
G1 X94.028 Y230.943 E70.22957
G1 X93.498 Y230.212 E70.27162
G1 X93.034 Y229.437 E70.31368
G1 X92.64 Y228.624 E70.35574
G1 X92.32 Y227.78 E70.39777
G1 X92.076 Y226.91 E70.43985
G1 X91.91 Y226.022 E70.48191
G1 X91.813 Y224.867 E70.53588
G1 X91.8 Y224.258 E70.56425
G1 X91.801 Y75.936 E77.47074
G1 X91.81 Y75.271 E77.50171
G1 X91.862 Y74.369 E77.54378
G1 X91.994 Y73.476 E77.58581
G1 X92.204 Y72.598 E77.62785
G1 X92.491 Y71.741 E77.66994
G1 X92.853 Y70.914 E77.71197
G1 X93.286 Y70.122 E77.754
G1 X93.788 Y69.371 E77.79606
G1 F2700 E70.79606
;MESH:shadow_factions.stl
G0 F6000 X101.335 Y75.82
G0 X102.6 Y224
;TYPE:WALL-INNER
G1 F2700 E77.79606
G1 F1200 X197.4 Y224 E82.21035
G1 X197.4 Y76 E89.10185
G1 X102.6 Y76 E93.51613
G1 X102.6 Y224 E100.40763
G0 F6000 X102.2 Y224.4
;TYPE:WALL-OUTER
G1 F1200 X197.8 Y224.4 E104.85917
G1 X197.8 Y75.6 E111.78792
G1 X102.2 Y75.6 E116.23946
G1 X102.2 Y224.4 E123.16821
G0 F6000 X102.47 Y224.13
G0 X102.7 Y223.64
G0 X102.96 Y223.64
;TYPE:SKIN
G1 F1200 X197.04 Y223.64 E127.54897
G1 X197.04 Y123.4 E132.21656
G1 X197.04 Y76.36 E134.40694
G1 X102.96 Y76.36 E138.7877
G1 X102.96 Y223.64 E145.64568
G0 F6000 X103.159 Y223.085
G1 F1200 X103.514 Y223.439 E145.66902
G0 F6000 X104.079 Y223.439
G1 F1200 X103.159 Y222.519 E145.7296
G0 F6000 X103.159 Y221.953
G1 F1200 X104.645 Y223.439 E145.82746
G0 F6000 X105.211 Y223.439
G1 F1200 X103.159 Y221.388 E145.96255
G0 F6000 X103.159 Y220.822
G1 F1200 X105.776 Y223.439 E146.13489
G0 F6000 X106.342 Y223.439
G1 F1200 X103.159 Y220.256 E146.34449
G0 F6000 X103.159 Y219.691
G1 F1200 X106.908 Y223.439 E146.59134
G0 F6000 X107.473 Y223.439
G1 F1200 X103.159 Y219.125 E146.87542
G0 F6000 X103.159 Y218.559
G1 F1200 X108.039 Y223.439 E147.19678
G0 F6000 X108.605 Y223.439
G1 F1200 X103.159 Y217.993 E147.55541
G0 F6000 X103.159 Y217.428
G1 F1200 X109.17 Y223.439 E147.95124
G0 F6000 X109.736 Y223.439
G1 F1200 X103.159 Y216.862 E148.38435
G0 F6000 X103.159 Y216.296
G1 F1200 X110.302 Y223.439 E148.85473
G0 F6000 X110.867 Y223.439
G1 F1200 X103.159 Y215.731 E149.36231
G0 F6000 X103.159 Y215.165
G1 F1200 X111.433 Y223.439 E149.90717
G0 F6000 X111.999 Y223.439
G1 F1200 X103.159 Y214.599 E150.4893
G0 F6000 X103.159 Y214.034
G1 F1200 X112.565 Y223.439 E151.10867
G0 F6000 X113.13 Y223.439
G1 F1200 X103.159 Y213.468 E151.76528
G0 F6000 X103.159 Y212.902
G1 F1200 X113.696 Y223.439 E152.45915
G0 F6000 X114.262 Y223.439
G1 F1200 X103.159 Y212.337 E153.19027
G0 F6000 X103.159 Y211.771
G1 F1200 X114.827 Y223.439 E153.95863
G0 F6000 X115.393 Y223.439
G1 F1200 X103.159 Y211.205 E154.76426
G0 F6000 X103.159 Y210.64
G1 F1200 X115.959 Y223.439 E155.60713
G0 F6000 X116.524 Y223.439
G1 F1200 X103.159 Y210.074 E156.48724
G0 F6000 X103.159 Y209.508
G1 F1200 X117.09 Y223.439 E157.40462
G0 F6000 X117.656 Y223.439
G1 F1200 X103.159 Y208.942 E158.35927
G0 F6000 X103.159 Y208.377
G1 F1200 X118.221 Y223.439 E159.35113
G0 F6000 X118.787 Y223.439
G1 F1200 X103.159 Y207.811 E160.38026
G0 F6000 X103.159 Y207.245
G1 F1200 X119.353 Y223.439 E161.44666
G0 F6000 X119.918 Y223.439
G1 F1200 X103.159 Y206.68 E162.55027
G0 F6000 X103.159 Y206.114
G1 F1200 X120.484 Y223.439 E163.69115
G0 F6000 X121.05 Y223.439
G1 F1200 X103.159 Y205.548 E164.8693
G0 F6000 X103.159 Y204.983
G1 F1200 X121.616 Y223.439 E166.0847
G0 F6000 X122.181 Y223.439
G1 F1200 X103.159 Y204.417 E167.33733
G0 F6000 X103.159 Y203.851
G1 F1200 X122.747 Y223.439 E168.62723
G0 F6000 X123.313 Y223.439
G1 F1200 X103.159 Y203.286 E169.95437
G0 F6000 X103.159 Y202.72
G1 F1200 X123.878 Y223.439 E171.31875
G0 F6000 X124.444 Y223.439
G1 F1200 X103.159 Y202.154 E172.72041
G0 F6000 X103.159 Y201.589
G1 F1200 X125.01 Y223.439 E174.1593
G0 F6000 X125.575 Y223.439
G1 F1200 X103.159 Y201.023 E175.63543
G0 F6000 X103.159 Y200.457
G1 F1200 X126.141 Y223.439 E177.14884
G0 F6000 X126.707 Y223.439
G1 F1200 X103.159 Y199.892 E178.69948
G0 F6000 X103.159 Y199.326
G1 F1200 X127.272 Y223.439 E180.28736
G0 F6000 X127.838 Y223.439
G1 F1200 X103.159 Y198.76 E181.91252
G0 F6000 X103.159 Y198.194
G1 F1200 X128.404 Y223.439 E183.57494
G0 F6000 X128.969 Y223.439
G1 F1200 X103.159 Y197.629 E185.27458
G0 F6000 X103.159 Y197.063
G1 F1200 X129.535 Y223.439 E187.01148
G0 F6000 X130.101 Y223.439
G1 F1200 X103.159 Y196.497 E188.78566
G0 F6000 X103.159 Y195.932
G1 F1200 X130.666 Y223.439 E190.59704
G0 F6000 X131.232 Y223.439
G1 F1200 X103.159 Y195.366 E192.44569
G0 F6000 X103.159 Y194.8
G1 F1200 X131.798 Y223.439 E194.33162
G0 F6000 X132.364 Y223.439
G1 F1200 X103.159 Y194.235 E196.25479
G0 F6000 X103.159 Y193.669
G1 F1200 X132.929 Y223.439 E198.21519
G0 F6000 X133.495 Y223.439
G1 F1200 X103.159 Y193.103 E200.21287
G0 F6000 X103.159 Y192.538
G1 F1200 X134.061 Y223.439 E202.24779
G0 F6000 X134.626 Y223.439
G1 F1200 X103.159 Y191.972 E204.31994
G0 F6000 X103.159 Y191.406
G1 F1200 X135.192 Y223.439 E206.42937
G0 F6000 X135.758 Y223.439
G1 F1200 X103.159 Y190.841 E208.57604
G0 F6000 X103.159 Y190.275
G1 F1200 X136.323 Y223.439 E210.75994
G0 F6000 X136.889 Y223.439
G1 F1200 X103.159 Y189.709 E212.98112
G0 F6000 X103.159 Y189.143
G1 F1200 X137.455 Y223.439 E215.23957
G0 F6000 X138.02 Y223.439
G1 F1200 X103.159 Y188.578 E217.53523
G0 F6000 X103.159 Y188.012
G1 F1200 X138.586 Y223.439 E219.86816
G0 F6000 X139.152 Y223.439
G1 F1200 X103.159 Y187.446 E222.23836
G0 F6000 X103.159 Y186.881
G1 F1200 X139.717 Y223.439 E224.64576
G0 F6000 X140.283 Y223.439
G1 F1200 X103.159 Y186.315 E227.09044
G0 F6000 X103.159 Y185.749
G1 F1200 X140.849 Y223.439 E229.57239
G0 F6000 X141.414 Y223.439
G1 F1200 X103.159 Y185.184 E232.09155
G0 F6000 X103.159 Y184.618
G1 F1200 X141.98 Y223.439 E234.64798
G0 F6000 X142.546 Y223.439
G1 F1200 X103.159 Y184.052 E237.24168
G0 F6000 X103.159 Y183.487
G1 F1200 X143.112 Y223.439 E239.87262
G0 F6000 X143.677 Y223.439
G1 F1200 X103.159 Y182.921 E242.5408
G0 F6000 X103.159 Y182.355
G1 F1200 X144.243 Y223.439 E245.24625
G0 F6000 X144.809 Y223.439
G1 F1200 X103.159 Y181.79 E247.98894
G0 F6000 X103.159 Y181.224
G1 F1200 X145.374 Y223.439 E250.76887
G0 F6000 X145.94 Y223.439
G1 F1200 X103.159 Y180.658 E253.58607
G0 F6000 X103.159 Y180.093
G1 F1200 X146.506 Y223.439 E256.44052
G0 F6000 X147.071 Y223.439
G1 F1200 X103.159 Y179.527 E259.3322
G0 F6000 X103.159 Y178.961
G1 F1200 X147.637 Y223.439 E262.26115
G0 F6000 X148.203 Y223.439
G1 F1200 X103.159 Y178.395 E265.22737
G0 F6000 X103.159 Y177.83
G1 F1200 X148.768 Y223.439 E268.2308
G0 F6000 X149.334 Y223.439
G1 F1200 X103.159 Y177.264 E271.27151
G0 F6000 X103.159 Y176.698
G1 F1200 X149.9 Y223.439 E274.34948
G0 F6000 X150.465 Y223.439
G1 F1200 X103.159 Y176.133 E277.46466
G0 F6000 X103.159 Y175.567
G1 F1200 X151.031 Y223.439 E280.61711
G0 F6000 X151.597 Y223.439
G1 F1200 X103.159 Y175.001 E283.80684
G0 F6000 X103.159 Y174.436
G1 F1200 X152.163 Y223.439 E287.0338
G0 F6000 X152.728 Y223.439
G1 F1200 X103.159 Y173.87 E290.29801
G0 F6000 X103.159 Y173.304
G1 F1200 X153.294 Y223.439 E293.59948
G0 F6000 X153.86 Y223.439
G1 F1200 X103.159 Y172.739 E296.9382
G0 F6000 X103.159 Y172.173
G1 F1200 X154.425 Y223.439 E300.31415
G0 F6000 X154.991 Y223.439
G1 F1200 X103.159 Y171.607 E303.72738
G0 F6000 X103.159 Y171.042
G1 F1200 X155.557 Y223.439 E307.17784
G0 F6000 X156.122 Y223.439
G1 F1200 X103.159 Y170.476 E310.66554
G0 F6000 X103.159 Y169.91
G1 F1200 X156.688 Y223.439 E314.19052
G0 F6000 X157.254 Y223.439
G1 F1200 X103.159 Y169.345 E317.75274
G0 F6000 X103.159 Y168.779
G1 F1200 X157.819 Y223.439 E321.35219
G0 F6000 X158.385 Y223.439
G1 F1200 X103.159 Y168.213 E324.98892
G0 F6000 X103.159 Y167.647
G1 F1200 X158.951 Y223.439 E328.66292
G0 F6000 X159.516 Y223.439
G1 F1200 X103.159 Y167.082 E332.37412
G0 F6000 X103.159 Y166.516
G1 F1200 X160.082 Y223.439 E336.1226
G0 F6000 X160.648 Y223.439
G1 F1200 X103.159 Y165.95 E339.90835
G0 F6000 X103.159 Y165.385
G1 F1200 X161.213 Y223.439 E343.7313
G0 F6000 X161.779 Y223.439
G1 F1200 X103.159 Y164.819 E347.59153
G0 F6000 X103.159 Y164.253
G1 F1200 X162.345 Y223.439 E351.48903
G0 F6000 X162.911 Y223.439
G1 F1200 X103.159 Y163.688 E355.42376
G0 F6000 X103.159 Y163.122
G1 F1200 X163.476 Y223.439 E359.39574
G0 F6000 X164.042 Y223.439
G1 F1200 X103.159 Y162.556 E363.40499
