;FLAVOR:Marlin
;TIME:26647
;Filament used: 15.676m
;Layer height: 0.2
;MINX:67.507
;MINY:86.383
;MINZ:0.2
;MAXX:232.493
;MAXY:213.613
;MAXZ:32
;Generated with Cura_SteamEngine 5.2.1
M140 S60
M105
M190 S60
M104 S210
M105
M109 S210
M82 ;absolute extrusion mode
M201 X500.00 Y500.00 Z100.00 E5000.00 ;Setup machine max acceleration
M203 X500.00 Y500.00 Z10.00 E50.00 ;Setup machine max feedrate
M204 P500.00 R1000.00 T500.00 ;Setup Print/Retract/Travel acceleration
M205 X8.00 Y8.00 Z0.40 E5.00 ;Setup Jerk
M220 S100 ;Reset Feedrate
M221 S100 ;Reset Flowrate

G28 ;Home
G29 ;Auto bed Level

G92 E0 ;Reset Extruder
G1 Z2.0 F3000 ;Move Z Axis up
G1 X10.1 Y20 Z0.28 F5000.0 ;Move to start position
G1 X10.1 Y200.0 Z0.28 F1500.0 E15 ;Draw the first line
G1 X10.4 Y200.0 Z0.28 F5000.0 ;Move to side a little
G1 X10.4 Y20 Z0.28 F1500.0 E30 ;Draw the second line
G92 E0 ;Reset Extruder
G1 Z2.0 F3000 ;Move Z Axis up

G92 E0
G92 E0
G1 F2700 E-5
;LAYER_COUNT:160
;LAYER:0
M107
G0 F6000 X71.477 Y89.085 Z0.2
;TYPE:SKIRT
G1 F2700 E0
G1 F1200 X72.217 Y88.509 E0.02807
G1 X72.93 Y88.039 E0.05363
G1 X73.748 Y87.581 E0.0817
G1 X74.602 Y87.193 E0.10978
G1 X75.486 Y86.88 E0.13785
G1 X76.394 Y86.644 E0.16593
G1 X77.318 Y86.485 E0.194
G1 X78.714 Y86.396 E0.23587
G1 X79.489 Y86.397 E0.25907
G1 X80.979 Y86.418 E0.30367
G1 X218.64 Y86.412 E4.42443
G1 X221.106 Y86.383 E4.49826
G1 X222.043 Y86.412 E4.52632
G1 X222.975 Y86.52 E4.5544
G1 X223.894 Y86.708 E4.58248
G1 X224.793 Y86.973 E4.61054
G1 X225.667 Y87.314 E4.63862
G1 X226.799 Y87.887 E4.6766
G1 X227.681 Y88.446 E4.70786
G1 X228.427 Y89.014 E4.73593
G1 X229.122 Y89.644 E4.76401
G1 X229.762 Y90.33 E4.79209
G1 X230.34 Y91.068 E4.82015
G1 X230.854 Y91.853 E4.84824
G1 X231.298 Y92.679 E4.87631
G1 X231.671 Y93.539 E4.90437
G1 X231.969 Y94.429 E4.93246
G1 X232.218 Y95.486 E4.96497
G1 X232.301 Y95.937 E4.9787
G1 X232.432 Y96.866 E5.00678
G1 X232.479 Y97.617 E5.02931
G1 X232.493 Y98.282 E5.04922
G1 X232.493 Y201.499 E8.13893
G1 X232.482 Y202.243 E8.1612
G1 X232.428 Y203.179 E8.18927
G1 X232.282 Y204.171 E8.21928
G1 X232.197 Y204.61 E8.23267
G1 X231.98 Y205.522 E8.26073
G1 X231.686 Y206.413 E8.28881
G1 X231.317 Y207.275 E8.31688
G1 X230.875 Y208.103 E8.34498
G1 X230.365 Y208.89 E8.37305
G1 X229.79 Y209.63 E8.4011
G1 X229.154 Y210.319 E8.42917
G1 X228.461 Y210.952 E8.45727
G1 X227.717 Y211.523 E8.48534
G1 X227.168 Y211.885 E8.50502
G1 X226.356 Y212.354 E8.53309
G1 X225.506 Y212.751 E8.56118
G1 X224.626 Y213.075 E8.58925
G1 X223.721 Y213.323 E8.61734
G1 X222.799 Y213.492 E8.64539
G1 X221.866 Y213.583 E8.67346
G1 X221.25 Y213.599 E8.6919
G1 X220.112 Y213.596 E8.72597
G1 X218.945 Y213.578 E8.7609
G1 X81.36 Y213.584 E12.87939
G1 X78.894 Y213.613 E12.95321
G1 X77.957 Y213.584 E12.98127
G1 X77.025 Y213.476 E13.00936
G1 X76.106 Y213.288 E13.03744
G1 X75.207 Y213.023 E13.06549
G1 X74.333 Y212.682 E13.09358
G1 X73.159 Y212.084 E13.13302
G1 X72.278 Y211.52 E13.16433
G1 X71.535 Y210.949 E13.19238
G1 X70.842 Y210.316 E13.22048
G1 X70.206 Y209.627 E13.24854
G1 X69.631 Y208.886 E13.27662
G1 X69.121 Y208.099 E13.30469
G1 X68.68 Y207.271 E13.33277
G1 X68.311 Y206.409 E13.36084
G1 X68.017 Y205.518 E13.38893
G1 X67.776 Y204.48 E13.42083
G1 X67.693 Y204.022 E13.43476
G1 X67.566 Y203.092 E13.46286
G1 X67.521 Y202.374 E13.48439
G1 X67.507 Y201.71 E13.50427
G1 X67.508 Y98.442 E16.59551
G1 X67.519 Y97.752 E16.61617
G1 X67.574 Y96.815 E16.64426
G1 X67.703 Y95.918 E16.67139
G1 X67.789 Y95.455 E16.68549
G1 X67.999 Y94.541 E16.71356
G1 X68.287 Y93.648 E16.74165
G1 X68.649 Y92.784 E16.76969
G1 X69.084 Y91.953 E16.79776
G1 X69.588 Y91.162 E16.82584
G1 X70.158 Y90.417 E16.85392
G1 X70.789 Y89.723 E16.882
G1 X71.477 Y89.085 E16.91008
G0 F6000 X71.84 Y89.303
G1 F1200 X72.573 Y88.747 E16.93762
G1 X73.14 Y88.38 E16.95784
G1 X73.944 Y87.93 E16.98542
G1 X74.783 Y87.552 E17.01297
G1 X75.652 Y87.248 E17.04053
G1 X76.544 Y87.02 E17.06809
G1 X77.453 Y86.871 E17.09566
G1 X78.714 Y86.796 E17.13347
G1 X79.483 Y86.797 E17.15649
G1 X80.973 Y86.818 E17.2011
G1 X218.644 Y86.812 E21.32216
G1 X221.11 Y86.783 E21.39598
G1 X222.031 Y86.812 E21.42356
G1 X222.945 Y86.921 E21.45112
G1 X223.846 Y87.109 E21.47867
G1 X224.728 Y87.374 E21.50624
G1 X225.583 Y87.715 E21.53379
G1 X226.603 Y88.236 E21.56808
G1 X227.466 Y88.784 E21.59868
G1 X228.198 Y89.344 E21.62627
G1 X228.878 Y89.964 E21.65381
G1 X229.501 Y90.641 E21.68135
G1 X230.064 Y91.37 E21.70893
G1 X230.561 Y92.145 E21.73648
G1 X230.989 Y92.96 E21.76404
G1 X231.345 Y93.809 E21.7916
G1 X231.626 Y94.686 E21.81917
G1 X231.825 Y95.558 E21.84594
G1 X231.908 Y96.009 E21.85967
G1 X232.035 Y96.921 E21.88723
G1 X232.079 Y97.629 E21.90846
G1 X232.093 Y98.282 E21.92801
G1 X232.093 Y201.493 E25.01755
G1 X232.082 Y202.237 E25.03982
G1 X232.028 Y203.156 E25.06738
G1 X231.89 Y204.095 E25.09579
G1 X231.805 Y204.534 E25.10917
G1 X231.591 Y205.429 E25.13672
G1 X231.3 Y206.303 E25.16429
G1 X230.934 Y207.148 E25.19186
G1 X230.496 Y207.958 E25.21942
G1 X229.99 Y208.727 E25.24698
G1 X229.419 Y209.449 E25.27453
G1 X228.787 Y210.119 E25.3021
G1 X228.1 Y210.731 E25.32964
G1 X227.029 Y211.505 E25.3692
G1 X226.156 Y212.007 E25.39934
G1 X225.321 Y212.395 E25.4269
G1 X224.456 Y212.71 E25.45446
G1 X223.566 Y212.948 E25.48204
G1 X222.66 Y213.108 E25.50958
G1 X221.743 Y213.189 E25.53714
G1 X221.251 Y213.199 E25.55187
G1 X220.119 Y213.196 E25.58575
G1 X218.952 Y213.178 E25.62069
G1 X81.356 Y213.184 E29.7395
G1 X78.89 Y213.213 E29.81333
G1 X77.969 Y213.184 E29.84091
G1 X77.055 Y213.075 E29.86846
G1 X76.154 Y212.887 E29.89602
G1 X75.272 Y212.622 E29.92358
G1 X74.417 Y212.281 E29.95114
G1 X73.357 Y211.736 E29.98682
G1 X72.494 Y211.183 E30.0175
G1 X71.766 Y210.621 E30.04503
G1 X71.088 Y209.997 E30.07261
G1 X70.468 Y209.317 E30.10016
G1 X69.908 Y208.586 E30.12772
G1 X69.415 Y207.809 E30.15527
G1 X68.99 Y206.992 E30.18283
G1 X68.638 Y206.141 E30.2104
G1 X68.362 Y205.263 E30.23795
G1 X68.17 Y204.408 E30.26418
G1 X68.087 Y203.95 E30.27811
G1 X67.962 Y203.038 E30.30567
G1 X67.921 Y202.363 E30.32591
G1 X67.907 Y201.71 E30.34546
G1 X67.908 Y98.448 E33.43652
G1 X67.919 Y97.758 E33.45718
G1 X67.974 Y96.839 E33.48474
G1 X68.096 Y95.991 E33.51038
G1 X68.182 Y95.528 E33.52448
G1 X68.39 Y94.631 E33.55204
G1 X68.674 Y93.756 E33.57958
G1 X69.033 Y92.908 E33.60715
G1 X69.465 Y92.095 E33.6347
G1 X69.965 Y91.322 E33.66226
G1 X70.531 Y90.595 E33.68984
G1 X71.157 Y89.921 E33.71738
G1 X71.84 Y89.303 E33.74495
G0 F6000 X72.201 Y89.524
G1 F1200 X73.285 Y88.757 E33.7847
G1 X74.139 Y88.28 E33.81398
G1 X74.963 Y87.911 E33.84101
G1 X75.817 Y87.616 E33.86805
G1 X76.694 Y87.398 E33.8951
G1 X77.586 Y87.259 E33.92213
G1 X78.714 Y87.196 E33.95594
G1 X79.478 Y87.197 E33.97881
G1 X80.968 Y87.218 E34.02342
G1 X218.649 Y87.212 E38.14478
G1 X221.115 Y87.183 E38.2186
G1 X222.018 Y87.212 E38.24565
G1 X222.914 Y87.321 E38.27267
G1 X223.798 Y87.509 E38.29972
G1 X224.661 Y87.774 E38.32674
G1 X225.497 Y88.115 E38.35377
G1 X226.407 Y88.585 E38.38443
G1 X227.251 Y89.122 E38.41437
G1 X227.967 Y89.673 E38.44142
G1 X228.632 Y90.284 E38.46845
G1 X229.24 Y90.952 E38.49549
G1 X229.786 Y91.671 E38.52251
G1 X230.267 Y92.436 E38.54956
G1 X230.678 Y93.24 E38.57659
G1 X231.017 Y94.077 E38.60363
G1 X231.28 Y94.941 E38.63066
G1 X231.432 Y95.631 E38.65181
G1 X231.515 Y96.082 E38.66554
G1 X231.639 Y96.976 E38.69255
G1 X231.679 Y97.64 E38.71247
G1 X231.693 Y98.282 E38.73169
G1 X231.693 Y201.487 E41.82104
G1 X231.682 Y202.231 E41.84331
G1 X231.629 Y203.132 E41.87033
G1 X231.497 Y204.019 E41.89717
G1 X231.412 Y204.458 E41.91056
G1 X231.201 Y205.336 E41.93759
G1 X230.914 Y206.192 E41.96462
G1 X230.551 Y207.019 E41.99165
G1 X230.117 Y207.811 E42.01869
G1 X229.615 Y208.562 E42.04573
G1 X229.048 Y209.265 E42.07276
G1 X228.422 Y209.915 E42.09977
G1 X227.74 Y210.508 E42.12683
G1 X226.809 Y211.17 E42.16102
G1 X225.956 Y211.66 E42.19047
G1 X225.136 Y212.039 E42.21751
G1 X224.286 Y212.343 E42.24453
G1 X223.413 Y212.572 E42.27155
G1 X222.522 Y212.722 E42.2986
G1 X221.251 Y212.799 E42.33671
G1 X220.125 Y212.796 E42.37042
G1 X218.958 Y212.778 E42.40536
G1 X81.351 Y212.784 E46.5245
G1 X78.885 Y212.813 E46.59832
G1 X77.982 Y212.784 E46.62537
G1 X77.086 Y212.675 E46.65239
G1 X76.202 Y212.487 E46.67944
G1 X75.339 Y212.222 E46.70646
G1 X74.503 Y211.881 E46.73349
G1 X73.553 Y211.388 E46.76553
G1 X72.711 Y210.846 E46.7955
G1 X71.997 Y210.293 E46.82254
G1 X71.335 Y209.678 E46.84959
G1 X70.731 Y209.007 E46.87661
G1 X70.187 Y208.286 E46.90365
G1 X69.71 Y207.519 E46.93068
G1 X69.303 Y206.713 E46.95771
G1 X68.968 Y205.874 E46.98476
G1 X68.709 Y205.009 E47.01178
G1 X68.563 Y204.337 E47.03237
G1 X68.48 Y203.879 E47.0463
G1 X68.359 Y202.984 E47.07334
G1 X68.321 Y202.351 E47.09232
G1 X68.307 Y201.71 E47.11151
G1 X68.308 Y98.454 E50.20239
G1 X68.319 Y97.764 E50.22305
G1 X68.374 Y96.863 E50.25007
G1 X68.49 Y96.064 E50.27424
G1 X68.576 Y95.601 E50.28833
G1 X68.78 Y94.722 E50.31534
G1 X69.061 Y93.863 E50.3424
G1 X69.417 Y93.033 E50.36943
G1 X69.845 Y92.238 E50.39646
G1 X70.341 Y91.484 E50.42348
G1 X70.902 Y90.776 E50.45052
G1 X71.524 Y90.121 E50.47755
G1 X72.201 Y89.524 E50.50457
G1 F2700 E45.50457
;MESH:Crew_Box_v2.stl
G0 F6000 X78.981 Y97.221
G0 X79.986 Y201.984
;TYPE:WALL-INNER
G1 F2700 E50.50457
G1 F1200 X220.013 Y201.977 E54.69616
G1 X220.014 Y98.026 E57.80784
G1 X219.974 Y98.012 E57.80911
G1 X79.987 Y98.019 E61.9995
G1 X79.986 Y201.984 E65.1116
G0 F6000 X79.667 Y202.248
;TYPE:WALL-OUTER
G1 F1200 X79.739 Y202.31 E65.11444
G1 X79.962 Y202.384 E65.12148
G1 X220.066 Y202.378 E69.31537
G1 X220.202 Y202.341 E69.31958
G1 X220.371 Y202.2 E69.32617
G1 X220.414 Y202.09 E69.32971
G1 X220.414 Y97.998 E72.44561
G1 X220.333 Y97.748 E72.45348
G1 X220.26 Y97.686 E72.45634
G1 X220.038 Y97.612 E72.46335
G1 X79.934 Y97.618 E76.65724
G1 X79.798 Y97.655 E76.66146
G1 X79.628 Y97.796 E76.66807
G1 X79.586 Y97.905 E76.67157
G1 X79.586 Y202.078 E79.78989
G1 X79.667 Y202.248 E79.79553
G0 F6000 X80.346 Y201.622
;TYPE:SKIN
G1 F1200 X168.031 Y201.62 E82.4203
G1 X219.654 Y201.618 E83.96559
G1 X219.654 Y98.374 E87.05611
G1 X80.346 Y98.377 E91.22617
G1 X80.346 Y201.622 E94.31672
G0 F6000 X80.929 Y201.42
G1 F1200 X80.545 Y201.036 E94.33298
G0 F6000 X80.545 Y200.471
G1 F1200 X81.495 Y201.42 E94.37317
G0 F6000 X82.061 Y201.42
G1 F1200 X80.545 Y199.905 E94.43733
G0 F6000 X80.545 Y199.339
G1 F1200 X82.626 Y201.42 E94.52543
G0 F6000 X83.192 Y201.42
G1 F1200 X80.545 Y198.774 E94.63746
G0 F6000 X80.545 Y198.208
G1 F1200 X83.758 Y201.42 E94.77346
G0 F6000 X84.323 Y201.42
G1 F1200 X80.545 Y197.642 E94.93339
G0 F6000 X80.545 Y197.077
G1 F1200 X84.889 Y201.42 E95.11727
G0 F6000 X85.455 Y201.42
G1 F1200 X80.545 Y196.511 E95.3251
G0 F6000 X80.545 Y195.945
G1 F1200 X86.02 Y201.42 E95.55687
G0 F6000 X86.586 Y201.42
G1 F1200 X80.545 Y195.379 E95.81261
G0 F6000 X80.545 Y194.814
G1 F1200 X87.152 Y201.42 E96.09228
G0 F6000 X87.718 Y201.42
G1 F1200 X80.545 Y194.248 E96.39592
G0 F6000 X80.545 Y193.682
G1 F1200 X88.283 Y201.42 E96.72349
G0 F6000 X88.849 Y201.42
G1 F1200 X80.545 Y193.117 E97.07501
G0 F6000 X80.545 Y192.551
G1 F1200 X89.415 Y201.42 E97.45048
G0 F6000 X89.98 Y201.42
G1 F1200 X80.545 Y191.985 E97.8499
G0 F6000 X80.545 Y191.42
G1 F1200 X90.546 Y201.42 E98.27325
G0 F6000 X91.112 Y201.42
G1 F1200 X80.545 Y190.854 E98.72057
G0 F6000 X80.545 Y190.288
G1 F1200 X91.677 Y201.42 E99.19182
G0 F6000 X92.243 Y201.42
G1 F1200 X80.545 Y189.723 E99.68701
G0 F6000 X80.545 Y189.157
G1 F1200 X92.809 Y201.42 E100.20617
G0 F6000 X93.374 Y201.42
G1 F1200 X80.545 Y188.591 E100.74926
G0 F6000 X80.545 Y188.026
G1 F1200 X93.94 Y201.42 E101.31629
G0 F6000 X94.506 Y201.42
G1 F1200 X80.545 Y187.46 E101.90728
G0 F6000 X80.545 Y186.894
G1 F1200 X95.071 Y201.42 E102.52222
G0 F6000 X95.637 Y201.42
G1 F1200 X80.545 Y186.329 E103.16109
G0 F6000 X80.545 Y185.763
G1 F1200 X96.203 Y201.42 E103.82392
G0 F6000 X96.768 Y201.42
G1 F1200 X80.545 Y185.197 E104.51069
G0 F6000 X80.545 Y184.631
G1 F1200 X97.334 Y201.42 E105.22143
G0 F6000 X97.9 Y201.42
G1 F1200 X80.545 Y184.066 E105.9561
G0 F6000 X80.545 Y183.5
G1 F1200 X98.466 Y201.42 E106.71473
G0 F6000 X99.031 Y201.42
G1 F1200 X80.545 Y182.934 E107.4973
G0 F6000 X80.545 Y182.369
G1 F1200 X99.597 Y201.42 E108.30382
G0 F6000 X100.163 Y201.42
G1 F1200 X80.545 Y181.803 E109.13429
G0 F6000 X80.545 Y181.237
G1 F1200 X100.728 Y201.42 E109.9887
G0 F6000 X101.294 Y201.42
G1 F1200 X80.545 Y180.672 E110.86705
G0 F6000 X80.545 Y180.106
G1 F1200 X101.86 Y201.42 E111.76936
G0 F6000 X102.425 Y201.42
G1 F1200 X80.545 Y179.54 E112.69561
G0 F6000 X80.545 Y178.975
G1 F1200 X102.991 Y201.42 E113.64581
G0 F6000 X103.557 Y201.42
G1 F1200 X80.545 Y178.409 E114.61996
G0 F6000 X80.545 Y177.843
G1 F1200 X104.122 Y201.42 E115.61805
G0 F6000 X104.688 Y201.42
G1 F1200 X80.545 Y177.278 E116.64008
G0 F6000 X80.545 Y176.712
G1 F1200 X105.254 Y201.42 E117.68607
G0 F6000 X105.819 Y201.42
G1 F1200 X80.545 Y176.146 E118.756
G0 F6000 X80.545 Y175.58
G1 F1200 X106.385 Y201.42 E119.84989
G0 F6000 X106.951 Y201.42
G1 F1200 X80.545 Y175.015 E120.96772
G0 F6000 X80.545 Y174.449
G1 F1200 X107.517 Y201.42 E122.10951
G0 F6000 X108.082 Y201.42
G1 F1200 X80.545 Y173.883 E123.27524
G0 F6000 X80.545 Y173.318
G1 F1200 X108.647 Y201.42 E124.46489
G0 F6000 X109.213 Y201.42
G1 F1200 X80.545 Y172.752 E125.6785
G0 F6000 X80.545 Y172.186
G1 F1200 X109.779 Y201.42 E126.91607
G0 F6000 X110.344 Y201.42
G1 F1200 X80.545 Y171.621 E128.17756
G0 F6000 X80.545 Y171.055
G1 F1200 X110.91 Y201.42 E129.46301
G0 F6000 X111.476 Y201.42
G1 F1200 X80.545 Y170.489 E130.77242
G0 F6000 X80.545 Y169.924
G1 F1200 X112.041 Y201.42 E132.10574
G0 F6000 X112.607 Y201.42
G1 F1200 X80.545 Y169.358 E133.46303
G0 F6000 X80.545 Y168.792
G1 F1200 X113.173 Y201.42 E134.84428
G0 F6000 X113.738 Y201.42
G1 F1200 X80.545 Y168.227 E136.24945
G0 F6000 X80.545 Y167.661
G1 F1200 X114.304 Y201.42 E137.67858
G0 F6000 X114.87 Y201.42
G1 F1200 X80.545 Y167.095 E139.13166
G0 F6000 X80.545 Y166.53
G1 F1200 X115.435 Y201.42 E140.60867
G0 F6000 X116.001 Y201.42
G1 F1200 X80.545 Y165.964 E142.10964
G0 F6000 X80.545 Y165.398
G1 F1200 X116.567 Y201.42 E143.63457
G0 F6000 X117.132 Y201.42
G1 F1200 X80.545 Y164.832 E145.18343
G0 F6000 X80.545 Y164.267
G1 F1200 X117.698 Y201.42 E146.75624
G0 F6000 X118.264 Y201.42
G1 F1200 X80.545 Y163.701 E148.35301
G0 F6000 X80.545 Y163.135
G1 F1200 X118.83 Y201.42 E149.97374
G0 F6000 X119.395 Y201.42
G1 F1200 X80.545 Y162.57 E151.61838
G0 F6000 X80.545 Y162.004
G1 F1200 X119.961 Y201.42 E153.28699
G0 F6000 X120.527 Y201.42
G1 F1200 X80.545 Y161.438 E154.97956
G0 F6000 X80.545 Y160.873
G1 F1200 X121.092 Y201.42 E156.69604
G0 F6000 X121.658 Y201.42
G1 F1200 X80.545 Y160.307 E158.43649
G0 F6000 X80.545 Y159.741
G1 F1200 X122.224 Y201.42 E160.2009
G0 F6000 X122.789 Y201.42
G1 F1200 X80.545 Y159.176 E161.98922
G0 F6000 X80.545 Y158.61
G1 F1200 X123.355 Y201.42 E163.80151
G0 F6000 X123.921 Y201.42
G1 F1200 X80.545 Y158.044 E165.63776
G0 F6000 X80.545 Y157.479
G1 F1200 X124.486 Y201.42 E167.49792
G0 F6000 X125.052 Y201.42
G1 F1200 X80.545 Y156.913 E169.38205
G0 F6000 X80.545 Y156.347
G1 F1200 X125.618 Y201.42 E171.29013
G0 F6000 X126.183 Y201.42
G1 F1200 X80.545 Y155.781 E173.22216
G0 F6000 X80.545 Y155.216
G1 F1200 X126.749 Y201.42 E175.17812
G0 F6000 X127.315 Y201.42
G1 F1200 X80.545 Y154.65 E177.15805
G0 F6000 X80.545 Y154.084
G1 F1200 X127.88 Y201.42 E179.16191
G0 F6000 X128.446 Y201.42
G1 F1200 X80.545 Y153.519 E181.18972
G0 F6000 X80.545 Y152.953
G1 F1200 X129.012 Y201.42 E183.24148
G0 F6000 X129.578 Y201.42
G1 F1200 X80.545 Y152.387 E185.31721
G0 F6000 X80.545 Y151.822
G1 F1200 X130.143 Y201.42 E187.41685
G0 F6000 X130.709 Y201.42
G1 F1200 X80.545 Y151.256 E189.54046
G0 F6000 X80.545 Y150.69
G1 F1200 X131.275 Y201.42 E191.68802
G0 F6000 X131.84 Y201.42
G1 F1200 X80.545 Y150.125 E193.85951
G0 F6000 X80.545 Y149.559
G1 F1200 X132.406 Y201.42 E196.05495
G0 F6000 X132.972 Y201.42
G1 F1200 X80.545 Y148.993 E198.27436
G0 F6000 X80.545 Y148.428
G1 F1200 X133.537 Y201.42 E200.51768
G0 F6000 X134.103 Y201.42
G1 F1200 X80.545 Y147.862 E202.78496
G0 F6000 X80.545 Y147.296
G1 F1200 X134.669 Y201.42 E205.07621
G0 F6000 X135.234 Y201.42
