;FLAVOR:Marlin
;TIME:10647
;Filament used: 7.37389m
;Layer height: 0.2
;MINX:67.538
;MINY:129.149
;MINZ:0.2
;MAXX:232.46
;MAXY:171.024
;MAXZ:33
;Generated with Cura_SteamEngine 5.2.1
M140 S60
M105
M190 S60
M104 S210
M105
M109 S210
M82 ;absolute extrusion mode
M201 X500.00 Y500.00 Z100.00 E5000.00 ;Setup machine max acceleration
M203 X500.00 Y500.00 Z10.00 E50.00 ;Setup machine max feedrate
M204 P500.00 R1000.00 T500.00 ;Setup Print/Retract/Travel acceleration
M205 X8.00 Y8.00 Z0.40 E5.00 ;Setup Jerk
M220 S100 ;Reset Feedrate
M221 S100 ;Reset Flowrate

G28 ;Home
G29 ;Auto bed Level

G92 E0 ;Reset Extruder
G1 Z2.0 F3000 ;Move Z Axis up
G1 X10.1 Y20 Z0.28 F5000.0 ;Move to start position
G1 X10.1 Y200.0 Z0.28 F1500.0 E15 ;Draw the first line
G1 X10.4 Y200.0 Z0.28 F5000.0 ;Move to side a little
G1 X10.4 Y20 Z0.28 F1500.0 E30 ;Draw the second line
G92 E0 ;Reset Extruder
G1 Z2.0 F3000 ;Move Z Axis up

G92 E0
G92 E0
G1 F2700 E-5
;LAYER_COUNT:165
;LAYER:0
M107
G0 F6000 X73.669 Y130.886 Z0.2
;TYPE:SKIRT
G1 F2700 E0
G1 F1200 X74.495 Y130.44 E0.0281
G1 X75.355 Y130.066 E0.05617
G1 X75.942 Y129.859 E0.0748
G1 X76.465 Y129.691 E0.09125
G1 X77.369 Y129.443 E0.11931
G1 X78.291 Y129.272 E0.14738
G1 X79.635 Y129.166 E0.18773
G1 X80.68 Y129.149 E0.21902
G1 X219.608 Y129.15 E4.37771
G1 X220.298 Y129.16 E4.39836
G1 X221.235 Y129.214 E4.42646
G1 X222.163 Y129.347 E4.45452
G1 X223.179 Y129.587 E4.48577
G1 X223.718 Y129.742 E4.50256
G1 X224.608 Y130.04 E4.53065
G1 X225.468 Y130.412 E4.5587
G1 X226.295 Y130.856 E4.5868
G1 X227.08 Y131.369 E4.61487
G1 X227.818 Y131.947 E4.64293
G1 X228.403 Y132.483 E4.66668
G1 X228.883 Y132.971 E4.68717
G1 X229.186 Y133.297 E4.7005
G1 X229.795 Y134.011 E4.72859
G1 X230.34 Y134.774 E4.75665
G1 X231.006 Y135.944 E4.79695
G1 X231.182 Y136.303 E4.80892
G1 X231.558 Y137.162 E4.83699
G1 X231.734 Y137.648 E4.85246
G1 X231.848 Y137.988 E4.8632
G1 X232.108 Y138.889 E4.89127
G1 X232.291 Y139.809 E4.91935
G1 X232.389 Y140.677 E4.9455
G1 X232.431 Y141.247 E4.96261
G1 X232.46 Y142.184 E4.99067
G1 X232.433 Y142.835 E5.01017
G1 X232.386 Y143.496 E5.03001
G1 X232.238 Y146.131 E5.10901
G1 X232.166 Y148.664 E5.18486
G1 X232.166 Y151.152 E5.25934
G1 X232.238 Y153.698 E5.33558
G1 X232.403 Y156.533 E5.42059
G1 X232.439 Y157.015 E5.43506
G1 X232.457 Y158.335 E5.47457
G1 X232.439 Y158.723 E5.4862
G1 X232.296 Y160.05 E5.52615
G1 X232.224 Y160.475 E5.53906
G1 X232.029 Y161.393 E5.56715
G1 X231.751 Y162.317 E5.59603
G1 X231.372 Y163.284 E5.62712
G1 X230.998 Y164.063 E5.65299
G1 X230.547 Y164.886 E5.68108
G1 X230.028 Y165.666 E5.70913
G1 X229.268 Y166.598 E5.74512
G1 X228.806 Y167.105 E5.76566
G1 X228.145 Y167.771 E5.79375
G1 X227.43 Y168.378 E5.82182
G1 X226.666 Y168.921 E5.84988
G1 X225.858 Y169.398 E5.87797
G1 X225.013 Y169.805 E5.90604
G1 X224.136 Y170.137 E5.93411
G1 X223.653 Y170.285 E5.94923
G1 X223.148 Y170.427 E5.96494
G1 X222.235 Y170.642 E5.99301
G1 X221.307 Y170.779 E6.02109
G1 X220.346 Y170.837 E6.04991
G1 X219.535 Y170.85 E6.07419
G1 X86.302 Y170.852 E10.0624
G1 X83.696 Y170.889 E10.14042
G1 X80.633 Y171.024 E10.2322
G1 X79.444 Y171.012 E10.26779
G1 X79.054 Y170.987 E10.27949
G1 X78.122 Y170.888 E10.30755
G1 X77.201 Y170.709 E10.33563
G1 X76.455 Y170.506 E10.35877
G1 X75.566 Y170.208 E10.38684
G1 X74.435 Y169.705 E10.42389
G1 X73.514 Y169.187 E10.45552
G1 X72.739 Y168.659 E10.48359
G1 X72.012 Y168.067 E10.51166
G1 X71.337 Y167.416 E10.53973
G1 X70.721 Y166.709 E10.5678
G1 X70.161 Y165.944 E10.59618
G1 X69.668 Y165.205 E10.62277
G1 X69.124 Y164.309 E10.65415
G1 X68.654 Y163.363 E10.68577
G1 X68.205 Y162.175 E10.72379
G1 X68.107 Y161.862 E10.7336
G1 X67.805 Y160.671 E10.77038
G1 X67.746 Y160.367 E10.77965
G1 X67.607 Y159.439 E10.80774
G1 X67.547 Y158.46 E10.8371
G1 X67.538 Y157.936 E10.85279
G1 X67.563 Y156.971 E10.88169
G1 X67.616 Y156.217 E10.90431
G1 X67.762 Y153.624 E10.98206
G1 X67.834 Y151.092 E11.05788
G1 X67.834 Y148.604 E11.13236
G1 X67.763 Y146.081 E11.20791
G1 X67.562 Y142.76 E11.3075
G1 X67.545 Y141.849 E11.33478
G1 X67.552 Y141.539 E11.34406
G1 X67.613 Y140.603 E11.37214
G1 X67.704 Y139.95 E11.39187
G1 X67.776 Y139.525 E11.40478
G1 X67.971 Y138.607 E11.43287
G1 X68.249 Y137.682 E11.46178
G1 X68.629 Y136.713 E11.49294
G1 X68.863 Y136.216 E11.50938
G1 X69.067 Y135.81 E11.52298
G1 X69.523 Y134.991 E11.55104
G1 X70.048 Y134.214 E11.57911
G1 X70.637 Y133.484 E11.60719
G1 X71.052 Y133.037 E11.62545
G1 X71.462 Y132.62 E11.64295
G1 X72.148 Y131.98 E11.67104
G1 X72.885 Y131.4 E11.69911
G1 X73.669 Y130.886 E11.72717
G0 F6000 X73.918 Y131.204
G1 F1200 X74.73 Y130.77 E11.75473
G1 X75.577 Y130.409 E11.7823
G1 X76.064 Y130.24 E11.79773
G1 X76.587 Y130.072 E11.81417
G1 X77.475 Y129.829 E11.84173
G1 X78.381 Y129.663 E11.8693
G1 X79.642 Y129.566 E11.90716
G1 X80.68 Y129.549 E11.93823
G1 X219.603 Y129.55 E16.09677
G1 X220.293 Y129.56 E16.11743
G1 X221.212 Y129.613 E16.14498
G1 X222.123 Y129.746 E16.17254
G1 X223.069 Y129.972 E16.20166
G1 X223.608 Y130.127 E16.21845
G1 X224.48 Y130.419 E16.24597
G1 X225.325 Y130.787 E16.27356
G1 X226.134 Y131.226 E16.30112
G1 X226.902 Y131.734 E16.32868
G1 X227.623 Y132.306 E16.35623
G1 X228.122 Y132.768 E16.37658
G1 X228.59 Y133.244 E16.39657
G1 X228.893 Y133.57 E16.40989
G1 X229.49 Y134.271 E16.43745
G1 X230.024 Y135.021 E16.46501
G1 X230.647 Y136.12 E16.50283
G1 X230.823 Y136.479 E16.5148
G1 X231.192 Y137.322 E16.54234
G1 X231.469 Y138.115 E16.56749
G1 X231.724 Y139 E16.59506
G1 X231.9 Y139.904 E16.62262
G1 X231.99 Y140.706 E16.64678
G1 X232.032 Y141.276 E16.66389
G1 X232.06 Y142.196 E16.69144
G1 X232.034 Y142.806 E16.70972
G1 X231.984 Y143.508 E16.73079
G1 X231.838 Y146.098 E16.80844
G1 X231.766 Y148.653 E16.88495
G1 X231.766 Y151.163 E16.96009
G1 X231.838 Y153.701 E17.03609
G1 X232.006 Y156.581 E17.12245
G1 X232.04 Y157.044 E17.13634
G1 X232.058 Y158.316 E17.17442
G1 X232.04 Y158.704 E17.18605
G1 X231.902 Y159.984 E17.22459
G1 X231.83 Y160.409 E17.23749
G1 X231.637 Y161.309 E17.26504
G1 X231.367 Y162.207 E17.29311
G1 X230.813 Y163.536 E17.33621
G1 X230.64 Y163.886 E17.3479
G1 X230.196 Y164.693 E17.37547
G1 X229.684 Y165.458 E17.40303
G1 X228.972 Y166.329 E17.4367
G1 X228.51 Y166.836 E17.45723
G1 X227.861 Y167.488 E17.48477
G1 X227.158 Y168.083 E17.51234
G1 X226.405 Y168.614 E17.53992
G1 X225.61 Y169.077 E17.56746
G1 X224.777 Y169.47 E17.59503
G1 X223.544 Y169.9 E17.63412
G1 X223.039 Y170.042 E17.64983
G1 X222.143 Y170.253 E17.67738
G1 X221.232 Y170.385 E17.70493
G1 X220.34 Y170.437 E17.73168
G1 X219.529 Y170.45 E17.75596
G1 X86.296 Y170.452 E21.74417
G1 X83.705 Y170.489 E21.82174
G1 X80.615 Y170.625 E21.91433
G1 X79.47 Y170.613 E21.9486
G1 X79.08 Y170.588 E21.9603
G1 X78.165 Y170.49 E21.98785
G1 X76.819 Y170.195 E22.0291
G1 X76.566 Y170.122 E22.03698
G1 X75.694 Y169.828 E22.06452
G1 X74.615 Y169.347 E22.09989
G1 X73.711 Y168.838 E22.13094
G1 X72.951 Y168.318 E22.15851
G1 X72.239 Y167.734 E22.18607
G1 X71.581 Y167.091 E22.21361
G1 X70.981 Y166.393 E22.24116
G1 X70.494 Y165.722 E22.26598
G1 X70.001 Y164.983 E22.29258
G1 X69.475 Y164.116 E22.32293
G1 X69.012 Y163.185 E22.35406
G1 X68.586 Y162.055 E22.39021
G1 X68.488 Y161.742 E22.40002
G1 X68.198 Y160.595 E22.43544
G1 X68.139 Y160.291 E22.44471
G1 X68.003 Y159.38 E22.47228
G1 X67.947 Y158.453 E22.50008
G1 X67.938 Y157.929 E22.51577
G1 X67.962 Y156.999 E22.54362
G1 X68.021 Y156.165 E22.56864
G1 X68.162 Y153.659 E22.64378
G1 X68.234 Y151.103 E22.72032
G1 X68.234 Y148.593 E22.79545
G1 X68.163 Y146.077 E22.8708
G1 X67.961 Y142.736 E22.97099
G1 X67.945 Y141.858 E22.99728
G1 X67.952 Y141.548 E23.00656
G1 X68.012 Y140.629 E23.03413
G1 X68.098 Y140.016 E23.05266
G1 X68.17 Y139.591 E23.06556
G1 X68.363 Y138.691 E23.09311
G1 X68.628 Y137.811 E23.12062
G1 X69.002 Y136.859 E23.15124
G1 X69.22 Y136.396 E23.16656
G1 X69.424 Y135.99 E23.18016
G1 X69.873 Y135.186 E23.20773
G1 X70.39 Y134.424 E23.23529
G1 X70.971 Y133.71 E23.26284
G1 X71.337 Y133.317 E23.27892
G1 X71.747 Y132.9 E23.29643
G1 X72.421 Y132.273 E23.32398
G1 X73.146 Y131.706 E23.35153
G1 X73.918 Y131.204 E23.3791
G0 F6000 X74.166 Y131.522
G1 F1200 X74.965 Y131.102 E23.40612
G1 X76.187 Y130.621 E23.44543
G1 X76.71 Y130.453 E23.46187
G1 X77.581 Y130.215 E23.4889
G1 X78.47 Y130.055 E23.51594
G1 X79.649 Y129.966 E23.55133
G1 X80.68 Y129.949 E23.5822
G1 X219.597 Y129.95 E27.74056
G1 X220.287 Y129.96 E27.76121
G1 X221.188 Y130.013 E27.78823
G1 X222.082 Y130.146 E27.81529
G1 X222.958 Y130.356 E27.84225
G1 X223.497 Y130.511 E27.85904
G1 X224.353 Y130.799 E27.88608
G1 X225.18 Y131.161 E27.9131
G1 X225.972 Y131.596 E27.94015
G1 X226.723 Y132.098 E27.96719
G1 X227.426 Y132.665 E27.99422
G1 X227.841 Y133.053 E28.01123
G1 X228.297 Y133.516 E28.03068
G1 X228.6 Y133.842 E28.04401
G1 X229.185 Y134.53 E28.07104
G1 X229.707 Y135.267 E28.09807
G1 X230.288 Y136.296 E28.13345
G1 X230.464 Y136.655 E28.14541
G1 X230.976 Y137.902 E28.18577
G1 X231.09 Y138.242 E28.1965
G1 X231.339 Y139.111 E28.22356
G1 X231.51 Y139.997 E28.25057
G1 X231.591 Y140.735 E28.2728
G1 X231.633 Y141.305 E28.2899
G1 X231.66 Y142.208 E28.31695
G1 X231.635 Y142.778 E28.33403
G1 X231.586 Y143.461 E28.35452
G1 X231.438 Y146.098 E28.43358
G1 X231.366 Y148.642 E28.50977
G1 X231.366 Y151.175 E28.58559
G1 X231.437 Y153.701 E28.66123
G1 X231.609 Y156.638 E28.7493
G1 X231.641 Y157.074 E28.76239
G1 X231.658 Y158.298 E28.79903
G1 X231.64 Y158.686 E28.81066
G1 X231.508 Y159.917 E28.84772
G1 X231.436 Y160.342 E28.86062
G1 X231.246 Y161.225 E28.88766
G1 X230.987 Y162.08 E28.9144
G1 X230.454 Y163.359 E28.95588
G1 X230.281 Y163.709 E28.96756
G1 X229.845 Y164.5 E28.9946
G1 X229.341 Y165.249 E29.02162
G1 X228.676 Y166.059 E29.05299
G1 X228.214 Y166.566 E29.07353
G1 X227.577 Y167.206 E29.10056
G1 X226.886 Y167.787 E29.12758
G1 X226.146 Y168.305 E29.15462
G1 X225.363 Y168.755 E29.18165
G1 X224.543 Y169.134 E29.20869
G1 X223.436 Y169.515 E29.24374
G1 X222.931 Y169.657 E29.25944
G1 X222.052 Y169.863 E29.28647
G1 X221.158 Y169.99 E29.3135
G1 X220.333 Y170.037 E29.33823
G1 X219.522 Y170.05 E29.36251
G1 X86.29 Y170.052 E33.3507
G1 X83.683 Y170.089 E33.42874
G1 X80.598 Y170.225 E33.52118
G1 X79.495 Y170.214 E33.5542
G1 X79.105 Y170.189 E33.5659
G1 X78.208 Y170.091 E33.59291
G1 X76.93 Y169.81 E33.63208
G1 X76.677 Y169.737 E33.63996
G1 X75.822 Y169.449 E33.66696
G1 X74.794 Y168.991 E33.70065
G1 X73.908 Y168.49 E33.73112
G1 X73.164 Y167.978 E33.75816
G1 X72.468 Y167.402 E33.7852
G1 X71.826 Y166.767 E33.81223
G1 X71.242 Y166.078 E33.83927
G1 X70.827 Y165.5 E33.86057
G1 X70.334 Y164.761 E33.88716
G1 X69.824 Y163.922 E33.91655
G1 X69.371 Y163.007 E33.94711
G1 X68.968 Y161.936 E33.98137
G1 X68.87 Y161.623 E33.99118
G1 X68.591 Y160.518 E34.0253
G1 X68.532 Y160.214 E34.03457
G1 X68.399 Y159.321 E34.06159
G1 X68.347 Y158.446 E34.08783
G1 X68.338 Y157.922 E34.10352
G1 X68.361 Y157.027 E34.13032
G1 X68.416 Y156.247 E34.15373
G1 X68.562 Y153.655 E34.23144
G1 X68.634 Y151.115 E34.3075
G1 X68.634 Y148.581 E34.38336
G1 X68.562 Y146.042 E34.45939
G1 X68.361 Y142.712 E34.55925
G1 X68.345 Y141.867 E34.58455
G1 X68.352 Y141.557 E34.59383
G1 X68.412 Y140.656 E34.62086
G1 X68.492 Y140.083 E34.63818
G1 X68.564 Y139.658 E34.65108
G1 X68.754 Y138.775 E34.67812
G1 X69.008 Y137.938 E34.7043
G1 X69.374 Y137.005 E34.7343
G1 X69.578 Y136.575 E34.74855
G1 X69.782 Y136.169 E34.76215
G1 X70.223 Y135.381 E34.78918
G1 X70.731 Y134.635 E34.8162
G1 X71.304 Y133.937 E34.84323
G1 X71.623 Y133.598 E34.85717
G1 X72.033 Y133.181 E34.87467
G1 X72.694 Y132.566 E34.9017
G1 X73.407 Y132.011 E34.92875
G1 X74.166 Y131.522 E34.95577
G1 F2700 E29.95577
G0 F6000 X77.953 Y158.76
G0 X78.179 Y159.31
G0 X78.557 Y159.911
G0 X79.411 Y159.644
;TYPE:SUPPORT-INTERFACE
G1 F2700 E34.95577
G1 F1200 X79.736 Y159.774 E34.96625
G1 X80.278 Y159.774 E34.98247
G1 X80.151 Y159.843 E34.9868
G1 X79.999 Y159.843 E34.99135
G1 X79.795 Y159.824 E34.99748
G1 X79.561 Y159.754 E35.0048
G1 X79.442 Y159.693 E35.0088
G1 X79.411 Y159.644 E35.01053
G1 F2700 E30.01053
;MESH:Dungeon_Pieces.stl
G0 F6000 X79.949 Y158.332
G0 X80.044 Y158.174
;TYPE:WALL-INNER
G1 F2700 E35.01053
G1 F1200 X219.945 Y158.172 E39.19835
G1 X220.003 Y158.055 E39.20226
G1 X220.002 Y141.964 E39.68393
G1 X219.955 Y141.827 E39.68826
G1 X80.053 Y141.826 E43.87611
G1 X79.997 Y141.939 E43.87988
G1 X79.998 Y158.036 E44.36173
G1 X80.044 Y158.174 E44.36608
G0 F6000 X79.83 Y158.52
;TYPE:WALL-OUTER
G1 F1200 X79.965 Y158.574 E44.37044
G1 X220.037 Y158.573 E48.56337
G1 X220.26 Y158.437 E48.57119
G1 X220.403 Y158.152 E48.58073
G1 X220.402 Y141.915 E49.06677
G1 X220.35 Y141.707 E49.07319
G1 X220.269 Y141.572 E49.0779
G1 X220.17 Y141.48 E49.08195
G1 X220.035 Y141.426 E49.0863
G1 X79.963 Y141.427 E53.27923
G1 X79.74 Y141.562 E53.28704
G1 X79.597 Y141.844 E53.2965
G1 X79.598 Y158.085 E53.78266
G1 X79.65 Y158.293 E53.78908
G1 X79.83 Y158.52 E53.79775
G0 F6000 X80.358 Y157.814
;TYPE:SKIN
G1 F1200 X219.643 Y157.813 E57.96713
G1 X219.643 Y150 E58.201
G1 X219.643 Y142.186 E58.43491
G1 X80.357 Y142.186 E62.60431
G1 X80.358 Y157.814 E63.07212
G0 F6000 X80.557 Y157.491
G1 F1200 X80.679 Y157.612 E63.07726
G0 F6000 X81.245 Y157.612
G1 F1200 X80.557 Y156.925 E63.10637
G0 F6000 X80.557 Y156.359
G1 F1200 X81.81 Y157.612 E63.15941
G0 F6000 X82.376 Y157.612
G1 F1200 X80.557 Y155.794 E63.2364
G0 F6000 X80.557 Y155.228
G1 F1200 X82.942 Y157.612 E63.33734
G0 F6000 X83.507 Y157.612
G1 F1200 X80.557 Y154.662 E63.46222
G0 F6000 X80.557 Y154.096
G1 F1200 X84.073 Y157.612 E63.61107
G0 F6000 X84.639 Y157.612
G1 F1200 X80.557 Y153.531 E63.78385
G0 F6000 X80.557 Y152.965
G1 F1200 X85.204 Y157.612 E63.98057
G0 F6000 X85.77 Y157.612
G1 F1200 X80.557 Y152.399 E64.20125
G0 F6000 X80.557 Y151.834
G1 F1200 X86.336 Y157.612 E64.44588
G0 F6000 X86.902 Y157.612
G1 F1200 X80.557 Y151.268 E64.71446
G0 F6000 X80.557 Y150.702
G1 F1200 X87.467 Y157.612 E65.00698
G0 F6000 X88.033 Y157.612
G1 F1200 X80.557 Y150.137 E65.32345
G0 F6000 X80.557 Y149.57
G1 F1200 X88.599 Y157.612 E65.66389
G0 F6000 X89.164 Y157.612
G1 F1200 X80.557 Y149.005 E66.02825
G0 F6000 X80.557 Y148.439
G1 F1200 X89.73 Y157.612 E66.41657
G0 F6000 X90.296 Y157.612
G1 F1200 X80.557 Y147.873 E66.82886
G0 F6000 X80.557 Y147.308
G1 F1200 X90.861 Y157.612 E67.26506
G0 F6000 X91.427 Y157.612
G1 F1200 X80.557 Y146.742 E67.72522
G0 F6000 X80.557 Y146.176
G1 F1200 X91.993 Y157.612 E68.20934
G0 F6000 X92.558 Y157.612
G1 F1200 X80.557 Y145.61 E68.71741
G0 F6000 X80.557 Y145.045
G1 F1200 X93.124 Y157.612 E69.24941
G0 F6000 X93.69 Y157.612
G1 F1200 X80.557 Y144.479 E69.80537
G0 F6000 X80.557 Y143.913
G1 F1200 X94.255 Y157.612 E70.38527
G0 F6000 X94.821 Y157.612
G1 F1200 X80.557 Y143.348 E70.98911
G0 F6000 X80.557 Y142.782
G1 F1200 X95.387 Y157.612 E71.61692
G0 F6000 X95.952 Y157.612
G1 F1200 X80.726 Y142.385 E72.2615
G0 F6000 X81.291 Y142.385
G1 F1200 X96.518 Y157.612 E72.90611
G0 F6000 X97.084 Y157.612
G1 F1200 X81.857 Y142.385 E73.55072
G0 F6000 X82.423 Y142.385
G1 F1200 X97.65 Y157.612 E74.19533
G0 F6000 X98.215 Y157.612
G1 F1200 X82.988 Y142.385 E74.83994
G0 F6000 X83.554 Y142.385
G1 F1200 X98.781 Y157.612 E75.48454
G0 F6000 X99.347 Y157.612
G1 F1200 X84.12 Y142.385 E76.12915
G0 F6000 X84.685 Y142.385
G1 F1200 X99.912 Y157.612 E76.77376
G0 F6000 X100.478 Y157.612
G1 F1200 X85.251 Y142.385 E77.41837
G0 F6000 X85.817 Y142.385
G1 F1200 X101.044 Y157.612 E78.06298
G0 F6000 X101.609 Y157.612
G1 F1200 X86.382 Y142.385 E78.70759
G0 F6000 X86.948 Y142.385
G1 F1200 X102.175 Y157.612 E79.35219
G0 F6000 X102.741 Y157.612
G1 F1200 X87.514 Y142.385 E79.9968
G0 F6000 X88.08 Y142.385
G1 F1200 X103.306 Y157.612 E80.64139
G0 F6000 X103.872 Y157.612
G1 F1200 X88.645 Y142.385 E81.286
G0 F6000 X89.211 Y142.385
G1 F1200 X104.438 Y157.612 E81.93061
G0 F6000 X105.003 Y157.612
G1 F1200 X89.777 Y142.385 E82.57519
G0 F6000 X90.342 Y142.385
G1 F1200 X105.569 Y157.612 E83.2198
G0 F6000 X106.135 Y157.612
G1 F1200 X90.908 Y142.385 E83.86441
G0 F6000 X91.474 Y142.385
G1 F1200 X106.7 Y157.612 E84.509
G0 F6000 X107.266 Y157.612
G1 F1200 X92.039 Y142.385 E85.15361
G0 F6000 X92.605 Y142.385
G1 F1200 X107.832 Y157.612 E85.79821
G0 F6000 X108.398 Y157.612
G1 F1200 X93.171 Y142.385 E86.44282
