;FLAVOR:Marlin
;TIME:2690
;Filament used: 1.61273m
;Layer height: 0.2
;MINX:51.848
;MINY:96.251
;MINZ:0.2
;MAXX:119.747
;MAXY:152.256
;MAXZ:26.8
;Generated with Cura_SteamEngine 5.2.1
M140 S60
M105
M190 S60
M104 S210
M105
M109 S210
M82 ;absolute extrusion mode
M201 X500.00 Y500.00 Z100.00 E5000.00 ;Setup machine max acceleration
M203 X500.00 Y500.00 Z10.00 E50.00 ;Setup machine max feedrate
M204 P500.00 R1000.00 T500.00 ;Setup Print/Retract/Travel acceleration
M205 X8.00 Y8.00 Z0.40 E5.00 ;Setup Jerk
M220 S100 ;Reset Feedrate
M221 S100 ;Reset Flowrate

G28 ;Home
G29 ;Auto bed Level

G92 E0 ;Reset Extruder
G1 Z2.0 F3000 ;Move Z Axis up
G1 X10.1 Y20 Z0.28 F5000.0 ;Move to start position
G1 X10.1 Y200.0 Z0.28 F1500.0 E15 ;Draw the first line
G1 X10.4 Y200.0 Z0.28 F5000.0 ;Move to side a little
G1 X10.4 Y20 Z0.28 F1500.0 E30 ;Draw the second line
G92 E0 ;Reset Extruder
G1 Z2.0 F3000 ;Move Z Axis up

G92 E0
G92 E0
G1 F2700 E-5
;LAYER_COUNT:135
;LAYER:0
M107
G0 F6000 X69.645 Y98.307 Z0.2
;TYPE:SKIRT
G1 F2700 E0
G1 F1200 X70.431 Y97.795 E0.0312
G1 X71.258 Y97.352 E0.0624
G1 X72.119 Y96.981 E0.09359
G1 X73.009 Y96.685 E0.12478
G1 X73.921 Y96.465 E0.15599
G1 X74.848 Y96.324 E0.18717
G1 X75.727 Y96.264 E0.21648
G1 X76.355 Y96.251 E0.23737
G1 X95.103 Y96.251 E0.86093
G1 X95.805 Y96.261 E0.88428
G1 X96.741 Y96.314 E0.91546
G1 X97.669 Y96.447 E0.94664
G1 X98.583 Y96.659 E0.97785
G1 X99.476 Y96.947 E1.00906
G1 X100.34 Y97.311 E1.04024
G1 X101.171 Y97.747 E1.07145
G1 X101.961 Y98.252 E1.10264
G1 X102.705 Y98.822 E1.13381
G1 X103.398 Y99.454 E1.165
G1 X104.035 Y100.143 E1.19621
G1 X104.664 Y100.959 E1.23048
G1 X106.12 Y103.043 E1.31504
G1 X107.622 Y105.069 E1.39892
G1 X109.177 Y107.049 E1.48266
G1 X110.787 Y108.982 E1.56633
G1 X112.459 Y110.878 E1.65041
G1 X114.169 Y112.713 E1.73383
G1 X116.538 Y115.096 E1.84559
G1 X117.171 Y115.789 E1.87681
G1 X117.742 Y116.533 E1.908
G1 X118.247 Y117.323 E1.93919
G1 X118.683 Y118.153 E1.97037
G1 X119.047 Y119.017 E2.00155
G1 X119.336 Y119.91 E2.03277
G1 X119.548 Y120.823 E2.06395
G1 X119.682 Y121.752 E2.09516
G1 X119.735 Y122.649 E2.12505
G1 X119.747 Y123.396 E2.1499
G1 X119.746 Y125.444 E2.21802
G1 X119.736 Y126.147 E2.2414
G1 X119.683 Y127.084 E2.27262
G1 X119.55 Y128.012 E2.3038
G1 X119.338 Y128.926 E2.335
G1 X119.05 Y129.818 E2.36618
G1 X118.686 Y130.683 E2.39739
G1 X118.25 Y131.513 E2.42858
G1 X117.745 Y132.304 E2.45979
G1 X117.175 Y133.048 E2.49096
G1 X116.349 Y133.932 E2.5312
G1 X115.819 Y134.44 E2.55562
G1 X114.815 Y135.379 E2.60134
G1 X113.005 Y137.167 E2.68596
G1 X111.284 Y138.965 E2.76874
G1 X109.589 Y140.843 E2.85289
G1 X107.948 Y142.766 E2.93697
G1 X106.376 Y144.717 E3.0203
G1 X104.786 Y146.807 E3.10764
G1 X104.081 Y147.764 E3.14718
G1 X103.493 Y148.495 E3.17838
G1 X102.845 Y149.172 E3.20955
G1 X102.141 Y149.792 E3.24075
G1 X101.387 Y150.35 E3.27195
G1 X100.588 Y150.842 E3.30316
G1 X99.751 Y151.263 E3.33432
G1 X98.88 Y151.612 E3.36553
G1 X97.983 Y151.885 E3.39672
G1 X97.066 Y152.081 E3.4279
G1 X96.135 Y152.199 E3.45912
G1 X95.449 Y152.234 E3.48196
G1 X94.233 Y152.256 E3.52241
G1 X77.005 Y152.255 E4.09542
G1 X76.304 Y152.245 E4.11874
G1 X75.368 Y152.192 E4.14992
G1 X74.439 Y152.059 E4.18113
G1 X73.526 Y151.847 E4.21231
G1 X72.633 Y151.559 E4.24351
G1 X71.769 Y151.195 E4.2747
G1 X70.938 Y150.759 E4.30591
G1 X70.148 Y150.254 E4.33709
G1 X69.404 Y149.684 E4.36827
G1 X68.711 Y149.052 E4.39946
G1 X68.074 Y148.363 E4.43067
G1 X67.627 Y147.801 E4.45456
G1 X66.123 Y145.774 E4.53851
G1 X64.567 Y143.792 E4.62231
G1 X62.956 Y141.856 E4.70608
G1 X61.307 Y139.984 E4.78906
G1 X59.576 Y138.128 E4.87347
G1 X57.811 Y136.338 E4.95708
G1 X55.856 Y134.47 E5.04702
G1 X55.372 Y134.021 E5.06897
G1 X54.713 Y133.354 E5.10016
G1 X54.112 Y132.633 E5.13138
G1 X53.576 Y131.864 E5.16256
G1 X53.107 Y131.052 E5.19374
G1 X52.708 Y130.203 E5.22494
G1 X52.384 Y129.323 E5.25613
G1 X52.135 Y128.419 E5.28732
G1 X51.965 Y127.496 E5.31854
G1 X51.862 Y126.306 E5.35826
G1 X51.848 Y125.679 E5.37912
G1 X51.848 Y123.425 E5.45409
G1 X51.858 Y122.723 E5.47744
G1 X51.911 Y121.787 E5.50862
G1 X52.044 Y120.859 E5.53981
G1 X52.256 Y119.945 E5.57101
G1 X52.544 Y119.052 E5.60222
G1 X52.908 Y118.188 E5.6334
G1 X53.344 Y117.357 E5.66462
G1 X53.849 Y116.567 E5.6958
G1 X54.419 Y115.823 E5.72697
G1 X55.114 Y115.067 E5.76113
G1 X56.808 Y113.388 E5.84046
G1 X58.545 Y111.572 E5.92404
G1 X60.23 Y109.711 E6.00754
G1 X61.889 Y107.767 E6.09254
G1 X63.448 Y105.836 E6.17508
G1 X65.001 Y103.794 E6.26041
G1 X66.407 Y101.835 E6.34061
G1 X67.018 Y100.961 E6.37608
G1 X67.588 Y100.216 E6.40728
G1 X68.218 Y99.521 E6.43848
G1 X68.906 Y98.884 E6.46967
G1 X69.645 Y98.307 E6.50085
G0 F6000 X69.933 Y98.593
G1 F1200 X70.708 Y98.096 E6.53147
G1 X71.523 Y97.669 E6.56207
G1 X72.373 Y97.313 E6.59272
G1 X73.25 Y97.033 E6.62334
G1 X74.147 Y96.83 E6.65393
G1 X75.06 Y96.705 E6.68458
G1 X75.738 Y96.664 E6.70717
G1 X76.355 Y96.651 E6.7277
G1 X94.945 Y96.65 E7.34601
G1 X95.799 Y96.661 E7.37441
G1 X96.718 Y96.714 E7.40503
G1 X97.629 Y96.847 E7.43565
G1 X98.525 Y97.058 E7.46627
G1 X99.4 Y97.346 E7.4969
G1 X100.246 Y97.709 E7.52752
G1 X101.057 Y98.144 E7.55813
G1 X101.828 Y98.648 E7.58877
G1 X102.552 Y99.216 E7.61938
G1 X103.224 Y99.846 E7.65001
G1 X103.838 Y100.531 E7.68061
G1 X104.336 Y101.188 E7.70803
G1 X105.787 Y103.264 E7.79227
G1 X107.319 Y105.332 E7.87787
G1 X108.854 Y107.285 E7.96049
G1 X110.496 Y109.257 E8.04584
G1 X112.167 Y111.152 E8.12987
G1 X113.86 Y112.969 E8.21247
G1 X116.255 Y115.378 E8.32546
G1 X116.875 Y116.059 E8.35609
G1 X117.433 Y116.79 E8.38667
G1 X117.927 Y117.568 E8.41733
G1 X118.35 Y118.385 E8.44793
G1 X118.702 Y119.236 E8.47856
G1 X118.978 Y120.114 E8.50917
G1 X119.177 Y121.013 E8.53979
G1 X119.297 Y121.926 E8.57042
G1 X119.335 Y122.657 E8.59477
G1 X119.347 Y123.396 E8.61935
G1 X119.346 Y125.439 E8.6873
G1 X119.336 Y126.142 E8.71068
G1 X119.283 Y127.061 E8.7413
G1 X119.15 Y127.972 E8.77192
G1 X118.939 Y128.868 E8.80254
G1 X118.651 Y129.742 E8.83314
G1 X118.288 Y130.589 E8.86379
G1 X117.853 Y131.4 E8.8944
G1 X117.349 Y132.171 E8.92504
G1 X116.781 Y132.895 E8.95565
G1 X116.072 Y133.643 E8.98992
G1 X115.444 Y134.244 E9.01884
G1 X114.525 Y135.103 E9.06068
G1 X112.736 Y136.871 E9.14433
G1 X110.981 Y138.704 E9.22874
G1 X109.305 Y140.561 E9.31194
G1 X107.616 Y142.539 E9.39845
G1 X106.061 Y144.469 E9.48088
G1 X104.532 Y146.48 E9.5649
G1 X103.76 Y147.527 E9.60817
G1 X103.182 Y148.243 E9.63878
G1 X102.543 Y148.907 E9.66943
G1 X101.85 Y149.513 E9.70005
G1 X101.107 Y150.056 E9.73065
G1 X100.32 Y150.533 E9.76126
G1 X99.494 Y150.94 E9.79189
G1 X98.636 Y151.273 E9.8225
G1 X97.752 Y151.531 E9.85313
G1 X96.849 Y151.711 E9.88375
G1 X95.934 Y151.812 E9.91437
G1 X95.441 Y151.834 E9.93078
G1 X94.233 Y151.856 E9.97097
G1 X77.011 Y151.855 E10.54378
G1 X76.31 Y151.845 E10.56709
G1 X75.391 Y151.792 E10.59771
G1 X74.48 Y151.659 E10.62833
G1 X73.584 Y151.448 E10.65895
G1 X72.709 Y151.16 E10.68959
G1 X71.863 Y150.797 E10.7202
G1 X71.052 Y150.362 E10.75081
G1 X70.281 Y149.858 E10.78145
G1 X69.557 Y149.289 E10.81208
G1 X68.885 Y148.66 E10.84269
G1 X68.27 Y147.975 E10.87331
G1 X67.949 Y147.563 E10.89068
G1 X66.461 Y145.557 E10.97375
G1 X64.87 Y143.531 E11.05943
G1 X63.266 Y141.602 E11.14287
G1 X61.583 Y139.693 E11.22752
G1 X59.888 Y137.875 E11.31019
G1 X58.089 Y136.051 E11.3954
G1 X56.1 Y134.151 E11.48689
G1 X55.644 Y133.728 E11.50757
G1 X54.997 Y133.072 E11.53822
G1 X54.41 Y132.364 E11.56881
G1 X53.886 Y131.607 E11.59943
G1 X53.43 Y130.807 E11.63006
G1 X53.045 Y129.97 E11.6607
G1 X52.734 Y129.104 E11.6913
G1 X52.499 Y128.214 E11.72192
G1 X52.343 Y127.306 E11.75256
G1 X52.262 Y126.293 E11.78636
G1 X52.248 Y125.679 E11.80679
G1 X52.248 Y123.431 E11.88156
G1 X52.258 Y122.729 E11.90491
G1 X52.311 Y121.81 E11.93553
G1 X52.444 Y120.899 E11.96615
G1 X52.655 Y120.003 E11.99676
G1 X52.943 Y119.128 E12.0274
G1 X53.306 Y118.282 E12.05802
G1 X53.741 Y117.471 E12.08863
G1 X54.245 Y116.7 E12.11927
G1 X54.813 Y115.976 E12.14987
G1 X55.395 Y115.351 E12.17828
G1 X57.096 Y113.665 E12.25794
G1 X58.846 Y111.835 E12.34215
G1 X60.531 Y109.974 E12.42565
G1 X62.189 Y108.033 E12.51056
G1 X63.775 Y106.067 E12.59457
G1 X65.298 Y104.065 E12.67824
G1 X66.776 Y102.006 E12.76254
G1 X67.346 Y101.19 E12.79564
G1 X67.906 Y100.459 E12.82627
G1 X68.527 Y99.779 E12.8569
G1 X69.204 Y99.155 E12.88752
G1 X69.933 Y98.593 E12.91814
G0 F6000 X70.22 Y98.881
G1 F1200 X70.984 Y98.399 E12.94818
G1 X71.787 Y97.987 E12.9782
G1 X72.624 Y97.648 E13.00823
G1 X73.488 Y97.383 E13.03829
G1 X74.371 Y97.197 E13.06831
G1 X75.268 Y97.089 E13.09836
G1 X75.749 Y97.064 E13.11438
G1 X76.355 Y97.051 E13.13454
G1 X94.945 Y97.05 E13.75284
G1 X95.793 Y97.061 E13.78105
G1 X96.695 Y97.114 E13.8111
G1 X97.588 Y97.246 E13.84113
G1 X98.466 Y97.457 E13.87116
G1 X99.322 Y97.745 E13.9012
G1 X100.15 Y98.107 E13.93125
G1 X100.942 Y98.541 E13.96129
G1 X101.692 Y99.044 E13.99133
G1 X102.395 Y99.61 E14.02135
G1 X103.045 Y100.237 E14.05138
G1 X103.637 Y100.919 E14.08142
G1 X104.009 Y101.417 E14.1021
G1 X105.487 Y103.532 E14.18792
G1 X106.982 Y105.549 E14.27142
G1 X108.548 Y107.543 E14.35575
G1 X110.19 Y109.514 E14.44107
G1 X111.875 Y111.425 E14.52581
G1 X113.581 Y113.256 E14.60905
G1 X115.971 Y115.66 E14.7218
G1 X116.579 Y116.328 E14.75184
G1 X117.125 Y117.047 E14.78187
G1 X117.605 Y117.812 E14.8119
G1 X118.016 Y118.616 E14.84194
G1 X118.355 Y119.454 E14.872
G1 X118.617 Y120.318 E14.90203
G1 X118.803 Y121.202 E14.93208
G1 X118.909 Y122.098 E14.96209
G1 X118.935 Y122.664 E14.98093
G1 X118.947 Y123.396 E15.00528
G1 X118.946 Y125.433 E15.07303
G1 X118.936 Y126.136 E15.09642
G1 X118.883 Y127.038 E15.12647
G1 X118.751 Y127.931 E15.15649
G1 X118.54 Y128.809 E15.18653
G1 X118.252 Y129.665 E15.21657
G1 X117.89 Y130.492 E15.24659
G1 X117.456 Y131.284 E15.27663
G1 X116.954 Y132.035 E15.30667
G1 X116.387 Y132.738 E15.33671
G1 X115.795 Y133.355 E15.36515
G1 X115.171 Y133.952 E15.39388
G1 X114.253 Y134.809 E15.43565
G1 X112.431 Y136.61 E15.52086
G1 X110.695 Y138.425 E15.60439
G1 X108.986 Y140.317 E15.68919
G1 X107.333 Y142.253 E15.77386
G1 X105.747 Y144.222 E15.85795
G1 X104.17 Y146.296 E15.94461
G1 X103.438 Y147.289 E15.98564
G1 X102.87 Y147.992 E16.0157
G1 X102.242 Y148.641 E16.04574
G1 X101.56 Y149.233 E16.07577
G1 X100.828 Y149.761 E16.10579
G1 X100.052 Y150.223 E16.13583
G1 X99.238 Y150.615 E16.16588
G1 X98.393 Y150.933 E16.19591
G1 X97.523 Y151.175 E16.22595
G1 X96.634 Y151.339 E16.25601
G1 X95.433 Y151.434 E16.29608
G1 X94.233 Y151.456 E16.336
G1 X77.017 Y151.455 E16.90861
G1 X76.316 Y151.445 E16.93193
G1 X75.414 Y151.392 E16.96198
G1 X74.521 Y151.26 E16.992
G1 X73.642 Y151.049 E17.02207
G1 X72.786 Y150.761 E17.05211
G1 X71.959 Y150.399 E17.08213
G1 X71.167 Y149.965 E17.11217
G1 X70.417 Y149.462 E17.14221
G1 X69.714 Y148.895 E17.17225
G1 X69.064 Y148.269 E17.20226
G1 X68.27 Y147.324 E17.24331
G1 X66.777 Y145.312 E17.32664
G1 X65.193 Y143.295 E17.41194
G1 X63.572 Y141.345 E17.49628
G1 X61.875 Y139.42 E17.58164
G1 X60.166 Y137.586 E17.66501
G1 X58.384 Y135.781 E17.74938
G1 X56.349 Y133.836 E17.843
G1 X55.916 Y133.434 E17.86266
G1 X55.282 Y132.791 E17.89269
G1 X54.708 Y132.095 E17.9227
G1 X54.197 Y131.35 E17.95274
G1 X53.754 Y130.563 E17.98278
G1 X53.383 Y129.739 E18.01284
G1 X53.086 Y128.887 E18.04285
G1 X52.865 Y128.011 E18.0729
G1 X52.723 Y127.119 E18.10294
G1 X52.662 Y126.281 E18.13088
G1 X52.648 Y125.679 E18.15091
G1 X52.648 Y123.437 E18.22548
G1 X52.658 Y122.735 E18.24883
G1 X52.711 Y121.833 E18.27888
G1 X52.843 Y120.94 E18.30891
G1 X53.054 Y120.062 E18.33894
G1 X53.342 Y119.206 E18.36898
G1 X53.704 Y118.378 E18.39904
G1 X54.138 Y117.586 E18.42907
G1 X54.641 Y116.836 E18.45911
G1 X55.207 Y116.133 E18.48913
G1 X55.677 Y115.635 E18.5119
G1 X57.384 Y113.943 E18.59184
G1 X59.133 Y112.115 E18.67599
G1 X60.849 Y110.219 E18.76104
G1 X62.489 Y108.298 E18.84505
G1 X64.09 Y106.314 E18.92985
G1 X65.609 Y104.317 E19.0133
G1 X67.108 Y102.229 E19.09879
G1 X67.674 Y101.419 E19.13166
G1 X68.224 Y100.702 E19.16171
G1 X68.834 Y100.037 E19.19173
G1 X69.501 Y99.428 E19.22177
G1 X70.22 Y98.881 E19.25181
G1 F2700 E14.25181
;MESH:sample.stl
G0 F6000 X64.533 Y121.612
G0 X64.946 Y122.613
G0 X63.616 Y123.455
G0 X63.889 Y124.525
G1 F2700 E19.25181
G0 F6000 X64.095 Y124.542
;TYPE:WALL-INNER
G1 F843.6 X64.095 Y124.306 E19.26298
G1 F991.7 X64.324 Y124.021 E19.27769
G1 F1200 X64.48 Y123.898 E19.2843
G1 X65.337 Y123.556 E19.31499
G1 X66.001 Y123.255 E19.33924
G1 X66.617 Y122.946 E19.36216
G1 X67.221 Y122.604 E19.38525
G1 X67.825 Y122.22 E19.40905
G1 X68.413 Y121.805 E19.43299
G1 X68.982 Y121.361 E19.45699
G1 X69.527 Y120.892 E19.48091
G1 X70.059 Y120.382 E19.50542
G1 X75.969 Y114.478 E19.78327
G1 X76.337 Y114.337 E19.79637
G1 X76.688 Y114.419 E19.80836
G1 X78.653 Y116.383 E19.90077
G1 X79.013 Y116.072 E19.91659
G1 X79.429 Y115.749 E19.93411
G1 X79.864 Y115.441 E19.95183
G1 X80.314 Y115.155 E19.96957
G1 X80.772 Y114.901 E19.98699
G1 X81.242 Y114.665 E20.00448
G1 X81.728 Y114.45 E20.02216
G1 X82.21 Y114.26 E20.03939
G1 X82.733 Y114.089 E20.05769
G1 X83.243 Y113.951 E20.07526
G1 X83.756 Y113.836 E20.09275
G1 X84.29 Y113.741 E20.11079
G1 X84.81 Y113.683 E20.12819
G1 X85.308 Y113.645 E20.1448
G1 X85.868 Y113.631 E20.16343
G1 X86.4 Y113.645 E20.18113
G1 X86.92 Y113.685 E20.19848
G1 X87.42 Y113.741 E20.21521
G1 X87.977 Y113.84 E20.23403
G1 X88.492 Y113.957 E20.2516
G1 X89 Y114.1 E20.26915
G1 X89.482 Y114.257 E20.28601
G1 X89.996 Y114.459 E20.30438
G1 X90.463 Y114.664 E20.32134
G1 X90.955 Y114.912 E20.33967
G1 X91.394 Y115.158 E20.3564
G1 X91.841 Y115.44 E20.37398
G1 X92.3 Y115.765 E20.39269
G1 X92.696 Y116.074 E20.40939
G1 X93.053 Y116.38 E20.42503
G1 X95.004 Y114.431 E20.51675
G1 X95.349 Y114.346 E20.52857
G1 X95.723 Y114.484 E20.54183
G1 X101.623 Y120.377 E20.81919
G1 X102.155 Y120.891 E20.84379
G1 X102.716 Y121.372 E20.86837
G1 X103.285 Y121.817 E20.89239
G1 X103.893 Y122.243 E20.91708
G1 X104.487 Y122.616 E20.94041
G1 X105.089 Y122.958 E20.96344
G1 X105.727 Y123.278 E20.98718
G1 F1076.2 X107.154 Y123.925 E21.04529
G1 F888.9 X107.47 Y124.3 E21.06731
G1 F817.7 X107.47 Y124.54 E21.07902
G1 F973.6 X107.238 Y124.816 E21.0938
G1 F1200 X107.035 Y124.966 E21.1022
G1 X105.728 Y125.562 E21.14997
G1 X105.053 Y125.907 E21.17519
G1 X104.454 Y126.245 E21.19806
G1 X103.856 Y126.626 E21.22165
G1 X103.253 Y127.049 E21.24614
G1 X102.731 Y127.459 E21.26822
G1 X102.148 Y127.961 E21.29381
G1 X101.616 Y128.469 E21.31827
G1 X95.681 Y134.401 E21.59737
G1 X95.344 Y134.508 E21.60913
G1 X94.992 Y134.424 E21.62116
G1 X93.051 Y132.483 E21.71246
G1 X92.694 Y132.791 E21.72815
G1 X92.264 Y133.125 E21.74626
G1 X91.845 Y133.413 E21.76317
G1 X91.417 Y133.688 E21.78009
G1 X90.93 Y133.963 E21.79869
G1 X90.452 Y134.201 E21.81645
G1 X89.977 Y134.412 E21.83374
G1 X89.481 Y134.602 E21.8514
G1 X89.006 Y134.763 E21.86808
G1 X88.461 Y134.914 E21.88689
G1 X87.966 Y135.026 E21.90377
G1 X87.428 Y135.113 E21.9219
G1 X86.897 Y135.181 E21.9397
G1 X86.397 Y135.218 E21.95638
G1 X85.84 Y135.229 E21.97491
G1 X85.34 Y135.22 E21.99154
G1 X84.809 Y135.181 E22.00925
G1 X84.225 Y135.105 E22.02884
G1 X83.747 Y135.025 E22.04496
G1 X83.213 Y134.907 E22.06315
G1 X82.722 Y134.77 E22.0801
G1 X82.2 Y134.594 E22.09842
G1 X81.708 Y134.403 E22.11598
G1 X81.245 Y134.201 E22.13278
G1 X80.765 Y133.959 E22.15066
G1 X80.28 Y133.683 E22.16922
G1 X79.847 Y133.403 E22.18637
G1 X79.402 Y133.096 E22.20435
G1 X79.01 Y132.787 E22.22095
G1 X78.654 Y132.482 E22.23654
G1 X76.79 Y134.338 E22.32403
G1 X76.645 Y134.444 E22.33001
G1 X76.341 Y134.512 E22.34037
G1 X76.006 Y134.402 E22.35209
G1 X70.034 Y128.437 E22.63283
G1 X69.535 Y127.96 E22.65579
G1 X68.968 Y127.474 E22.68063
G1 X68.44 Y127.057 E22.70301
G1 X67.821 Y126.619 E22.72823
G1 X67.215 Y126.237 E22.75206
G1 X66.597 Y125.888 E22.77566
G1 X66.013 Y125.592 E22.79744
G1 X65.296 Y125.27 E22.82358
G1 X64.554 Y124.985 E22.85002
G1 X64.317 Y124.819 E22.85964
G1 F991.7 X64.095 Y124.542 E22.87393
G0 F6000 X63.889 Y124.525
G0 X63.72 Y124.203
G0 X63.609 Y125.185
G0 X67.265 Y127.452
G0 X68.854 Y128.69
G0 X78.45 Y137.101
G0 X81.002 Y138.691
G0 X81 Y139.222
G0 X80.739 Y139.672
G0 X81.096 Y139.273
