;FLAVOR:Marlin
;TIME:1946
;Filament used: 1.44439m
;Layer height: 0.2
;MINX:52.973
;MINY:97.083
;MINZ:0.2
;MAXX:118.622
;MAXY:151.422
;MAXZ:24.8
;Generated with Cura_SteamEngine 5.2.1
M140 S60
M105
M190 S60
M104 S210
M105
M109 S210
M82 ;absolute extrusion mode
M201 X500.00 Y500.00 Z100.00 E5000.00 ;Setup machine max acceleration
M203 X500.00 Y500.00 Z10.00 E50.00 ;Setup machine max feedrate
M204 P500.00 R1000.00 T500.00 ;Setup Print/Retract/Travel acceleration
M205 X8.00 Y8.00 Z0.40 E5.00 ;Setup Jerk
M220 S100 ;Reset Feedrate
M221 S100 ;Reset Flowrate

G28 ;Home
G29 ;Auto bed Level

G92 E0 ;Reset Extruder
G1 Z2.0 F3000 ;Move Z Axis up
G1 X10.1 Y20 Z0.28 F5000.0 ;Move to start position
G1 X10.1 Y200.0 Z0.28 F1500.0 E15 ;Draw the first line
G1 X10.4 Y200.0 Z0.28 F5000.0 ;Move to side a little
G1 X10.4 Y20 Z0.28 F1500.0 E30 ;Draw the second line
G92 E0 ;Reset Extruder
G1 Z2.0 F3000 ;Move Z Axis up

G92 E0
G92 E0
G1 F2700 E-5
;LAYER_COUNT:125
;LAYER:0
M107
G0 F6000 X70.129 Y99.143 Z0.2
;TYPE:SKIRT
G1 F2700 E0
G1 F1200 X70.915 Y98.632 E0.03118
G1 X71.743 Y98.19 E0.0624
G1 X72.605 Y97.821 E0.09359
G1 X73.495 Y97.525 E0.12478
G1 X74.407 Y97.307 E0.15597
G1 X75.334 Y97.168 E0.18715
G1 X76.273 Y97.107 E0.21844
G1 X77.307 Y97.085 E0.25284
G1 X79.291 Y97.083 E0.31883
G1 X80.153 Y97.094 E0.3475
G1 X82.084 Y97.178 E0.41179
G1 X84.698 Y97.251 E0.49876
G1 X87.174 Y97.249 E0.58112
G1 X90.92 Y97.118 E0.70579
G1 X92.514 Y97.085 E0.75881
G1 X94.62 Y97.084 E0.82886
G1 X95.322 Y97.094 E0.85221
G1 X96.258 Y97.147 E0.88339
G1 X97.186 Y97.28 E0.91457
G1 X98.1 Y97.492 E0.94578
G1 X98.993 Y97.78 E0.97699
G1 X99.857 Y98.144 E1.00817
G1 X100.688 Y98.58 E1.03938
G1 X101.478 Y99.085 E1.07057
G1 X102.222 Y99.655 E1.10174
G1 X102.915 Y100.287 E1.13294
G1 X103.552 Y100.976 E1.16415
G1 X104.096 Y101.672 E1.19353
G1 X104.562 Y102.322 E1.22013
G1 X105.353 Y103.456 E1.26611
G1 X106.872 Y105.505 E1.35095
G1 X108.403 Y107.455 E1.43341
G1 X110.029 Y109.409 E1.51796
G1 X111.7 Y111.306 E1.60204
G1 X113.385 Y113.112 E1.68419
G1 X114.9 Y114.635 E1.75564
G1 X115.487 Y115.237 E1.7836
G1 X116.113 Y115.936 E1.81481
G1 X116.676 Y116.685 E1.84598
G1 X117.174 Y117.48 E1.87718
G1 X117.603 Y118.314 E1.90837
G1 X117.959 Y119.182 E1.93958
G1 X118.239 Y120.077 E1.97077
G1 X118.442 Y120.993 E2.00197
G1 X118.567 Y121.922 E2.03315
G1 X118.61 Y122.716 E2.0596
G1 X118.622 Y123.465 E2.08451
G1 X118.621 Y125.342 E2.14694
G1 X118.611 Y126.059 E2.17079
G1 X118.558 Y126.996 E2.20201
G1 X118.425 Y127.924 E2.23319
G1 X118.214 Y128.838 E2.26439
G1 X117.926 Y129.73 E2.29556
G1 X117.562 Y130.595 E2.32678
G1 X117.127 Y131.426 E2.35797
G1 X116.622 Y132.216 E2.38916
G1 X116.052 Y132.961 E2.42036
G1 X115.204 Y133.866 E2.46161
G1 X114.001 Y135.014 E2.51691
G1 X112.174 Y136.822 E2.60241
G1 X110.431 Y138.647 E2.68634
G1 X108.772 Y140.485 E2.76869
G1 X107.111 Y142.437 E2.85394
G1 X105.544 Y144.384 E2.93707
G1 X103.968 Y146.462 E3.02381
G1 X103.668 Y146.875 E3.04079
G1 X103.085 Y147.609 E3.07196
G1 X102.442 Y148.292 E3.10316
G1 X101.743 Y148.917 E3.13435
G1 X100.993 Y149.481 E3.16556
G1 X100.198 Y149.978 E3.19675
G1 X99.364 Y150.406 E3.22792
G1 X98.496 Y150.761 E3.25912
G1 X97.601 Y151.041 E3.29031
G1 X96.685 Y151.244 E3.32151
G1 X95.755 Y151.368 E3.35272
G1 X95.09 Y151.408 E3.37488
G1 X94.465 Y151.422 E3.39567
G1 X91.566 Y151.422 E3.49209
G1 X90.869 Y151.412 E3.51527
G1 X89.754 Y151.369 E3.55239
G1 X87.109 Y151.295 E3.64039
G1 X84.586 Y151.295 E3.72431
G1 X82.042 Y151.368 E3.80896
G1 X80.926 Y151.411 E3.8461
G1 X80.517 Y151.419 E3.85971
G1 X77.463 Y151.422 E3.96129
G1 X76.761 Y151.412 E3.98464
G1 X75.825 Y151.359 E4.01582
G1 X74.897 Y151.226 E4.047
G1 X73.983 Y151.014 E4.07821
G1 X73.09 Y150.726 E4.10941
G1 X72.226 Y150.362 E4.1406
G1 X71.395 Y149.926 E4.17181
G1 X70.605 Y149.421 E4.20299
G1 X69.861 Y148.851 E4.23417
G1 X69.168 Y148.219 E4.26536
G1 X68.531 Y147.53 E4.29657
G1 X68.173 Y147.085 E4.31557
G1 X67.711 Y146.478 E4.34094
G1 X66.838 Y145.299 E4.38973
G1 X65.308 Y143.353 E4.47207
G1 X63.666 Y141.38 E4.55744
G1 X62.028 Y139.522 E4.63982
G1 X60.296 Y137.665 E4.72428
G1 X58.546 Y135.892 E4.80714
G1 X56.39 Y133.836 E4.90623
G1 X55.739 Y133.16 E4.93744
G1 X55.149 Y132.431 E4.96864
G1 X54.622 Y131.655 E4.99983
G1 X54.164 Y130.837 E5.03102
G1 X53.777 Y129.982 E5.06223
G1 X53.465 Y129.098 E5.09341
G1 X53.228 Y128.191 E5.12459
G1 X53.07 Y127.266 E5.1558
G1 X52.987 Y126.199 E5.1914
G1 X52.973 Y125.576 E5.21212
G1 X52.973 Y123.495 E5.28134
G1 X52.983 Y122.792 E5.30472
G1 X53.036 Y121.855 E5.33594
G1 X53.169 Y120.927 E5.36712
G1 X53.381 Y120.013 E5.39832
G1 X53.669 Y119.121 E5.4295
G1 X54.033 Y118.256 E5.46071
G1 X54.469 Y117.426 E5.4919
G1 X54.974 Y116.635 E5.52311
G1 X55.544 Y115.891 E5.55428
G1 X56.136 Y115.238 E5.5836
G1 X56.704 Y114.66 E5.61055
G1 X57.621 Y113.753 E5.65345
G1 X59.34 Y111.955 E5.73619
G1 X61.058 Y110.056 E5.82136
G1 X62.665 Y108.172 E5.90372
G1 X64.26 Y106.194 E5.98823
G1 X65.775 Y104.201 E6.0715
G1 X67.192 Y102.23 E6.15224
G1 X67.498 Y101.793 E6.16998
G1 X68.068 Y101.049 E6.20115
G1 X68.7 Y100.356 E6.23235
G1 X69.389 Y99.719 E6.26356
G1 X70.129 Y99.143 E6.29475
G0 F6000 X70.416 Y99.43
G1 F1200 X71.192 Y98.934 E6.32538
G1 X72.007 Y98.507 E6.35598
G1 X72.857 Y98.153 E6.38661
G1 X73.735 Y97.874 E6.41725
G1 X74.633 Y97.672 E6.44786
G1 X75.545 Y97.549 E6.47847
G1 X76.282 Y97.507 E6.50302
G1 X77.316 Y97.485 E6.53742
G1 X79.291 Y97.483 E6.60311
G1 X80.485 Y97.504 E6.64283
G1 X82.108 Y97.579 E6.69687
G1 X84.687 Y97.651 E6.78268
G1 X87.189 Y97.649 E6.86589
G1 X90.929 Y97.518 E6.99036
G1 X92.523 Y97.485 E7.04339
G1 X94.614 Y97.484 E7.11294
G1 X95.316 Y97.494 E7.13629
G1 X96.235 Y97.547 E7.16691
G1 X97.146 Y97.68 E7.19753
G1 X98.042 Y97.891 E7.22814
G1 X98.917 Y98.179 E7.25878
G1 X99.763 Y98.542 E7.2894
G1 X100.574 Y98.977 E7.32001
G1 X101.345 Y99.481 E7.35065
G1 X102.069 Y100.049 E7.38125
G1 X102.741 Y100.679 E7.41189
G1 X103.355 Y101.364 E7.44249
G1 X103.772 Y101.905 E7.46521
G1 X104.148 Y102.428 E7.48663
G1 X105.036 Y103.7 E7.53823
G1 X106.534 Y105.723 E7.62195
G1 X108.114 Y107.734 E7.70701
G1 X109.72 Y109.663 E7.79049
G1 X111.408 Y111.579 E7.87542
G1 X113.091 Y113.384 E7.95751
G1 X114.689 Y114.991 E8.03288
G1 X115.201 Y115.516 E8.05727
G1 X115.814 Y116.203 E8.0879
G1 X116.366 Y116.94 E8.11852
G1 X116.852 Y117.722 E8.14915
G1 X117.268 Y118.543 E8.17976
G1 X117.611 Y119.397 E8.21037
G1 X117.878 Y120.278 E8.24099
G1 X118.069 Y121.179 E8.27162
G1 X118.18 Y122.093 E8.30224
G1 X118.21 Y122.724 E8.32325
G1 X118.222 Y123.465 E8.3479
G1 X118.221 Y125.337 E8.41017
G1 X118.211 Y126.054 E8.43402
G1 X118.158 Y126.973 E8.46463
G1 X118.026 Y127.884 E8.49525
G1 X117.815 Y128.78 E8.52587
G1 X117.527 Y129.655 E8.5565
G1 X117.164 Y130.501 E8.58712
G1 X116.73 Y131.312 E8.61772
G1 X116.226 Y132.083 E8.64835
G1 X115.658 Y132.807 E8.67896
G1 X114.927 Y133.577 E8.71427
G1 X113.752 Y134.697 E8.76826
G1 X111.886 Y136.545 E8.85561
G1 X110.128 Y138.385 E8.94025
G1 X108.469 Y140.224 E9.02263
G1 X106.795 Y142.19 E9.10851
G1 X105.229 Y144.137 E9.19162
G1 X103.65 Y146.218 E9.2785
G1 X103.344 Y146.64 E9.29584
G1 X102.772 Y147.36 E9.32642
G1 X102.139 Y148.029 E9.35706
G1 X101.45 Y148.64 E9.38768
G1 X100.711 Y149.189 E9.4183
G1 X99.927 Y149.672 E9.44893
G1 X99.104 Y150.085 E9.47956
G1 X98.249 Y150.425 E9.51016
G1 X97.367 Y150.689 E9.54078
G1 X96.465 Y150.876 E9.57142
G1 X95.551 Y150.984 E9.60203
G1 X95.079 Y151.008 E9.61775
G1 X94.465 Y151.022 E9.63818
G1 X91.572 Y151.022 E9.7344
G1 X90.581 Y151.004 E9.76737
G1 X89.712 Y150.967 E9.7963
G1 X87.12 Y150.895 E9.88254
G1 X84.609 Y150.895 E9.96605
G1 X81.926 Y150.972 E10.05533
G1 X80.91 Y151.011 E10.08915
G1 X80.517 Y151.019 E10.10222
G1 X77.469 Y151.022 E10.2036
G1 X76.767 Y151.012 E10.22695
G1 X75.848 Y150.959 E10.25756
G1 X74.937 Y150.826 E10.28819
G1 X74.041 Y150.615 E10.3188
G1 X73.166 Y150.327 E10.34944
G1 X72.32 Y149.964 E10.38006
G1 X71.509 Y149.529 E10.41067
G1 X70.738 Y149.025 E10.4413
G1 X70.014 Y148.457 E10.47191
G1 X69.342 Y147.827 E10.50255
G1 X68.491 Y146.843 E10.54582
G1 X68.032 Y146.24 E10.57102
G1 X67.158 Y145.06 E10.61986
G1 X65.597 Y143.074 E10.70388
G1 X63.99 Y141.143 E10.78744
G1 X62.304 Y139.231 E10.87222
G1 X60.591 Y137.394 E10.95576
G1 X58.824 Y135.604 E11.03942
G1 X56.666 Y133.546 E11.1386
G1 X56.028 Y132.882 E11.16923
G1 X55.45 Y132.166 E11.19984
G1 X54.936 Y131.402 E11.23046
G1 X54.491 Y130.596 E11.26108
G1 X54.117 Y129.755 E11.2917
G1 X53.818 Y128.884 E11.32233
G1 X53.595 Y127.991 E11.35294
G1 X53.451 Y127.081 E11.38358
G1 X53.387 Y126.188 E11.41336
G1 X53.373 Y125.576 E11.43372
G1 X53.373 Y123.5 E11.50277
G1 X53.383 Y122.797 E11.52615
G1 X53.436 Y121.878 E11.55677
G1 X53.569 Y120.967 E11.58739
G1 X53.78 Y120.071 E11.61801
G1 X54.068 Y119.197 E11.64861
G1 X54.431 Y118.35 E11.67926
G1 X54.866 Y117.539 E11.70987
G1 X55.37 Y116.768 E11.74051
G1 X55.938 Y116.044 E11.77112
G1 X56.422 Y115.518 E11.79489
G1 X56.99 Y114.94 E11.82184
G1 X57.891 Y114.049 E11.86399
G1 X59.66 Y112.199 E11.94912
G1 X61.328 Y110.355 E12.03182
G1 X62.992 Y108.404 E12.11711
G1 X64.574 Y106.442 E12.20094
G1 X66.098 Y104.437 E12.2847
G1 X67.542 Y102.429 E12.36696
G1 X67.826 Y102.023 E12.38344
G1 X68.386 Y101.293 E12.41404
G1 X69.008 Y100.614 E12.44467
G1 X69.686 Y99.991 E12.4753
G1 X70.416 Y99.43 E12.50592
G0 F6000 X70.702 Y99.718
G1 F1200 X71.467 Y99.237 E12.53597
G1 X72.271 Y98.826 E12.56601
G1 X73.108 Y98.488 E12.59603
G1 X73.972 Y98.225 E12.62607
G1 X74.856 Y98.039 E12.65611
G1 X75.753 Y97.933 E12.68616
G1 X76.29 Y97.907 E12.70404
G1 X77.324 Y97.885 E12.73844
G1 X79.435 Y97.884 E12.80865
G1 X80.467 Y97.904 E12.84298
G1 X82.079 Y97.978 E12.89665
G1 X84.676 Y98.051 E12.98306
G1 X87.175 Y98.049 E13.06618
G1 X90.79 Y97.922 E13.18649
G1 X92.531 Y97.885 E13.24441
G1 X94.608 Y97.884 E13.31349
G1 X95.31 Y97.894 E13.33684
G1 X96.212 Y97.947 E13.36689
G1 X97.105 Y98.079 E13.39692
G1 X97.983 Y98.29 E13.42695
G1 X98.839 Y98.578 E13.45699
G1 X99.667 Y98.94 E13.48704
G1 X100.459 Y99.374 E13.51708
G1 X101.209 Y99.877 E13.54712
G1 X101.912 Y100.443 E13.57714
G1 X102.562 Y101.07 E13.60717
G1 X103.154 Y101.752 E13.63721
G1 X103.447 Y102.139 E13.65336
G1 X103.906 Y102.779 E13.67955
G1 X104.714 Y103.938 E13.72654
G1 X106.231 Y105.985 E13.81128
G1 X107.79 Y107.97 E13.89523
G1 X109.414 Y109.92 E13.97964
G1 X111.115 Y111.851 E14.06523
G1 X112.814 Y113.672 E14.14806
G1 X114.402 Y115.27 E14.22299
G1 X114.914 Y115.795 E14.24738
G1 X115.516 Y116.469 E14.27744
G1 X116.055 Y117.194 E14.30749
G1 X116.528 Y117.963 E14.33752
G1 X116.931 Y118.771 E14.36755
G1 X117.262 Y119.612 E14.39761
G1 X117.516 Y120.478 E14.42762
G1 X117.693 Y121.364 E14.45768
G1 X117.791 Y122.261 E14.48769
G1 X117.81 Y122.731 E14.50333
G1 X117.822 Y123.465 E14.52775
G1 X117.821 Y125.331 E14.58981
G1 X117.811 Y126.048 E14.61366
G1 X117.758 Y126.95 E14.64371
G1 X117.626 Y127.843 E14.67374
G1 X117.416 Y128.721 E14.70376
G1 X117.128 Y129.578 E14.73383
G1 X116.766 Y130.405 E14.76386
G1 X116.332 Y131.197 E14.7939
G1 X115.83 Y131.948 E14.82394
G1 X115.264 Y132.651 E14.85396
G1 X114.651 Y133.288 E14.88337
G1 X113.423 Y134.459 E14.9398
G1 X111.634 Y136.231 E15.02355
G1 X109.825 Y138.124 E15.11064
G1 X108.169 Y139.96 E15.19288
G1 X106.51 Y141.907 E15.27795
G1 X104.902 Y143.907 E15.36331
G1 X103.334 Y145.973 E15.44957
G1 X103.021 Y146.405 E15.46732
G1 X102.458 Y147.111 E15.49735
G1 X101.836 Y147.765 E15.52737
G1 X101.158 Y148.362 E15.55741
G1 X100.43 Y148.896 E15.58744
G1 X99.657 Y149.364 E15.6175
G1 X98.846 Y149.761 E15.64753
G1 X98.003 Y150.086 E15.67758
G1 X97.135 Y150.334 E15.70761
G1 X96.248 Y150.505 E15.73765
G1 X95.067 Y150.609 E15.77708
G1 X94.465 Y150.622 E15.79711
G1 X91.578 Y150.622 E15.89313
G1 X90.598 Y150.604 E15.92573
G1 X89.741 Y150.568 E15.95426
G1 X87.131 Y150.495 E16.0411
G1 X84.598 Y150.495 E16.12535
G1 X81.91 Y150.572 E16.21479
G1 X80.516 Y150.619 E16.26118
G1 X77.475 Y150.622 E16.36233
G1 X76.773 Y150.612 E16.38568
G1 X75.871 Y150.559 E16.41573
G1 X74.978 Y150.427 E16.44575
G1 X74.1 Y150.216 E16.47579
G1 X73.244 Y149.928 E16.50583
G1 X72.416 Y149.566 E16.53588
G1 X71.624 Y149.132 E16.56592
G1 X70.874 Y148.629 E16.59596
G1 X70.171 Y148.063 E16.62598
G1 X69.521 Y147.436 E16.65601
G1 X68.809 Y146.6 E16.69254
G1 X68.354 Y146.002 E16.71753
G1 X67.479 Y144.82 E16.76644
G1 X65.921 Y142.838 E16.85029
G1 X64.281 Y140.868 E16.93555
G1 X62.629 Y138.995 E17.01861
G1 X60.85 Y137.088 E17.10536
G1 X59.119 Y135.333 E17.18734
G1 X56.942 Y133.257 E17.28739
G1 X56.317 Y132.605 E17.31743
G1 X55.751 Y131.901 E17.34748
G1 X55.251 Y131.149 E17.37751
G1 X54.819 Y130.356 E17.40755
G1 X54.458 Y129.528 E17.43759
G1 X54.172 Y128.671 E17.46764
G1 X53.964 Y127.793 E17.49765
G1 X53.833 Y126.899 E17.5277
G1 X53.786 Y126.176 E17.5518
G1 X53.773 Y125.575 E17.5718
G1 X53.773 Y123.506 E17.64061
G1 X53.783 Y122.803 E17.664
G1 X53.836 Y121.901 E17.69405
G1 X53.968 Y121.008 E17.72407
G1 X54.179 Y120.13 E17.75411
G1 X54.467 Y119.274 E17.78415
G1 X54.829 Y118.447 E17.81417
G1 X55.263 Y117.655 E17.84421
G1 X55.765 Y116.904 E17.87425
G1 X56.332 Y116.201 E17.90429
G1 X56.707 Y115.799 E17.92258
G1 X57.382 Y115.113 E17.95459
G1 X58.195 Y114.31 E17.99259
G1 X59.928 Y112.498 E18.07599
G1 X61.644 Y110.6 E18.16109
G1 X63.292 Y108.669 E18.24553
G1 X64.888 Y106.689 E18.33011
G1 X66.426 Y104.666 E18.41463
G1 X67.818 Y102.73 E18.49394
G1 X68.153 Y102.252 E18.51336
G1 X68.704 Y101.536 E18.54341
G1 X69.315 Y100.872 E18.57342
G1 X69.983 Y100.264 E18.60346
G1 X70.702 Y99.718 E18.63349
G1 F2700 E13.63349
;MESH:sample.stl
G0 F6000 X77.715 Y107.418
G0 X77.715 Y108.488
G0 X79.177 Y108.908
G1 F2700 E18.63349
G0 F6000 X78.646 Y108.768
;TYPE:WALL-INNER
G1 F845.1 X79.258 Y109.114 E18.66669
G1 X79.874 Y109.423 E18.69924
G1 F843.6 X80.445 Y109.679 E18.72885
G1 F839.2 X81.157 Y109.956 E18.76518
G1 F985.6 X81.333 Y110.241 E18.77875
G1 F1200 X81.439 Y110.561 E18.78996
G1 X81.336 Y110.877 E18.80101
G1 F987.7 X81.08 Y111.199 E18.81764
G1 F842.1 X80.444 Y111.45 E18.85004
G1 F843.6 X79.841 Y111.721 E18.88132
G1 X79.233 Y112.032 E18.91363
G1 X78.667 Y112.351 E18.94437
G1 F842.1 X78.106 Y112.707 E18.97586
G1 X77.54 Y113.106 E19.00869
G1 F845.1 X77.014 Y113.518 E19.04024
G1 X76.493 Y113.968 E19.07276
G1 F843.6 X75.989 Y114.449 E19.10572
G1 F845.1 X70.343 Y120.095 E19.48283
G1 F843.6 X69.854 Y120.559 E19.51472
G1 X69.351 Y120.993 E19.54615
G1 X68.836 Y121.394 E19.57704
G1 F842.1 X68.306 Y121.763 E19.60764
G1 X67.766 Y122.105 E19.63794
G1 X67.226 Y122.414 E19.66743
G1 F843.6 X66.638 Y122.709 E19.69855
G1 X66.063 Y122.965 E19.72833
G1 F834.8 X65.234 Y123.28 E19.77073
G1 F784.3 X64.916 Y123.422 E19.78845
G1 F746.5 X64.693 Y123.488 E19.80089
G1 X64.693 Y123.728 E19.81372
G1 F824.7 X64.632 Y124.256 E19.83944
G1 F921.3 X64.632 Y124.574 E19.85322
G1 F1043.5 X64.573 Y125.099 E19.87342
G1 F1200 X64.572 Y125.428 E19.88437
G1 X64.872 Y125.516 E19.89476
G1 F987.7 X65.358 Y125.592 E19.91464
G1 F842.1 X66.099 Y125.875 E19.95224
G1 F843.6 X66.656 Y126.126 E19.98114
G1 X67.238 Y126.42 E20.01199
G1 X67.792 Y126.736 E20.04217
G1 F842.1 X68.333 Y127.08 E20.07255
G1 X68.868 Y127.455 E20.10352
G1 F843.6 X69.377 Y127.856 E20.13418
G1 F845.1 X69.865 Y128.276 E20.16459
G1 F843.6 X70.357 Y128.746 E20.19678
G1 F845.1 X76.017 Y134.405 E20.57479
G1 X76.524 Y134.89 E20.60793
G1 F843.6 X77.003 Y135.298 E20.6377
G1 F842.1 X77.589 Y135.76 E20.67306
G1 F839.2 X78.113 Y136.122 E20.70335
G1 X78.699 Y136.495 E20.73639
G1 F842.1 X79.255 Y136.81 E20.76668
G1 F843.6 X79.851 Y137.111 E20.79827
G1 X80.454 Y137.379 E20.82949
G1 F837.7 X81.158 Y137.658 E20.86557
G1 F983.6 X81.332 Y137.942 E20.87909
G1 F1200 X81.439 Y138.266 E20.89044
G1 X81.332 Y138.586 E20.90166
G1 F989.7 X81.072 Y138.903 E20.91819
G1 F842.1 X80.431 Y139.153 E20.9508
G1 X79.844 Y139.417 E20.98131
G1 X79.214 Y139.737 E21.0148
G1 X80.493 Y139.738 E21.07542
G1 X81.266 Y139.438 E21.11472
G1 F989.7 X81.861 Y139.326 E21.13913
G1 F1200 X82.454 Y139.151 E21.1597
G1 X83.108 Y138.998 E21.18204
G1 X83.699 Y138.892 E21.20201
G1 X84.318 Y138.805 E21.2228
G1 X84.904 Y138.748 E21.24238
G1 X85.518 Y138.722 E21.26282
G1 X86.171 Y138.723 E21.28454
