;FLAVOR:Marlin
;TIME:2436
;Filament used: 1.47729m
;Layer height: 0.2
;MINX:113.374
;MINY:94.499
;MINZ:0.2
;MAXX:186.526
;MAXY:205.5
;MAXZ:4.6
;Generated with Cura_SteamEngine 5.2.1
M140 S60
M105
M190 S60
M104 S210
M105
M109 S210
M82 ;absolute extrusion mode
M201 X500.00 Y500.00 Z100.00 E5000.00 ;Setup machine max acceleration
M203 X500.00 Y500.00 Z10.00 E50.00 ;Setup machine max feedrate
M204 P500.00 R1000.00 T500.00 ;Setup Print/Retract/Travel acceleration
M205 X8.00 Y8.00 Z0.40 E5.00 ;Setup Jerk
M220 S100 ;Reset Feedrate
M221 S100 ;Reset Flowrate

G28 ;Home
G29 ;Auto bed Level

G92 E0 ;Reset Extruder
G1 Z2.0 F3000 ;Move Z Axis up
G1 X10.1 Y20 Z0.28 F5000.0 ;Move to start position
G1 X10.1 Y200.0 Z0.28 F1500.0 E15 ;Draw the first line
G1 X10.4 Y200.0 Z0.28 F5000.0 ;Move to side a little
G1 X10.4 Y20 Z0.28 F1500.0 E30 ;Draw the second line
G92 E0 ;Reset Extruder
G1 Z2.0 F3000 ;Move Z Axis up

G92 E0
G92 E0
G1 F2700 E-7
;LAYER_COUNT:23
;LAYER:0
M107
G0 F6000 X116.279 Y98.259 Z0.2
;TYPE:SKIRT
G1 F2700 E0
G1 F1200 X116.934 Y97.588 E0.03119
G1 X117.644 Y96.974 E0.06241
G1 X118.403 Y96.424 E0.09358
G1 X119.386 Y95.839 E0.13163
G1 X120.313 Y95.397 E0.16579
G1 X121.19 Y95.067 E0.19695
G1 X122.093 Y94.813 E0.22815
G1 X123.014 Y94.636 E0.25935
G1 X124.409 Y94.52 E0.3059
G1 X125.602 Y94.499 E0.34559
G1 X174.707 Y94.502 E1.97883
G1 X175.385 Y94.512 E2.00138
G1 X176.322 Y94.566 E2.0326
G1 X177.25 Y94.699 E2.06378
G1 X178.163 Y94.911 E2.09495
G1 X179.056 Y95.2 E2.12617
G1 X180.223 Y95.713 E2.16857
G1 X180.513 Y95.861 E2.1794
G1 X181.33 Y96.323 E2.21062
G1 X182.104 Y96.852 E2.2418
G1 X182.83 Y97.446 E2.273
G1 X183.503 Y98.099 E2.30419
G1 X184.118 Y98.807 E2.33538
G1 X184.671 Y99.565 E2.36659
G1 X185.156 Y100.367 E2.39776
G1 X185.572 Y101.208 E2.42896
G1 X185.915 Y102.081 E2.46016
G1 X186.182 Y102.98 E2.49135
G1 X186.371 Y103.898 E2.52253
G1 X186.482 Y104.83 E2.55374
G1 X186.509 Y105.346 E2.57093
G1 X186.526 Y106.115 E2.59651
G1 X186.524 Y134.333 E3.53505
G1 X186.514 Y135.031 E3.55827
G1 X186.43 Y136.237 E3.59847
G1 X186.36 Y136.785 E3.61685
G1 X186.085 Y138.714 E3.68166
G1 X185.805 Y141.176 E3.76407
G1 X185.588 Y143.729 E3.84929
G1 X185.447 Y146.205 E3.93178
G1 X185.375 Y148.752 E4.01652
G1 X185.375 Y151.242 E4.09934
G1 X185.447 Y153.772 E4.18352
G1 X185.59 Y156.312 E4.26814
G1 X185.799 Y158.772 E4.35025
G1 X186.088 Y161.32 E4.43554
G1 X186.409 Y163.603 E4.51222
G1 X186.514 Y164.949 E4.55713
G1 X186.526 Y165.732 E4.58317
G1 X186.524 Y193.644 E5.51153
G1 X186.512 Y194.479 E5.5393
G1 X186.458 Y195.415 E5.57049
G1 X186.325 Y196.344 E5.6017
G1 X186.114 Y197.257 E5.63287
G1 X185.825 Y198.15 E5.66409
G1 X185.461 Y199.014 E5.69527
G1 X185.026 Y199.845 E5.72647
G1 X184.52 Y200.635 E5.75767
G1 X183.95 Y201.379 E5.78884
G1 X183.318 Y202.072 E5.82004
G1 X182.629 Y202.709 E5.85125
G1 X181.954 Y203.242 E5.87985
G1 X181.184 Y203.778 E5.91106
G1 X180.372 Y204.246 E5.94223
G1 X179.522 Y204.644 E5.97345
G1 X178.642 Y204.967 E6.00462
G1 X177.737 Y205.215 E6.03583
G1 X176.815 Y205.384 E6.06701
G1 X175.472 Y205.489 E6.11182
G1 X174.803 Y205.5 E6.13407
G1 X134.892 Y205.498 E7.46151
G1 X134.215 Y205.488 E7.48403
G1 X133.278 Y205.434 E7.51525
G1 X132.35 Y205.301 E7.54643
G1 X131.436 Y205.089 E7.57764
G1 X130.544 Y204.8 E7.60882
G1 X129.377 Y204.287 E7.65122
G1 X129.087 Y204.139 E7.66205
G1 X128.27 Y203.677 E7.69327
G1 X127.496 Y203.148 E7.72445
G1 X126.77 Y202.554 E7.75565
G1 X126.097 Y201.901 E7.78684
G1 X125.482 Y201.193 E7.81803
G1 X124.929 Y200.435 E7.84924
G1 X124.444 Y199.633 E7.88041
G1 X124.028 Y198.792 E7.91162
G1 X123.685 Y197.919 E7.94282
G1 X123.418 Y197.02 E7.97401
G1 X123.229 Y196.102 E8.00518
G1 X123.118 Y195.17 E8.0364
G1 X123.091 Y194.653 E8.05362
G1 X123.074 Y193.883 E8.07923
G1 X123.074 Y174.044 E8.73908
G1 X123.037 Y171.436 E8.82583
G1 X122.93 Y168.914 E8.90979
G1 X122.753 Y166.419 E8.99298
G1 X122.505 Y163.92 E9.07651
G1 X122.187 Y161.431 E9.15997
G1 X121.793 Y158.922 E9.24444
G1 X121.334 Y156.456 E9.32787
G1 X120.8 Y153.973 E9.41234
G1 X120.213 Y151.578 E9.49435
G1 X119.535 Y149.112 E9.57942
G1 X118.806 Y146.73 E9.66227
G1 X117.676 Y143.427 E9.77838
G1 X117.41 Y142.528 E9.80956
G1 X117.223 Y141.609 E9.84075
G1 X117.107 Y140.577 E9.8753
G1 X117.064 Y139.911 E9.89749
G1 X116.987 Y138.391 E9.94811
G1 X116.791 Y135.891 E10.03152
G1 X116.52 Y133.367 E10.11595
G1 X116.179 Y130.858 E10.20017
G1 X115.773 Y128.39 E10.28336
G1 X115.299 Y125.945 E10.36619
G1 X114.753 Y123.495 E10.44968
G1 X113.803 Y119.849 E10.57499
G1 X113.587 Y118.937 E10.60616
G1 X113.449 Y118.009 E10.63737
G1 X113.39 Y117.04 E10.66966
G1 X113.374 Y116.02 E10.70359
G1 X113.376 Y106.286 E11.02734
G1 X113.385 Y105.66 E11.04816
G1 X113.439 Y104.724 E11.07935
G1 X113.572 Y103.795 E11.11056
G1 X113.783 Y102.881 E11.14176
G1 X114.238 Y101.551 E11.18851
G1 X114.689 Y100.572 E11.22436
G1 X115.153 Y99.757 E11.25556
G1 X115.684 Y98.984 E11.28675
G1 X116.279 Y98.259 E11.31794
G0 F6000 X116.623 Y98.476
G1 F1200 X117.27 Y97.821 E11.34856
G1 X117.972 Y97.225 E11.37919
G1 X118.723 Y96.693 E11.4098
G1 X119.579 Y96.191 E11.44281
G1 X120.485 Y95.759 E11.47619
G1 X121.347 Y95.437 E11.5068
G1 X122.234 Y95.19 E11.53742
G1 X123.14 Y95.022 E11.56807
G1 X124.417 Y94.92 E11.61068
G1 X125.602 Y94.899 E11.6501
G1 X174.701 Y94.902 E13.28314
G1 X175.379 Y94.912 E13.30569
G1 X176.298 Y94.966 E13.33631
G1 X177.209 Y95.099 E13.36693
G1 X178.105 Y95.31 E13.39755
G1 X178.98 Y95.599 E13.4282
G1 X180.041 Y96.069 E13.46679
G1 X180.331 Y96.217 E13.47762
G1 X181.133 Y96.671 E13.50827
G1 X181.891 Y97.193 E13.53888
G1 X182.602 Y97.778 E13.56951
G1 X183.259 Y98.423 E13.60013
G1 X183.858 Y99.122 E13.63075
G1 X184.393 Y99.871 E13.66136
G1 X184.862 Y100.663 E13.69198
G1 X185.26 Y101.494 E13.72262
G1 X185.585 Y102.355 E13.75323
G1 X185.834 Y103.241 E13.78384
G1 X186.004 Y104.146 E13.81447
G1 X186.109 Y105.357 E13.8549
G1 X186.126 Y106.115 E13.88011
G1 X186.124 Y134.327 E14.81845
G1 X186.114 Y135.025 E14.84167
G1 X186.033 Y136.188 E14.88044
G1 X185.964 Y136.729 E14.89858
G1 X185.69 Y138.653 E14.96322
G1 X185.404 Y141.164 E15.04728
G1 X185.191 Y143.672 E15.13099
G1 X185.047 Y146.205 E15.21538
G1 X184.975 Y148.741 E15.29976
G1 X184.975 Y151.253 E15.38331
G1 X185.047 Y153.807 E15.46829
G1 X185.188 Y156.299 E15.55131
G1 X185.405 Y158.85 E15.63646
G1 X185.688 Y161.343 E15.71991
G1 X186.013 Y163.658 E15.79766
G1 X186.115 Y164.955 E15.84093
G1 X186.125 Y165.555 E15.86089
G1 X186.124 Y193.638 E16.79494
G1 X186.112 Y194.473 E16.82271
G1 X186.059 Y195.392 E16.85333
G1 X185.926 Y196.303 E16.88395
G1 X185.715 Y197.2 E16.9146
G1 X185.426 Y198.074 E16.94521
G1 X185.063 Y198.92 E16.97583
G1 X184.628 Y199.731 E17.00644
G1 X184.124 Y200.502 E17.03708
G1 X183.556 Y201.226 E17.06769
G1 X182.926 Y201.898 E17.09832
G1 X181.934 Y202.755 E17.14192
G1 X181.712 Y202.924 E17.1512
G1 X180.956 Y203.45 E17.18184
G1 X180.157 Y203.907 E17.21245
G1 X179.321 Y204.294 E17.24309
G1 X178.455 Y204.607 E17.27372
G1 X177.566 Y204.843 E17.30431
G1 X176.659 Y205.001 E17.33493
G1 X175.465 Y205.089 E17.37475
G1 X174.796 Y205.1 E17.39701
G1 X134.897 Y205.098 E18.72405
G1 X134.22 Y205.088 E18.74657
G1 X133.301 Y205.034 E18.77719
G1 X132.39 Y204.901 E18.80781
G1 X131.494 Y204.69 E18.83843
G1 X130.62 Y204.401 E18.86904
G1 X129.559 Y203.931 E18.90764
G1 X129.269 Y203.783 E18.91847
G1 X128.467 Y203.329 E18.94912
G1 X127.709 Y202.807 E18.97973
G1 X126.998 Y202.222 E19.01036
G1 X126.341 Y201.577 E19.04098
G1 X125.742 Y200.878 E19.0716
G1 X125.207 Y200.129 E19.10221
G1 X124.738 Y199.337 E19.13283
G1 X124.34 Y198.506 E19.16347
G1 X124.015 Y197.645 E19.19408
G1 X123.766 Y196.759 E19.22469
G1 X123.596 Y195.854 E19.25532
G1 X123.491 Y194.642 E19.29578
G1 X123.474 Y193.883 E19.32103
G1 X123.474 Y174.038 E19.98108
G1 X123.437 Y171.413 E20.06839
G1 X123.33 Y168.905 E20.15189
G1 X123.152 Y166.384 E20.23594
G1 X122.902 Y163.866 E20.3201
G1 X122.581 Y161.355 E20.4043
G1 X122.194 Y158.893 E20.48719
G1 X121.725 Y156.371 E20.57251
G1 X121.193 Y153.899 E20.65661
G1 X120.593 Y151.449 E20.74051
G1 X119.926 Y149.026 E20.8241
G1 X119.187 Y146.61 E20.90813
G1 X118.054 Y143.298 E21.02455
G1 X117.794 Y142.415 E21.05517
G1 X117.612 Y141.512 E21.08581
G1 X117.506 Y140.551 E21.11796
G1 X117.454 Y139.73 E21.14532
G1 X117.385 Y138.341 E21.19158
G1 X117.189 Y135.854 E21.27455
G1 X116.916 Y133.303 E21.35989
G1 X116.577 Y130.811 E21.44353
G1 X116.172 Y128.348 E21.52655
G1 X115.682 Y125.825 E21.61204
G1 X115.147 Y123.425 E21.69382
G1 X114.188 Y119.74 E21.82047
G1 X113.976 Y118.844 E21.85109
G1 X113.843 Y117.934 E21.88168
G1 X113.789 Y117.034 E21.91167
G1 X113.775 Y116.199 E21.93944
G1 X113.776 Y106.292 E22.26895
G1 X113.785 Y105.666 E22.28977
G1 X113.838 Y104.747 E22.32039
G1 X113.971 Y103.835 E22.35104
G1 X114.182 Y102.939 E22.38166
G1 X114.61 Y101.699 E22.42529
G1 X115.053 Y100.74 E22.46043
G1 X115.51 Y99.94 E22.49107
G1 X116.034 Y99.184 E22.52166
G1 X116.623 Y98.476 E22.55229
G0 F6000 X116.965 Y98.693
G1 F1200 X117.605 Y98.056 E22.58233
G1 X118.299 Y97.478 E22.61237
G1 X119.041 Y96.964 E22.64239
G1 X119.772 Y96.541 E22.67048
G1 X120.657 Y96.12 E22.70308
G1 X121.504 Y95.806 E22.73312
G1 X122.375 Y95.569 E22.76314
G1 X123.264 Y95.409 E22.79319
G1 X124.424 Y95.32 E22.83188
G1 X125.602 Y95.299 E22.87107
G1 X174.695 Y95.302 E24.50391
G1 X175.373 Y95.312 E24.52646
G1 X176.275 Y95.365 E24.55651
G1 X177.168 Y95.498 E24.58654
G1 X178.046 Y95.71 E24.61658
G1 X178.902 Y95.998 E24.64662
G1 X179.86 Y96.426 E24.68152
G1 X180.15 Y96.574 E24.69235
G1 X180.935 Y97.019 E24.72236
G1 X181.678 Y97.533 E24.75241
G1 X182.373 Y98.11 E24.78246
G1 X183.013 Y98.746 E24.81247
G1 X183.595 Y99.437 E24.84251
G1 X184.114 Y100.176 E24.87255
G1 X184.565 Y100.959 E24.9026
G1 X184.946 Y101.778 E24.93265
G1 X185.252 Y102.627 E24.96266
G1 X185.482 Y103.501 E24.99272
G1 X185.634 Y104.391 E25.02275
G1 X185.709 Y105.368 E25.05534
G1 X185.726 Y106.115 E25.08019
G1 X185.724 Y134.321 E26.01833
G1 X185.714 Y135.019 E26.04155
G1 X185.636 Y136.138 E26.07886
G1 X185.568 Y136.672 E26.09676
G1 X185.291 Y138.618 E26.16214
G1 X185.01 Y141.087 E26.24479
G1 X184.789 Y143.688 E26.33161
G1 X184.647 Y146.17 E26.41429
G1 X184.575 Y148.73 E26.49947
G1 X184.575 Y151.264 E26.58376
G1 X184.647 Y153.804 E26.66827
G1 X184.791 Y156.356 E26.75329
G1 X185.004 Y158.857 E26.83677
G1 X185.293 Y161.408 E26.92216
G1 X185.617 Y163.714 E26.99961
G1 X185.715 Y164.962 E27.04125
G1 X185.725 Y165.562 E27.06121
G1 X185.724 Y193.633 E27.99485
G1 X185.712 Y194.468 E28.02263
G1 X185.659 Y195.369 E28.05265
G1 X185.527 Y196.262 E28.08267
G1 X185.316 Y197.141 E28.11274
G1 X185.028 Y197.997 E28.14277
G1 X184.665 Y198.824 E28.17281
G1 X184.231 Y199.616 E28.20285
G1 X183.729 Y200.366 E28.23287
G1 X183.162 Y201.069 E28.26291
G1 X182.535 Y201.719 E28.29295
G1 X181.691 Y202.437 E28.3298
G1 X181.469 Y202.606 E28.33908
G1 X180.727 Y203.121 E28.36912
G1 X179.943 Y203.568 E28.39914
G1 X179.121 Y203.943 E28.42919
G1 X178.27 Y204.245 E28.45922
G1 X177.396 Y204.471 E28.48925
G1 X176.505 Y204.618 E28.51928
G1 X175.459 Y204.689 E28.55415
G1 X174.79 Y204.7 E28.57641
G1 X134.903 Y204.698 E29.90305
G1 X134.226 Y204.688 E29.92557
G1 X133.325 Y204.635 E29.95559
G1 X132.432 Y204.502 E29.98562
G1 X131.554 Y204.29 E30.01566
G1 X130.698 Y204.002 E30.0457
G1 X129.74 Y203.574 E30.0806
G1 X129.45 Y203.426 E30.09143
G1 X128.665 Y202.981 E30.12144
G1 X127.922 Y202.467 E30.15149
G1 X127.227 Y201.89 E30.18154
G1 X126.587 Y201.254 E30.21155
G1 X126.005 Y200.563 E30.24159
G1 X125.486 Y199.824 E30.27163
G1 X125.035 Y199.041 E30.30168
G1 X124.654 Y198.222 E30.33173
G1 X124.348 Y197.373 E30.36174
G1 X124.118 Y196.499 E30.3918
G1 X123.966 Y195.609 E30.42183
G1 X123.891 Y194.63 E30.45449
G1 X123.874 Y193.883 E30.47934
G1 X123.874 Y174.032 E31.13959
G1 X123.837 Y171.426 E31.22627
G1 X123.728 Y168.858 E31.31176
G1 X123.551 Y166.356 E31.39519
G1 X123.302 Y163.843 E31.47918
G1 X122.974 Y161.28 E31.56512
G1 X122.583 Y158.795 E31.64879
G1 X122.123 Y156.319 E31.73255
G1 X121.579 Y153.792 E31.81852
G1 X120.982 Y151.353 E31.90204
G1 X120.306 Y148.898 E31.98673
G1 X119.569 Y146.489 E32.07052
G1 X118.433 Y143.168 E32.18726
G1 X118.179 Y142.302 E32.21728
G1 X118.002 Y141.416 E32.24733
G1 X117.905 Y140.525 E32.27714
G1 X117.862 Y139.859 E32.29934
G1 X117.787 Y138.36 E32.34926
G1 X117.583 Y135.778 E32.4354
G1 X117.316 Y133.277 E32.51906
G1 X116.974 Y130.764 E32.60341
G1 X116.56 Y128.244 E32.68835
G1 X116.079 Y125.768 E32.77224
G1 X115.534 Y123.321 E32.85562
G1 X114.573 Y119.632 E32.98241
G1 X114.366 Y118.753 E33.01245
G1 X114.237 Y117.859 E33.04249
G1 X114.189 Y117.027 E33.07021
G1 X114.175 Y116.192 E33.09799
G1 X114.176 Y106.297 E33.4271
G1 X114.185 Y105.671 E33.44792
G1 X114.238 Y104.77 E33.47794
G1 X114.37 Y103.876 E33.50799
G1 X114.581 Y102.998 E33.53803
G1 X114.982 Y101.847 E33.57857
G1 X115.416 Y100.908 E33.61297
G1 X115.867 Y100.125 E33.64303
G1 X116.384 Y99.385 E33.67305
G1 X116.965 Y98.693 E33.7031
G1 F2700 E26.7031
;MESH:hook.stl
G0 F6000 X127.411 Y140.059
G0 X127.711 Y140.538
G0 X128.157 Y140.74
G0 X133.398 Y140.788
G0 X134.674 Y193.899
;TYPE:WALL-INNER
G1 F2700 E33.7031
G1 F1200 X174.925 Y193.901 E35.04186
G1 X174.925 Y165.502 E35.98641
G1 X169.776 Y165.501 E36.15767
G1 X169.775 Y174.901 E36.47031
G1 X170.068 Y174.905 E36.48006
G1 X170.423 Y174.968 E36.49205
G1 X170.795 Y175.189 E36.50644
G1 X171.041 Y175.436 E36.51804
G1 X171.222 Y175.834 E36.53258
G1 X171.275 Y176.083 E36.54105
G1 X171.275 Y183.364 E36.78321
G1 X171.154 Y183.773 E36.7974
G1 X170.847 Y184.177 E36.81428
G1 X170.518 Y184.377 E36.82708
G1 X170.213 Y184.488 E36.83788
G1 X169.777 Y184.5 E36.85239
G1 X169.773 Y189.957 E37.03389
G1 X169.608 Y190.33 E37.04745
G1 X169.458 Y190.535 E37.0559
G1 X169.189 Y190.774 E37.06787
G1 X168.954 Y190.903 E37.07678
G1 X168.604 Y190.999 E37.08886
G1 X138.823 Y190.999 E38.07938
G1 X138.449 Y190.925 E38.09206
G1 X138.271 Y190.848 E38.09851
G1 X137.984 Y190.645 E38.1102
G1 X137.715 Y190.313 E38.12441
G1 X137.579 Y189.851 E38.14043
G1 X137.584 Y110.148 E40.79136
G1 X137.685 Y109.754 E40.80489
G1 X137.902 Y109.444 E40.81748
G1 X138.28 Y109.129 E40.83384
G1 X138.746 Y109.001 E40.84991
G1 X168.624 Y109.001 E41.84366
G1 X169.037 Y109.136 E41.85811
G1 X169.25 Y109.258 E41.86628
G1 X169.529 Y109.543 E41.87954
G1 X169.68 Y109.811 E41.88977
G1 X169.771 Y110.14 E41.90113
G1 X169.775 Y115.501 E42.07943
G1 X170.153 Y115.506 E42.09201
G1 X170.534 Y115.612 E42.10516
G1 X170.882 Y115.879 E42.11975
G1 X171.03 Y116.046 E42.12717
G1 X171.207 Y116.405 E42.14048
G1 X171.275 Y116.734 E42.15166
G1 X171.273 Y123.981 E42.39269
G1 X171.046 Y124.566 E42.41357
G1 X170.669 Y124.91 E42.43054
G1 X170.181 Y125.1 E42.44796
G1 X169.777 Y125.1 E42.46139
G1 X169.775 Y134.499 E42.77401
G1 X174.925 Y134.5 E42.9453
G1 X174.925 Y106.102 E43.88982
G1 X124.976 Y106.1 E45.55113
G1 X124.975 Y116.5 E45.89703
G1 X127.875 Y116.5 E45.99349
G1 X127.875 Y110.125 E46.20552
G1 X128.029 Y109.707 E46.22034
G1 X128.191 Y109.468 E46.22994
G1 X128.458 Y109.228 E46.24188
G1 X128.696 Y109.097 E46.25092
G1 X129.046 Y109.001 E46.26299
G1 X133.496 Y109 E46.411
G1 X133.731 Y109.047 E46.41897
G1 X133.983 Y109.154 E46.42807
G1 X134.178 Y109.288 E46.43594
G1 X134.481 Y109.603 E46.45048
G1 X134.676 Y110.062 E46.46707
G1 X134.672 Y135.438 E47.31108
G1 X134.59 Y135.752 E47.32187
G1 X134.479 Y135.97 E47.33001
G1 X134.211 Y136.305 E47.34427
G1 X133.9 Y136.49 E47.35631
G1 X133.533 Y136.595 E47.36901
G1 X128.675 Y136.598 E47.53058
G1 X128.674 Y139.499 E47.62707
G1 X133.486 Y139.505 E47.78712
G1 X133.908 Y139.601 E47.80151
G1 X134.262 Y139.859 E47.81608
G1 X134.42 Y140.034 E47.82393
G1 X134.617 Y140.433 E47.83873
G1 X134.675 Y140.744 E47.84925
G1 X134.674 Y193.899 E49.61719
G0 F6000 X134.275 Y194.231
;TYPE:WALL-OUTER
G1 F1200 X134.4 Y194.299 E49.62192
G1 X175.224 Y194.301 E50.97974
G1 X175.325 Y194.224 E50.98396
G1 X175.325 Y165.214 E51.94884
G1 X175.297 Y165.144 E51.95134
G1 X175.205 Y165.102 E51.95471
G1 X169.474 Y165.1 E52.14532
G1 X169.376 Y165.179 E52.14951
G1 X169.375 Y175.211 E52.48317
G1 X169.496 Y175.299 E52.48815
G1 X170.064 Y175.305 E52.50704
