; G-Code generated by Simplify3D(R) Version 4.1.2
; May 19, 2021 at 6:29:03 PM
; Settings Summary
;   processName,Detailed CR10S
;   applyToModels,f596eefa-84a9-4538-bd4b-40c9c84fcbff
;   profileName,Creality CR-10S Pro (modified)
;   profileVersion,2021-05-02 22:29:37
;   baseProfile,
;   printMaterial,PLA
;   printQuality,High
;   printExtruders,
;   extruderName,Primary Extruder
;   extruderToolheadNumber,0
;   extruderDiameter,0.4
;   extruderAutoWidth,0
;   extruderWidth,0.4
;   extrusionMultiplier,0.9
;   extruderUseRetract,1
;   extruderRetractionDistance,5
;   extruderExtraRestartDistance,0
;   extruderRetractionZLift,0
;   extruderRetractionSpeed,1800
;   extruderUseCoasting,0
;   extruderCoastingDistance,0.2
;   extruderUseWipe,0
;   extruderWipeDistance,5
;   primaryExtruder,0
;   layerHeight,0.1
;   topSolidLayers,4
;   bottomSolidLayers,4
;   perimeterOutlines,2
;   printPerimetersInsideOut,1
;   startPointOption,2
;   startPointOriginX,0
;   startPointOriginY,0
;   sequentialIslands,0
;   spiralVaseMode,0
;   firstLayerHeightPercentage,120
;   firstLayerWidthPercentage,150
;   firstLayerUnderspeed,0.5
;   useRaft,0
;   raftExtruder,0
;   raftTopLayers,3
;   raftBaseLayers,2
;   raftOffset,3
;   raftSeparationDistance,0.14
;   raftTopInfill,100
;   aboveRaftSpeedMultiplier,0.3
;   useSkirt,0
;   skirtExtruder,0
;   skirtLayers,2
;   skirtOutlines,2
;   skirtOffset,4
;   usePrimePillar,0
;   primePillarExtruder,999
;   primePillarWidth,12
;   primePillarLocation,7
;   primePillarSpeedMultiplier,1
;   useOozeShield,0
;   oozeShieldExtruder,999
;   oozeShieldOffset,2
;   oozeShieldOutlines,1
;   oozeShieldSidewallShape,1
;   oozeShieldSidewallAngle,30
;   oozeShieldSpeedMultiplier,1
;   infillExtruder,0
;   internalInfillPattern,Rectilinear
;   externalInfillPattern,Rectilinear
;   infillPercentage,25
;   outlineOverlapPercentage,15
;   infillExtrusionWidthPercentage,100
;   minInfillLength,5
;   infillLayerInterval,1
;   internalInfillAngles,45,-45
;   overlapInternalInfillAngles,0
;   externalInfillAngles,45,-45
;   generateSupport,0
;   supportExtruder,0
;   supportInfillPercentage,25
;   supportExtraInflation,0
;   supportBaseLayers,0
;   denseSupportExtruder,0
;   denseSupportLayers,0
;   denseSupportInfillPercentage,70
;   supportLayerInterval,1
;   supportHorizontalPartOffset,0.3
;   supportUpperSeparationLayers,1
;   supportLowerSeparationLayers,1
;   supportType,0
;   supportGridSpacing,2
;   maxOverhangAngle,45
;   supportAngles,0
;   temperatureName,Primary Extruder,Heated Bed
;   temperatureNumber,0,0
;   temperatureSetpointCount,1,1
;   temperatureSetpointLayers,1,1
;   temperatureSetpointTemperatures,210,60
;   temperatureStabilizeAtStartup,1,1
;   temperatureHeatedBed,0,1
;   fanLayers,1,2
;   fanSpeeds,0,100
;   blipFanToFullPower,0
;   adjustSpeedForCooling,1
;   minSpeedLayerTime,15
;   minCoolingSpeedSlowdown,20
;   increaseFanForCooling,0
;   minFanLayerTime,45
;   maxCoolingFanSpeed,100
;   increaseFanForBridging,0
;   bridgingFanSpeed,100
;   use5D,1
;   relativeEdistances,0
;   allowEaxisZeroing,1
;   independentExtruderAxes,0
;   includeM10123,0
;   stickySupport,1
;   applyToolheadOffsets,0
;   gcodeXoffset,0
;   gcodeYoffset,0
;   gcodeZoffset,0
;   overrideMachineDefinition,1
;   machineTypeOverride,0
;   strokeXoverride,300
;   strokeYoverride,300
;   strokeZoverride,400
;   originOffsetXoverride,0
;   originOffsetYoverride,0
;   originOffsetZoverride,0
;   homeXdirOverride,-1
;   homeYdirOverride,-1
;   homeZdirOverride,-1
;   flipXoverride,1
;   flipYoverride,-1
;   flipZoverride,1
;   toolheadOffsets,0,0|0,0|0,0|0,0|0,0|0,0
;   overrideFirmwareConfiguration,1
;   firmwareTypeOverride,RepRap (Marlin/Repetier/Sprinter)
;   GPXconfigOverride,r2
;   baudRateOverride,115200
;   overridePrinterModels,1
;   printerModelsOverride
;   startingGcode,G28; home all axes,G29 ; auto-bed level,G1 Z5 F3000 ; lift,G1 X20 Y20 F1500 ; move to prime,G1 Z100 F3000 ; lift,G1 Z0.2 F3000 ; get ready to prime,G92 E0 ; reset extrusion distance,G1 Y80 E10 F600 ; prime nozzle,G1 Y100 F5000 ; quick wipe
;   layerChangeGcode,;G90; Absolute positioning,;G1 F9000 Y100 Z100; Move to photo position;,;M240; Make a photo,
;   retractionGcode,
;   toolChangeGcode,
;   endingGcode,G28 X0 ; home X axis,M106 S0 ; turn off cooling fan,M104 S0 ; turn off extruder,M140 S0 ; turn off bed,M84 ; disable motors
;   exportFileFormat,gcode
;   celebration,0
;   celebrationSong,Random Song
;   postProcessing,
;   defaultSpeed,3600
;   outlineUnderspeed,0.5
;   solidInfillUnderspeed,0.8
;   supportUnderspeed,0.8
;   rapidXYspeed,4800
;   rapidZspeed,1002
;   minBridgingArea,50
;   bridgingExtraInflation,0
;   bridgingExtrusionMultiplier,1
;   bridgingSpeedMultiplier,1
;   useFixedBridgingAngle,0
;   fixedBridgingAngle,0
;   applyBridgingToPerimeters,0
;   filamentDiameters,1.75|1.75|1.75|1.75|1.75|1.75
;   filamentPricesPerKg,46|46|46|46|46|46
;   filamentDensities,1.25|1.25|1.25|1.25|1.25|1.25
;   useMinPrintHeight,0
;   minPrintHeight,20.7
;   useMaxPrintHeight,0
;   maxPrintHeight,4
;   useDiaphragm,0
;   diaphragmLayerInterval,20
;   robustSlicing,1
;   mergeAllIntoSolid,0
;   onlyRetractWhenCrossingOutline,1
;   retractBetweenLayers,1
;   useRetractionMinTravel,0
;   retractionMinTravel,3
;   retractWhileWiping,0
;   onlyWipeOutlines,1
;   avoidCrossingOutline,0
;   maxMovementDetourFactor,3
;   toolChangeRetractionDistance,12
;   toolChangeExtraRestartDistance,-0.5
;   toolChangeRetractionSpeed,600
;   externalThinWallType,0
;   internalThinWallType,2
;   thinWallAllowedOverlapPercentage,10
;   singleExtrusionMinLength,1
;   singleExtrusionMinPrintingWidthPercentage,50
;   singleExtrusionMaxPrintingWidthPercentage,200
;   singleExtrusionEndpointExtension,0.2
;   horizontalSizeCompensation,0
G90
M82
M106 S0
M140 S60
M190 S60
M104 S210 T0
M109 S210 T0
G28; home all axes
G29 ; auto-bed level
G1 Z5 F3000 ; lift
G1 X20 Y20 F1500 ; move to prime
G1 Z100 F3000 ; lift
G1 Z0.2 F3000 ; get ready to prime
G92 E0 ; reset extrusion distance
G1 Y80 E10 F600 ; prime nozzle
G1 Y100 F5000 ; quick wipe
; process Detailed CR10S
; layer 1, Z = 0.120
T0
G92 E0.0000
G1 E-5.0000 F1800
;G90; Absolute positioning
;G1 F9000 Y100 Z100; Move to photo position;
;M240; Make a photo
; feature inner perimeter
; tool H0.120 W0.600
G1 Z0.120 F1002
G1 X134.836 Y134.619 F4800
G1 E0.0000 F1800
G92 E0.0000
G1 X135.818 Y133.708 E0.0361 F1350
G1 X136.829 Y132.881 E0.0713
G1 X137.897 Y132.110 E0.1068
G1 X139.011 Y131.405 E0.1423
G1 X140.155 Y130.775 E0.1775
G1 X141.355 Y130.206 E0.2132
G1 X142.578 Y129.716 E0.2487
G1 X143.818 Y129.304 E0.2839
G1 X145.113 Y128.961 E0.3200
G1 X146.393 Y128.704 E0.3552
G1 X147.699 Y128.523 E0.3907
G1 X149.012 Y128.423 E0.4262
G1 X150.319 Y128.403 E0.4614
G1 X151.656 Y128.464 E0.4975
G1 X152.955 Y128.604 E0.5327
G1 X154.254 Y128.824 E0.5682
G1 X155.537 Y129.122 E0.6037
G1 X156.790 Y129.495 E0.6389
G1 X158.037 Y129.951 E0.6746
G1 X159.244 Y130.479 E0.7101
G1 X160.408 Y131.073 E0.7453
G1 X161.560 Y131.755 E0.7814
G1 X162.643 Y132.487 E0.8166
G1 X163.687 Y133.290 E0.8521
G1 X164.680 Y134.156 E0.8876
G1 X165.611 Y135.072 E0.9228
G1 X166.506 Y136.068 E0.9589
G1 X167.318 Y137.092 E0.9941
G1 X168.073 Y138.171 E1.0295
G1 X168.766 Y139.305 E1.0653
G1 X169.378 Y140.459 E1.1005
G1 X169.924 Y141.658 E1.1360
G1 X170.399 Y142.899 E1.1718
G1 X170.791 Y144.145 E1.2070
G1 X171.109 Y145.423 E1.2425
G1 X171.349 Y146.719 E1.2780
G1 X171.508 Y148.016 E1.3132
G1 X171.590 Y149.352 E1.3493
G1 X171.590 Y150.659 E1.3845
G1 X171.509 Y151.974 E1.4200
G1 X171.349 Y153.281 E1.4555
G1 X171.111 Y154.566 E1.4907
G1 X170.788 Y155.865 E1.5267
G1 X170.395 Y157.112 E1.5619
G1 X169.928 Y158.332 E1.5971
G1 X169.373 Y159.551 E1.6332
G1 X168.760 Y160.704 E1.6684
G1 X168.073 Y161.828 E1.7039
G1 X167.318 Y162.908 E1.7394
G1 X166.506 Y163.931 E1.7746
G1 X165.611 Y164.928 E1.8107
G1 X164.680 Y165.844 E1.8459
G1 X163.687 Y166.710 E1.8814
G1 X162.643 Y167.513 E1.9169
G1 X161.560 Y168.245 E1.9521
G1 X160.408 Y168.927 E1.9881
G1 X159.244 Y169.521 E2.0233
G1 X158.047 Y170.044 E2.0585
G1 X156.789 Y170.505 E2.0946
G1 X155.537 Y170.878 E2.1298
G1 X154.254 Y171.176 E2.1653
G1 X152.955 Y171.396 E2.2008
G1 X151.656 Y171.536 E2.2360
G1 X150.330 Y171.597 E2.2718
G1 X149.001 Y171.576 E2.3076
G1 X147.699 Y171.477 E2.3428
G1 X146.393 Y171.296 E2.3782
G1 X145.102 Y171.037 E2.4137
G1 X143.839 Y170.702 E2.4489
G1 X142.568 Y170.281 E2.4850
G1 X141.355 Y169.794 E2.5202
G1 X140.174 Y169.235 E2.5554
G1 X139.001 Y168.589 E2.5915
G1 X137.897 Y167.891 E2.6267
G1 X136.829 Y167.119 E2.6622
G1 X135.810 Y166.284 E2.6977
G1 X134.852 Y165.397 E2.7329
G1 X133.926 Y164.428 E2.7690
G1 X133.084 Y163.430 E2.8041
G1 X132.296 Y162.374 E2.8396
G1 X131.569 Y161.262 E2.8754
G1 X130.922 Y160.128 E2.9106
G1 X130.340 Y158.946 E2.9461
G1 X129.831 Y157.730 E2.9816
G1 X129.401 Y156.497 E3.0168
G1 X129.038 Y155.208 E3.0529
G1 X128.761 Y153.931 E3.0881
G1 X128.561 Y152.629 E3.1236
G1 X128.441 Y151.317 E3.1591
G1 X128.401 Y150.011 E3.1943
G1 X128.441 Y148.672 E3.2303
G1 X128.561 Y147.372 E3.2655
G1 X128.761 Y146.069 E3.3010
G1 X129.040 Y144.782 E3.3365
G1 X129.394 Y143.524 E3.3717
G1 X129.835 Y142.259 E3.4078
G1 X130.340 Y141.054 E3.4430
G1 X130.917 Y139.882 E3.4782
G1 X131.581 Y138.719 E3.5143
G1 X132.296 Y137.626 E3.5495
G1 X133.083 Y136.570 E3.5850
G1 X133.934 Y135.563 E3.6205
G1 X134.836 Y134.619 E3.6557
; feature outer perimeter
G1 X134.415 Y134.191 F4800
G92 E0.0000
G1 X135.424 Y133.256 E0.0371 F900
G1 X136.463 Y132.405 E0.0732
G1 X137.561 Y131.612 E0.1097
G1 X138.705 Y130.888 E0.1462
G1 X139.882 Y130.240 E0.1824
G1 X141.115 Y129.656 E0.2192
G1 X142.372 Y129.152 E0.2556
G1 X143.647 Y128.729 E0.2918
G1 X144.976 Y128.376 E0.3289
G1 X146.293 Y128.112 E0.3651
G1 X147.635 Y127.927 E0.4016
G1 X148.985 Y127.823 E0.4380
G1 X150.327 Y127.803 E0.4742
G1 X151.702 Y127.866 E0.5113
G1 X153.037 Y128.009 E0.5475
G1 X154.373 Y128.235 E0.5839
G1 X155.691 Y128.542 E0.6204
G1 X156.978 Y128.926 E0.6566
G1 X158.260 Y129.394 E0.6934
G1 X159.501 Y129.936 E0.7299
G1 X160.697 Y130.548 E0.7660
G1 X161.882 Y131.248 E0.8031
G1 X162.994 Y132.000 E0.8393
G1 X164.067 Y132.826 E0.8758
G1 X165.088 Y133.715 E0.9122
G1 X166.045 Y134.658 E0.9484
G1 X166.965 Y135.681 E0.9855
G1 X167.800 Y136.733 E1.0217
G1 X168.575 Y137.843 E1.0582
G1 X169.287 Y139.007 E1.0949
G1 X169.917 Y140.194 E1.1311
G1 X170.477 Y141.426 E1.1676
G1 X170.966 Y142.701 E1.2044
G1 X171.369 Y143.982 E1.2405
G1 X171.696 Y145.296 E1.2770
G1 X171.942 Y146.627 E1.3135
G1 X172.106 Y147.961 E1.3497
G1 X172.190 Y149.334 E1.3868
G1 X172.190 Y150.677 E1.4229
G1 X172.107 Y152.028 E1.4594
G1 X171.942 Y153.372 E1.4959
G1 X171.698 Y154.693 E1.5321
G1 X171.366 Y156.028 E1.5691
G1 X170.962 Y157.309 E1.6053
G1 X170.482 Y158.564 E1.6415
G1 X169.912 Y159.816 E1.6786
G1 X169.282 Y161.002 E1.7148
G1 X168.575 Y162.157 E1.7512
G1 X167.800 Y163.267 E1.7877
G1 X166.965 Y164.319 E1.8239
G1 X166.045 Y165.342 E1.8610
G1 X165.088 Y166.285 E1.8972
G1 X164.067 Y167.174 E1.9336
G1 X162.994 Y168.000 E1.9701
G1 X161.882 Y168.752 E2.0063
G1 X160.697 Y169.453 E2.0434
G1 X159.501 Y170.064 E2.0795
G1 X158.270 Y170.602 E2.1157
G1 X156.978 Y171.074 E2.1528
G1 X155.691 Y171.458 E2.1890
G1 X154.372 Y171.765 E2.2255
G1 X153.037 Y171.991 E2.2619
G1 X151.702 Y172.134 E2.2981
G1 X150.339 Y172.197 E2.3349
G1 X148.974 Y172.176 E2.3717
G1 X147.635 Y172.073 E2.4079
G1 X146.293 Y171.888 E2.4443
G1 X144.966 Y171.622 E2.4808
G1 X143.668 Y171.277 E2.5170
G1 X142.362 Y170.844 E2.5541
G1 X141.115 Y170.344 E2.5902
G1 X139.901 Y169.770 E2.6264
G1 X138.696 Y169.106 E2.6635
G1 X137.561 Y168.388 E2.6997
G1 X136.463 Y167.595 E2.7362
G1 X135.416 Y166.737 E2.7726
G1 X134.430 Y165.824 E2.8088
G1 X133.480 Y164.830 E2.8459
G1 X132.613 Y163.804 E2.8821
G1 X131.804 Y162.718 E2.9185
G1 X131.057 Y161.576 E2.9553
G1 X130.392 Y160.409 E2.9915
G1 X129.793 Y159.194 E3.0280
G1 X129.271 Y157.945 E3.0645
G1 X128.828 Y156.677 E3.1006
G1 X128.455 Y155.353 E3.1377
G1 X128.171 Y154.040 E3.1739
G1 X127.965 Y152.702 E3.2104
G1 X127.841 Y151.353 E3.2468
G1 X127.800 Y150.011 E3.2830
G1 X127.842 Y148.636 E3.3201
G1 X127.965 Y147.298 E3.3563
G1 X128.171 Y145.960 E3.3928
G1 X128.458 Y144.637 E3.4292
G1 X128.822 Y143.344 E3.4654
G1 X129.275 Y142.045 E3.5025
G1 X129.793 Y140.806 E3.5387
G1 X130.387 Y139.601 E3.5749
G1 X131.069 Y138.406 E3.6119
G1 X131.804 Y137.282 E3.6481
G1 X132.613 Y136.196 E3.6846
G1 X133.487 Y135.162 E3.7211
G1 X134.415 Y134.191 E3.7573
; feature inner perimeter
G1 X140.997 Y141.341 F4800
G92 E0.0000
G1 X140.304 Y142.127 E0.0282 F1350
G1 X139.657 Y142.989 E0.0573
G1 X139.463 Y142.877 E0.0633
G1 X138.571 Y144.577 E0.1150
G1 X138.171 Y145.514 E0.1425
G1 X137.849 Y146.480 E0.1699
G1 X137.605 Y147.470 E0.1974
G1 X137.441 Y148.475 E0.2248
G1 X137.360 Y149.491 E0.2523
G1 X137.360 Y150.509 E0.2797
G1 X137.441 Y151.525 E0.3071
G1 X137.605 Y152.531 E0.3346
G1 X137.849 Y153.520 E0.3620
G1 X138.171 Y154.486 E0.3895
G1 X138.571 Y155.423 E0.4169
G1 X139.463 Y157.123 E0.4686
G1 X139.657 Y157.011 E0.4747
G1 X140.329 Y157.905 E0.5048
G1 X140.998 Y158.659 E0.5320
G1 X141.697 Y159.331 E0.5581
G1 X142.508 Y159.994 E0.5863
G1 X143.340 Y160.567 E0.6135
G1 X144.180 Y161.052 E0.6397
G1 X145.126 Y161.500 E0.6679
G1 X146.033 Y161.844 E0.6940
G1 X147.003 Y162.126 E0.7212
G1 X148.030 Y162.333 E0.7494
G1 X149.100 Y162.463 E0.7785
G1 X149.100 Y162.687 E0.7845
G1 X151.018 Y162.610 E0.8362
G1 X152.029 Y162.487 E0.8637
G1 X153.027 Y162.283 E0.8911
G1 X154.006 Y162.000 E0.9186
G1 X154.959 Y161.638 E0.9460
G1 X155.879 Y161.202 E0.9734
G1 X156.761 Y160.692 E1.0009
G1 X157.600 Y160.113 E1.0283
G1 X158.389 Y159.469 E1.0558
G1 X159.124 Y158.763 E1.0832
G1 X159.799 Y158.001 E1.1107
G1 X160.411 Y157.186 E1.1381
G1 X161.437 Y155.564 E1.1898
G1 X161.243 Y155.452 E1.1959
G1 X161.681 Y154.423 E1.2260
G1 X162.000 Y153.466 E1.2532
G1 X162.241 Y152.486 E1.2804
G1 X162.396 Y151.529 E1.3065
G1 X162.481 Y150.485 E1.3347
G1 X162.479 Y149.476 E1.3619
G1 X162.401 Y148.510 E1.3880
G1 X162.241 Y147.514 E1.4152
G1 X162.000 Y146.533 E1.4424
G1 X161.666 Y145.540 E1.4706
G1 X161.243 Y144.548 E1.4997
G1 X161.437 Y144.436 E1.5057
G1 X160.411 Y142.814 E1.5574
G1 X159.799 Y141.999 E1.5849
G1 X159.124 Y141.237 E1.6123
G1 X158.389 Y140.531 E1.6398
G1 X157.600 Y139.886 E1.6672
G1 X156.761 Y139.308 E1.6947
G1 X155.879 Y138.798 E1.7221
G1 X154.959 Y138.362 E1.7495
G1 X154.006 Y138.000 E1.7770
G1 X153.027 Y137.717 E1.8044
G1 X152.029 Y137.513 E1.8319
G1 X151.018 Y137.390 E1.8593
G1 X149.100 Y137.313 E1.9110
G1 X149.100 Y137.537 E1.9171
G1 X148.030 Y137.667 E1.9461
G1 X147.003 Y137.874 E1.9743
G1 X146.032 Y138.156 E2.0016
G1 X145.089 Y138.515 E2.0288
G1 X144.179 Y138.949 E2.0559
G1 X143.340 Y139.433 E2.0820
G1 X142.509 Y140.005 E2.1092
G1 X141.727 Y140.642 E2.1364
G1 X140.997 Y141.341 E2.1636
; feature outer perimeter
G1 X141.431 Y141.757 F4800
G92 E0.0000
G1 X140.770 Y142.506 E0.0269 F900
G1 X140.216 Y143.243 E0.0517
G1 X139.863 Y143.801 E0.0695
G1 X139.704 Y143.709 E0.0745
G1 X139.113 Y144.834 E0.1087
G1 X138.733 Y145.727 E0.1349
G1 X138.426 Y146.647 E0.1610
G1 X138.193 Y147.590 E0.1872
G1 X138.038 Y148.548 E0.2133
G1 X137.960 Y149.515 E0.2394
G1 X137.960 Y150.485 E0.2656
G1 X138.038 Y151.453 E0.2917
G1 X138.193 Y152.410 E0.3179
G1 X138.426 Y153.353 E0.3440
G1 X138.733 Y154.273 E0.3702
G1 X139.113 Y155.166 E0.3963
G1 X139.704 Y156.291 E0.4305
G1 X139.863 Y156.199 E0.4355
G1 X140.216 Y156.757 E0.4533
G1 X140.794 Y157.525 E0.4792
G1 X141.431 Y158.243 E0.5051
G1 X142.096 Y158.882 E0.5299
G1 X142.869 Y159.514 E0.5568
G1 X143.660 Y160.059 E0.5827
G1 X144.459 Y160.520 E0.6075
G1 X145.361 Y160.947 E0.6344
G1 X146.223 Y161.274 E0.6593
G1 X147.146 Y161.543 E0.6851
G1 X148.125 Y161.740 E0.7121
G1 X149.040 Y161.851 E0.7369
G1 X149.700 Y161.878 E0.7547
G1 X149.700 Y162.062 E0.7596
G1 X150.970 Y162.011 E0.7939
G1 X151.933 Y161.894 E0.8200
G1 X152.884 Y161.700 E0.8462
G1 X153.816 Y161.430 E0.8723
G1 X154.723 Y161.086 E0.8985
G1 X155.600 Y160.670 E0.9246
G1 X156.440 Y160.185 E0.9507
G1 X157.239 Y159.633 E0.9769
