;FLAVOR:Marlin
;TIME:4241
;Filament used: 2.67992m
;Layer height: 0.2
;MINX:122.427
;MINY:115.27
;MINZ:0.2
;MAXX:178.314
;MAXY:177.624
;MAXZ:18
;Generated with Cura_SteamEngine 5.2.1
M140 S60
M105
M190 S60
M104 S220
M105
M109 S220
M82 ;absolute extrusion mode
M201 X500.00 Y500.00 Z100.00 E5000.00 ;Setup machine max acceleration
M203 X500.00 Y500.00 Z10.00 E50.00 ;Setup machine max feedrate
M204 P500.00 R1000.00 T500.00 ;Setup Print/Retract/Travel acceleration
M205 X8.00 Y8.00 Z0.40 E5.00 ;Setup Jerk
M220 S100 ;Reset Feedrate
M221 S100 ;Reset Flowrate

G28 ;Home
G29 ;Auto bed Level

G92 E0 ;Reset Extruder
G1 Z2.0 F3000 ;Move Z Axis up
G1 X10.1 Y20 Z0.28 F5000.0 ;Move to start position
G1 X10.1 Y200.0 Z0.28 F1500.0 E15 ;Draw the first line
G1 X10.4 Y200.0 Z0.28 F5000.0 ;Move to side a little
G1 X10.4 Y20 Z0.28 F1500.0 E30 ;Draw the second line
G92 E0 ;Reset Extruder
G1 Z2.0 F3000 ;Move Z Axis up

G92 E0
G92 E0
G1 F2700 E-5
;LAYER_COUNT:90
;LAYER:0
M107
G0 F6000 X125.657 Y118.544 Z0.2
;TYPE:SKIRT
G1 F2700 E0
G1 F1200 X126.346 Y117.908 E0.03119
G1 X127.087 Y117.332 E0.0624
G1 X127.874 Y116.822 E0.09359
G1 X128.702 Y116.381 E0.1248
G1 X129.564 Y116.012 E0.15598
G1 X130.454 Y115.717 E0.18717
G1 X131.366 Y115.5 E0.21835
G1 X132.294 Y115.361 E0.24956
G1 X133.2 Y115.302 E0.27976
G1 X134.553 Y115.275 E0.32477
G1 X136.141 Y115.286 E0.37758
G1 X145.532 Y115.27 E0.68993
G1 X150.51 Y115.281 E0.8555
G1 X156.113 Y115.272 E1.04186
G1 X158.23 Y115.286 E1.11227
G1 X164.578 Y115.271 E1.32341
G1 X166.644 Y115.277 E1.39212
G1 X167.48 Y115.291 E1.41993
G1 X168.416 Y115.347 E1.45112
G1 X169.344 Y115.484 E1.48232
G1 X170.257 Y115.699 E1.51351
G1 X171.148 Y115.99 E1.54469
G1 X172.011 Y116.357 E1.57588
G1 X172.84 Y116.796 E1.60708
G1 X173.629 Y117.304 E1.63829
G1 X174.371 Y117.877 E1.66947
G1 X175.062 Y118.511 E1.70066
G1 X175.696 Y119.202 E1.73186
G1 X176.269 Y119.945 E1.76306
G1 X176.777 Y120.733 E1.79425
G1 X177.216 Y121.562 E1.82545
G1 X177.582 Y122.425 E1.85662
G1 X177.874 Y123.317 E1.88784
G1 X178.089 Y124.23 E1.91904
G1 X178.225 Y125.158 E1.95023
G1 X178.281 Y126.059 E1.98026
G1 X178.302 Y127.061 E2.01359
G1 X178.314 Y149.527 E2.76081
G1 X178.308 Y150.173 E2.7823
G1 X178.31 Y165.866 E3.30425
G1 X178.299 Y166.759 E3.33396
G1 X178.246 Y167.695 E3.36514
G1 X178.114 Y168.624 E3.39635
G1 X177.904 Y169.538 E3.42754
G1 X177.616 Y170.43 E3.45872
G1 X177.253 Y171.295 E3.48992
G1 X176.818 Y172.126 E3.52111
G1 X176.313 Y172.917 E3.55233
G1 X175.743 Y173.661 E3.5835
G1 X175.112 Y174.355 E3.6147
G1 X174.424 Y174.992 E3.64588
G1 X173.684 Y175.569 E3.67709
G1 X172.898 Y176.08 E3.70827
G1 X172.071 Y176.522 E3.73946
G1 X171.209 Y176.893 E3.77067
G1 X170.319 Y177.189 E3.80187
G1 X169.407 Y177.407 E3.83306
G1 X168.48 Y177.548 E3.86424
G1 X167.579 Y177.607 E3.89428
G1 X166.909 Y177.621 E3.91657
G1 X153.755 Y177.624 E4.35407
G1 X152.594 Y177.612 E4.39269
G1 X150.279 Y177.622 E4.46968
G1 X148.349 Y177.611 E4.53388
G1 X146.069 Y177.621 E4.60971
G1 X133.972 Y177.62 E5.01206
G1 X133.318 Y177.611 E5.03381
G1 X132.381 Y177.558 E5.06503
G1 X131.453 Y177.426 E5.0962
G1 X130.539 Y177.215 E5.1274
G1 X129.646 Y176.926 E5.15862
G1 X128.782 Y176.563 E5.18979
G1 X127.951 Y176.128 E5.22099
G1 X127.161 Y175.623 E5.25217
G1 X126.416 Y175.053 E5.28337
G1 X125.722 Y174.422 E5.31457
G1 X125.085 Y173.733 E5.34578
G1 X124.509 Y172.993 E5.37697
G1 X123.998 Y172.207 E5.40815
G1 X123.556 Y171.38 E5.43934
G1 X123.186 Y170.518 E5.47054
G1 X122.891 Y169.628 E5.50172
G1 X122.672 Y168.716 E5.53292
G1 X122.532 Y167.789 E5.5641
G1 X122.472 Y166.87 E5.59473
G1 X122.446 Y165.715 E5.63316
G1 X122.427 Y163.927 E5.69263
G1 X122.445 Y161.822 E5.76264
G1 X122.45 Y126.811 E6.92712
G1 X122.46 Y126.136 E6.94957
G1 X122.514 Y125.2 E6.98075
G1 X122.647 Y124.271 E7.01197
G1 X122.86 Y123.358 E7.04315
G1 X123.149 Y122.466 E7.07433
G1 X123.513 Y121.601 E7.10555
G1 X123.949 Y120.771 E7.13673
G1 X124.454 Y119.981 E7.16792
G1 X125.025 Y119.237 E7.19911
G1 X125.657 Y118.544 E7.2303
G0 F6000 X126.049 Y118.719
G1 F1200 X126.735 Y118.105 E7.26092
G1 X127.471 Y117.552 E7.29154
G1 X128.253 Y117.066 E7.32217
G1 X129.074 Y116.649 E7.35279
G1 X129.928 Y116.305 E7.38342
G1 X130.808 Y116.036 E7.41402
G1 X131.709 Y115.845 E7.44466
G1 X132.622 Y115.732 E7.47525
G1 X133.209 Y115.702 E7.4948
G1 X134.551 Y115.675 E7.53945
G1 X136.14 Y115.686 E7.5923
G1 X145.531 Y115.67 E7.90464
G1 X150.51 Y115.681 E8.07025
G1 X156.11 Y115.672 E8.2565
G1 X158.228 Y115.686 E8.32695
G1 X164.577 Y115.671 E8.53812
G1 X166.643 Y115.677 E8.60684
G1 X167.473 Y115.691 E8.63445
G1 X168.391 Y115.747 E8.66504
G1 X169.302 Y115.883 E8.69567
G1 X170.197 Y116.098 E8.72629
G1 X171.071 Y116.389 E8.75692
G1 X171.915 Y116.755 E8.78752
G1 X172.725 Y117.193 E8.81815
G1 X173.494 Y117.699 E8.84877
G1 X174.216 Y118.271 E8.8794
G1 X174.886 Y118.902 E8.91001
G1 X175.498 Y119.59 E8.94064
G1 X176.048 Y120.328 E8.97125
G1 X176.532 Y121.111 E9.00187
G1 X176.947 Y121.933 E9.0325
G1 X177.288 Y122.788 E9.06311
G1 X177.554 Y123.67 E9.09375
G1 X177.743 Y124.571 E9.12437
G1 X177.852 Y125.485 E9.15499
G1 X177.881 Y126.067 E9.17437
G1 X177.902 Y127.069 E9.2077
G1 X177.914 Y149.523 E9.95453
G1 X177.908 Y150.169 E9.97601
G1 X177.91 Y165.866 E10.4981
G1 X177.899 Y166.753 E10.5276
G1 X177.847 Y167.673 E10.55825
G1 X177.715 Y168.584 E10.58887
G1 X177.504 Y169.48 E10.61948
G1 X177.217 Y170.355 E10.65011
G1 X176.855 Y171.201 E10.68072
G1 X176.42 Y172.013 E10.71135
G1 X175.917 Y172.784 E10.74197
G1 X175.349 Y173.508 E10.77258
G1 X174.72 Y174.181 E10.80322
G1 X174.035 Y174.796 E10.83384
G1 X173.3 Y175.35 E10.86445
G1 X172.519 Y175.837 E10.89506
G1 X171.699 Y176.255 E10.92567
G1 X170.845 Y176.601 E10.95632
G1 X169.965 Y176.871 E10.98694
G1 X169.065 Y177.063 E11.01754
G1 X168.151 Y177.177 E11.04818
G1 X167.569 Y177.208 E11.06756
G1 X166.908 Y177.221 E11.08955
G1 X153.754 Y177.224 E11.52706
G1 X152.596 Y177.212 E11.56557
G1 X150.281 Y177.222 E11.64257
G1 X148.349 Y177.211 E11.70683
G1 X146.067 Y177.221 E11.78273
G1 X133.977 Y177.22 E12.18485
G1 X133.323 Y177.211 E12.2066
G1 X132.404 Y177.158 E12.23722
G1 X131.493 Y177.026 E12.26783
G1 X130.597 Y176.815 E12.29845
G1 X129.722 Y176.528 E12.32908
G1 X128.876 Y176.165 E12.3597
G1 X128.064 Y175.731 E12.39032
G1 X127.293 Y175.227 E12.42096
G1 X126.569 Y174.659 E12.45156
G1 X125.897 Y174.03 E12.48218
G1 X125.282 Y173.345 E12.5128
G1 X124.728 Y172.609 E12.54344
G1 X124.241 Y171.828 E12.57405
G1 X123.823 Y171.007 E12.60469
G1 X123.478 Y170.154 E12.63529
G1 X123.209 Y169.274 E12.6659
G1 X123.016 Y168.373 E12.69655
G1 X122.903 Y167.46 E12.72714
G1 X122.872 Y166.861 E12.74709
G1 X122.846 Y165.711 E12.78535
G1 X122.827 Y163.93 E12.84459
G1 X122.845 Y161.825 E12.91461
G1 X122.85 Y126.817 E14.07898
G1 X122.86 Y126.142 E14.10143
G1 X122.914 Y125.223 E14.13205
G1 X123.047 Y124.312 E14.16267
G1 X123.259 Y123.416 E14.1933
G1 X123.547 Y122.542 E14.2239
G1 X123.911 Y121.696 E14.25453
G1 X124.346 Y120.885 E14.28514
G1 X124.85 Y120.114 E14.31578
G1 X125.419 Y119.391 E14.34638
G1 X126.049 Y118.719 E14.37702
G0 F6000 X126.44 Y118.898
G1 F1200 X127.123 Y118.306 E14.40708
G1 X127.854 Y117.777 E14.43709
G1 X128.63 Y117.314 E14.46715
G1 X129.444 Y116.923 E14.49718
G1 X130.289 Y116.604 E14.52722
G1 X131.159 Y116.362 E14.55726
G1 X132.047 Y116.197 E14.5873
G1 X133.219 Y116.102 E14.62641
G1 X134.548 Y116.075 E14.67062
G1 X136.138 Y116.086 E14.7235
G1 X145.53 Y116.07 E15.03588
G1 X150.509 Y116.081 E15.20149
G1 X156.108 Y116.072 E15.38771
G1 X158.227 Y116.086 E15.45819
G1 X164.576 Y116.071 E15.66936
G1 X166.642 Y116.077 E15.73807
G1 X167.465 Y116.091 E15.76545
G1 X168.367 Y116.147 E15.79551
G1 X169.26 Y116.282 E15.82555
G1 X170.137 Y116.496 E15.85557
G1 X170.992 Y116.787 E15.88561
G1 X171.818 Y117.153 E15.91566
G1 X172.608 Y117.589 E15.94567
G1 X173.357 Y118.095 E15.97574
G1 X174.058 Y118.664 E16.00577
G1 X174.706 Y119.293 E16.0358
G1 X175.296 Y119.977 E16.06585
G1 X175.822 Y120.711 E16.09588
G1 X176.282 Y121.488 E16.12591
G1 X176.672 Y122.303 E16.15596
G1 X176.988 Y123.149 E16.186
G1 X177.227 Y124.019 E16.21601
G1 X177.389 Y124.908 E16.24607
G1 X177.481 Y126.075 E16.285
G1 X177.504 Y127.286 E16.32529
G1 X177.514 Y149.52 E17.06479
G1 X177.508 Y150.166 E17.08628
G1 X177.51 Y165.866 E17.60846
G1 X177.499 Y166.748 E17.6378
G1 X177.447 Y167.65 E17.66785
G1 X177.315 Y168.543 E17.69787
G1 X177.105 Y169.421 E17.7279
G1 X176.818 Y170.278 E17.75796
G1 X176.457 Y171.105 E17.78797
G1 X176.023 Y171.898 E17.81804
G1 X175.521 Y172.648 E17.84806
G1 X174.955 Y173.352 E17.8781
G1 X174.329 Y174.003 E17.90814
G1 X173.647 Y174.595 E17.93818
G1 X172.916 Y175.126 E17.96823
G1 X172.141 Y175.589 E17.99825
G1 X171.328 Y175.982 E18.02829
G1 X170.483 Y176.302 E18.05834
G1 X169.614 Y176.545 E18.08835
G1 X168.726 Y176.711 E18.1184
G1 X167.559 Y176.808 E18.15735
G1 X166.908 Y176.821 E18.179
G1 X153.754 Y176.824 E18.61651
G1 X152.599 Y176.812 E18.65493
G1 X150.283 Y176.822 E18.73196
G1 X148.35 Y176.811 E18.79625
G1 X146.066 Y176.821 E18.87222
G1 X133.983 Y176.82 E19.2741
G1 X133.329 Y176.811 E19.29585
G1 X132.427 Y176.759 E19.3259
G1 X131.534 Y176.627 E19.35593
G1 X130.655 Y176.416 E19.38599
G1 X129.799 Y176.129 E19.41602
G1 X128.972 Y175.767 E19.44605
G1 X128.18 Y175.333 E19.47609
G1 X127.429 Y174.831 E19.50613
G1 X126.726 Y174.265 E19.53615
G1 X126.075 Y173.638 E19.56621
G1 X125.483 Y172.957 E19.59622
G1 X124.953 Y172.226 E19.62625
G1 X124.489 Y171.45 E19.65633
G1 X124.097 Y170.637 E19.68635
G1 X123.777 Y169.792 E19.7164
G1 X123.534 Y168.923 E19.74641
G1 X123.369 Y168.035 E19.77645
G1 X123.272 Y166.851 E19.81596
G1 X123.246 Y165.706 E19.85406
G1 X123.227 Y163.934 E19.913
G1 X123.245 Y161.829 E19.98301
G1 X123.25 Y126.823 E21.14732
G1 X123.26 Y126.148 E21.16977
G1 X123.313 Y125.246 E21.19982
G1 X123.446 Y124.353 E21.22985
G1 X123.658 Y123.475 E21.25989
G1 X123.946 Y122.619 E21.28993
G1 X124.309 Y121.792 E21.31997
G1 X124.743 Y121 E21.35001
G1 X125.246 Y120.25 E21.38004
G1 X125.813 Y119.548 E21.41006
G1 X126.44 Y118.898 E21.44009
G1 F2700 E16.44009
;MESH:Cart_top.stl
G0 F6000 X133.859 Y125.613
G0 X134.049 Y126.878
;TYPE:WALL-INNER
G1 F2700 E21.44009
G1 F1200 X134.044 Y162.885 E22.63769
G1 X134.028 Y163.166 E22.64705
G1 X134.025 Y164.913 E22.70516
G1 X134.045 Y165.509 E22.72499
G1 X134.048 Y166.021 E22.74202
G1 X146.547 Y166.021 E23.15774
G1 X147.357 Y166.004 E23.18469
G1 X150.156 Y166.023 E23.27778
G1 X153.984 Y166.007 E23.40511
G1 X154.21 Y166.021 E23.41264
G1 X155.104 Y166.029 E23.44237
G1 X155.231 Y166.019 E23.44661
G1 X164.253 Y166.023 E23.74668
G1 X166.71 Y166.021 E23.8284
G1 X166.708 Y149.91 E24.36426
G1 X166.713 Y149.761 E24.36922
G1 X166.704 Y126.878 E25.13031
G1 X164.541 Y126.871 E25.20225
G1 X157.384 Y126.888 E25.44029
G1 X156.593 Y126.871 E25.46661
G1 X137.365 Y126.887 E26.10613
G1 X137.13 Y126.882 E26.11395
G1 X136.256 Y126.895 E26.14302
G1 X135.935 Y126.889 E26.1537
G1 X135.669 Y126.872 E26.16257
G1 X134.049 Y126.878 E26.21645
G0 F6000 X133.649 Y126.479
;TYPE:WALL-OUTER
G1 F1200 X133.645 Y162.862 E27.42655
G1 X133.628 Y163.154 E27.43628
G1 X133.625 Y164.919 E27.49499
G1 X133.645 Y165.511 E27.51469
G1 X133.65 Y166.421 E27.54495
G1 X146.551 Y166.421 E27.97404
G1 X147.354 Y166.404 E28.00076
G1 X150.158 Y166.423 E28.09402
G1 X153.961 Y166.407 E28.22051
G1 X154.196 Y166.421 E28.22834
G1 X155.12 Y166.429 E28.25907
G1 X155.234 Y166.419 E28.26288
G1 X164.229 Y166.422 E28.56205
G1 X164.363 Y166.43 E28.56652
G1 X164.614 Y166.421 E28.57487
G1 X167.11 Y166.421 E28.65789
G1 X167.108 Y149.925 E29.20655
G1 X167.113 Y149.769 E29.21174
G1 X167.104 Y126.479 E29.98637
G1 X164.54 Y126.471 E30.07165
G1 X157.392 Y126.488 E30.30939
G1 X156.597 Y126.471 E30.33584
G1 X137.375 Y126.487 E30.97517
G1 X137.063 Y126.482 E30.98555
G1 X136.263 Y126.495 E31.01216
G1 X135.961 Y126.49 E31.0222
G1 X135.681 Y126.472 E31.03154
G1 X133.649 Y126.479 E31.09912
G1 F2700 E26.09912
G0 F6000 X133.919 Y126.748
G0 X134.219 Y165.849
G1 F2700 E31.09912
G0 F6000 X134.406 Y165.661
;TYPE:SKIN
G1 F1200 X146.542 Y165.661 E31.50277
G1 X147.336 Y165.644 E31.52918
G1 X150.155 Y165.663 E31.62294
G1 X153.97 Y165.647 E31.74983
G1 X154.222 Y165.661 E31.75823
G1 X155.09 Y165.668 E31.7871
G1 X155.211 Y165.659 E31.79113
G1 X166.349 Y165.66 E32.16158
G1 X166.345 Y129.028 E33.37997
G1 X166.344 Y127.237 E33.43954
G1 X164.544 Y127.231 E33.49941
G1 X157.395 Y127.248 E33.73718
G1 X156.589 Y127.231 E33.764
G1 X137.082 Y127.243 E34.4128
G1 X136.276 Y127.255 E34.43961
G1 X135.911 Y127.249 E34.45175
G1 X135.657 Y127.233 E34.46022
G1 X134.41 Y127.237 E34.5017
G1 X134.404 Y162.903 E35.68795
G1 X134.388 Y163.176 E35.69705
G1 X134.385 Y164.92 E35.75505
G1 X134.406 Y165.661 E35.77971
G0 F6000 X134.913 Y165.46
G1 F1200 X134.592 Y165.139 E35.79481
G0 F6000 X134.584 Y164.565
G1 F1200 X135.478 Y165.46 E35.83688
G0 F6000 X136.044 Y165.46
G1 F1200 X134.585 Y164.001 E35.90551
G0 F6000 X134.587 Y163.437
G1 F1200 X136.61 Y165.46 E36.00066
G0 F6000 X137.175 Y165.46
G1 F1200 X134.603 Y162.887 E36.12167
G0 F6000 X134.603 Y162.322
G1 F1200 X137.741 Y165.46 E36.26927
G0 F6000 X138.307 Y165.46
G1 F1200 X134.603 Y161.756 E36.44349
G0 F6000 X134.603 Y161.19
G1 F1200 X138.872 Y165.46 E36.64432
G0 F6000 X139.438 Y165.46
G1 F1200 X134.603 Y160.624 E36.87176
G0 F6000 X134.603 Y160.059
G1 F1200 X140.004 Y165.46 E37.12581
G0 F6000 X140.569 Y165.46
G1 F1200 X134.603 Y159.493 E37.40646
G0 F6000 X134.604 Y158.928
G1 F1200 X141.135 Y165.46 E37.71368
G0 F6000 X141.701 Y165.46
G1 F1200 X134.604 Y158.362 E38.04752
G0 F6000 X134.604 Y157.797
G1 F1200 X142.267 Y165.46 E38.40797
G0 F6000 X142.832 Y165.46
G1 F1200 X134.604 Y157.231 E38.79501
G0 F6000 X134.604 Y156.665
G1 F1200 X143.398 Y165.46 E39.20868
G0 F6000 X143.964 Y165.46
G1 F1200 X134.604 Y156.1 E39.64894
G0 F6000 X134.604 Y155.534
G1 F1200 X144.529 Y165.46 E40.11581
G0 F6000 X145.095 Y165.46
G1 F1200 X134.604 Y154.969 E40.60927
G0 F6000 X134.604 Y154.403
G1 F1200 X145.661 Y165.46 E41.12936
G0 F6000 X146.226 Y165.46
G1 F1200 X134.604 Y153.838 E41.67602
G0 F6000 X134.604 Y153.272
G1 F1200 X146.787 Y165.455 E42.24907
G0 F6000 X147.341 Y165.443
G1 F1200 X134.604 Y152.706 E42.84818
G0 F6000 X134.604 Y152.141
G1 F1200 X147.911 Y165.447 E43.47408
G0 F6000 X148.48 Y165.45
G1 F1200 X134.604 Y151.575 E44.12674
G0 F6000 X134.605 Y151.01
G1 F1200 X149.05 Y165.455 E44.80619
G0 F6000 X149.619 Y165.458
G1 F1200 X134.605 Y150.444 E45.5124
G0 F6000 X134.605 Y149.879
G1 F1200 X150.188 Y165.461 E46.24536
G0 F6000 X150.75 Y165.458
G1 F1200 X134.605 Y149.313 E47.00477
G0 F6000 X134.605 Y148.747
G1 F1200 X151.314 Y165.456 E47.79071
G0 F6000 X151.878 Y165.454
G1 F1200 X134.605 Y148.182 E48.60315
G0 F6000 X134.605 Y147.616
G1 F1200 X152.441 Y165.452 E49.4421
G0 F6000 X153.004 Y165.449
G1 F1200 X134.606 Y147.051 E50.30749
G0 F6000 X134.606 Y146.485
G1 F1200 X153.568 Y165.447 E51.1994
G0 F6000 X154.141 Y165.455
G1 F1200 X134.606 Y145.919 E52.11829
G0 F6000 X134.606 Y145.354
G1 F1200 X154.715 Y165.463 E53.06416
G0 F6000 X155.277 Y165.459
G1 F1200 X134.606 Y144.788 E54.03646
G0 F6000 X134.606 Y144.222
G1 F1200 X155.842 Y165.459 E55.03536
G0 F6000 X156.408 Y165.459
G1 F1200 X134.606 Y143.657 E56.06086
G0 F6000 X134.606 Y143.092
G1 F1200 X156.974 Y165.459 E57.11296
G0 F6000 X157.539 Y165.459
G1 F1200 X134.606 Y142.526 E58.19165
G0 F6000 X134.606 Y141.96
G1 F1200 X158.105 Y165.459 E59.29698
G0 F6000 X158.671 Y165.459
G1 F1200 X134.606 Y141.395 E60.4289
G0 F6000 X134.606 Y140.829
G1 F1200 X159.236 Y165.459 E61.58742
G0 F6000 X159.802 Y165.459
G1 F1200 X134.606 Y140.263 E62.77256
G0 F6000 X134.606 Y139.698
G1 F1200 X160.368 Y165.459 E63.9843
G0 F6000 X160.933 Y165.459
G1 F1200 X134.607 Y139.133 E65.22259
G0 F6000 X134.607 Y138.567
G1 F1200 X161.499 Y165.459 E66.48751
G0 F6000 X162.065 Y165.459
G1 F1200 X134.607 Y138.001 E67.77905
G0 F6000 X134.607 Y137.436
G1 F1200 X162.631 Y165.459 E69.09719
G0 F6000 X163.196 Y165.459
G1 F1200 X134.607 Y136.87 E70.44193
G0 F6000 X134.607 Y136.304
G1 F1200 X163.762 Y165.459 E71.81329
G0 F6000 X164.328 Y165.459
G1 F1200 X134.607 Y135.739 E73.21125
G0 F6000 X134.608 Y135.174
G1 F1200 X164.893 Y165.459 E74.63577
