;FLAVOR:Marlin
;TIME:3824
;Filament used: 2.30697m
;Layer height: 0.2
;MINX:120.002
;MINY:120.001
;MINZ:0.2
;MAXX:179.998
;MAXY:180
;MAXZ:13
;Generated with Cura_SteamEngine 5.2.1
M140 S60
M105
M190 S60
M104 S220
M105
M109 S220
M82 ;absolute extrusion mode
M201 X500.00 Y500.00 Z100.00 E5000.00 ;Setup machine max acceleration
M203 X500.00 Y500.00 Z10.00 E50.00 ;Setup machine max feedrate
M204 P500.00 R1000.00 T500.00 ;Setup Print/Retract/Travel acceleration
M205 X8.00 Y8.00 Z0.40 E5.00 ;Setup Jerk
M220 S100 ;Reset Feedrate
M221 S100 ;Reset Flowrate

G28 ;Home
G29 ;Auto bed Level

G92 E0 ;Reset Extruder
G1 Z2.0 F3000 ;Move Z Axis up
G1 X10.1 Y20 Z0.28 F5000.0 ;Move to start position
G1 X10.1 Y200.0 Z0.28 F1500.0 E15 ;Draw the first line
G1 X10.4 Y200.0 Z0.28 F5000.0 ;Move to side a little
G1 X10.4 Y20 Z0.28 F1500.0 E30 ;Draw the second line
G92 E0 ;Reset Extruder
G1 Z2.0 F3000 ;Move Z Axis up

G92 E0
G92 E0
G1 F2700 E-5
;LAYER_COUNT:65
;LAYER:0
M107
G0 F6000 X126.415 Y123.211 Z0.2
;TYPE:SKIRT
G1 F2700 E0
G1 F1200 X127.108 Y122.578 E0.03122
G1 X127.852 Y122.007 E0.06241
G1 X128.641 Y121.501 E0.09359
G1 X129.471 Y121.065 E0.12477
G1 X130.336 Y120.701 E0.15598
G1 X131.228 Y120.411 E0.18718
G1 X132.141 Y120.199 E0.21835
G1 X133.07 Y120.065 E0.24957
G1 X134.001 Y120.011 E0.28059
G1 X134.646 Y120.001 E0.30204
G1 X165.283 Y120.001 E1.32104
G1 X165.983 Y120.011 E1.34432
G1 X166.919 Y120.064 E1.3755
G1 X167.848 Y120.197 E1.40671
G1 X168.762 Y120.409 E1.43792
G1 X169.654 Y120.698 E1.46911
G1 X170.518 Y121.061 E1.50028
G1 X171.349 Y121.497 E1.53149
G1 X172.139 Y122.002 E1.56268
G1 X172.884 Y122.573 E1.5939
G1 X173.577 Y123.204 E1.62507
G1 X174.213 Y123.893 E1.65625
G1 X174.789 Y124.633 E1.68744
G1 X175.3 Y125.42 E1.71865
G1 X175.775 Y126.317 E1.75241
G1 X176.82 Y128.533 E1.8339
G1 X177.96 Y130.79 E1.918
G1 X178.687 Y132.152 E1.96935
G1 X179.093 Y132.998 E2.00056
G1 X179.425 Y133.875 E2.03175
G1 X179.682 Y134.777 E2.06295
G1 X179.86 Y135.698 E2.09415
G1 X179.96 Y136.631 E2.12536
G1 X179.98 Y137.134 E2.1421
G1 X179.998 Y138.226 E2.17842
G1 X179.997 Y141.64 E2.29197
G1 X179.987 Y142.343 E2.31536
G1 X179.96 Y142.966 E2.3361
G1 X179.915 Y143.593 E2.35701
G1 X179.766 Y146.211 E2.44422
G1 X179.695 Y148.696 E2.52691
G1 X179.695 Y151.221 E2.61089
G1 X179.766 Y153.763 E2.69547
G1 X179.956 Y156.946 E2.80152
G1 X179.985 Y157.587 E2.82287
G1 X179.997 Y158.354 E2.84838
G1 X179.993 Y162.129 E2.97394
G1 X179.983 Y162.832 E2.99732
G1 X179.93 Y163.769 E3.02854
G1 X179.797 Y164.697 E3.05972
G1 X179.585 Y165.611 E3.09092
G1 X179.297 Y166.503 E3.1221
G1 X178.728 Y167.781 E3.16863
G1 X177.307 Y170.494 E3.27049
G1 X176.162 Y172.849 E3.35759
G1 X175.781 Y173.66 E3.38739
G1 X175.347 Y174.492 E3.4186
G1 X174.844 Y175.283 E3.44978
G1 X174.275 Y176.029 E3.48098
G1 X173.645 Y176.723 E3.51216
G1 X172.958 Y177.362 E3.54336
G1 X172.218 Y177.939 E3.57457
G1 X171.433 Y178.451 E3.60575
G1 X170.607 Y178.895 E3.63694
G1 X169.745 Y179.267 E3.66816
G1 X168.856 Y179.563 E3.69933
G1 X167.944 Y179.783 E3.73053
G1 X167.017 Y179.925 E3.76172
G1 X166.148 Y179.985 E3.79069
G1 X165.485 Y180 E3.81275
G1 X134.716 Y179.999 E4.83613
G1 X134.017 Y179.989 E4.85938
G1 X133.08 Y179.935 E4.8906
G1 X132.152 Y179.803 E4.92177
G1 X131.238 Y179.591 E4.95298
G1 X130.346 Y179.302 E4.98417
G1 X129.481 Y178.939 E5.01537
G1 X128.651 Y178.503 E5.04655
G1 X127.861 Y177.998 E5.07774
G1 X127.116 Y177.427 E5.10896
G1 X126.423 Y176.795 E5.14015
G1 X125.786 Y176.107 E5.17134
G1 X125.211 Y175.366 E5.20253
G1 X124.7 Y174.58 E5.23371
G1 X124.294 Y173.827 E5.26217
G1 X123.974 Y173.171 E5.28644
G1 X122.908 Y170.919 E5.36931
G1 X121.874 Y168.833 E5.44675
G1 X121.121 Y167.286 E5.50397
G1 X120.747 Y166.426 E5.53517
G1 X120.448 Y165.537 E5.56636
G1 X120.225 Y164.626 E5.59756
G1 X120.081 Y163.7 E5.62873
G1 X120.018 Y162.826 E5.65787
G1 X120.002 Y162.164 E5.67989
G1 X120.002 Y158.577 E5.7992
G1 X120.012 Y157.874 E5.82258
G1 X120.039 Y157.249 E5.84339
G1 X120.098 Y156.418 E5.8711
G1 X120.247 Y153.811 E5.95795
G1 X120.318 Y151.326 E6.04063
G1 X120.318 Y148.801 E6.12462
G1 X120.247 Y146.266 E6.20896
G1 X120.12 Y143.936 E6.28658
G1 X120.033 Y142.626 E6.33024
G1 X120.01 Y142.019 E6.35045
G1 X120.003 Y141.337 E6.37313
G1 X120.006 Y137.857 E6.48888
G1 X120.016 Y137.188 E6.51113
G1 X120.07 Y136.251 E6.54235
G1 X120.204 Y135.323 E6.57353
G1 X120.416 Y134.409 E6.60474
G1 X120.705 Y133.517 E6.63592
G1 X121.27 Y132.249 E6.68209
G1 X122.568 Y129.77 E6.77517
G1 X124.253 Y126.255 E6.90481
G1 X124.694 Y125.428 E6.93599
G1 X125.204 Y124.641 E6.96718
G1 X125.779 Y123.9 E6.99837
G1 X126.415 Y123.211 E7.02956
G0 F6000 X126.745 Y123.447
G1 F1200 X127.429 Y122.831 E7.06018
G1 X128.165 Y122.277 E7.09082
G1 X128.945 Y121.788 E7.12143
G1 X129.765 Y121.37 E7.15205
G1 X130.618 Y121.023 E7.18268
G1 X131.498 Y120.753 E7.21329
G1 X132.398 Y120.559 E7.24391
G1 X133.312 Y120.445 E7.27455
G1 X134.008 Y120.411 E7.29772
G1 X134.653 Y120.401 E7.31918
G1 X165.126 Y120.4 E8.33272
G1 X165.977 Y120.411 E8.36102
G1 X166.897 Y120.464 E8.39167
G1 X167.808 Y120.597 E8.42229
G1 X168.704 Y120.808 E8.45291
G1 X169.578 Y121.096 E8.48352
G1 X170.424 Y121.459 E8.51414
G1 X171.236 Y121.894 E8.54477
G1 X172.006 Y122.398 E8.57538
G1 X172.73 Y122.967 E8.60601
G1 X173.402 Y123.596 E8.63662
G1 X174.017 Y124.282 E8.66727
G1 X174.57 Y125.018 E8.69789
G1 X175.057 Y125.799 E8.7285
G1 X175.413 Y126.488 E8.75429
G1 X176.459 Y128.706 E8.83586
G1 X177.608 Y130.98 E8.9206
G1 X178.334 Y132.341 E8.9719
G1 X178.732 Y133.171 E9.00252
G1 X179.056 Y134.033 E9.03315
G1 X179.304 Y134.919 E9.06375
G1 X179.475 Y135.824 E9.09438
G1 X179.58 Y137.141 E9.13832
G1 X179.598 Y138.226 E9.17442
G1 X179.597 Y141.635 E9.2878
G1 X179.587 Y142.338 E9.31118
G1 X179.561 Y142.938 E9.33116
G1 X179.518 Y143.545 E9.3514
G1 X179.368 Y146.176 E9.43905
G1 X179.295 Y148.72 E9.5237
G1 X179.295 Y151.232 E9.60725
G1 X179.366 Y153.764 E9.69149
G1 X179.557 Y156.976 E9.79851
G1 X179.585 Y157.593 E9.81906
G1 X179.597 Y158.36 E9.84457
G1 X179.593 Y162.124 E9.96976
G1 X179.583 Y162.827 E9.99314
G1 X179.53 Y163.746 E10.02376
G1 X179.397 Y164.657 E10.05438
G1 X179.186 Y165.553 E10.085
G1 X178.898 Y166.427 E10.11561
G1 X178.373 Y167.595 E10.1582
G1 X176.957 Y170.298 E10.25969
G1 X175.824 Y172.627 E10.34583
G1 X175.419 Y173.491 E10.37757
G1 X174.992 Y174.306 E10.40817
G1 X174.496 Y175.082 E10.4388
G1 X173.935 Y175.812 E10.46942
G1 X173.313 Y176.49 E10.50003
G1 X172.634 Y177.112 E10.53065
G1 X171.903 Y177.672 E10.56128
G1 X171.127 Y178.167 E10.59189
G1 X170.31 Y178.593 E10.62254
G1 X169.46 Y178.946 E10.65315
G1 X168.583 Y179.224 E10.68375
G1 X167.684 Y179.425 E10.71439
G1 X166.772 Y179.547 E10.74499
G1 X166.136 Y179.585 E10.76619
G1 X165.485 Y179.6 E10.78784
G1 X134.721 Y179.599 E11.81106
G1 X134.022 Y179.589 E11.83431
G1 X133.103 Y179.536 E11.86493
G1 X132.192 Y179.403 E11.89555
G1 X131.296 Y179.192 E11.92616
G1 X130.422 Y178.904 E11.95677
G1 X129.576 Y178.541 E11.98739
G1 X128.764 Y178.106 E12.01803
G1 X127.994 Y177.602 E12.04864
G1 X127.27 Y177.033 E12.07926
G1 X126.598 Y176.404 E12.10988
G1 X125.983 Y175.718 E12.14052
G1 X125.43 Y174.982 E12.17114
G1 X124.943 Y174.201 E12.20175
G1 X124.654 Y173.651 E12.22242
G1 X124.336 Y173 E12.24652
G1 X123.292 Y170.796 E12.32763
G1 X122.234 Y168.658 E12.40697
G1 X121.481 Y167.111 E12.46419
G1 X121.114 Y166.267 E12.49481
G1 X120.823 Y165.394 E12.52541
G1 X120.607 Y164.498 E12.55607
G1 X120.471 Y163.588 E12.58667
G1 X120.417 Y162.813 E12.61251
G1 X120.402 Y162.164 E12.6341
G1 X120.402 Y158.582 E12.75324
G1 X120.412 Y157.879 E12.77662
G1 X120.438 Y157.277 E12.79666
G1 X120.496 Y156.466 E12.82371
G1 X120.645 Y153.846 E12.91099
G1 X120.718 Y151.302 E12.99564
G1 X120.718 Y148.79 E13.07919
G1 X120.647 Y146.232 E13.1643
G1 X120.527 Y144.036 E13.23745
G1 X120.432 Y142.6 E13.28531
G1 X120.41 Y142.014 E13.30482
G1 X120.403 Y141.338 E13.3273
G1 X120.406 Y137.863 E13.44288
G1 X120.416 Y137.194 E13.46514
G1 X120.47 Y136.274 E13.49579
G1 X120.603 Y135.364 E13.52638
G1 X120.815 Y134.468 E13.557
G1 X121.104 Y133.593 E13.58765
G1 X121.625 Y132.435 E13.62988
G1 X122.908 Y129.984 E13.7219
G1 X124.613 Y126.428 E13.85306
G1 X125.047 Y125.616 E13.88368
G1 X125.549 Y124.845 E13.91428
G1 X126.117 Y124.12 E13.94492
G1 X126.745 Y123.447 E13.97553
G0 F6000 X127.075 Y123.684
G1 F1200 X127.751 Y123.085 E14.00557
G1 X128.477 Y122.548 E14.03561
G1 X129.248 Y122.078 E14.06564
G1 X130.057 Y121.677 E14.09567
G1 X130.899 Y121.35 E14.12572
G1 X131.766 Y121.098 E14.15575
G1 X132.652 Y120.924 E14.18578
G1 X133.55 Y120.829 E14.21581
G1 X134.014 Y120.811 E14.23126
G1 X134.659 Y120.801 E14.25271
G1 X165.126 Y120.8 E15.26605
G1 X165.972 Y120.811 E15.29419
G1 X166.873 Y120.864 E15.32421
G1 X167.767 Y120.996 E15.35426
G1 X168.645 Y121.207 E15.3843
G1 X169.501 Y121.495 E15.41434
G1 X170.328 Y121.857 E15.44436
G1 X171.12 Y122.291 E15.4744
G1 X171.87 Y122.794 E15.50444
G1 X172.573 Y123.361 E15.53448
G1 X173.224 Y123.987 E15.56451
G1 X173.816 Y124.669 E15.59455
G1 X174.345 Y125.401 E15.62459
G1 X174.808 Y126.176 E15.65462
G1 X175.051 Y126.658 E15.67257
G1 X176.098 Y128.877 E15.75418
G1 X177.256 Y131.17 E15.83962
G1 X177.981 Y132.529 E15.89085
G1 X178.371 Y133.344 E15.9209
G1 X178.687 Y134.19 E15.95093
G1 X178.926 Y135.061 E15.98097
G1 X179.088 Y135.949 E16.011
G1 X179.18 Y137.148 E16.05099
G1 X179.198 Y138.226 E16.08685
G1 X179.197 Y141.629 E16.20004
G1 X179.187 Y142.332 E16.22342
G1 X179.162 Y142.91 E16.24266
G1 X179.116 Y143.563 E16.26444
G1 X178.968 Y146.144 E16.35042
G1 X178.895 Y148.708 E16.43573
G1 X178.895 Y151.243 E16.52005
G1 X178.965 Y153.765 E16.60396
G1 X179.158 Y157.006 E16.71195
G1 X179.185 Y157.599 E16.73169
G1 X179.198 Y158.538 E16.76293
G1 X179.193 Y162.118 E16.882
G1 X179.183 Y162.821 E16.90538
G1 X179.13 Y163.723 E16.93544
G1 X178.998 Y164.616 E16.96546
G1 X178.787 Y165.494 E16.99549
G1 X178.499 Y166.35 E17.02553
G1 X178.019 Y167.409 E17.0642
G1 X176.608 Y170.103 E17.16535
G1 X175.447 Y172.489 E17.25361
G1 X175.057 Y173.321 E17.28417
G1 X174.638 Y174.121 E17.31421
G1 X174.149 Y174.88 E17.34424
G1 X173.596 Y175.594 E17.37427
G1 X172.981 Y176.256 E17.40433
G1 X172.31 Y176.86 E17.43436
G1 X171.589 Y177.403 E17.46438
G1 X170.822 Y177.88 E17.49442
G1 X170.016 Y178.288 E17.52446
G1 X169.177 Y178.622 E17.5545
G1 X168.312 Y178.881 E17.58453
G1 X167.427 Y179.063 E17.61458
G1 X166.125 Y179.186 E17.65808
G1 X165.485 Y179.2 E17.67937
G1 X134.727 Y179.199 E18.70239
G1 X134.028 Y179.189 E18.72564
G1 X133.127 Y179.136 E18.75566
G1 X132.233 Y179.004 E18.78571
G1 X131.355 Y178.793 E18.81575
G1 X130.499 Y178.505 E18.84579
G1 X129.672 Y178.143 E18.87581
G1 X128.88 Y177.709 E18.90585
G1 X128.129 Y177.206 E18.93591
G1 X127.426 Y176.639 E18.96595
G1 X126.776 Y176.012 E18.99599
G1 X126.184 Y175.33 E19.02603
G1 X125.655 Y174.599 E19.05604
G1 X125.013 Y173.475 E19.09909
G1 X124.697 Y172.828 E19.12304
G1 X123.632 Y170.579 E19.20581
G1 X122.594 Y168.483 E19.2836
G1 X121.841 Y166.936 E19.34083
G1 X121.482 Y166.107 E19.37087
G1 X121.198 Y165.25 E19.4009
G1 X120.99 Y164.371 E19.43094
G1 X120.862 Y163.477 E19.46098
G1 X120.817 Y162.8 E19.48355
G1 X120.802 Y162.164 E19.50471
G1 X120.802 Y158.588 E19.62365
G1 X120.812 Y157.885 E19.64703
G1 X120.837 Y157.306 E19.66631
G1 X120.898 Y156.453 E19.69475
G1 X121.045 Y153.878 E19.78053
G1 X121.118 Y151.314 E19.86585
G1 X121.118 Y148.779 E19.95016
G1 X121.047 Y146.236 E20.03477
G1 X120.922 Y143.956 E20.11072
G1 X120.831 Y142.573 E20.15682
G1 X120.81 Y142.01 E20.17556
G1 X120.803 Y141.338 E20.19791
G1 X120.806 Y137.869 E20.31329
G1 X120.816 Y137.2 E20.33554
G1 X120.87 Y136.298 E20.3656
G1 X121.003 Y135.405 E20.39563
G1 X121.214 Y134.527 E20.42566
G1 X121.502 Y133.671 E20.4557
G1 X121.979 Y132.62 E20.49409
G1 X123.277 Y130.141 E20.58716
G1 X124.974 Y126.601 E20.71773
G1 X125.4 Y125.805 E20.74776
G1 X125.895 Y125.049 E20.77781
G1 X126.455 Y124.341 E20.80784
G1 X127.075 Y123.684 E20.83788
G1 F2700 E15.83788
G0 F6000 X132.005 Y138.318
G1 F2700 E20.83788
G1 F1200 X132.255 Y138.275 E20.84632
G1 X132.372 Y138.219 E20.85063
G1 X132.371 Y141.113 E20.94689
G1 X132.003 Y141.013 E20.95957
G1 X132.005 Y138.318 E21.04921
G0 F6000 X131.966 Y137.923
G1 F1200 X132.179 Y137.877 E21.05646
G1 X132.379 Y137.742 E21.06448
G1 X132.658 Y137.456 E21.07777
G1 X132.772 Y137.287 E21.08455
G1 X132.771 Y142.059 E21.24327
G1 X132.659 Y141.883 E21.25021
G1 X132.384 Y141.596 E21.26343
G1 X132.207 Y141.468 E21.27069
G1 X131.979 Y141.412 E21.2785
G1 X131.603 Y141.394 E21.29102
G1 X131.605 Y137.933 E21.40613
G1 X131.966 Y137.923 E21.41814
G0 F6000 X131.955 Y137.523
G1 F1200 X132.093 Y137.463 E21.42315
G1 X132.372 Y137.177 E21.43644
G1 X132.429 Y137.037 E21.44147
G1 X132.429 Y135.399 E21.49595
G1 X133.172 Y135.398 E21.52066
G1 X133.171 Y144.118 E21.81069
G1 X132.433 Y144.113 E21.83523
G1 X132.426 Y142.297 E21.89563
G1 X132.37 Y142.16 E21.90056
G1 X132.095 Y141.873 E21.91378
G1 X131.96 Y141.811 E21.91872
G1 X131.202 Y141.775 E21.94396
G1 X131.206 Y137.543 E22.08472
G1 X131.955 Y137.523 E22.10964
G1 F2700 E17.10964
G0 F6000 X132.43 Y156.095
G1 F2700 E22.10964
G1 F1200 X133.169 Y156.086 E22.13422
G1 X133.167 Y164.768 E22.42298
G1 X132.426 Y164.773 E22.44763
G1 X132.426 Y162.725 E22.51574
G1 X132.365 Y162.582 E22.52092
G1 X132.079 Y162.304 E22.53418
G1 X131.934 Y162.247 E22.53936
G1 X131.202 Y162.268 E22.56372
G1 X131.201 Y158.098 E22.70241
G1 X131.249 Y158.033 E22.7051
G1 X131.961 Y158.004 E22.7288
G1 X132.097 Y157.943 E22.73376
G1 X132.374 Y157.655 E22.74705
G1 X132.43 Y157.516 E22.75203
G1 X132.43 Y156.095 E22.7993
G0 F6000 X132.769 Y157.772
G1 F1200 X132.768 Y162.482 E22.95595
G1 X132.644 Y162.295 E22.96342
G1 X132.358 Y162.017 E22.97668
G1 X132.177 Y161.896 E22.98392
G1 X131.923 Y161.847 E22.99253
G1 X131.602 Y161.856 E23.00321
G1 X131.601 Y158.419 E23.11752
G1 X131.977 Y158.404 E23.13004
G1 X132.19 Y158.355 E23.13731
G1 X132.385 Y158.22 E23.1452
G1 X132.662 Y157.932 E23.15849
G1 X132.769 Y157.772 E23.16489
G0 F6000 X132.368 Y158.703
G1 F1200 X132.368 Y161.549 E23.25955
G1 X132.002 Y161.455 E23.27211
G1 X132.001 Y158.802 E23.36035
G1 X132.271 Y158.752 E23.36949
G1 X132.368 Y158.703 E23.3731
G1 F2700 E18.3731
G0 F6000 X133.513 Y169.653
G0 X166.481 Y169.653
G0 X166.83 Y155.697
G1 F2700 E23.3731
G1 F1200 X167.576 Y155.695 E23.39791
G1 X167.583 Y157.516 E23.45848
G1 X167.643 Y157.658 E23.46361
G1 X167.928 Y157.938 E23.4769
G1 X168.071 Y157.995 E23.48202
G1 X168.798 Y157.983 E23.5062
G1 X168.794 Y162.484 E23.6559
G1 X168.051 Y162.497 E23.68062
G1 X167.912 Y162.557 E23.68566
G1 X167.632 Y162.842 E23.69894
G1 X167.575 Y162.982 E23.70397
G1 X167.575 Y164.382 E23.75054
G1 X167.239 Y164.407 E23.76174
G1 X166.934 Y164.577 E23.77336
G1 X166.829 Y164.578 E23.77685
G1 X166.83 Y155.697 E24.07223
G0 F6000 X167.23 Y157.741
G1 F1200 X167.363 Y157.943 E24.08028
G1 X167.648 Y158.223 E24.09356
G1 X167.828 Y158.345 E24.1008
G1 X168.078 Y158.395 E24.10928
G1 X168.398 Y158.39 E24.11992
G1 X168.394 Y162.091 E24.24302
G1 X168.044 Y162.097 E24.25466
G1 X167.83 Y162.141 E24.26193
G1 X167.627 Y162.277 E24.27005
G1 X167.347 Y162.562 E24.28334
G1 X167.229 Y162.736 E24.29033
G1 X167.23 Y157.741 E24.45647
G0 F6000 X167.63 Y158.689
G1 F1200 X167.998 Y158.787 E24.46913
G1 X167.994 Y161.704 E24.56615
G1 X167.758 Y161.742 E24.5741
G1 X167.629 Y161.803 E24.57885
G1 X167.63 Y158.689 E24.68242
G1 F2700 E19.68242
G0 F6000 X167.572 Y144.113
G1 F2700 E24.68242
G1 F1200 X166.831 Y144.118 E24.70707
G1 X166.832 Y135.634 E24.98925
G1 X167.513 Y135.638 E25.0119
G1 X167.575 Y135.707 E25.01498
G1 X167.575 Y137.048 E25.05959
G1 X167.633 Y137.189 E25.06466
G1 X167.914 Y137.472 E25.07792
G1 X168.054 Y137.531 E25.08297
G1 X168.798 Y137.537 E25.10772
G1 X168.798 Y141.991 E25.25586
G1 X168.054 Y141.992 E25.28061
G1 X167.913 Y142.051 E25.28569
G1 X167.631 Y142.333 E25.29896
G1 X167.572 Y142.474 E25.30404
G1 X167.572 Y144.113 E25.35855
G0 F6000 X167.231 Y142.219
G1 F1200 X167.232 Y137.289 E25.52252
G1 X167.349 Y137.471 E25.52972
G1 X167.63 Y137.754 E25.54299
G1 X167.81 Y137.878 E25.55026
G1 X168.051 Y137.931 E25.55846
G1 X168.398 Y137.934 E25.57
