;FLAVOR:Marlin
;TIME:5180
;Filament used: 3.20016m
;Layer height: 0.2
;MINX:73.312
;MINY:127.855
;MINZ:0.2
;MAXX:214.672
;MAXY:184.244
;MAXZ:30
;Generated with Cura_SteamEngine 5.2.1
M140 S60
M105
M190 S60
M104 S210
M105
M109 S210
M82 ;absolute extrusion mode
M201 X500.00 Y500.00 Z100.00 E5000.00 ;Setup machine max acceleration
M203 X500.00 Y500.00 Z10.00 E50.00 ;Setup machine max feedrate
M204 P500.00 R1000.00 T500.00 ;Setup Print/Retract/Travel acceleration
M205 X8.00 Y8.00 Z0.40 E5.00 ;Setup Jerk
M220 S100 ;Reset Feedrate
M221 S100 ;Reset Flowrate

G28 ;Home
G29 ;Auto bed Level

G92 E0 ;Reset Extruder
G1 Z2.0 F3000 ;Move Z Axis up
G1 X10.1 Y20 Z0.28 F5000.0 ;Move to start position
G1 X10.1 Y200.0 Z0.28 F1500.0 E15 ;Draw the first line
G1 X10.4 Y200.0 Z0.28 F5000.0 ;Move to side a little
G1 X10.4 Y20 Z0.28 F1500.0 E30 ;Draw the second line
G92 E0 ;Reset Extruder
G1 Z2.0 F3000 ;Move Z Axis up

G92 E0
G92 E0
G1 F2700 E-5
;LAYER_COUNT:150
;LAYER:0
M107
G0 F6000 X78.522 Y129.727 Z0.2
;TYPE:SKIRT
G1 F2700 E0
G1 F1200 X79.336 Y129.26 E0.03121
G1 X80.186 Y128.864 E0.0624
G1 X81.51 Y128.411 E0.10894
G1 X81.888 Y128.308 E0.12197
G1 X82.803 Y128.1 E0.15318
G1 X83.565 Y127.988 E0.1788
G1 X83.961 Y127.944 E0.19205
G1 X84.977 Y127.879 E0.22591
G1 X86.394 Y127.855 E0.27305
G1 X113.002 Y127.858 E1.15804
G1 X113.883 Y127.87 E1.18734
G1 X114.718 Y127.91 E1.21515
G1 X115.683 Y128.017 E1.24744
G1 X116.299 Y128.113 E1.26817
G1 X117.219 Y128.297 E1.29938
G1 X118.119 Y128.558 E1.33055
G1 X119.049 Y128.92 E1.36374
G1 X119.914 Y129.302 E1.39519
G1 X120.672 Y129.649 E1.42292
G1 X122.995 Y130.638 E1.50689
G1 X125.335 Y131.558 E1.59052
G1 X127.676 Y132.402 E1.67329
G1 X130.09 Y133.196 E1.75781
G1 X132.507 Y133.915 E1.84168
G1 X134.946 Y134.567 E1.92565
G1 X137.405 Y135.15 E2.0097
G1 X139.822 Y135.652 E2.09181
G1 X142.334 Y136.099 E2.17667
G1 X144.833 Y136.472 E2.26071
G1 X147.311 Y136.77 E2.34372
G1 X149.818 Y136.999 E2.42745
G1 X152.351 Y137.16 E2.51187
G1 X154.826 Y137.246 E2.59424
G1 X157.394 Y137.263 E2.67965
G1 X159.88 Y137.209 E2.76236
G1 X162.402 Y137.084 E2.84634
G1 X164.911 Y136.887 E2.93005
G1 X167.406 Y136.62 E3.01351
G1 X169.91 Y136.281 E3.09755
G1 X172.376 Y135.874 E3.18068
G1 X174.871 Y135.391 E3.2652
G1 X177.254 Y134.86 E3.3464
G1 X180.572 Y134.005 E3.46037
G1 X182.295 Y133.528 E3.51983
G1 X182.871 Y133.382 E3.53959
G1 X183.788 Y133.181 E3.57082
G1 X184.422 Y133.06 E3.59228
G1 X185.647 Y132.874 E3.6335
G1 X186.241 Y132.807 E3.65338
G1 X186.866 Y132.75 E3.67425
G1 X187.46 Y132.709 E3.69405
G1 X188.393 Y132.676 E3.72511
G1 X189.016 Y132.671 E3.74583
G1 X190.249 Y132.707 E3.78685
G1 X190.922 Y132.752 E3.80929
G1 X191.797 Y132.835 E3.83852
G1 X192.416 Y132.914 E3.85928
G1 X193.314 Y133.054 E3.88951
G1 X193.909 Y133.166 E3.90964
G1 X194.502 Y133.29 E3.92979
G1 X195.098 Y133.432 E3.95017
G1 X196.323 Y133.767 E3.99241
G1 X196.972 Y133.972 E4.01505
G1 X197.735 Y134.236 E4.0419
G1 X198.35 Y134.47 E4.06379
G1 X198.907 Y134.697 E4.08379
G1 X199.421 Y134.922 E4.10245
G1 X200.224 Y135.298 E4.13194
G1 X200.654 Y135.511 E4.1479
G1 X201.153 Y135.776 E4.1667
G1 X201.69 Y136.075 E4.18714
G1 X202.187 Y136.365 E4.20628
G1 X203.009 Y136.884 E4.23861
G1 X203.513 Y137.22 E4.25876
G1 X204.243 Y137.742 E4.28861
G1 X204.791 Y138.16 E4.31153
G1 X205.47 Y138.712 E4.34064
G1 X205.942 Y139.117 E4.36132
G1 X206.607 Y139.725 E4.39129
G1 X206.87 Y139.976 E4.40338
G1 X207.323 Y140.43 E4.42471
G1 X207.721 Y140.846 E4.44386
G1 X208.126 Y141.288 E4.4638
G1 X208.397 Y141.6 E4.47755
G1 X208.956 Y142.269 E4.50654
G1 X209.321 Y142.73 E4.5261
G1 X209.702 Y143.239 E4.54725
G1 X210.059 Y143.737 E4.56763
G1 X210.531 Y144.441 E4.59582
G1 X210.89 Y145.011 E4.61822
G1 X211.355 Y145.807 E4.64888
G1 X211.808 Y146.646 E4.6806
G1 X212.22 Y147.481 E4.71157
G1 X212.484 Y148.061 E4.73276
G1 X212.701 Y148.568 E4.7511
G1 X212.921 Y149.114 E4.77068
G1 X213.246 Y149.999 E4.80204
G1 X213.365 Y150.345 E4.81421
G1 X213.546 Y150.917 E4.83416
G1 X213.705 Y151.458 E4.85292
G1 X213.875 Y152.087 E4.87459
G1 X214.085 Y152.979 E4.90507
G1 X214.214 Y153.611 E4.92652
G1 X214.368 Y154.503 E4.95663
G1 X214.449 Y155.077 E4.97591
G1 X214.59 Y156.377 E5.0194
G1 X214.635 Y157.041 E5.04154
G1 X214.658 Y157.557 E5.05872
G1 X214.672 Y158.142 E5.07818
G1 X214.664 Y159.13 E5.11104
G1 X214.64 Y159.777 E5.13258
G1 X214.581 Y160.641 E5.16138
G1 X214.52 Y161.272 E5.18246
G1 X214.477 Y161.632 E5.19452
G1 X214.351 Y162.533 E5.22478
G1 X214.248 Y163.121 E5.24464
G1 X214.136 Y163.692 E5.26399
G1 X214 Y164.317 E5.28526
G1 X213.776 Y165.201 E5.31559
G1 X213.591 Y165.851 E5.33807
G1 X213.467 Y166.251 E5.352
G1 X213.213 Y167.013 E5.37872
G1 X213.025 Y167.531 E5.39704
G1 X212.791 Y168.131 E5.41846
G1 X212.536 Y168.741 E5.44045
G1 X212.358 Y169.136 E5.45486
G1 X211.988 Y169.915 E5.48355
G1 X211.745 Y170.397 E5.5015
G1 X211.474 Y170.902 E5.52056
G1 X211.169 Y171.441 E5.54116
G1 X210.678 Y172.248 E5.57258
G1 X210.315 Y172.808 E5.59478
G1 X210.08 Y173.149 E5.60855
G1 X209.604 Y173.813 E5.63572
G1 X209.27 Y174.255 E5.65415
G1 X208.646 Y175.03 E5.68724
G1 X208.234 Y175.509 E5.70826
G1 X207.907 Y175.873 E5.72453
G1 X207.424 Y176.385 E5.74794
G1 X207.145 Y176.667 E5.76114
G1 X206.538 Y177.257 E5.78929
G1 X206.098 Y177.662 E5.80918
G1 X205.608 Y178.089 E5.8308
G1 X205.119 Y178.498 E5.852
G1 X204.222 Y179.193 E5.88974
G1 X203.722 Y179.551 E5.9102
G1 X203.159 Y179.936 E5.93288
G1 X202.62 Y180.287 E5.95428
G1 X202.251 Y180.513 E5.96867
G1 X201.543 Y180.927 E5.99595
G1 X200.978 Y181.235 E6.01735
G1 X200.178 Y181.642 E6.0472
G1 X199.58 Y181.924 E6.06919
G1 X198.762 Y182.28 E6.09887
G1 X198.232 Y182.494 E6.11788
G1 X197.387 Y182.806 E6.14784
G1 X196.791 Y183.005 E6.16873
G1 X196.215 Y183.183 E6.18879
G1 X195.626 Y183.351 E6.20916
G1 X194.728 Y183.576 E6.23995
G1 X194.121 Y183.711 E6.26063
G1 X193.257 Y183.875 E6.28988
G1 X192.269 Y184.024 E6.32311
G1 X191.713 Y184.092 E6.34174
G1 X191.087 Y184.154 E6.36267
G1 X190.732 Y184.181 E6.37451
G1 X189.841 Y184.23 E6.40419
G1 X189.229 Y184.244 E6.42455
G1 X188.247 Y184.24 E6.45721
G1 X187.621 Y184.216 E6.47805
G1 X187.079 Y184.184 E6.4961
G1 X186.466 Y184.134 E6.51656
G1 X185.507 Y184.024 E6.54867
G1 X184.935 Y183.944 E6.56788
G1 X183.687 Y183.719 E6.61005
G1 X183.097 Y183.589 E6.63015
G1 X182.175 Y183.359 E6.66175
G1 X181.554 Y183.183 E6.68322
G1 X180.722 Y182.922 E6.71222
G1 X180.147 Y182.72 E6.73249
G1 X179.23 Y182.371 E6.76513
G1 X178.157 Y181.931 E6.8037
G1 X177.143 Y181.496 E6.8404
G1 X174.814 Y180.575 E6.9237
G1 X172.463 Y179.721 E7.00689
G1 X170.08 Y178.931 E7.09039
G1 X167.653 Y178.202 E7.17468
G1 X165.209 Y177.542 E7.25888
G1 X162.749 Y176.952 E7.34302
G1 X160.333 Y176.445 E7.42512
G1 X157.834 Y175.994 E7.50958
G1 X155.322 Y175.613 E7.59409
G1 X152.878 Y175.313 E7.67599
G1 X150.31 Y175.072 E7.76177
G1 X148.052 Y174.92 E7.83705
G1 X147.331 Y174.879 E7.86106
G1 X146.748 Y174.83 E7.88052
G1 X145.978 Y174.745 E7.90629
G1 X143.397 Y174.499 E7.99252
G1 X140.896 Y174.33 E8.0759
G1 X138.351 Y174.232 E8.16061
G1 X135.858 Y174.207 E8.24353
G1 X133.34 Y174.251 E8.32729
G1 X130.842 Y174.367 E8.41046
G1 X128.298 Y174.556 E8.49531
G1 X125.828 Y174.811 E8.5779
G1 X123.282 Y175.147 E8.66331
G1 X120.824 Y175.542 E8.74612
G1 X118.292 Y176.022 E8.83183
G1 X117.076 Y176.272 E8.87312
G1 X116.15 Y176.422 E8.90432
G1 X115.196 Y176.492 E8.93614
G1 X114.533 Y176.507 E8.95819
G1 X112.235 Y176.506 E9.03463
G1 X111.535 Y176.496 E9.05791
G1 X110.599 Y176.443 E9.08909
G1 X109.67 Y176.31 E9.1203
G1 X108.756 Y176.098 E9.15151
G1 X107.864 Y175.809 E9.1827
G1 X107 Y175.446 E9.21387
G1 X106.205 Y175.031 E9.2437
G1 X104.747 Y174.192 E9.29964
G1 X102.46 Y172.926 E9.38659
G1 X100.246 Y171.78 E9.46951
G1 X97.977 Y170.687 E9.55327
G1 X95.693 Y169.665 E9.6365
G1 X93.297 Y168.674 E9.72274
G1 X90.995 Y167.796 E9.80468
G1 X88.633 Y166.971 E9.88789
G1 X86.219 Y166.204 E9.97214
G1 X83.794 Y165.508 E10.05605
G1 X81.735 Y164.965 E10.12688
G1 X80.839 Y164.687 E10.15808
G1 X79.97 Y164.335 E10.18926
G1 X79.134 Y163.909 E10.22047
G1 X78.338 Y163.415 E10.25163
G1 X77.23 Y162.551 E10.29836
G1 X77.015 Y162.36 E10.30793
G1 X76.341 Y161.707 E10.33914
G1 X75.725 Y161 E10.37033
G1 X75.172 Y160.243 E10.40151
G1 X74.685 Y159.441 E10.43272
G1 X74.268 Y158.601 E10.46391
G1 X73.924 Y157.729 E10.49509
G1 X73.656 Y156.83 E10.52629
G1 X73.465 Y155.912 E10.55747
G1 X73.353 Y154.981 E10.58866
G1 X73.327 Y154.485 E10.60518
G1 X73.313 Y153.895 E10.62481
G1 X73.312 Y151.705 E10.69765
G1 X73.322 Y150.997 E10.7212
G1 X73.409 Y148.012 E10.82052
G1 X73.409 Y145.472 E10.90501
G1 X73.368 Y143.732 E10.96289
G1 X73.319 Y142.287 E11.01098
G1 X73.313 Y141.925 E11.02302
G1 X73.312 Y139.682 E11.09763
G1 X73.322 Y139.01 E11.11998
G1 X73.376 Y138.074 E11.15116
G1 X73.51 Y137.146 E11.18235
G1 X73.722 Y136.232 E11.21356
G1 X74.011 Y135.34 E11.24474
G1 X74.375 Y134.476 E11.27593
G1 X74.723 Y133.797 E11.3013
G1 X75.203 Y132.992 E11.33247
G1 X75.751 Y132.23 E11.36369
G1 X76.361 Y131.518 E11.39488
G1 X77.029 Y130.86 E11.42606
G1 X77.752 Y130.262 E11.45727
G1 X78.522 Y129.727 E11.48845
G0 F6000 X78.822 Y130.012
G1 F1200 X79.625 Y129.561 E11.51909
G1 X80.464 Y129.183 E11.54969
G1 X81.615 Y128.797 E11.59007
G1 X81.993 Y128.694 E11.6031
G1 X82.891 Y128.491 E11.63372
G1 X83.609 Y128.386 E11.65786
G1 X84.005 Y128.342 E11.67111
G1 X84.984 Y128.279 E11.70374
G1 X86.394 Y128.255 E11.75064
G1 X112.996 Y128.258 E12.63543
G1 X113.877 Y128.27 E12.66473
G1 X114.691 Y128.309 E12.69184
G1 X115.621 Y128.412 E12.72296
G1 X116.237 Y128.508 E12.74369
G1 X117.14 Y128.69 E12.77433
G1 X118.023 Y128.948 E12.80493
G1 X118.887 Y129.285 E12.83577
G1 X119.752 Y129.667 E12.86723
G1 X120.526 Y130.022 E12.89555
G1 X122.828 Y131.002 E12.97876
G1 X125.19 Y131.93 E13.06317
G1 X127.564 Y132.786 E13.1471
G1 X129.988 Y133.583 E13.23197
G1 X132.371 Y134.293 E13.31467
G1 X134.848 Y134.954 E13.39994
G1 X137.303 Y135.536 E13.48386
G1 X139.776 Y136.05 E13.56787
G1 X142.277 Y136.495 E13.65236
G1 X144.763 Y136.866 E13.73596
G1 X147.263 Y137.167 E13.81971
G1 X149.79 Y137.398 E13.90411
G1 X152.313 Y137.558 E13.98819
G1 X154.846 Y137.646 E14.07249
G1 X157.364 Y137.663 E14.15624
G1 X159.909 Y137.608 E14.24091
G1 X162.417 Y137.483 E14.32443
G1 X164.948 Y137.285 E14.40887
G1 X167.465 Y137.015 E14.49306
G1 X169.962 Y136.677 E14.57687
G1 X172.446 Y136.267 E14.66061
G1 X174.963 Y135.779 E14.74588
G1 X177.351 Y135.248 E14.82725
G1 X180.669 Y134.393 E14.94121
G1 X182.402 Y133.913 E15.00102
G1 X183.281 Y133.698 E15.03112
G1 X184.186 Y133.51 E15.06186
G1 X184.792 Y133.404 E15.08232
G1 X185.369 Y133.316 E15.10174
G1 X185.968 Y133.239 E15.12182
G1 X186.902 Y133.149 E15.15303
G1 X187.484 Y133.109 E15.17243
G1 X188.406 Y133.076 E15.20312
G1 X189.016 Y133.071 E15.22341
G1 X189.907 Y133.093 E15.25305
G1 X190.578 Y133.128 E15.2754
G1 X191.416 Y133.198 E15.30337
G1 X192.072 Y133.271 E15.32532
G1 X193.242 Y133.447 E15.36468
G1 X193.828 Y133.557 E15.38451
G1 X194.421 Y133.681 E15.40466
G1 X194.994 Y133.818 E15.42425
G1 X196.206 Y134.15 E15.46605
G1 X196.843 Y134.35 E15.48825
G1 X197.324 Y134.514 E15.50516
G1 X197.891 Y134.721 E15.52523
G1 X198.756 Y135.068 E15.55623
G1 X199.251 Y135.284 E15.57419
G1 X200.054 Y135.66 E15.60368
G1 X200.469 Y135.866 E15.61909
G1 X200.959 Y136.126 E15.63754
G1 X201.496 Y136.425 E15.65799
G1 X201.983 Y136.709 E15.67674
G1 X202.794 Y137.221 E15.70864
G1 X203.289 Y137.552 E15.72844
G1 X204.008 Y138.066 E15.75784
G1 X204.546 Y138.476 E15.78034
G1 X205.216 Y139.021 E15.80906
G1 X205.68 Y139.419 E15.8294
G1 X206.336 Y140.019 E15.85896
G1 X206.589 Y140.26 E15.87059
G1 X207.034 Y140.706 E15.89154
G1 X207.432 Y141.122 E15.91069
G1 X207.829 Y141.556 E15.93025
G1 X208.09 Y141.856 E15.94348
G1 X208.649 Y142.525 E15.97247
G1 X209.001 Y142.97 E15.99135
G1 X209.382 Y143.479 E16.01249
G1 X209.916 Y144.236 E16.0433
G1 X210.375 Y144.938 E16.0712
G1 X210.714 Y145.496 E16.09292
G1 X211.009 Y146.007 E16.11254
G1 X211.295 Y146.527 E16.13228
G1 X211.716 Y147.356 E16.1632
G1 X212.116 Y148.218 E16.19481
G1 X212.333 Y148.725 E16.21315
G1 X212.549 Y149.261 E16.23237
G1 X212.87 Y150.135 E16.26334
G1 X212.984 Y150.468 E16.27505
G1 X213.162 Y151.03 E16.29466
G1 X213.321 Y151.571 E16.31341
G1 X213.488 Y152.189 E16.3347
G1 X213.695 Y153.068 E16.36474
G1 X213.875 Y153.979 E16.39562
G1 X213.974 Y154.569 E16.41552
G1 X214.052 Y155.123 E16.43413
G1 X214.154 Y156.018 E16.46409
G1 X214.191 Y156.408 E16.47712
G1 X214.235 Y157.059 E16.49882
G1 X214.258 Y157.575 E16.516
G1 X214.272 Y158.149 E16.5351
G1 X214.264 Y159.125 E16.56756
G1 X214.241 Y159.759 E16.58866
G1 X214.182 Y160.611 E16.61707
G1 X214.122 Y161.231 E16.63778
G1 X214.002 Y162.161 E16.66897
G1 X213.912 Y162.734 E16.68826
G1 X213.744 Y163.615 E16.7181
G1 X213.61 Y164.229 E16.739
G1 X213.389 Y165.1 E16.76889
G1 X213.207 Y165.739 E16.79098
G1 X213.087 Y166.124 E16.8044
G1 X212.833 Y166.886 E16.83111
G1 X212.653 Y167.385 E16.84875
G1 X212.419 Y167.985 E16.87018
G1 X212.168 Y168.584 E16.89178
G1 X211.997 Y168.965 E16.90567
G1 X211.627 Y169.744 E16.93435
G1 X211.392 Y170.208 E16.95165
G1 X210.966 Y170.992 E16.98133
G1 X210.666 Y171.504 E17.00106
G1 X210.337 Y172.039 E17.02195
G1 X209.981 Y172.588 E17.04372
G1 X209.279 Y173.58 E17.08414
G1 X208.957 Y174.006 E17.1019
G1 X208.341 Y174.771 E17.13456
G1 X207.936 Y175.242 E17.15522
G1 X207.609 Y175.606 E17.1715
G1 X207.135 Y176.109 E17.19449
G1 X206.259 Y176.97 E17.23534
G1 X205.835 Y177.36 E17.2545
G1 X205.345 Y177.787 E17.27612
G1 X204.864 Y178.189 E17.29697
G1 X204.237 Y178.681 E17.32348
G1 X203.754 Y179.039 E17.34347
G1 X202.933 Y179.606 E17.37666
G1 X202.405 Y179.95 E17.39762
G1 X202.049 Y180.167 E17.41148
G1 X201.341 Y180.581 E17.43876
G1 X200.796 Y180.879 E17.45942
G1 X199.996 Y181.286 E17.48928
G1 X199.42 Y181.557 E17.51045
G1 X198.602 Y181.913 E17.54012
G1 X198.092 Y182.12 E17.55843
G1 X197.553 Y182.322 E17.57757
G1 X196.968 Y182.527 E17.59819
G1 X196.097 Y182.8 E17.62855
G1 X195.518 Y182.966 E17.64858
G1 X194.373 Y183.247 E17.68779
G1 X193.699 Y183.387 E17.71069
G1 X192.833 Y183.539 E17.73993
G1 X192.221 Y183.627 E17.7605
G1 X191.665 Y183.695 E17.77913
G1 X191.05 Y183.756 E17.79968
G1 X190.14 Y183.816 E17.83002
G1 X189.533 Y183.839 E17.85022
G1 X188.607 Y183.845 E17.88102
G1 X188.26 Y183.84 E17.89256
G1 X187.644 Y183.817 E17.91306
G1 X187.102 Y183.785 E17.93112
G1 X186.502 Y183.736 E17.95115
G1 X185.554 Y183.627 E17.98288
G1 X184.995 Y183.548 E18.00166
G1 X183.77 Y183.327 E18.04306
G1 X183.192 Y183.2 E18.06274
G1 X182.615 Y183.06 E18.08249
G1 X181.943 Y182.88 E18.10563
G1 X180.852 Y182.544 E18.1436
G1 X180.288 Y182.346 E18.16348
G1 X179.382 Y182.001 E18.19573
G1 X178.315 Y181.563 E18.23409
G1 X177.311 Y181.133 E18.27042
G1 X174.96 Y180.203 E18.35451
G1 X172.609 Y179.349 E18.4377
G1 X170.184 Y178.545 E18.52267
G1 X167.767 Y177.819 E18.60661
G1 X165.301 Y177.153 E18.69157
G1 X162.852 Y176.566 E18.77533
G1 X160.381 Y176.047 E18.85931
G1 X157.893 Y175.598 E18.9434
G1 X155.394 Y175.219 E19.02746
G1 X152.893 Y174.912 E19.11127
G1 X150.376 Y174.675 E19.19536
G1 X148.008 Y174.516 E19.2743
G1 X147.354 Y174.479 E19.29608
G1 X146.792 Y174.433 E19.31484
G1 X145.992 Y174.345 E19.34161
G1 X143.425 Y174.1 E19.42737
G1 X140.904 Y173.93 E19.51141
G1 X138.37 Y173.832 E19.59576
G1 X135.855 Y173.807 E19.67941
G1 X133.349 Y173.851 E19.76277
G1 X130.794 Y173.969 E19.84784
G1 X128.263 Y174.158 E19.93226
G1 X125.767 Y174.415 E20.01571
G1 X123.272 Y174.744 E20.09942
G1 X120.729 Y175.153 E20.18508
G1 X118.204 Y175.632 E20.27056
G1 X116.996 Y175.88 E20.31158
G1 X116.087 Y176.026 E20.3422
G1 X115.184 Y176.092 E20.37231
G1 X114.533 Y176.107 E20.39397
G1 X112.241 Y176.106 E20.47021
G1 X111.541 Y176.096 E20.49349
G1 X110.621 Y176.043 E20.52414
G1 X109.71 Y175.91 E20.55476
G1 X108.814 Y175.699 E20.58538
G1 X107.94 Y175.411 E20.61598
G1 X107.094 Y175.048 E20.6466
G1 X106.404 Y174.684 E20.67255
G1 X104.927 Y173.834 E20.72923
G1 X102.659 Y172.579 E20.81544
G1 X100.425 Y171.423 E20.8991
G1 X98.136 Y170.32 E20.98361
G1 X95.844 Y169.294 E21.06714
G1 X93.475 Y168.315 E21.15239
G1 X91.133 Y167.421 E21.23577
G1 X88.749 Y166.589 E21.31975
