;FLAVOR:Marlin
;TIME:1811
;Filament used: 1.24933m
;Layer height: 0.2
;MINX:92.172
;MINY:127.373
;MINZ:0.2
;MAXX:207.21
;MAXY:179.54
;MAXZ:7.4
;Generated with Cura_SteamEngine 5.2.1
M140 S60
M105
M190 S60
M104 S210
M105
M109 S210
M82 ;absolute extrusion mode
M201 X500.00 Y500.00 Z100.00 E5000.00 ;Setup machine max acceleration
M203 X500.00 Y500.00 Z10.00 E50.00 ;Setup machine max feedrate
M204 P500.00 R1000.00 T500.00 ;Setup Print/Retract/Travel acceleration
M205 X8.00 Y8.00 Z0.40 E5.00 ;Setup Jerk
M220 S100 ;Reset Feedrate
M221 S100 ;Reset Flowrate

G28 ;Home
G29 ;Auto bed Level

G92 E0 ;Reset Extruder
G1 Z2.0 F3000 ;Move Z Axis up
G1 X10.1 Y20 Z0.28 F5000.0 ;Move to start position
G1 X10.1 Y200.0 Z0.28 F1500.0 E15 ;Draw the first line
G1 X10.4 Y200.0 Z0.28 F5000.0 ;Move to side a little
G1 X10.4 Y20 Z0.28 F1500.0 E30 ;Draw the second line
G92 E0 ;Reset Extruder
G1 Z2.0 F3000 ;Move Z Axis up

G92 E0
G92 E0
G1 F2700 E-5
;LAYER_COUNT:37
;LAYER:0
M107
G0 F6000 X102.122 Y132.93 Z0.2
;TYPE:SKIRT
G1 F2700 E0
G1 F1200 X102.586 Y132.573 E0.01947
G1 X103.116 Y132.188 E0.04126
G1 X103.619 Y131.839 E0.06162
G1 X104.673 Y131.165 E0.10323
G1 X105.209 Y130.851 E0.12389
G1 X105.688 Y130.583 E0.14215
G1 X106.563 Y130.127 E0.17497
G1 X107.433 Y129.713 E0.20701
G1 X107.966 Y129.481 E0.22635
G1 X108.863 Y129.117 E0.25854
G1 X109.43 Y128.91 E0.27862
G1 X109.986 Y128.72 E0.29816
G1 X110.602 Y128.524 E0.31966
G1 X111.447 Y128.285 E0.34887
G1 X112.111 Y128.118 E0.37164
G1 X112.967 Y127.931 E0.40079
G1 X113.58 Y127.813 E0.42155
G1 X113.939 Y127.753 E0.43365
G1 X114.862 Y127.619 E0.46468
G1 X115.439 Y127.554 E0.48399
G1 X116.079 Y127.496 E0.50536
G1 X116.731 Y127.452 E0.5271
G1 X117.589 Y127.421 E0.55565
G1 X118.192 Y127.415 E0.57571
G1 X119.163 Y127.438 E0.60801
G1 X119.761 Y127.468 E0.62793
G1 X120.722 Y127.548 E0.66
G1 X121.333 Y127.616 E0.68045
G1 X121.748 Y127.674 E0.69439
G1 X122.621 Y127.813 E0.72379
G1 X123.176 Y127.916 E0.74256
G1 X123.793 Y128.047 E0.76354
G1 X124.348 Y128.177 E0.7825
G1 X125.838 Y128.582 E0.83386
G1 X128.346 Y129.234 E0.92005
G1 X130.85 Y129.809 E1.0055
G1 X133.254 Y130.291 E1.08705
G1 X135.769 Y130.722 E1.17191
G1 X138.226 Y131.072 E1.25446
G1 X140.761 Y131.359 E1.33931
G1 X143.231 Y131.57 E1.42176
G1 X145.766 Y131.712 E1.50621
G1 X148.298 Y131.784 E1.59046
G1 X150.786 Y131.784 E1.67321
G1 X153.345 Y131.712 E1.75836
G1 X155.828 Y131.571 E1.84107
G1 X158.335 Y131.357 E1.92476
G1 X160.829 Y131.073 E2.00825
G1 X163.319 Y130.719 E2.0919
G1 X165.835 Y130.287 E2.17681
G1 X168.285 Y129.796 E2.25991
G1 X170.695 Y129.242 E2.34216
G1 X173.188 Y128.593 E2.42784
G1 X174.007 Y128.36 E2.45616
G1 X174.72 Y128.172 E2.48069
G1 X175.576 Y127.97 E2.50994
G1 X176.248 Y127.832 E2.53276
G1 X177.432 Y127.634 E2.57268
G1 X178.072 Y127.552 E2.59415
G1 X178.974 Y127.461 E2.6243
G1 X179.66 Y127.414 E2.64717
G1 X180.252 Y127.387 E2.66688
G1 X180.833 Y127.373 E2.68621
G1 X181.801 Y127.381 E2.71841
G1 X182.436 Y127.404 E2.73954
G1 X183.374 Y127.469 E2.77081
G1 X183.954 Y127.524 E2.79019
G1 X184.894 Y127.645 E2.82171
G1 X185.575 Y127.753 E2.84464
G1 X186.835 Y128.005 E2.88738
G1 X187.404 Y128.137 E2.90681
G1 X187.959 Y128.282 E2.92589
G1 X188.594 Y128.463 E2.94785
G1 X189.427 Y128.728 E2.97692
G1 X190.079 Y128.956 E2.9999
G1 X191.227 Y129.405 E3.0409
G1 X191.769 Y129.642 E3.06057
G1 X192.659 Y130.058 E3.09325
G1 X193.192 Y130.33 E3.11315
G1 X194.049 Y130.797 E3.14561
G1 X194.581 Y131.109 E3.16612
G1 X195.028 Y131.384 E3.18358
G1 X195.589 Y131.747 E3.2058
G1 X196.404 Y132.314 E3.23883
G1 X196.88 Y132.664 E3.25848
G1 X197.607 Y133.236 E3.28924
G1 X198.114 Y133.659 E3.31121
G1 X198.759 Y134.233 E3.33992
G1 X199.238 Y134.683 E3.36178
G1 X199.919 Y135.366 E3.39386
G1 X200.325 Y135.794 E3.41348
G1 X200.582 Y136.079 E3.42625
G1 X201.169 Y136.758 E3.4561
G1 X201.548 Y137.227 E3.47616
G1 X202.128 Y137.984 E3.50787
G1 X202.505 Y138.508 E3.52934
G1 X203.015 Y139.262 E3.55962
G1 X203.352 Y139.799 E3.58071
G1 X203.687 Y140.361 E3.60247
G1 X203.98 Y140.878 E3.62223
G1 X204.398 Y141.671 E3.65205
G1 X204.554 Y141.982 E3.66362
G1 X204.827 Y142.559 E3.68485
G1 X205.054 Y143.068 E3.70339
G1 X205.316 Y143.691 E3.72587
G1 X205.634 Y144.519 E3.75537
G1 X205.837 Y145.095 E3.77568
G1 X206.143 Y146.067 E3.80957
G1 X206.393 Y146.969 E3.8407
G1 X206.528 Y147.518 E3.85951
G1 X206.666 Y148.142 E3.88076
G1 X206.835 Y149.041 E3.91119
G1 X206.937 Y149.675 E3.93255
G1 X207.058 Y150.627 E3.96447
G1 X207.097 Y150.995 E3.97677
G1 X207.146 Y151.597 E3.99686
G1 X207.179 Y152.14 E4.01496
G1 X207.204 Y152.783 E4.03636
G1 X207.21 Y153.74 E4.06819
G1 X207.205 Y154.094 E4.07996
G1 X207.182 Y154.717 E4.1007
G1 X207.125 Y155.602 E4.1302
G1 X207.06 Y156.265 E4.15235
G1 X206.993 Y156.828 E4.17121
G1 X206.9 Y157.481 E4.19315
G1 X206.744 Y158.375 E4.22333
G1 X206.619 Y158.995 E4.24437
G1 X206.398 Y159.925 E4.27616
G1 X206.24 Y160.516 E4.29651
G1 X205.984 Y161.369 E4.32613
G1 X205.758 Y162.046 E4.34987
G1 X205.457 Y162.862 E4.3788
G1 X205.219 Y163.46 E4.4002
G1 X204.846 Y164.312 E4.43114
G1 X204.568 Y164.901 E4.4528
G1 X204.167 Y165.687 E4.48215
G1 X203.672 Y166.578 E4.51605
G1 X203.228 Y167.314 E4.54464
G1 X203.015 Y167.648 E4.55781
G1 X202.541 Y168.353 E4.58607
G1 X202.175 Y168.867 E4.60706
G1 X201.575 Y169.651 E4.63989
G1 X201.359 Y169.922 E4.65142
G1 X200.951 Y170.411 E4.6726
G1 X200.425 Y171.01 E4.69911
G1 X199.951 Y171.515 E4.72215
G1 X199.503 Y171.969 E4.74336
G1 X199.044 Y172.415 E4.76465
G1 X198.115 Y173.254 E4.80629
G1 X197.657 Y173.636 E4.82612
G1 X197.169 Y174.025 E4.84688
G1 X196.669 Y174.406 E4.86779
G1 X196.313 Y174.663 E4.88239
G1 X195.618 Y175.144 E4.9105
G1 X195.143 Y175.455 E4.92939
G1 X194.284 Y175.98 E4.96287
G1 X193.765 Y176.275 E4.98272
G1 X193.259 Y176.548 E5.00185
G1 X192.667 Y176.85 E5.02395
G1 X191.86 Y177.231 E5.05363
G1 X191.27 Y177.489 E5.07505
G1 X190.415 Y177.83 E5.10567
G1 X189.775 Y178.066 E5.12835
G1 X188.923 Y178.348 E5.1582
G1 X188.333 Y178.526 E5.1787
G1 X187.391 Y178.777 E5.21113
G1 X186.794 Y178.919 E5.23154
G1 X185.905 Y179.099 E5.2617
G1 X184.995 Y179.251 E5.29239
G1 X184.024 Y179.379 E5.32497
G1 X183.2 Y179.457 E5.35249
G1 X182.416 Y179.508 E5.37863
G1 X181.87 Y179.53 E5.3968
G1 X181.216 Y179.54 E5.41855
G1 X180.287 Y179.527 E5.44946
G1 X179.346 Y179.479 E5.48079
G1 X178.655 Y179.423 E5.50385
G1 X178.166 Y179.372 E5.52021
G1 X177.54 Y179.293 E5.54119
G1 X176.55 Y179.134 E5.57454
G1 X176.197 Y179.07 E5.58647
G1 X175.613 Y178.95 E5.6063
G1 X175.059 Y178.824 E5.6252
G1 X174.589 Y178.706 E5.64132
G1 X171.579 Y177.88 E5.74513
G1 X169.141 Y177.284 E5.82861
G1 X166.7 Y176.757 E5.91167
G1 X164.183 Y176.289 E5.99682
G1 X161.722 Y175.903 E6.07967
G1 X159.222 Y175.583 E6.1635
G1 X156.696 Y175.332 E6.24793
G1 X154.216 Y175.156 E6.33062
G1 X151.695 Y175.049 E6.41454
G1 X149.172 Y175.013 E6.49847
G1 X146.649 Y175.049 E6.58239
G1 X144.127 Y175.156 E6.66635
G1 X141.632 Y175.333 E6.74954
G1 X139.134 Y175.581 E6.83303
G1 X136.622 Y175.902 E6.91726
G1 X134.161 Y176.288 E7.00012
G1 X131.664 Y176.752 E7.08459
G1 X129.219 Y177.278 E7.16777
G1 X126.753 Y177.882 E7.25222
G1 X124.821 Y178.405 E7.31879
G1 X123.999 Y178.609 E7.34696
G1 X123.361 Y178.75 E7.36869
G1 X122.488 Y178.915 E7.39824
G1 X121.465 Y179.069 E7.43265
G1 X120.618 Y179.167 E7.46101
G1 X120.01 Y179.218 E7.4813
G1 X119.039 Y179.271 E7.51364
G1 X118.429 Y179.285 E7.53394
G1 X117.479 Y179.28 E7.56553
G1 X116.858 Y179.257 E7.5862
G1 X116.322 Y179.226 E7.60406
G1 X115.686 Y179.175 E7.62528
G1 X114.713 Y179.064 E7.65785
G1 X114.355 Y179.016 E7.66987
G1 X113.781 Y178.924 E7.6892
G1 X113.21 Y178.821 E7.7085
G1 X112.628 Y178.704 E7.72824
G1 X112.272 Y178.623 E7.74039
G1 X111.351 Y178.393 E7.77196
G1 X110.769 Y178.227 E7.79209
G1 X110.185 Y178.047 E7.81242
G1 X109.572 Y177.843 E7.8339
G1 X108.763 Y177.545 E7.86258
G1 X108.154 Y177.302 E7.88439
G1 X107.344 Y176.949 E7.91378
G1 X107.021 Y176.8 E7.92561
G1 X106.46 Y176.525 E7.94639
G1 X105.881 Y176.225 E7.96808
G1 X105.399 Y175.959 E7.98639
G1 X104.337 Y175.331 E8.02742
G1 X103.752 Y174.952 E8.05061
G1 X103.259 Y174.616 E8.07045
G1 X102.769 Y174.266 E8.09048
G1 X102.032 Y173.704 E8.1213
G1 X101.26 Y173.07 E8.15453
G1 X100.842 Y172.705 E8.17299
G1 X100.365 Y172.271 E8.19444
G1 X99.713 Y171.637 E8.22468
G1 X99.466 Y171.386 E8.2364
G1 X99.061 Y170.954 E8.25609
G1 X98.426 Y170.243 E8.2878
G1 X98.018 Y169.756 E8.30893
G1 X97.687 Y169.342 E8.32656
G1 X97.316 Y168.857 E8.34687
G1 X97.1 Y168.56 E8.35908
G1 X96.527 Y167.739 E8.39238
G1 X96.206 Y167.243 E8.41203
G1 X95.908 Y166.761 E8.43088
G1 X95.58 Y166.203 E8.45241
G1 X94.965 Y165.057 E8.49567
G1 X94.701 Y164.524 E8.51545
G1 X94.45 Y163.981 E8.53535
G1 X94.215 Y163.444 E8.55484
G1 X93.752 Y162.268 E8.59688
G1 X93.533 Y161.645 E8.61884
G1 X93.358 Y161.107 E8.63766
G1 X93.179 Y160.513 E8.65829
G1 X93.082 Y160.163 E8.67037
G1 X92.855 Y159.273 E8.70092
G1 X92.727 Y158.692 E8.72071
G1 X92.55 Y157.767 E8.75203
G1 X92.444 Y157.104 E8.77436
G1 X92.337 Y156.279 E8.80203
G1 X92.267 Y155.569 E8.82576
G1 X92.226 Y155.026 E8.84387
G1 X92.191 Y154.37 E8.86572
G1 X92.172 Y153.445 E8.8965
G1 X92.176 Y152.842 E8.91655
G1 X92.234 Y151.541 E8.95987
G1 X92.285 Y150.934 E8.98013
G1 X92.343 Y150.377 E8.99875
G1 X92.426 Y149.725 E9.02061
G1 X92.566 Y148.845 E9.05025
G1 X92.68 Y148.238 E9.07079
G1 X92.887 Y147.302 E9.10268
G1 X93.026 Y146.756 E9.12142
G1 X93.269 Y145.893 E9.15124
G1 X93.399 Y145.462 E9.16621
G1 X93.587 Y144.9 E9.18592
G1 X93.773 Y144.378 E9.20435
G1 X94.004 Y143.773 E9.22589
G1 X94.378 Y142.885 E9.25794
G1 X94.784 Y142.007 E9.29011
G1 X95.019 Y141.536 E9.30762
G1 X95.331 Y140.945 E9.32984
G1 X95.798 Y140.124 E9.36126
G1 X96.084 Y139.656 E9.3795
G1 X96.549 Y138.935 E9.40804
G1 X96.792 Y138.573 E9.42254
G1 X97.126 Y138.107 E9.44161
G1 X97.55 Y137.541 E9.46513
G1 X97.976 Y136.999 E9.48806
G1 X98.684 Y136.163 E9.5245
G1 X99.118 Y135.687 E9.54592
G1 X99.569 Y135.214 E9.56766
G1 X99.966 Y134.819 E9.58628
G1 X100.59 Y134.228 E9.61487
G1 X100.929 Y133.92 E9.6301
G1 X101.45 Y133.475 E9.65289
G1 X102.122 Y132.93 E9.68167
G0 F6000 X102.374 Y133.24
G1 F1200 X102.821 Y132.897 E9.70041
G1 X103.351 Y132.512 E9.7222
G1 X103.845 Y132.169 E9.7422
G1 X104.577 Y131.695 E9.77121
G1 X104.878 Y131.509 E9.78297
G1 X105.404 Y131.2 E9.80326
G1 X105.883 Y130.932 E9.82152
G1 X106.436 Y130.639 E9.84233
G1 X107.292 Y130.22 E9.87403
G1 X108.119 Y129.85 E9.90417
G1 X109.003 Y129.492 E9.93589
G1 X109.559 Y129.288 E9.95559
G1 X110.115 Y129.098 E9.97513
G1 X110.72 Y128.906 E9.99624
G1 X111.883 Y128.585 E10.03637
G1 X112.474 Y128.446 E10.05656
G1 X113.354 Y128.261 E10.08647
G1 X113.998 Y128.148 E10.10822
G1 X114.596 Y128.058 E10.12833
G1 X115.167 Y127.985 E10.14748
G1 X116.115 Y127.894 E10.17915
G1 X116.755 Y127.851 E10.20049
G1 X117.601 Y127.821 E10.22864
G1 X118.194 Y127.815 E10.24837
G1 X119.151 Y127.838 E10.28021
G1 X119.739 Y127.867 E10.29979
G1 X120.686 Y127.946 E10.33139
G1 X121.285 Y128.013 E10.35144
G1 X121.685 Y128.069 E10.36487
G1 X122.558 Y128.208 E10.39428
G1 X123.092 Y128.307 E10.41234
G1 X123.709 Y128.438 E10.43332
G1 X124.254 Y128.566 E10.45194
G1 X125.696 Y128.957 E10.50163
G1 X128.261 Y129.625 E10.58979
G1 X130.761 Y130.199 E10.6751
G1 X133.169 Y130.682 E10.75679
G1 X135.722 Y131.12 E10.84294
G1 X138.191 Y131.471 E10.92589
G1 X140.683 Y131.753 E11.0093
G1 X143.242 Y131.972 E11.09472
G1 X145.733 Y132.112 E11.17771
G1 X148.287 Y132.184 E11.26269
G1 X150.797 Y132.184 E11.34617
G1 X153.343 Y132.112 E11.43088
G1 X155.85 Y131.97 E11.5144
G1 X158.378 Y131.755 E11.59879
G1 X160.894 Y131.468 E11.68301
G1 X163.405 Y131.11 E11.76737
G1 X165.881 Y130.686 E11.85092
G1 X168.34 Y130.193 E11.93434
G1 X170.82 Y129.623 E12.01897
G1 X173.301 Y128.977 E12.10424
G1 X174.116 Y128.745 E12.13243
G1 X174.82 Y128.559 E12.15664
G1 X175.666 Y128.36 E12.18555
G1 X176.631 Y128.169 E12.21827
G1 X177.201 Y128.074 E12.23749
G1 X177.768 Y127.992 E12.25654
G1 X178.693 Y127.888 E12.2875
G1 X179.362 Y127.833 E12.30983
G1 X180.27 Y127.787 E12.34007
G1 X180.84 Y127.773 E12.35903
G1 X181.795 Y127.781 E12.3908
G1 X182.419 Y127.804 E12.41157
G1 X183.344 Y127.868 E12.4424
G1 X183.914 Y127.922 E12.46145
G1 X184.84 Y128.042 E12.4925
G1 X185.509 Y128.148 E12.51503
G1 X186.755 Y128.397 E12.55729
G1 X187.302 Y128.524 E12.57597
G1 X187.857 Y128.669 E12.59505
G1 X188.482 Y128.847 E12.61666
G1 X189.591 Y129.207 E12.65544
G1 X190.239 Y129.443 E12.67838
G1 X191.07 Y129.773 E12.70812
G1 X191.602 Y130.005 E12.72742
G1 X192.48 Y130.416 E12.75967
G1 X193.003 Y130.682 E12.77918
G1 X193.849 Y131.143 E12.81123
G1 X194.371 Y131.45 E12.83137
G1 X195.086 Y131.895 E12.85938
G1 X195.65 Y132.272 E12.88194
G1 X196.174 Y132.641 E12.90326
G1 X196.641 Y132.985 E12.92255
G1 X197.358 Y133.549 E12.95289
G1 X198.087 Y134.166 E12.98466
G1 X198.492 Y134.53 E13.00277
G1 X198.962 Y134.972 E13.02423
G1 X199.634 Y135.647 E13.05591
G1 X200.033 Y136.068 E13.0752
G1 X200.663 Y136.78 E13.10682
G1 X201.041 Y137.232 E13.12642
G1 X201.805 Y138.219 E13.16793
G1 X202.175 Y138.735 E13.18905
G1 X202.486 Y139.188 E13.20733
G1 X202.834 Y139.721 E13.2285
G1 X203.499 Y140.835 E13.27165
G1 X203.768 Y141.327 E13.2903
G1 X204.194 Y142.155 E13.32127
G1 X204.462 Y142.722 E13.34213
G1 X204.689 Y143.231 E13.36067
G1 X204.946 Y143.843 E13.38274
G1 X205.36 Y144.938 E13.42168
G1 X205.565 Y145.551 E13.44318
G1 X205.761 Y146.185 E13.46525
G1 X205.932 Y146.785 E13.486
G1 X206.211 Y147.926 E13.52507
G1 X206.339 Y148.546 E13.54612
G1 X206.442 Y149.112 E13.56526
G1 X206.542 Y149.736 E13.58628
G1 X206.661 Y150.675 E13.61776
G1 X206.726 Y151.338 E13.63992
G1 X206.794 Y152.476 E13.67783
G1 X206.809 Y153.11 E13.69893
G1 X206.805 Y154.082 E13.73125
G1 X206.782 Y154.694 E13.75162
G1 X206.726 Y155.565 E13.78065
G1 X206.663 Y156.218 E13.80247
G1 X206.596 Y156.781 E13.82133
G1 X206.505 Y157.422 E13.84286
G1 X206.35 Y158.304 E13.87265
G1 X206.227 Y158.914 E13.89335
G1 X206.01 Y159.83 E13.92466
G1 X205.854 Y160.41 E13.94463
G1 X205.601 Y161.252 E13.97387
G1 X205.489 Y161.596 E13.98591
G1 X205.287 Y162.172 E14.00621
G1 X204.966 Y163.022 E14.03643
G1 X204.716 Y163.619 E14.05796
G1 X204.48 Y164.149 E14.07725
G1 X204.207 Y164.728 E14.09854
G1 X203.812 Y165.504 E14.1275
G1 X203.483 Y166.104 E14.15026
G1 X202.89 Y167.099 E14.18879
G1 X202.507 Y167.691 E14.21224
G1 X202.025 Y168.392 E14.24054
G1 X201.659 Y168.889 E14.26106
G1 X201.259 Y169.407 E14.28283
G1 X200.836 Y169.929 E14.30518
G1 X200.321 Y170.526 E14.3314
G1 X199.926 Y170.961 E14.35095
G1 X199.666 Y171.234 E14.36348
G1 X199.007 Y171.897 E14.39458
G1 X198.541 Y172.337 E14.41589
G1 X198.105 Y172.731 E14.43544
G1 X197.658 Y173.117 E14.45508
G1 X196.919 Y173.712 E14.48664
G1 X196.429 Y174.086 E14.50714
G1 X196.085 Y174.334 E14.52124
G1 X195.39 Y174.815 E14.54936
G1 X194.933 Y175.115 E14.56754
G1 X194.354 Y175.473 E14.59018
G1 X193.847 Y175.771 E14.60974
G1 X193.069 Y176.196 E14.63923
G1 X192.488 Y176.493 E14.66093
G1 X191.376 Y177.009 E14.7017
G1 X190.853 Y177.227 E14.72055
G1 X189.96 Y177.574 E14.75241
G1 X189.327 Y177.797 E14.77473
G1 X188.8 Y177.968 E14.79316
G1 X188.22 Y178.142 E14.8133
G1 X187.29 Y178.39 E14.84531
G1 X186.705 Y178.529 E14.86531
G1 X185.827 Y178.707 E14.89511
G1 X185.257 Y178.807 E14.91436
G1 X184.296 Y178.943 E14.94664
G1 X183.604 Y179.021 E14.9698
G1 X183.174 Y179.058 E14.98416
G1 X182.39 Y179.109 E15.01029
G1 X181.864 Y179.13 E15.0278
G1 X181.21 Y179.14 E15.04955
G1 X180.305 Y179.127 E15.07965
G1 X179.376 Y179.08 E15.11059
G1 X178.696 Y179.025 E15.13328
G1 X178.207 Y178.974 E15.14964
G1 X177.593 Y178.896 E15.17022
G1 X176.615 Y178.74 E15.20316
G1 X175.702 Y178.56 E15.23411
G1 X175.148 Y178.434 E15.25301
G1 X174.695 Y178.32 E15.26854
G1 X171.709 Y177.501 E15.37153
G1 X169.207 Y176.888 E15.45721
G1 X166.753 Y176.359 E15.5407
G1 X164.287 Y175.9 E15.62413
G1 X161.764 Y175.505 E15.70907
G1 X159.279 Y175.187 E15.79239
G1 X156.725 Y174.933 E15.87776
G1 X154.227 Y174.756 E15.96105
G1 X151.718 Y174.649 E16.04458
G1 X149.172 Y174.613 E16.12926
G1 X146.626 Y174.649 E16.21395
G1 X144.118 Y174.756 E16.29745
G1 X141.601 Y174.934 E16.38137
G1 X139.077 Y175.184 E16.46573
