; G-Code generated by Simplify3D(R) Version 4.1.2
; Apr 14, 2021 at 12:07:16 AM
; Settings Summary
;   processName,Medium CR10S
;   applyToModels,b9f66539-5e61-4121-b2d8-91f8e8880a07
;   profileName,Creality CR-10S Pro (modified)
;   profileVersion,2019-01-15 08:00:00
;   baseProfile,
;   printMaterial,PLA
;   printQuality,Medium
;   printExtruders,
;   extruderName,Primary Extruder
;   extruderToolheadNumber,0
;   extruderDiameter,0.4
;   extruderAutoWidth,0
;   extruderWidth,0.4
;   extrusionMultiplier,0.9
;   extruderUseRetract,1
;   extruderRetractionDistance,5
;   extruderExtraRestartDistance,0
;   extruderRetractionZLift,0
;   extruderRetractionSpeed,1800
;   extruderUseCoasting,0
;   extruderCoastingDistance,0.2
;   extruderUseWipe,0
;   extruderWipeDistance,5
;   primaryExtruder,0
;   layerHeight,0.2
;   topSolidLayers,6
;   bottomSolidLayers,3
;   perimeterOutlines,2
;   printPerimetersInsideOut,1
;   startPointOption,2
;   startPointOriginX,0
;   startPointOriginY,0
;   sequentialIslands,0
;   spiralVaseMode,0
;   firstLayerHeightPercentage,120
;   firstLayerWidthPercentage,150
;   firstLayerUnderspeed,0.5
;   useRaft,0
;   raftExtruder,0
;   raftTopLayers,3
;   raftBaseLayers,2
;   raftOffset,3
;   raftSeparationDistance,0.14
;   raftTopInfill,100
;   aboveRaftSpeedMultiplier,0.3
;   useSkirt,1
;   skirtExtruder,0
;   skirtLayers,1
;   skirtOutlines,2
;   skirtOffset,4
;   usePrimePillar,0
;   primePillarExtruder,999
;   primePillarWidth,12
;   primePillarLocation,7
;   primePillarSpeedMultiplier,1
;   useOozeShield,0
;   oozeShieldExtruder,999
;   oozeShieldOffset,2
;   oozeShieldOutlines,1
;   oozeShieldSidewallShape,1
;   oozeShieldSidewallAngle,30
;   oozeShieldSpeedMultiplier,1
;   infillExtruder,0
;   internalInfillPattern,Rectilinear
;   externalInfillPattern,Rectilinear
;   infillPercentage,10
;   outlineOverlapPercentage,15
;   infillExtrusionWidthPercentage,100
;   minInfillLength,5
;   infillLayerInterval,1
;   internalInfillAngles,45,-45
;   overlapInternalInfillAngles,0
;   externalInfillAngles,45,-45
;   generateSupport,0
;   supportExtruder,0
;   supportInfillPercentage,30
;   supportExtraInflation,0
;   supportBaseLayers,0
;   denseSupportExtruder,0
;   denseSupportLayers,0
;   denseSupportInfillPercentage,70
;   supportLayerInterval,1
;   supportHorizontalPartOffset,0.3
;   supportUpperSeparationLayers,1
;   supportLowerSeparationLayers,1
;   supportType,0
;   supportGridSpacing,4
;   maxOverhangAngle,45
;   supportAngles,0
;   temperatureName,Primary Extruder,Heated Bed
;   temperatureNumber,0,0
;   temperatureSetpointCount,1,1
;   temperatureSetpointLayers,1,1
;   temperatureSetpointTemperatures,210,60
;   temperatureStabilizeAtStartup,1,1
;   temperatureHeatedBed,0,1
;   fanLayers,1,2
;   fanSpeeds,0,100
;   blipFanToFullPower,0
;   adjustSpeedForCooling,1
;   minSpeedLayerTime,15
;   minCoolingSpeedSlowdown,20
;   increaseFanForCooling,0
;   minFanLayerTime,45
;   maxCoolingFanSpeed,100
;   increaseFanForBridging,0
;   bridgingFanSpeed,100
;   use5D,1
;   relativeEdistances,0
;   allowEaxisZeroing,1
;   independentExtruderAxes,0
;   includeM10123,0
;   stickySupport,1
;   applyToolheadOffsets,0
;   gcodeXoffset,0
;   gcodeYoffset,0
;   gcodeZoffset,0
;   overrideMachineDefinition,1
;   machineTypeOverride,0
;   strokeXoverride,300
;   strokeYoverride,300
;   strokeZoverride,400
;   originOffsetXoverride,0
;   originOffsetYoverride,0
;   originOffsetZoverride,0
;   homeXdirOverride,-1
;   homeYdirOverride,-1
;   homeZdirOverride,-1
;   flipXoverride,1
;   flipYoverride,-1
;   flipZoverride,1
;   toolheadOffsets,0,0|0,0|0,0|0,0|0,0|0,0
;   overrideFirmwareConfiguration,1
;   firmwareTypeOverride,RepRap (Marlin/Repetier/Sprinter)
;   GPXconfigOverride,r2
;   baudRateOverride,115200
;   overridePrinterModels,1
;   printerModelsOverride
;   startingGcode,G28 ; home all axes,G29 ; auto-bed level,G1 Z5 F3000 ; lift,G1 X5 Y10 F1500 ; move to prime,G1 Z0.2 F3000 ; get ready to prime,G92 E0 ; reset extrusion distance,G1 Y80 E10 F600 ; prime nozzle,G1 Y100 F5000 ; quick wipe
;   layerChangeGcode,
;   retractionGcode,
;   toolChangeGcode,
;   endingGcode,G28 X0 ; home X axis,M106 S0 ; turn off cooling fan,M104 S0 ; turn off extruder,M140 S0 ; turn off bed,M84 ; disable motors
;   exportFileFormat,gcode
;   celebration,0
;   celebrationSong,Random Song
;   postProcessing,
;   defaultSpeed,3600
;   outlineUnderspeed,0.5
;   solidInfillUnderspeed,0.8
;   supportUnderspeed,0.8
;   rapidXYspeed,4800
;   rapidZspeed,1002
;   minBridgingArea,50
;   bridgingExtraInflation,0
;   bridgingExtrusionMultiplier,1
;   bridgingSpeedMultiplier,1
;   useFixedBridgingAngle,0
;   fixedBridgingAngle,0
;   applyBridgingToPerimeters,0
;   filamentDiameters,1.75|1.75|1.75|1.75|1.75|1.75
;   filamentPricesPerKg,46|46|46|46|46|46
;   filamentDensities,1.25|1.25|1.25|1.25|1.25|1.25
;   useMinPrintHeight,0
;   minPrintHeight,0
;   useMaxPrintHeight,0
;   maxPrintHeight,0
;   useDiaphragm,0
;   diaphragmLayerInterval,20
;   robustSlicing,1
;   mergeAllIntoSolid,0
;   onlyRetractWhenCrossingOutline,1
;   retractBetweenLayers,1
;   useRetractionMinTravel,0
;   retractionMinTravel,3
;   retractWhileWiping,0
;   onlyWipeOutlines,1
;   avoidCrossingOutline,0
;   maxMovementDetourFactor,3
;   toolChangeRetractionDistance,12
;   toolChangeExtraRestartDistance,-0.5
;   toolChangeRetractionSpeed,600
;   externalThinWallType,0
;   internalThinWallType,2
;   thinWallAllowedOverlapPercentage,10
;   singleExtrusionMinLength,1
;   singleExtrusionMinPrintingWidthPercentage,50
;   singleExtrusionMaxPrintingWidthPercentage,200
;   singleExtrusionEndpointExtension,0.2
;   horizontalSizeCompensation,0
G90
M82
M106 S0
M140 S60
M190 S60
M104 S210 T0
M109 S210 T0
G28 ; home all axes
G29 ; auto-bed level
G1 Z5 F3000 ; lift
G1 X5 Y10 F1500 ; move to prime
G1 Z0.2 F3000 ; get ready to prime
G92 E0 ; reset extrusion distance
G1 Y80 E10 F600 ; prime nozzle
G1 Y100 F5000 ; quick wipe
; process Medium CR10S
; layer 1, Z = 0.240
T0
G92 E0.0000
G1 E-5.0000 F1800
; feature skirt
; tool H0.240 W0.600
G1 Z0.240 F1002
G1 X97.348 Y113.894 F4800
G1 E0.0000 F1800
G92 E0.0000
G1 X98.272 Y113.185 E0.0627 F1800
G1 X98.828 Y112.864 E0.0973
G1 X99.904 Y112.418 E0.1601
G1 X100.524 Y112.252 E0.1947
G1 X101.520 Y112.121 E0.2488
G1 X101.840 Y112.100 E0.2661
G1 X110.183 Y112.100 E0.7156
G1 X113.009 Y114.741 E0.9240
G1 X113.208 Y117.687 E1.0831
G1 X113.312 Y118.237 E1.1133
G1 X113.510 Y118.854 E1.1482
G1 X113.780 Y119.433 E1.1826
G1 X114.113 Y119.962 E1.2163
G1 X114.577 Y120.522 E1.2555
G1 X114.980 Y120.900 E1.2853
G1 X115.503 Y121.284 E1.3203
G1 X116.062 Y121.595 E1.3547
G1 X116.643 Y121.828 E1.3884
G1 X117.346 Y122.008 E1.4275
G1 X117.893 Y122.077 E1.4572
G1 X118.532 Y122.080 E1.4916
G1 X119.240 Y121.991 E1.5301
G1 X119.846 Y121.832 E1.5638
G1 X120.438 Y121.595 E1.5983
G1 X121.006 Y121.279 E1.6332
G1 X121.453 Y120.954 E1.6630
G1 X121.984 Y120.457 E1.7022
G1 X122.387 Y119.966 E1.7364
G1 X122.683 Y119.499 E1.7662
G1 X122.994 Y118.841 E1.8055
G1 X123.187 Y118.237 E1.8396
G1 X123.292 Y117.687 E1.8698
G1 X123.491 Y114.741 E2.0289
G1 X126.317 Y112.100 E2.2373
G1 X141.933 Y112.100 E3.0787
G1 X144.759 Y114.741 E3.2871
G1 X144.958 Y117.687 E3.4462
G1 X145.062 Y118.237 E3.4763
G1 X145.260 Y118.854 E3.5113
G1 X145.530 Y119.433 E3.5457
G1 X145.863 Y119.962 E3.5794
G1 X146.327 Y120.522 E3.6185
G1 X146.730 Y120.900 E3.6483
G1 X147.253 Y121.284 E3.6833
G1 X147.812 Y121.595 E3.7177
G1 X148.393 Y121.828 E3.7515
G1 X149.096 Y122.008 E3.7906
G1 X149.643 Y122.077 E3.8203
G1 X150.282 Y122.080 E3.8547
G1 X150.990 Y121.991 E3.8932
G1 X151.596 Y121.832 E3.9269
G1 X152.188 Y121.595 E3.9613
G1 X152.756 Y121.279 E3.9963
G1 X153.203 Y120.954 E4.0261
G1 X153.734 Y120.457 E4.0653
G1 X154.137 Y119.966 E4.0995
G1 X154.433 Y119.499 E4.1293
G1 X154.744 Y118.841 E4.1685
G1 X154.937 Y118.237 E4.2027
G1 X155.042 Y117.687 E4.2329
G1 X155.241 Y114.741 E4.3920
G1 X158.067 Y112.100 E4.6003
G1 X173.683 Y112.100 E5.4418
G1 X176.509 Y114.741 E5.6502
G1 X176.708 Y117.687 E5.8092
G1 X176.813 Y118.237 E5.8394
G1 X177.010 Y118.854 E5.8743
G1 X177.280 Y119.433 E5.9088
G1 X177.613 Y119.962 E5.9425
G1 X178.077 Y120.522 E5.9816
G1 X178.480 Y120.900 E6.0114
G1 X179.003 Y121.284 E6.0464
G1 X179.562 Y121.595 E6.0808
G1 X180.143 Y121.828 E6.1145
G1 X180.846 Y122.008 E6.1537
G1 X181.393 Y122.077 E6.1834
G1 X182.032 Y122.080 E6.2178
G1 X182.740 Y121.991 E6.2562
G1 X183.346 Y121.832 E6.2900
G1 X183.938 Y121.595 E6.3244
G1 X184.506 Y121.279 E6.3594
G1 X184.953 Y120.954 E6.3892
G1 X185.484 Y120.457 E6.4283
G1 X185.887 Y119.966 E6.4626
G1 X186.183 Y119.499 E6.4924
G1 X186.494 Y118.841 E6.5316
G1 X186.687 Y118.237 E6.5658
G1 X186.792 Y117.687 E6.5960
G1 X186.991 Y114.741 E6.7550
G1 X189.817 Y112.100 E6.9634
G1 X198.160 Y112.100 E7.4130
G1 X198.481 Y112.121 E7.4303
G1 X199.476 Y112.252 E7.4843
G1 X200.096 Y112.418 E7.5190
G1 X201.172 Y112.864 E7.5817
G1 X201.728 Y113.185 E7.6163
G1 X202.652 Y113.894 E7.6791
G1 X203.106 Y114.348 E7.7137
G1 X203.815 Y115.272 E7.7764
G1 X204.136 Y115.828 E7.8110
G1 X204.582 Y116.904 E7.8738
G1 X204.748 Y117.524 E7.9084
G1 X204.879 Y118.519 E7.9624
G1 X204.900 Y118.840 E7.9797
G1 X204.900 Y181.160 E11.3377
G1 X204.879 Y181.481 E11.3550
G1 X204.748 Y182.476 E11.4090
G1 X204.582 Y183.096 E11.4436
G1 X204.136 Y184.172 E11.5064
G1 X203.815 Y184.728 E11.5410
G1 X203.106 Y185.652 E11.6037
G1 X202.652 Y186.106 E11.6383
G1 X201.728 Y186.815 E11.7011
G1 X201.172 Y187.136 E11.7357
G1 X200.096 Y187.582 E11.7984
G1 X199.476 Y187.748 E11.8330
G1 X198.481 Y187.879 E11.8871
G1 X198.160 Y187.900 E11.9044
G1 X189.817 Y187.900 E12.3540
G1 X186.991 Y185.259 E12.5623
G1 X186.792 Y182.313 E12.7214
G1 X186.688 Y181.763 E12.7516
G1 X186.490 Y181.146 E12.7865
G1 X186.220 Y180.567 E12.8210
G1 X185.887 Y180.038 E12.8546
G1 X185.423 Y179.478 E12.8938
G1 X185.020 Y179.100 E12.9236
G1 X184.497 Y178.716 E12.9586
G1 X183.938 Y178.405 E12.9930
G1 X183.357 Y178.172 E13.0267
G1 X182.654 Y177.992 E13.0659
G1 X182.107 Y177.923 E13.0956
G1 X181.468 Y177.920 E13.1300
G1 X180.760 Y178.009 E13.1684
G1 X180.154 Y178.168 E13.2022
G1 X179.562 Y178.405 E13.2366
G1 X178.994 Y178.721 E13.2716
G1 X178.547 Y179.046 E13.3014
G1 X178.016 Y179.543 E13.3405
G1 X177.613 Y180.034 E13.3748
G1 X177.317 Y180.501 E13.4046
G1 X177.006 Y181.159 E13.4438
G1 X176.812 Y181.763 E13.4780
G1 X176.708 Y182.313 E13.5081
G1 X176.509 Y185.259 E13.6672
G1 X173.683 Y187.900 E13.8756
G1 X158.067 Y187.900 E14.7171
G1 X155.241 Y185.259 E14.9254
G1 X155.042 Y182.313 E15.0845
G1 X154.938 Y181.763 E15.1147
G1 X154.740 Y181.146 E15.1496
G1 X154.470 Y180.567 E15.1840
G1 X154.137 Y180.038 E15.2177
G1 X153.673 Y179.478 E15.2569
G1 X153.270 Y179.100 E15.2867
G1 X152.747 Y178.716 E15.3217
G1 X152.188 Y178.405 E15.3561
G1 X151.607 Y178.172 E15.3898
G1 X150.904 Y177.992 E15.4289
G1 X150.357 Y177.923 E15.4587
G1 X149.718 Y177.920 E15.4931
G1 X149.010 Y178.009 E15.5315
G1 X148.404 Y178.168 E15.5653
G1 X147.812 Y178.405 E15.5997
G1 X147.244 Y178.721 E15.6347
G1 X146.797 Y179.046 E15.6644
G1 X146.266 Y179.543 E15.7036
G1 X145.863 Y180.034 E15.7379
G1 X145.567 Y180.501 E15.7677
G1 X145.256 Y181.159 E15.8069
G1 X145.062 Y181.763 E15.8410
G1 X144.958 Y182.313 E15.8712
G1 X144.759 Y185.259 E16.0303
G1 X141.933 Y187.900 E16.2387
G1 X126.060 Y187.900 E17.0940
G1 X123.235 Y185.259 E17.3023
G1 X123.036 Y182.313 E17.4614
G1 X122.931 Y181.763 E17.4916
G1 X122.733 Y181.146 E17.5265
G1 X122.463 Y180.567 E17.5609
G1 X122.131 Y180.038 E17.5946
G1 X121.666 Y179.478 E17.6338
G1 X121.264 Y179.100 E17.6636
G1 X120.740 Y178.716 E17.6986
G1 X120.182 Y178.405 E17.7330
G1 X119.601 Y178.172 E17.7667
G1 X118.897 Y177.992 E17.8058
G1 X118.350 Y177.923 E17.8356
G1 X117.711 Y177.920 E17.8700
G1 X117.003 Y178.009 E17.9084
G1 X116.397 Y178.168 E17.9422
G1 X115.805 Y178.405 E17.9766
G1 X115.237 Y178.721 E18.0116
G1 X114.790 Y179.046 E18.0414
G1 X114.260 Y179.543 E18.0805
G1 X113.857 Y180.034 E18.1148
G1 X113.560 Y180.501 E18.1446
G1 X113.249 Y181.159 E18.1838
G1 X113.056 Y181.763 E18.2180
G1 X112.951 Y182.313 E18.2481
G1 X112.752 Y185.259 E18.4072
G1 X109.927 Y187.900 E18.6156
G1 X101.840 Y187.900 E19.0513
G1 X101.519 Y187.879 E19.0686
G1 X100.524 Y187.748 E19.1227
G1 X99.904 Y187.582 E19.1573
G1 X98.828 Y187.136 E19.2200
G1 X98.272 Y186.815 E19.2547
G1 X97.348 Y186.106 E19.3174
G1 X96.894 Y185.652 E19.3520
G1 X96.185 Y184.728 E19.4147
G1 X95.864 Y184.172 E19.4494
G1 X95.418 Y183.096 E19.5121
G1 X95.252 Y182.476 E19.5467
G1 X95.121 Y181.480 E19.6008
G1 X95.100 Y181.160 E19.6181
G1 X95.100 Y118.840 E22.9760
G1 X95.121 Y118.520 E22.9933
G1 X95.252 Y117.524 E23.0474
G1 X95.418 Y116.904 E23.0820
G1 X95.864 Y115.828 E23.1447
G1 X96.185 Y115.272 E23.1793
G1 X96.894 Y114.348 E23.2421
G1 X97.348 Y113.894 E23.2767
G92 E0.0000
G1 E-5.0000 F1800
G1 X97.745 Y114.346 F4800
G1 E0.0000 F1800
G92 E0.0000
G1 X98.606 Y113.685 E0.0585 F1800
G1 X99.094 Y113.403 E0.0889
G1 X100.097 Y112.988 E0.1474
G1 X100.642 Y112.842 E0.1777
G1 X101.578 Y112.718 E0.2287
G1 X101.859 Y112.700 E0.2438
G1 X109.947 Y112.700 E0.6796
G1 X112.426 Y115.017 E0.8624
G1 X112.611 Y117.763 E1.0107
G1 X112.730 Y118.385 E1.0448
G1 X112.950 Y119.073 E1.0838
G1 X113.252 Y119.720 E1.1222
G1 X113.626 Y120.315 E1.1601
G1 X114.139 Y120.934 E1.2034
G1 X114.596 Y121.363 E1.2371
G1 X115.179 Y121.790 E1.2761
G1 X115.803 Y122.137 E1.3146
G1 X116.456 Y122.399 E1.3525
G1 X117.233 Y122.599 E1.3958
G1 X117.854 Y122.677 E1.4295
G1 X118.568 Y122.680 E1.4679
G1 X119.354 Y122.581 E1.5106
G1 X120.034 Y122.403 E1.5485
G1 X120.697 Y122.137 E1.5870
G1 X121.329 Y121.786 E1.6260
G1 X121.836 Y121.418 E1.6597
G1 X122.423 Y120.868 E1.7030
G1 X122.874 Y120.318 E1.7414
G1 X123.210 Y119.789 E1.7751
G1 X123.553 Y119.061 E1.8185
G1 X123.770 Y118.385 E1.8567
G1 X123.889 Y117.763 E1.8908
G1 X124.074 Y115.017 E2.0391
G1 X126.553 Y112.700 E2.2220
G1 X141.697 Y112.700 E3.0379
G1 X144.176 Y115.017 E3.2208
G1 X144.361 Y117.763 E3.3691
G1 X144.480 Y118.385 E3.4032
G1 X144.700 Y119.073 E3.4421
G1 X145.002 Y119.720 E3.4806
G1 X145.376 Y120.315 E3.5184
G1 X145.889 Y120.934 E3.5617
G1 X146.346 Y121.363 E3.5955
G1 X146.929 Y121.790 E3.6345
G1 X147.553 Y122.137 E3.6730
G1 X148.206 Y122.399 E3.7108
G1 X148.983 Y122.599 E3.7541
G1 X149.604 Y122.677 E3.7878
G1 X150.318 Y122.680 E3.8263
G1 X151.104 Y122.581 E3.8690
G1 X151.784 Y122.403 E3.9069
G1 X152.447 Y122.137 E3.9453
G1 X153.079 Y121.786 E3.9843
G1 X153.586 Y121.418 E4.0181
G1 X154.173 Y120.868 E4.0614
G1 X154.624 Y120.318 E4.0997
G1 X154.960 Y119.789 E4.1335
G1 X155.303 Y119.061 E4.1768
G1 X155.520 Y118.385 E4.2151
G1 X155.639 Y117.763 E4.2492
G1 X155.824 Y115.017 E4.3975
G1 X158.303 Y112.700 E4.5803
G1 X173.447 Y112.700 E5.3963
G1 X175.926 Y115.017 E5.5791
G1 X176.111 Y117.763 E5.7274
G1 X176.230 Y118.385 E5.7615
G1 X176.450 Y119.073 E5.8005
G1 X176.752 Y119.720 E5.8389
G1 X177.126 Y120.315 E5.8768
G1 X177.639 Y120.934 E5.9201
G1 X178.096 Y121.363 E5.9539
G1 X178.679 Y121.790 E5.9928
G1 X179.303 Y122.137 E6.0313
G1 X179.956 Y122.399 E6.0692
G1 X180.733 Y122.599 E6.1125
G1 X181.354 Y122.677 E6.1462
G1 X182.068 Y122.680 E6.1846
G1 X182.854 Y122.581 E6.2273
G1 X183.534 Y122.403 E6.2652
G1 X184.197 Y122.137 E6.3037
G1 X184.829 Y121.786 E6.3427
G1 X185.336 Y121.418 E6.3764
G1 X185.923 Y120.868 E6.4197
G1 X186.374 Y120.318 E6.4581
G1 X186.710 Y119.789 E6.4918
G1 X187.053 Y119.061 E6.5352
G1 X187.270 Y118.385 E6.5734
G1 X187.389 Y117.763 E6.6076
G1 X187.574 Y115.017 E6.7558
G1 X190.053 Y112.700 E6.9387
G1 X198.141 Y112.700 E7.3745
G1 X198.422 Y112.718 E7.3896
G1 X199.358 Y112.842 E7.4405
G1 X199.903 Y112.988 E7.4709
G1 X200.906 Y113.403 E7.5294
G1 X201.394 Y113.685 E7.5598
G1 X202.255 Y114.346 E7.6183
G1 X202.654 Y114.745 E7.6486
G1 X203.315 Y115.606 E7.7072
G1 X203.597 Y116.094 E7.7375
G1 X204.012 Y117.097 E7.7960
G1 X204.158 Y117.642 E7.8264
G1 X204.282 Y118.578 E7.8773
G1 X204.300 Y118.859 E7.8925
G1 X204.300 Y181.141 E11.2483
G1 X204.282 Y181.422 E11.2635
G1 X204.158 Y182.358 E11.3144
G1 X204.012 Y182.903 E11.3447
G1 X203.597 Y183.906 E11.4032
