; G-Code generated by Simplify3D(R) Version 4.1.2
; Apr 11, 2021 at 9:08:01 PM
; Settings Summary
;   processName,Medium FFCP
;   applyToModels,Bonus_Tiles
;   profileName,FlashForge Creator Pro (modified)
;   profileVersion,2021-04-09 12:59:36
;   baseProfile,
;   printMaterial,PLA
;   printQuality,Medium
;   printExtruders,Left Extruder Only
;   extruderName,Right Extruder,Left Extruder
;   extruderToolheadNumber,0,1
;   extruderDiameter,0.4,0.4
;   extruderAutoWidth,0,0
;   extruderWidth,0.4,0.4
;   extrusionMultiplier,0.9,0.9
;   extruderUseRetract,1,1
;   extruderRetractionDistance,1.5,1.5
;   extruderExtraRestartDistance,0,0
;   extruderRetractionZLift,0,0
;   extruderRetractionSpeed,1200,1200
;   extruderUseCoasting,0,0
;   extruderCoastingDistance,0.2,0.2
;   extruderUseWipe,0,0
;   extruderWipeDistance,5,5
;   primaryExtruder,1
;   layerHeight,0.3
;   topSolidLayers,6
;   bottomSolidLayers,3
;   perimeterOutlines,2
;   printPerimetersInsideOut,1
;   startPointOption,2
;   startPointOriginX,0
;   startPointOriginY,0
;   sequentialIslands,0
;   spiralVaseMode,0
;   firstLayerHeightPercentage,90
;   firstLayerWidthPercentage,100
;   firstLayerUnderspeed,0.4
;   useRaft,0
;   raftExtruder,1
;   raftTopLayers,3
;   raftBaseLayers,2
;   raftOffset,3
;   raftSeparationDistance,0.14
;   raftTopInfill,100
;   aboveRaftSpeedMultiplier,0.3
;   useSkirt,1
;   skirtExtruder,1
;   skirtLayers,1
;   skirtOutlines,3
;   skirtOffset,13
;   usePrimePillar,0
;   primePillarExtruder,999
;   primePillarWidth,2
;   primePillarLocation,7
;   primePillarSpeedMultiplier,1
;   useOozeShield,0
;   oozeShieldExtruder,999
;   oozeShieldOffset,2
;   oozeShieldOutlines,1
;   oozeShieldSidewallShape,1
;   oozeShieldSidewallAngle,30
;   oozeShieldSpeedMultiplier,1
;   infillExtruder,1
;   internalInfillPattern,Rectilinear
;   externalInfillPattern,Rectilinear
;   infillPercentage,10
;   outlineOverlapPercentage,20
;   infillExtrusionWidthPercentage,100
;   minInfillLength,5
;   infillLayerInterval,1
;   internalInfillAngles,45,-45
;   overlapInternalInfillAngles,0
;   externalInfillAngles,45,-45
;   generateSupport,1
;   supportExtruder,1
;   supportInfillPercentage,30
;   supportExtraInflation,0
;   supportBaseLayers,0
;   denseSupportExtruder,1
;   denseSupportLayers,0
;   denseSupportInfillPercentage,70
;   supportLayerInterval,1
;   supportHorizontalPartOffset,0.3
;   supportUpperSeparationLayers,1
;   supportLowerSeparationLayers,1
;   supportType,0
;   supportGridSpacing,1.5
;   maxOverhangAngle,45
;   supportAngles,0
;   temperatureName,Right Extruder,Left Extruder,Heated Build Platform
;   temperatureNumber,0,1,0
;   temperatureSetpointCount,1,1,1
;   temperatureSetpointLayers,1,1,1
;   temperatureSetpointTemperatures,0,210,60
;   temperatureStabilizeAtStartup,0,0,0
;   temperatureHeatedBed,0,0,1
;   fanLayers,1,2
;   fanSpeeds,0,100
;   blipFanToFullPower,0
;   adjustSpeedForCooling,1
;   minSpeedLayerTime,15
;   minCoolingSpeedSlowdown,20
;   increaseFanForCooling,0
;   minFanLayerTime,45
;   maxCoolingFanSpeed,100
;   increaseFanForBridging,1
;   bridgingFanSpeed,100
;   use5D,1
;   relativeEdistances,1
;   allowEaxisZeroing,0
;   independentExtruderAxes,1
;   includeM10123,0
;   stickySupport,1
;   applyToolheadOffsets,0
;   gcodeXoffset,0
;   gcodeYoffset,0
;   gcodeZoffset,0
;   overrideMachineDefinition,1
;   machineTypeOverride,0
;   strokeXoverride,225
;   strokeYoverride,145
;   strokeZoverride,150
;   originOffsetXoverride,112.5
;   originOffsetYoverride,72.5
;   originOffsetZoverride,0
;   homeXdirOverride,1
;   homeYdirOverride,1
;   homeZdirOverride,-1
;   flipXoverride,1
;   flipYoverride,-1
;   flipZoverride,1
;   toolheadOffsets,0,0|34,0|0,0|0,0|0,0|0,0
;   overrideFirmwareConfiguration,1
;   firmwareTypeOverride,MakerBot/Sailfish Firmware
;   GPXconfigOverride,r1d
;   baudRateOverride,115200
;   overridePrinterModels,1
;   printerModelsOverride,FlashForge_CreatorPro.stl
;   startingGcode,; **** Replicator 1 dual start.gcode ****,M73 P0 ; enable build progress,G162 X Y F3000 ; home XY maximum,G161 Z F1200 ; home Z minimum,G92 Z-5 ; set Z to -5,G1 Z0 ; move Z to 0,G161 Z F100 ; home Z slowly,M132 X Y Z A B ; recall home offsets,M135 T0 ; load right extruder offsets,G1 X-110 Y-70 Z30 F9000 ; move to wait position left hand side of the table,G130 X20 Y20 Z20 A20 B20 ; lower stepper Vrefs while heating,M126 S[fan_speed_pwm],M140 S[bed0_temperature] T0,M134 T0 ; stabilize bed temperature,M104 S[extruder1_temperature] T1,M133 T1 ; stabilize left extruder temperature,G130 X127 Y127 Z40 A127 B127 ; default stepper Vrefs,G92 A0 B0 ; zero extruders,G1 Z0.4 ; position nozzle,M135 T1 ; left tool,G1 X-140 Y-70 F9000 ; reposition nozzle,G1 X-100 Y-70 E25 F300 ; purge nozzle,G1 X-110 Y-70 Z0.15 F1200 ; slow wipe,G1 X-100 Y-70 Z0.5 F1200 ; lift,G92 A0 B0 ; zero extruders,M73 P1 ;@body (notify GPX body has started),; **** end of start.gcode ****
;   layerChangeGcode,
;   retractionGcode,
;   toolChangeGcode,
;   endingGcode,; **** Replicator 1 dual end.gcode ****,M73 P100 ; end build progress,G1 Z150 F1000 ; send Z axis to bottom of machine,M140 S0 T0 ; cool down HBP,M104 S0 T0 ; cool down right extruder,M104 S0 T1 ; cool down left extruder,M127 ; stop blower fan,G162 X Y F3000 ; home XY maximum,M18 ; disable stepper,M72 P1 ; play Ta-Da song,; **** end of end.gcode ****
;   exportFileFormat,x3g
;   celebration,0
;   celebrationSong,Random Song
;   postProcessing,
;   defaultSpeed,3600
;   outlineUnderspeed,0.5
;   solidInfillUnderspeed,0.8
;   supportUnderspeed,0.8
;   rapidXYspeed,4200
;   rapidZspeed,1200
;   minBridgingArea,50
;   bridgingExtraInflation,0
;   bridgingExtrusionMultiplier,1
;   bridgingSpeedMultiplier,0.8
;   useFixedBridgingAngle,0
;   fixedBridgingAngle,0
;   applyBridgingToPerimeters,0
;   filamentDiameters,1.75|1.75|1.75|1.75|1.75|1.75
;   filamentPricesPerKg,46|46|46|46|46|46
;   filamentDensities,1.25|1.25|1.25|1.25|1.25|1.25
;   useMinPrintHeight,0
;   minPrintHeight,0
;   useMaxPrintHeight,0
;   maxPrintHeight,0
;   useDiaphragm,0
;   diaphragmLayerInterval,20
;   robustSlicing,1
;   mergeAllIntoSolid,0
;   onlyRetractWhenCrossingOutline,1
;   retractBetweenLayers,1
;   useRetractionMinTravel,0
;   retractionMinTravel,3
;   retractWhileWiping,0
;   onlyWipeOutlines,1
;   avoidCrossingOutline,0
;   maxMovementDetourFactor,3
;   toolChangeRetractionDistance,12
;   toolChangeExtraRestartDistance,-0.5
;   toolChangeRetractionSpeed,600
;   externalThinWallType,0
;   internalThinWallType,2
;   thinWallAllowedOverlapPercentage,10
;   singleExtrusionMinLength,1
;   singleExtrusionMinPrintingWidthPercentage,50
;   singleExtrusionMaxPrintingWidthPercentage,200
;   singleExtrusionEndpointExtension,0.2
;   horizontalSizeCompensation,0
G90
M83
; **** Replicator 1 dual start.gcode ****
M73 P0 ; enable build progress
G162 X Y F3000 ; home XY maximum
G161 Z F1200 ; home Z minimum
G92 Z-5 ; set Z to -5
G1 Z0 ; move Z to 0
G161 Z F100 ; home Z slowly
M132 X Y Z A B ; recall home offsets
M135 T0 ; load right extruder offsets
G1 X-110 Y-70 Z30 F9000 ; move to wait position left hand side of the table
G130 X20 Y20 Z20 A20 B20 ; lower stepper Vrefs while heating
M127
M140 S60 T0
M134 T0 ; stabilize bed temperature
M104 S210 T1
M133 T1 ; stabilize left extruder temperature
G130 X127 Y127 Z40 A127 B127 ; default stepper Vrefs
G92 A0 B0 ; zero extruders
G1 Z0.4 ; position nozzle
M135 T1 ; left tool
G1 X-140 Y-70 F9000 ; reposition nozzle
G1 X-100 Y-70 E25 F300 ; purge nozzle
G1 X-110 Y-70 Z0.15 F1200 ; slow wipe
G1 X-100 Y-70 Z0.5 F1200 ; lift
G92 A0 B0 ; zero extruders
M73 P1 ;@body (notify GPX body has started)
; **** end of start.gcode ****
; process Medium FFCP
; layer 1, Z = 0.270
M135 T1
G1 E-1.5000 F1200
; feature skirt
; tool H0.270 W0.400
G1 Z0.270 F1200
G1 X38.000 Y-48.252 F4200
G1 E1.5000 F1200
G1 X38.000 Y48.252 E3.8999 F1440
G1 X37.982 Y48.756 E0.0204
G1 X37.907 Y49.795 E0.0421
G1 X37.763 Y50.788 E0.0405
G1 X37.488 Y52.046 E0.0520
G1 X37.205 Y53.006 E0.0405
G1 X36.754 Y54.211 E0.0520
G1 X36.336 Y55.121 E0.0405
G1 X35.718 Y56.250 E0.0520
G1 X35.176 Y57.091 E0.0405
G1 X34.256 Y58.316 E0.0619
G1 X33.240 Y59.405 E0.0602
G1 X31.688 Y60.750 E0.0830
G1 X30.464 Y61.601 E0.0602
G1 X29.114 Y62.340 E0.0622
G1 X28.190 Y62.763 E0.0411
G1 X26.974 Y63.215 E0.0524
G1 X26.020 Y63.495 E0.0402
G1 X24.776 Y63.765 E0.0515
G1 X23.791 Y63.907 E0.0402
G1 X22.756 Y63.982 E0.0419
G1 X22.252 Y64.000 E0.0204
G1 X0.555 Y64.000 E0.8768
G1 X-22.255 Y64.000 E0.9218
G1 X-22.761 Y63.982 E0.0205
G1 X-23.798 Y63.907 E0.0420
G1 X-24.789 Y63.763 E0.0405
G1 X-26.046 Y63.488 E0.0520
G1 X-27.006 Y63.205 E0.0405
G1 X-28.211 Y62.754 E0.0520
G1 X-29.121 Y62.337 E0.0405
G1 X-30.464 Y61.601 E0.0619
G1 X-31.688 Y60.750 E0.0602
G1 X-33.240 Y59.405 E0.0830
G1 X-34.256 Y58.315 E0.0602
G1 X-35.176 Y57.091 E0.0619
G1 X-35.718 Y56.250 E0.0404
G1 X-36.340 Y55.115 E0.0523
G1 X-36.763 Y54.190 E0.0411
G1 X-37.215 Y52.974 E0.0524
G1 X-37.494 Y52.020 E0.0401
G1 X-37.765 Y50.776 E0.0515
G1 X-37.907 Y49.791 E0.0402
G1 X-37.982 Y48.756 E0.0419
G1 X-38.000 Y48.252 E0.0204
G1 X-38.000 Y-48.252 E3.8999
G1 X-37.982 Y-48.756 E0.0204
G1 X-37.889 Y-50.040 E0.0520
G1 X-37.624 Y-51.510 E0.0604
G1 X-37.044 Y-53.486 E0.0832
G1 X-36.471 Y-54.871 E0.0606
G1 X-35.729 Y-56.231 E0.0626
G1 X-35.180 Y-57.085 E0.0410
G1 X-34.256 Y-58.315 E0.0622
G1 X-33.240 Y-59.405 E0.0602
G1 X-31.688 Y-60.750 E0.0830
G1 X-30.464 Y-61.601 E0.0602
G1 X-29.115 Y-62.340 E0.0622
G1 X-28.190 Y-62.763 E0.0411
G1 X-26.974 Y-63.215 E0.0524
G1 X-26.020 Y-63.495 E0.0402
G1 X-24.776 Y-63.765 E0.0515
G1 X-23.791 Y-63.907 E0.0402
G1 X-22.756 Y-63.982 E0.0419
G1 X-22.252 Y-64.000 E0.0204
G1 X-0.555 Y-64.000 E0.8768
G1 X22.255 Y-64.000 E0.9218
G1 X22.761 Y-63.982 E0.0205
G1 X23.798 Y-63.907 E0.0420
G1 X24.789 Y-63.763 E0.0405
G1 X26.046 Y-63.488 E0.0520
G1 X27.006 Y-63.205 E0.0405
G1 X28.211 Y-62.754 E0.0520
G1 X29.121 Y-62.336 E0.0405
G1 X30.250 Y-61.718 E0.0520
G1 X31.091 Y-61.176 E0.0405
G1 X32.316 Y-60.256 E0.0619
G1 X33.405 Y-59.240 E0.0602
G1 X34.750 Y-57.688 E0.0830
G1 X35.601 Y-56.464 E0.0602
G1 X36.340 Y-55.115 E0.0622
G1 X36.763 Y-54.190 E0.0411
G1 X37.215 Y-52.974 E0.0524
G1 X37.495 Y-52.020 E0.0402
G1 X37.765 Y-50.776 E0.0515
G1 X37.907 Y-49.791 E0.0402
G1 X37.982 Y-48.756 E0.0419
G1 X38.000 Y-48.252 E0.0204
G1 E-1.5000 F1200
G1 X37.600 Y-48.245 F4200
G1 E1.5000 F1200
G1 X37.600 Y48.245 E3.8993 F1440
G1 X37.582 Y48.735 E0.0198
G1 X37.509 Y49.752 E0.0412
G1 X37.369 Y50.716 E0.0394
G1 X37.100 Y51.946 E0.0509
G1 X36.825 Y52.879 E0.0393
G1 X36.384 Y54.058 E0.0508
G1 X35.979 Y54.942 E0.0393
G1 X35.374 Y56.045 E0.0508
G1 X34.847 Y56.862 E0.0393
G1 X33.949 Y58.058 E0.0604
G1 X32.962 Y59.117 E0.0585
G1 X31.442 Y60.433 E0.0813
G1 X30.253 Y61.260 E0.0585
G1 X28.935 Y61.983 E0.0608
G1 X28.037 Y62.393 E0.0399
G1 X26.848 Y62.835 E0.0513
G1 X25.922 Y63.107 E0.0390
G1 X24.705 Y63.371 E0.0503
G1 X23.748 Y63.509 E0.0391
G1 X22.735 Y63.582 E0.0411
G1 X22.245 Y63.600 E0.0198
G1 X0.390 Y63.600 E0.8832
G1 X-22.248 Y63.600 E0.9148
G1 X-22.739 Y63.582 E0.0199
G1 X-23.755 Y63.509 E0.0411
G1 X-24.717 Y63.369 E0.0393
G1 X-25.946 Y63.100 E0.0508
G1 X-26.879 Y62.825 E0.0393
G1 X-28.058 Y62.384 E0.0508
G1 X-28.941 Y61.979 E0.0393
G1 X-30.253 Y61.260 E0.0604
G1 X-31.442 Y60.434 E0.0585
G1 X-32.962 Y59.117 E0.0813
G1 X-33.949 Y58.058 E0.0585
G1 X-34.847 Y56.862 E0.0604
G1 X-35.374 Y56.045 E0.0393
G1 X-35.982 Y54.935 E0.0511
G1 X-36.393 Y54.037 E0.0399
G1 X-36.835 Y52.848 E0.0513
G1 X-37.107 Y51.922 E0.0390
G1 X-37.371 Y50.705 E0.0503
G1 X-37.509 Y49.748 E0.0391
G1 X-37.582 Y48.735 E0.0411
G1 X-37.600 Y48.245 E0.0198
G1 X-37.600 Y-48.245 E3.8993
G1 X-37.582 Y-48.735 E0.0198
G1 X-37.492 Y-49.990 E0.0508
G1 X-37.234 Y-51.418 E0.0587
G1 X-36.666 Y-53.353 E0.0815
G1 X-36.110 Y-54.698 E0.0588
G1 X-35.385 Y-56.027 E0.0612
G1 X-34.852 Y-56.857 E0.0399
G1 X-33.949 Y-58.058 E0.0607
G1 X-32.962 Y-59.117 E0.0585
G1 X-31.442 Y-60.434 E0.0813
G1 X-30.254 Y-61.260 E0.0585
G1 X-28.935 Y-61.982 E0.0608
G1 X-28.037 Y-62.393 E0.0399
G1 X-26.848 Y-62.835 E0.0513
G1 X-25.922 Y-63.107 E0.0390
G1 X-24.705 Y-63.371 E0.0503
G1 X-23.748 Y-63.509 E0.0391
G1 X-22.735 Y-63.582 E0.0411
G1 X-22.245 Y-63.600 E0.0198
G1 X-0.390 Y-63.600 E0.8832
G1 X22.248 Y-63.600 E0.9148
G1 X22.739 Y-63.582 E0.0199
G1 X23.755 Y-63.509 E0.0411
G1 X24.717 Y-63.369 E0.0393
G1 X25.946 Y-63.100 E0.0508
G1 X26.879 Y-62.825 E0.0393
G1 X28.058 Y-62.384 E0.0508
G1 X28.942 Y-61.979 E0.0393
G1 X30.045 Y-61.374 E0.0508
G1 X30.862 Y-60.847 E0.0393
G1 X32.058 Y-59.949 E0.0604
G1 X33.117 Y-58.962 E0.0585
G1 X34.433 Y-57.442 E0.0813
G1 X35.260 Y-56.254 E0.0585
G1 X35.982 Y-54.935 E0.0608
G1 X36.393 Y-54.037 E0.0399
G1 X36.835 Y-52.848 E0.0513
G1 X37.107 Y-51.922 E0.0390
G1 X37.371 Y-50.705 E0.0503
G1 X37.509 Y-49.748 E0.0391
G1 X37.582 Y-48.735 E0.0411
G1 X37.600 Y-48.245 E0.0198
G1 E-1.5000 F1200
G1 X37.200 Y-48.238 F4200
G1 E1.5000 F1200
G1 X37.200 Y48.238 E3.8987 F1440
G1 X37.183 Y48.713 E0.0192
G1 X37.111 Y49.709 E0.0403
G1 X36.976 Y50.645 E0.0382
G1 X36.713 Y51.847 E0.0497
G1 X36.446 Y52.752 E0.0381
G1 X36.014 Y53.904 E0.0497
G1 X35.621 Y54.762 E0.0381
G1 X35.030 Y55.840 E0.0497
G1 X34.519 Y56.634 E0.0381
G1 X33.642 Y57.801 E0.0590
G1 X32.684 Y58.828 E0.0568
G1 X31.196 Y60.117 E0.0795
G1 X30.042 Y60.920 E0.0568
G1 X28.755 Y61.625 E0.0593
G1 X27.884 Y62.023 E0.0387
G1 X26.722 Y62.455 E0.0501
G1 X25.823 Y62.719 E0.0379
G1 X24.634 Y62.977 E0.0492
G1 X23.705 Y63.111 E0.0379
G1 X22.713 Y63.183 E0.0402
G1 X22.238 Y63.200 E0.0192
G1 X0.224 Y63.200 E0.8896
G1 X-22.240 Y63.200 E0.9078
G1 X-22.718 Y63.183 E0.0193
G1 X-23.712 Y63.111 E0.0403
G1 X-24.646 Y62.975 E0.0381
G1 X-25.847 Y62.713 E0.0497
G1 X-26.752 Y62.446 E0.0381
G1 X-27.904 Y62.014 E0.0497
G1 X-28.762 Y61.621 E0.0381
G1 X-30.042 Y60.920 E0.0590
G1 X-31.196 Y60.117 E0.0568
G1 X-32.684 Y58.828 E0.0795
G1 X-33.642 Y57.801 E0.0568
G1 X-34.519 Y56.633 E0.0590
G1 X-35.030 Y55.840 E0.0381
G1 X-35.625 Y54.756 E0.0500
G1 X-36.023 Y53.884 E0.0387
G1 X-36.455 Y52.721 E0.0501
G1 X-36.719 Y51.823 E0.0379
G1 X-36.977 Y50.634 E0.0492
G1 X-37.111 Y49.705 E0.0379
G1 X-37.183 Y48.713 E0.0402
G1 X-37.200 Y48.238 E0.0192
G1 X-37.200 Y-48.238 E3.8987
G1 X-37.183 Y-48.713 E0.0192
G1 X-37.094 Y-49.940 E0.0497
G1 X-36.844 Y-51.326 E0.0569
G1 X-36.288 Y-53.220 E0.0798
G1 X-35.748 Y-54.526 E0.0571
G1 X-35.041 Y-55.823 E0.0597
G1 X-34.523 Y-56.628 E0.0387
G1 X-33.642 Y-57.801 E0.0593
G1 X-32.684 Y-58.828 E0.0568
G1 X-31.196 Y-60.117 E0.0795
G1 X-30.043 Y-60.919 E0.0568
G1 X-28.756 Y-61.625 E0.0593
G1 X-27.884 Y-62.023 E0.0387
G1 X-26.722 Y-62.455 E0.0501
G1 X-25.823 Y-62.719 E0.0379
G1 X-24.634 Y-62.977 E0.0492
G1 X-23.705 Y-63.111 E0.0379
G1 X-22.713 Y-63.183 E0.0402
G1 X-22.238 Y-63.200 E0.0192
G1 X-0.224 Y-63.200 E0.8896
G1 X22.240 Y-63.200 E0.9078
G1 X22.718 Y-63.183 E0.0193
G1 X23.712 Y-63.111 E0.0403
G1 X24.646 Y-62.975 E0.0381
G1 X25.847 Y-62.713 E0.0497
G1 X26.752 Y-62.446 E0.0381
G1 X27.904 Y-62.014 E0.0497
G1 X28.762 Y-61.621 E0.0381
G1 X29.840 Y-61.030 E0.0497
G1 X30.634 Y-60.519 E0.0381
G1 X31.801 Y-59.642 E0.0590
G1 X32.828 Y-58.684 E0.0568
G1 X34.117 Y-57.196 E0.0795
G1 X34.919 Y-56.043 E0.0568
G1 X35.625 Y-54.756 E0.0593
G1 X36.023 Y-53.884 E0.0387
G1 X36.455 Y-52.722 E0.0501
G1 X36.719 Y-51.823 E0.0379
G1 X36.977 Y-50.634 E0.0492
G1 X37.111 Y-49.705 E0.0379
G1 X37.183 Y-48.713 E0.0402
G1 X37.200 Y-48.238 E0.0192
G1 E-1.5000 F1200
; feature inner perimeter
G1 X23.400 Y-47.978 F4200
G1 E1.5000 F1200
G1 X23.400 Y47.978 E3.8777 F1080
G1 X23.384 Y48.200 E0.0090
G1 X23.341 Y48.396 E0.0081
G1 X23.271 Y48.583 E0.0081
G1 X23.175 Y48.758 E0.0081
G1 X23.055 Y48.918 E0.0081
G1 X22.918 Y49.055 E0.0078
G1 X22.758 Y49.175 E0.0081
G1 X22.583 Y49.271 E0.0080
G1 X22.390 Y49.343 E0.0083
G1 X22.201 Y49.384 E0.0078
G1 X21.978 Y49.400 E0.0090
G1 X5.844 Y49.400 E0.6520
G1 X5.844 Y47.550 E0.0748
G1 X-5.844 Y47.550 E0.4723
G1 X-5.844 Y49.400 E0.0748
G1 X-21.980 Y49.400 E0.6521
G1 X-22.200 Y49.384 E0.0089
G1 X-22.396 Y49.341 E0.0081
G1 X-22.583 Y49.271 E0.0081
