; G-Code generated by Simplify3D(R) Version 4.1.2
; Apr 12, 2021 at 9:44:30 PM
; Settings Summary
;   processName,Fast CR10S
;   applyToModels,Cattle_Cards_Top
;   profileName,Creality CR-10S Pro (modified)
;   profileVersion,2019-01-15 08:00:00
;   baseProfile,
;   printMaterial,PLA
;   printQuality,Medium
;   printExtruders,
;   extruderName,Primary Extruder
;   extruderToolheadNumber,0
;   extruderDiameter,0.4
;   extruderAutoWidth,0
;   extruderWidth,0.4
;   extrusionMultiplier,0.9
;   extruderUseRetract,1
;   extruderRetractionDistance,5
;   extruderExtraRestartDistance,0
;   extruderRetractionZLift,0
;   extruderRetractionSpeed,1800
;   extruderUseCoasting,0
;   extruderCoastingDistance,0.2
;   extruderUseWipe,0
;   extruderWipeDistance,5
;   primaryExtruder,0
;   layerHeight,0.3
;   topSolidLayers,6
;   bottomSolidLayers,3
;   perimeterOutlines,2
;   printPerimetersInsideOut,1
;   startPointOption,2
;   startPointOriginX,0
;   startPointOriginY,0
;   sequentialIslands,0
;   spiralVaseMode,0
;   firstLayerHeightPercentage,120
;   firstLayerWidthPercentage,150
;   firstLayerUnderspeed,0.5
;   useRaft,0
;   raftExtruder,0
;   raftTopLayers,3
;   raftBaseLayers,2
;   raftOffset,3
;   raftSeparationDistance,0.14
;   raftTopInfill,100
;   aboveRaftSpeedMultiplier,0.3
;   useSkirt,1
;   skirtExtruder,0
;   skirtLayers,1
;   skirtOutlines,2
;   skirtOffset,4
;   usePrimePillar,0
;   primePillarExtruder,999
;   primePillarWidth,12
;   primePillarLocation,7
;   primePillarSpeedMultiplier,1
;   useOozeShield,0
;   oozeShieldExtruder,999
;   oozeShieldOffset,2
;   oozeShieldOutlines,1
;   oozeShieldSidewallShape,1
;   oozeShieldSidewallAngle,30
;   oozeShieldSpeedMultiplier,1
;   infillExtruder,0
;   internalInfillPattern,Rectilinear
;   externalInfillPattern,Rectilinear
;   infillPercentage,10
;   outlineOverlapPercentage,15
;   infillExtrusionWidthPercentage,100
;   minInfillLength,5
;   infillLayerInterval,1
;   internalInfillAngles,45,-45
;   overlapInternalInfillAngles,0
;   externalInfillAngles,45,-45
;   generateSupport,0
;   supportExtruder,0
;   supportInfillPercentage,30
;   supportExtraInflation,0
;   supportBaseLayers,0
;   denseSupportExtruder,0
;   denseSupportLayers,0
;   denseSupportInfillPercentage,70
;   supportLayerInterval,1
;   supportHorizontalPartOffset,0.3
;   supportUpperSeparationLayers,1
;   supportLowerSeparationLayers,1
;   supportType,0
;   supportGridSpacing,4
;   maxOverhangAngle,45
;   supportAngles,0
;   temperatureName,Primary Extruder,Heated Bed
;   temperatureNumber,0,0
;   temperatureSetpointCount,1,1
;   temperatureSetpointLayers,1,1
;   temperatureSetpointTemperatures,210,60
;   temperatureStabilizeAtStartup,1,1
;   temperatureHeatedBed,0,1
;   fanLayers,1,2
;   fanSpeeds,0,100
;   blipFanToFullPower,0
;   adjustSpeedForCooling,1
;   minSpeedLayerTime,15
;   minCoolingSpeedSlowdown,20
;   increaseFanForCooling,0
;   minFanLayerTime,45
;   maxCoolingFanSpeed,100
;   increaseFanForBridging,0
;   bridgingFanSpeed,100
;   use5D,1
;   relativeEdistances,0
;   allowEaxisZeroing,1
;   independentExtruderAxes,0
;   includeM10123,0
;   stickySupport,1
;   applyToolheadOffsets,0
;   gcodeXoffset,0
;   gcodeYoffset,0
;   gcodeZoffset,0
;   overrideMachineDefinition,1
;   machineTypeOverride,0
;   strokeXoverride,300
;   strokeYoverride,300
;   strokeZoverride,400
;   originOffsetXoverride,0
;   originOffsetYoverride,0
;   originOffsetZoverride,0
;   homeXdirOverride,-1
;   homeYdirOverride,-1
;   homeZdirOverride,-1
;   flipXoverride,1
;   flipYoverride,-1
;   flipZoverride,1
;   toolheadOffsets,0,0|0,0|0,0|0,0|0,0|0,0
;   overrideFirmwareConfiguration,1
;   firmwareTypeOverride,RepRap (Marlin/Repetier/Sprinter)
;   GPXconfigOverride,r2
;   baudRateOverride,115200
;   overridePrinterModels,1
;   printerModelsOverride
;   startingGcode,G28 ; home all axes,G29 ; auto-bed level,G1 Z5 F3000 ; lift,G1 X5 Y10 F1500 ; move to prime,G1 Z0.2 F3000 ; get ready to prime,G92 E0 ; reset extrusion distance,G1 Y80 E10 F600 ; prime nozzle,G1 Y100 F5000 ; quick wipe
;   layerChangeGcode,
;   retractionGcode,
;   toolChangeGcode,
;   endingGcode,G28 X0 ; home X axis,M106 S0 ; turn off cooling fan,M104 S0 ; turn off extruder,M140 S0 ; turn off bed,M84 ; disable motors
;   exportFileFormat,gcode
;   celebration,0
;   celebrationSong,Random Song
;   postProcessing,
;   defaultSpeed,5400
;   outlineUnderspeed,0.5
;   solidInfillUnderspeed,0.8
;   supportUnderspeed,0.8
;   rapidXYspeed,4800
;   rapidZspeed,1002
;   minBridgingArea,50
;   bridgingExtraInflation,0
;   bridgingExtrusionMultiplier,1
;   bridgingSpeedMultiplier,1
;   useFixedBridgingAngle,0
;   fixedBridgingAngle,0
;   applyBridgingToPerimeters,0
;   filamentDiameters,1.75|1.75|1.75|1.75|1.75|1.75
;   filamentPricesPerKg,46|46|46|46|46|46
;   filamentDensities,1.25|1.25|1.25|1.25|1.25|1.25
;   useMinPrintHeight,0
;   minPrintHeight,0
;   useMaxPrintHeight,0
;   maxPrintHeight,0
;   useDiaphragm,0
;   diaphragmLayerInterval,20
;   robustSlicing,1
;   mergeAllIntoSolid,0
;   onlyRetractWhenCrossingOutline,1
;   retractBetweenLayers,1
;   useRetractionMinTravel,0
;   retractionMinTravel,3
;   retractWhileWiping,0
;   onlyWipeOutlines,1
;   avoidCrossingOutline,0
;   maxMovementDetourFactor,3
;   toolChangeRetractionDistance,12
;   toolChangeExtraRestartDistance,-0.5
;   toolChangeRetractionSpeed,600
;   externalThinWallType,0
;   internalThinWallType,2
;   thinWallAllowedOverlapPercentage,10
;   singleExtrusionMinLength,1
;   singleExtrusionMinPrintingWidthPercentage,50
;   singleExtrusionMaxPrintingWidthPercentage,200
;   singleExtrusionEndpointExtension,0.2
;   horizontalSizeCompensation,0
G90
M82
M106 S0
M140 S60
M190 S60
M104 S210 T0
M109 S210 T0
G28 ; home all axes
G29 ; auto-bed level
G1 Z5 F3000 ; lift
G1 X5 Y10 F1500 ; move to prime
G1 Z0.2 F3000 ; get ready to prime
G92 E0 ; reset extrusion distance
G1 Y80 E10 F600 ; prime nozzle
G1 Y100 F5000 ; quick wipe
; process Fast CR10S
; layer 1, Z = 0.360
T0
G92 E0.0000
G1 E-5.0000 F1800
; feature skirt
; tool H0.360 W0.600
G1 Z0.360 F1002
G1 X97.910 Y113.441 F4800
G1 E0.0000 F1800
G92 E0.0000
G1 X98.343 Y113.141 E0.0426 F2700
G1 X98.980 Y112.794 E0.1011
G1 X99.299 Y112.648 E0.1295
G1 X99.896 Y112.426 E0.1810
G1 X100.233 Y112.328 E0.2093
G1 X100.937 Y112.176 E0.2676
G1 X101.452 Y112.120 E0.3094
G1 X116.783 Y112.097 E1.5485
G1 X119.659 Y114.969 E1.8770
G1 X119.659 Y115.350 E1.9078
G1 X120.341 Y115.350 E1.9630
G1 X120.341 Y114.971 E1.9936
G1 X123.212 Y112.100 E2.3217
G1 X176.788 Y112.100 E6.6519
G1 X179.659 Y114.970 E6.9800
G1 X179.659 Y115.350 E7.0107
G1 X180.341 Y115.350 E7.0659
G1 X180.341 Y114.970 E7.0965
G1 X183.212 Y112.100 E7.4246
G1 X198.182 Y112.100 E8.6345
G1 X198.532 Y112.125 E8.6629
G1 X199.519 Y112.268 E8.7435
G1 X200.024 Y112.397 E8.7856
G1 X200.701 Y112.648 E8.8440
G1 X201.020 Y112.794 E8.8724
G1 X201.580 Y113.099 E8.9238
G1 X201.875 Y113.288 E8.9522
G1 X202.455 Y113.722 E9.0108
G1 X202.841 Y114.081 E9.0534
G1 X203.559 Y114.910 E9.1420
G1 X203.859 Y115.343 E9.1846
G1 X204.206 Y115.980 E9.2432
G1 X204.352 Y116.299 E9.2716
G1 X204.574 Y116.896 E9.3230
G1 X204.672 Y117.233 E9.3514
G1 X204.806 Y117.854 E9.4027
G1 X204.855 Y118.198 E9.4308
G1 X204.894 Y118.740 E9.4747
G1 X204.900 Y118.913 E9.4887
G1 X204.900 Y136.990 E10.9497
G1 X202.126 Y139.843 E11.2713
G1 X199.436 Y139.918 E11.4888
G1 X198.873 Y139.965 E11.5345
G1 X198.299 Y140.046 E11.5813
G1 X197.755 Y140.155 E11.6262
G1 X197.209 Y140.295 E11.6717
G1 X196.669 Y140.467 E11.7176
G1 X196.139 Y140.669 E11.7634
G1 X195.622 Y140.900 E11.8092
G1 X195.123 Y141.158 E11.8546
G1 X194.606 Y141.464 E11.9031
G1 X194.160 Y141.762 E11.9465
G1 X193.706 Y142.103 E11.9923
G1 X193.273 Y142.468 E12.0381
G1 X192.861 Y142.858 E12.0839
G1 X192.472 Y143.269 E12.1297
G1 X192.110 Y143.698 E12.1751
G1 X191.749 Y144.180 E12.2237
G1 X191.451 Y144.625 E12.2670
G1 X191.163 Y145.114 E12.3129
G1 X190.903 Y145.617 E12.3587
G1 X190.671 Y146.135 E12.4045
G1 X190.469 Y146.664 E12.4503
G1 X190.299 Y147.198 E12.4956
G1 X190.149 Y147.782 E12.5443
G1 X190.045 Y148.308 E12.5877
G1 X189.965 Y148.869 E12.6334
G1 X189.918 Y149.434 E12.6793
G1 X189.902 Y150.000 E12.7250
G1 X189.918 Y150.566 E12.7708
G1 X189.965 Y151.131 E12.8166
G1 X190.045 Y151.692 E12.8624
G1 X190.149 Y152.218 E12.9058
G1 X190.299 Y152.802 E12.9545
G1 X190.469 Y153.336 E12.9998
G1 X190.671 Y153.866 E13.0456
G1 X190.903 Y154.383 E13.0914
G1 X191.163 Y154.886 E13.1372
G1 X191.451 Y155.375 E13.1830
G1 X191.749 Y155.820 E13.2264
G1 X192.110 Y156.302 E13.2750
G1 X192.472 Y156.731 E13.3204
G1 X192.861 Y157.142 E13.3662
G1 X193.273 Y157.531 E13.4120
G1 X193.707 Y157.897 E13.4578
G1 X194.160 Y158.238 E13.5036
G1 X194.606 Y158.536 E13.5470
G1 X195.123 Y158.842 E13.5955
G1 X195.622 Y159.100 E13.6409
G1 X196.139 Y159.331 E13.6867
G1 X196.669 Y159.533 E13.7325
G1 X197.209 Y159.705 E13.7783
G1 X197.755 Y159.845 E13.8239
G1 X198.299 Y159.954 E13.8687
G1 X198.873 Y160.035 E13.9156
G1 X199.436 Y160.082 E13.9613
G1 X202.126 Y160.158 E14.1788
G1 X204.900 Y163.010 E14.5004
G1 X204.900 Y181.182 E15.9690
G1 X204.875 Y181.532 E15.9974
G1 X204.732 Y182.519 E16.0780
G1 X204.603 Y183.024 E16.1201
G1 X204.352 Y183.701 E16.1785
G1 X204.206 Y184.020 E16.2069
G1 X203.901 Y184.580 E16.2583
G1 X203.712 Y184.875 E16.2867
G1 X203.330 Y185.385 E16.3382
G1 X203.101 Y185.650 E16.3665
G1 X202.650 Y186.101 E16.4180
G1 X202.385 Y186.330 E16.4464
G1 X201.875 Y186.712 E16.4978
G1 X201.580 Y186.901 E16.5262
G1 X201.020 Y187.206 E16.5777
G1 X200.701 Y187.352 E16.6061
G1 X200.104 Y187.574 E16.6575
G1 X199.767 Y187.672 E16.6859
G1 X199.146 Y187.806 E16.7372
G1 X198.802 Y187.855 E16.7653
G1 X198.260 Y187.894 E16.8092
G1 X198.087 Y187.900 E16.8233
G1 X183.212 Y187.900 E18.0255
G1 X180.341 Y185.030 E18.3536
G1 X180.341 Y184.650 E18.3843
G1 X179.659 Y184.650 E18.4394
G1 X179.659 Y185.030 E18.4701
G1 X176.788 Y187.900 E18.7982
G1 X123.212 Y187.900 E23.1284
G1 X120.341 Y185.029 E23.4565
G1 X120.341 Y184.650 E23.4872
G1 X119.659 Y184.650 E23.5423
G1 X119.659 Y185.029 E23.5729
G1 X116.789 Y187.900 E23.9010
G1 X101.913 Y187.900 E25.1033
G1 X101.740 Y187.894 E25.1173
G1 X101.193 Y187.855 E25.1616
G1 X100.840 Y187.804 E25.1905
G1 X100.122 Y187.646 E25.2499
G1 X99.627 Y187.480 E25.2921
G1 X98.643 Y187.030 E25.3796
G1 X98.194 Y186.763 E25.4218
G1 X97.615 Y186.330 E25.4802
G1 X97.350 Y186.101 E25.5085
G1 X96.900 Y185.651 E25.5600
G1 X96.671 Y185.386 E25.5883
G1 X96.298 Y184.889 E25.6385
G1 X96.113 Y184.602 E25.6660
G1 X95.801 Y184.035 E25.7183
G1 X95.650 Y183.706 E25.7476
G1 X95.397 Y183.024 E25.8064
G1 X95.268 Y182.519 E25.8485
G1 X95.125 Y181.532 E25.9291
G1 X95.100 Y181.181 E25.9576
G1 X95.120 Y118.456 E31.0271
G1 X95.175 Y117.938 E31.0692
G1 X95.328 Y117.233 E31.1276
G1 X95.426 Y116.896 E31.1559
G1 X95.648 Y116.299 E31.2074
G1 X95.794 Y115.980 E31.2358
G1 X96.099 Y115.420 E31.2872
G1 X96.288 Y115.125 E31.3156
G1 X96.722 Y114.545 E31.3742
G1 X97.081 Y114.159 E31.4167
G1 X97.910 Y113.441 E31.5054
G92 E0.0000
G1 E-5.0000 F1800
G1 X98.279 Y113.915 F4800
G1 E0.0000 F1800
G92 E0.0000
G1 X98.659 Y113.652 E0.0374 F2700
G1 X99.248 Y113.331 E0.0916
G1 X99.528 Y113.203 E0.1165
G1 X100.085 Y112.996 E0.1645
G1 X100.380 Y112.910 E0.1894
G1 X101.033 Y112.769 E0.2433
G1 X101.485 Y112.720 E0.2800
G1 X116.535 Y112.697 E1.4965
G1 X119.059 Y115.218 E1.7847
G1 X119.059 Y115.950 E1.8439
G1 X120.941 Y115.950 E1.9961
G1 X120.941 Y115.219 E2.0551
G1 X123.460 Y112.700 E2.3431
G1 X176.540 Y112.700 E6.6331
G1 X179.059 Y115.219 E6.9210
G1 X179.059 Y115.950 E6.9801
G1 X180.941 Y115.950 E7.1322
G1 X180.941 Y115.219 E7.1913
G1 X183.460 Y112.700 E7.4792
G1 X198.160 Y112.700 E8.6673
G1 X198.468 Y112.722 E8.6922
G1 X199.402 Y112.857 E8.7685
G1 X199.845 Y112.970 E8.8055
G1 X200.472 Y113.203 E8.8595
G1 X200.752 Y113.331 E8.8844
G1 X201.274 Y113.615 E8.9324
G1 X201.533 Y113.781 E8.9573
G1 X202.070 Y114.183 E9.0115
G1 X202.408 Y114.498 E9.0489
G1 X203.085 Y115.279 E9.1324
G1 X203.348 Y115.659 E9.1697
G1 X203.669 Y116.248 E9.2240
G1 X203.797 Y116.528 E9.2489
G1 X204.004 Y117.085 E9.2969
G1 X204.090 Y117.380 E9.3217
G1 X204.215 Y117.959 E9.3696
G1 X204.258 Y118.262 E9.3943
G1 X204.295 Y118.772 E9.4356
G1 X204.300 Y118.924 E9.4479
G1 X204.300 Y136.746 E10.8883
G1 X201.865 Y139.250 E11.1706
G1 X199.403 Y139.318 E11.3697
G1 X198.806 Y139.369 E11.4181
G1 X198.198 Y139.455 E11.4677
G1 X197.622 Y139.569 E11.5152
G1 X197.043 Y139.719 E11.5635
G1 X196.471 Y139.901 E11.6121
G1 X195.910 Y140.114 E11.6606
G1 X195.362 Y140.359 E11.7091
G1 X194.832 Y140.633 E11.7573
G1 X194.286 Y140.956 E11.8085
G1 X193.812 Y141.273 E11.8546
G1 X193.332 Y141.634 E11.9032
G1 X192.874 Y142.021 E11.9517
G1 X192.437 Y142.433 E12.0002
G1 X192.025 Y142.869 E12.0487
G1 X191.640 Y143.324 E12.0969
G1 X191.259 Y143.833 E12.1482
G1 X190.943 Y144.306 E12.1942
G1 X190.637 Y144.823 E12.2428
G1 X190.362 Y145.357 E12.2913
G1 X190.117 Y145.905 E12.3398
G1 X189.902 Y146.465 E12.3883
G1 X189.722 Y147.033 E12.4365
G1 X189.564 Y147.649 E12.4878
G1 X189.453 Y148.207 E12.5339
G1 X189.369 Y148.802 E12.5824
G1 X189.319 Y149.400 E12.6309
G1 X189.302 Y150.000 E12.6794
G1 X189.319 Y150.600 E12.7280
G1 X189.369 Y151.198 E12.7765
G1 X189.453 Y151.793 E12.8250
G1 X189.564 Y152.351 E12.8710
G1 X189.722 Y152.967 E12.9224
G1 X189.902 Y153.535 E12.9705
G1 X190.117 Y154.095 E13.0191
G1 X190.362 Y154.643 E13.0676
G1 X190.637 Y155.177 E13.1161
G1 X190.943 Y155.694 E13.1646
G1 X191.259 Y156.167 E13.2107
G1 X191.640 Y156.676 E13.2620
G1 X192.025 Y157.131 E13.3101
G1 X192.437 Y157.567 E13.3587
G1 X192.874 Y157.979 E13.4072
G1 X193.332 Y158.366 E13.4557
G1 X193.812 Y158.727 E13.5043
G1 X194.286 Y159.044 E13.5503
G1 X194.832 Y159.367 E13.6016
G1 X195.362 Y159.641 E13.6498
G1 X195.910 Y159.886 E13.6983
G1 X196.471 Y160.099 E13.7468
G1 X197.043 Y160.281 E13.7953
G1 X197.622 Y160.431 E13.8436
G1 X198.198 Y160.545 E13.8911
G1 X198.806 Y160.631 E13.9408
G1 X199.403 Y160.682 E13.9892
G1 X201.866 Y160.750 E14.1883
G1 X204.300 Y163.254 E14.4705
G1 X204.300 Y181.160 E15.9177
G1 X204.278 Y181.468 E15.9427
G1 X204.143 Y182.402 E16.0189
G1 X204.030 Y182.845 E16.0559
G1 X203.797 Y183.472 E16.1099
G1 X203.669 Y183.752 E16.1348
G1 X203.385 Y184.274 E16.1828
G1 X203.219 Y184.533 E16.2077
G1 X202.863 Y185.008 E16.2557
G1 X202.661 Y185.241 E16.2806
G1 X202.241 Y185.661 E16.3286
G1 X202.008 Y185.863 E16.3535
G1 X201.533 Y186.219 E16.4015
G1 X201.274 Y186.385 E16.4264
G1 X200.752 Y186.669 E16.4744
G1 X200.472 Y186.797 E16.4993
G1 X199.915 Y187.004 E16.5473
G1 X199.620 Y187.090 E16.5722
G1 X199.041 Y187.215 E16.6201
G1 X198.738 Y187.258 E16.6447
G1 X198.228 Y187.295 E16.6861
G1 X198.076 Y187.300 E16.6984
G1 X183.460 Y187.300 E17.8797
G1 X180.941 Y184.781 E18.1676
G1 X180.941 Y184.050 E18.2267
G1 X179.059 Y184.050 E18.3788
G1 X179.059 Y184.781 E18.4379
G1 X176.540 Y187.300 E18.7258
G1 X123.460 Y187.300 E23.0158
G1 X120.941 Y184.781 E23.3038
G1 X120.941 Y184.050 E23.3628
G1 X119.059 Y184.050 E23.5150
G1 X119.059 Y184.780 E23.5740
G1 X116.540 Y187.300 E23.8620
G1 X101.924 Y187.300 E25.0433
G1 X101.772 Y187.295 E25.0556
G1 X101.258 Y187.258 E25.0972
G1 X100.947 Y187.213 E25.1226
G1 X100.282 Y187.067 E25.1776
G1 X99.848 Y186.921 E25.2146
G1 X98.921 Y186.498 E25.2970
G1 X98.527 Y186.264 E25.3340
G1 X97.992 Y185.863 E25.3881
G1 X97.759 Y185.661 E25.4130
G1 X97.339 Y185.241 E25.4609
G1 X97.138 Y185.009 E25.4858
G1 X96.791 Y184.546 E25.5326
G1 X96.629 Y184.294 E25.5567
G1 X96.337 Y183.765 E25.6056
G1 X96.205 Y183.476 E25.6313
G1 X95.970 Y182.845 E25.6857
G1 X95.857 Y182.402 E25.7227
G1 X95.722 Y181.468 E25.7990
G1 X95.700 Y181.159 E25.8239
G1 X95.720 Y118.488 E30.8891
G1 X95.769 Y118.034 E30.9261
G1 X95.910 Y117.380 E30.9801
G1 X95.996 Y117.085 E31.0050
G1 X96.203 Y116.528 E31.0530
G1 X96.331 Y116.248 E31.0779
G1 X96.615 Y115.726 E31.1259
G1 X96.781 Y115.467 E31.1508
G1 X97.183 Y114.930 E31.2050
G1 X97.498 Y114.592 E31.2424
G1 X98.279 Y113.915 E31.3258
G92 E0.0000
G1 E-5.0000 F1800
; feature inner perimeter
G1 X101.409 Y118.075 F4800
G1 E0.0000 F1800
G92 E0.0000
