; G-Code generated by Simplify3D(R) Version 4.1.2
; Apr 14, 2021 at 5:02:42 PM
; Settings Summary
;   processName,Medium CR10S
;   applyToModels,General_Tiles
;   profileName,Creality CR-10S Pro (modified)
;   profileVersion,2019-01-15 08:00:00
;   baseProfile,
;   printMaterial,PLA
;   printQuality,Medium
;   printExtruders,
;   extruderName,Primary Extruder
;   extruderToolheadNumber,0
;   extruderDiameter,0.4
;   extruderAutoWidth,0
;   extruderWidth,0.4
;   extrusionMultiplier,0.9
;   extruderUseRetract,1
;   extruderRetractionDistance,5
;   extruderExtraRestartDistance,0
;   extruderRetractionZLift,0
;   extruderRetractionSpeed,1800
;   extruderUseCoasting,0
;   extruderCoastingDistance,0.2
;   extruderUseWipe,0
;   extruderWipeDistance,5
;   primaryExtruder,0
;   layerHeight,0.2
;   topSolidLayers,6
;   bottomSolidLayers,3
;   perimeterOutlines,2
;   printPerimetersInsideOut,1
;   startPointOption,2
;   startPointOriginX,0
;   startPointOriginY,0
;   sequentialIslands,0
;   spiralVaseMode,0
;   firstLayerHeightPercentage,120
;   firstLayerWidthPercentage,150
;   firstLayerUnderspeed,0.5
;   useRaft,0
;   raftExtruder,0
;   raftTopLayers,3
;   raftBaseLayers,2
;   raftOffset,3
;   raftSeparationDistance,0.14
;   raftTopInfill,100
;   aboveRaftSpeedMultiplier,0.3
;   useSkirt,1
;   skirtExtruder,0
;   skirtLayers,1
;   skirtOutlines,2
;   skirtOffset,4
;   usePrimePillar,0
;   primePillarExtruder,999
;   primePillarWidth,12
;   primePillarLocation,7
;   primePillarSpeedMultiplier,1
;   useOozeShield,0
;   oozeShieldExtruder,999
;   oozeShieldOffset,2
;   oozeShieldOutlines,1
;   oozeShieldSidewallShape,1
;   oozeShieldSidewallAngle,30
;   oozeShieldSpeedMultiplier,1
;   infillExtruder,0
;   internalInfillPattern,Rectilinear
;   externalInfillPattern,Rectilinear
;   infillPercentage,10
;   outlineOverlapPercentage,15
;   infillExtrusionWidthPercentage,100
;   minInfillLength,5
;   infillLayerInterval,1
;   internalInfillAngles,45,-45
;   overlapInternalInfillAngles,0
;   externalInfillAngles,45,-45
;   generateSupport,0
;   supportExtruder,0
;   supportInfillPercentage,30
;   supportExtraInflation,0
;   supportBaseLayers,0
;   denseSupportExtruder,0
;   denseSupportLayers,0
;   denseSupportInfillPercentage,70
;   supportLayerInterval,1
;   supportHorizontalPartOffset,0.3
;   supportUpperSeparationLayers,1
;   supportLowerSeparationLayers,1
;   supportType,0
;   supportGridSpacing,4
;   maxOverhangAngle,45
;   supportAngles,0
;   temperatureName,Primary Extruder,Heated Bed
;   temperatureNumber,0,0
;   temperatureSetpointCount,1,1
;   temperatureSetpointLayers,1,1
;   temperatureSetpointTemperatures,210,60
;   temperatureStabilizeAtStartup,1,1
;   temperatureHeatedBed,0,1
;   fanLayers,1,2
;   fanSpeeds,0,100
;   blipFanToFullPower,0
;   adjustSpeedForCooling,1
;   minSpeedLayerTime,15
;   minCoolingSpeedSlowdown,20
;   increaseFanForCooling,0
;   minFanLayerTime,45
;   maxCoolingFanSpeed,100
;   increaseFanForBridging,0
;   bridgingFanSpeed,100
;   use5D,1
;   relativeEdistances,0
;   allowEaxisZeroing,1
;   independentExtruderAxes,0
;   includeM10123,0
;   stickySupport,1
;   applyToolheadOffsets,0
;   gcodeXoffset,0
;   gcodeYoffset,0
;   gcodeZoffset,0
;   overrideMachineDefinition,1
;   machineTypeOverride,0
;   strokeXoverride,300
;   strokeYoverride,300
;   strokeZoverride,400
;   originOffsetXoverride,0
;   originOffsetYoverride,0
;   originOffsetZoverride,0
;   homeXdirOverride,-1
;   homeYdirOverride,-1
;   homeZdirOverride,-1
;   flipXoverride,1
;   flipYoverride,-1
;   flipZoverride,1
;   toolheadOffsets,0,0|0,0|0,0|0,0|0,0|0,0
;   overrideFirmwareConfiguration,1
;   firmwareTypeOverride,RepRap (Marlin/Repetier/Sprinter)
;   GPXconfigOverride,r2
;   baudRateOverride,115200
;   overridePrinterModels,1
;   printerModelsOverride
;   startingGcode,G28 ; home all axes,G29 ; auto-bed level,G1 Z5 F3000 ; lift,G1 X5 Y10 F1500 ; move to prime,G1 Z0.2 F3000 ; get ready to prime,G92 E0 ; reset extrusion distance,G1 Y80 E10 F600 ; prime nozzle,G1 Y100 F5000 ; quick wipe
;   layerChangeGcode,
;   retractionGcode,
;   toolChangeGcode,
;   endingGcode,G28 X0 ; home X axis,M106 S0 ; turn off cooling fan,M104 S0 ; turn off extruder,M140 S0 ; turn off bed,M84 ; disable motors
;   exportFileFormat,gcode
;   celebration,0
;   celebrationSong,Random Song
;   postProcessing,
;   defaultSpeed,3600
;   outlineUnderspeed,0.5
;   solidInfillUnderspeed,0.8
;   supportUnderspeed,0.8
;   rapidXYspeed,4800
;   rapidZspeed,1002
;   minBridgingArea,50
;   bridgingExtraInflation,0
;   bridgingExtrusionMultiplier,1
;   bridgingSpeedMultiplier,1
;   useFixedBridgingAngle,0
;   fixedBridgingAngle,0
;   applyBridgingToPerimeters,0
;   filamentDiameters,1.75|1.75|1.75|1.75|1.75|1.75
;   filamentPricesPerKg,46|46|46|46|46|46
;   filamentDensities,1.25|1.25|1.25|1.25|1.25|1.25
;   useMinPrintHeight,0
;   minPrintHeight,0
;   useMaxPrintHeight,0
;   maxPrintHeight,0
;   useDiaphragm,0
;   diaphragmLayerInterval,20
;   robustSlicing,1
;   mergeAllIntoSolid,0
;   onlyRetractWhenCrossingOutline,1
;   retractBetweenLayers,1
;   useRetractionMinTravel,0
;   retractionMinTravel,3
;   retractWhileWiping,0
;   onlyWipeOutlines,1
;   avoidCrossingOutline,0
;   maxMovementDetourFactor,3
;   toolChangeRetractionDistance,12
;   toolChangeExtraRestartDistance,-0.5
;   toolChangeRetractionSpeed,600
;   externalThinWallType,0
;   internalThinWallType,2
;   thinWallAllowedOverlapPercentage,10
;   singleExtrusionMinLength,1
;   singleExtrusionMinPrintingWidthPercentage,50
;   singleExtrusionMaxPrintingWidthPercentage,200
;   singleExtrusionEndpointExtension,0.2
;   horizontalSizeCompensation,0
G90
M82
M106 S0
M140 S60
M190 S60
M104 S210 T0
M109 S210 T0
G28 ; home all axes
G29 ; auto-bed level
G1 Z5 F3000 ; lift
G1 X5 Y10 F1500 ; move to prime
G1 Z0.2 F3000 ; get ready to prime
G92 E0 ; reset extrusion distance
G1 Y80 E10 F600 ; prime nozzle
G1 Y100 F5000 ; quick wipe
; process Medium CR10S
; layer 1, Z = 0.240
T0
G92 E0.0000
G1 E-5.0000 F1800
; feature skirt
; tool H0.240 W0.600
G1 Z0.240 F1002
G1 X92.600 Y97.970 F4800
G1 E0.0000 F1800
G92 E0.0000
G1 X95.470 Y95.100 E0.2187 F1800
G1 X118.286 Y95.100 E1.4481
G1 X120.136 Y96.950 E1.5890
G1 X122.864 Y96.950 E1.7360
G1 X124.714 Y95.100 E1.8770
G1 X142.972 Y95.100 E2.8607
G1 X145.816 Y97.831 E3.0732
G1 X145.918 Y100.333 E3.2081
G1 X145.957 Y100.656 E3.2256
G1 X146.023 Y100.978 E3.2434
G1 X146.115 Y101.298 E3.2613
G1 X146.232 Y101.606 E3.2791
G1 X146.374 Y101.904 E3.2969
G1 X146.539 Y102.190 E3.3146
G1 X146.721 Y102.455 E3.3320
G1 X146.936 Y102.718 E3.3503
G1 X147.163 Y102.955 E3.3679
G1 X147.410 Y103.173 E3.3857
G1 X147.674 Y103.371 E3.4035
G1 X147.946 Y103.543 E3.4208
G1 X148.247 Y103.702 E3.4391
G1 X148.548 Y103.830 E3.4568
G1 X148.861 Y103.934 E3.4745
G1 X149.181 Y104.013 E3.4923
G1 X149.499 Y104.065 E3.5097
G1 X149.838 Y104.093 E3.5280
G1 X150.165 Y104.093 E3.5456
G1 X150.491 Y104.066 E3.5632
G1 X150.827 Y104.011 E3.5816
G1 X151.139 Y103.934 E3.5989
G1 X151.452 Y103.830 E3.6167
G1 X151.755 Y103.701 E3.6345
G1 X152.048 Y103.547 E3.6522
G1 X152.326 Y103.371 E3.6700
G1 X152.588 Y103.175 E3.6876
G1 X152.842 Y102.949 E3.7060
G1 X153.065 Y102.717 E3.7233
G1 X153.274 Y102.461 E3.7411
G1 X153.461 Y102.190 E3.7588
G1 X153.626 Y101.904 E3.7766
G1 X153.768 Y101.607 E3.7944
G1 X153.885 Y101.298 E3.8122
G1 X153.977 Y100.978 E3.8301
G1 X154.043 Y100.656 E3.8478
G1 X154.082 Y100.333 E3.8654
G1 X154.184 Y97.831 E4.0003
G1 X157.028 Y95.100 E4.2127
G1 X175.286 Y95.100 E5.1965
G1 X177.136 Y96.950 E5.3374
G1 X179.864 Y96.950 E5.4844
G1 X181.714 Y95.100 E5.6254
G1 X204.530 Y95.100 E6.8547
G1 X207.400 Y97.970 E7.0735
G1 X207.400 Y108.897 E7.6622
G1 X204.668 Y111.741 E7.8747
G1 X202.173 Y111.842 E8.0092
G1 X201.834 Y111.883 E8.0276
G1 X201.522 Y111.947 E8.0448
G1 X201.204 Y112.039 E8.0626
G1 X200.896 Y112.156 E8.0804
G1 X200.600 Y112.296 E8.0980
G1 X200.304 Y112.467 E8.1165
G1 X200.042 Y112.648 E8.1336
G1 X199.785 Y112.857 E8.1515
G1 X199.548 Y113.086 E8.1692
G1 X199.330 Y113.331 E8.1869
G1 X199.125 Y113.604 E8.2053
G1 X198.955 Y113.873 E8.2224
G1 X198.801 Y114.166 E8.2403
G1 X198.671 Y114.470 E8.2581
G1 X198.567 Y114.780 E8.2757
G1 X198.485 Y115.113 E8.2942
G1 X198.434 Y115.426 E8.3113
G1 X198.408 Y115.756 E8.3291
G1 X198.407 Y116.084 E8.3468
G1 X198.435 Y116.423 E8.3651
G1 X198.487 Y116.747 E8.3828
G1 X198.567 Y117.067 E8.4005
G1 X198.671 Y117.380 E8.4183
G1 X198.801 Y117.683 E8.4361
G1 X198.955 Y117.976 E8.4539
G1 X199.125 Y118.245 E8.4711
G1 X199.330 Y118.519 E8.4895
G1 X199.548 Y118.764 E8.5071
G1 X199.785 Y118.992 E8.5249
G1 X200.042 Y119.201 E8.5427
G1 X200.304 Y119.382 E8.5599
G1 X200.601 Y119.553 E8.5784
G1 X200.896 Y119.693 E8.5960
G1 X201.204 Y119.810 E8.6137
G1 X201.522 Y119.902 E8.6316
G1 X201.834 Y119.966 E8.6487
G1 X202.173 Y120.007 E8.6671
G1 X204.668 Y120.108 E8.8016
G1 X207.400 Y122.952 E9.0142
G1 X207.400 Y176.471 E11.8978
G1 X204.668 Y179.315 E12.1103
G1 X202.175 Y179.416 E12.2448
G1 X201.830 Y179.458 E12.2635
G1 X201.523 Y179.521 E12.2804
G1 X201.205 Y179.613 E12.2982
G1 X200.897 Y179.730 E12.3160
G1 X200.603 Y179.869 E12.3335
G1 X200.300 Y180.044 E12.3523
G1 X200.043 Y180.221 E12.3692
G1 X199.786 Y180.431 E12.3870
G1 X199.548 Y180.659 E12.4048
G1 X199.332 Y180.903 E12.4223
G1 X199.122 Y181.182 E12.4411
G1 X198.956 Y181.445 E12.4579
G1 X198.801 Y181.739 E12.4758
G1 X198.672 Y182.042 E12.4936
G1 X198.568 Y182.352 E12.5112
G1 X198.485 Y182.690 E12.5300
G1 X198.435 Y182.998 E12.5467
G1 X198.408 Y183.329 E12.5646
G1 X198.407 Y183.656 E12.5823
G1 X198.435 Y184.000 E12.6009
G1 X198.488 Y184.322 E12.6185
G1 X198.567 Y184.642 E12.6362
G1 X198.672 Y184.955 E12.6540
G1 X198.801 Y185.258 E12.6718
G1 X198.956 Y185.552 E12.6896
G1 X199.122 Y185.816 E12.7064
G1 X199.332 Y186.095 E12.7252
G1 X199.548 Y186.339 E12.7428
G1 X199.786 Y186.567 E12.7606
G1 X200.043 Y186.776 E12.7784
G1 X200.300 Y186.954 E12.7953
G1 X200.603 Y187.129 E12.8141
G1 X200.897 Y187.268 E12.8316
G1 X201.205 Y187.385 E12.8494
G1 X201.523 Y187.477 E12.8672
G1 X201.830 Y187.539 E12.8841
G1 X202.175 Y187.582 E12.9028
G1 X204.668 Y187.682 E13.0373
G1 X207.400 Y190.527 E13.2498
G1 X207.400 Y202.030 E13.8696
G1 X204.530 Y204.900 E14.0883
G1 X181.714 Y204.900 E15.3176
G1 X179.864 Y203.050 E15.4586
G1 X177.136 Y203.050 E15.6056
G1 X175.286 Y204.900 E15.7466
G1 X160.520 Y204.900 E16.5422
G1 X157.671 Y202.148 E16.7556
G1 X157.579 Y199.477 E16.8996
G1 X157.527 Y198.967 E16.9273
G1 X157.439 Y198.460 E16.9549
G1 X157.309 Y197.927 E16.9845
G1 X157.165 Y197.473 E17.0102
G1 X156.975 Y196.991 E17.0381
G1 X156.733 Y196.481 E17.0685
G1 X156.501 Y196.069 E17.0940
G1 X156.218 Y195.635 E17.1219
G1 X155.876 Y195.185 E17.1523
G1 X155.565 Y194.829 E17.1778
G1 X155.200 Y194.462 E17.2057
G1 X154.774 Y194.091 E17.2362
G1 X154.397 Y193.805 E17.2616
G1 X153.964 Y193.520 E17.2896
G1 X153.472 Y193.243 E17.3200
G1 X153.045 Y193.040 E17.3455
G1 X152.563 Y192.849 E17.3734
G1 X152.025 Y192.678 E17.4038
G1 X151.565 Y192.566 E17.4293
G1 X151.050 Y192.476 E17.4575
G1 X150.539 Y192.423 E17.4852
G1 X149.980 Y192.403 E17.5154
G1 X149.461 Y192.422 E17.5433
G1 X148.991 Y192.471 E17.5688
G1 X148.434 Y192.566 E17.5992
G1 X147.931 Y192.690 E17.6271
G1 X147.480 Y192.833 E17.6526
G1 X146.955 Y193.040 E17.6830
G1 X146.487 Y193.264 E17.7110
G1 X146.075 Y193.496 E17.7364
G1 X145.603 Y193.805 E17.7669
G1 X145.194 Y194.116 E17.7945
G1 X144.801 Y194.461 E17.8227
G1 X144.466 Y194.796 E17.8482
G1 X144.095 Y195.221 E17.8787
G1 X143.785 Y195.631 E17.9063
G1 X143.499 Y196.069 E17.9345
G1 X143.267 Y196.481 E17.9600
G1 X143.025 Y196.991 E17.9904
G1 X142.835 Y197.473 E18.0183
G1 X142.691 Y197.927 E18.0440
G1 X142.561 Y198.460 E18.0736
G1 X142.473 Y198.967 E18.1013
G1 X142.421 Y199.477 E18.1289
G1 X142.329 Y202.148 E18.2729
G1 X139.480 Y204.900 E18.4863
G1 X124.714 Y204.900 E19.2819
G1 X122.864 Y203.050 E19.4229
G1 X120.136 Y203.050 E19.5699
G1 X118.286 Y204.900 E19.7109
G1 X95.470 Y204.900 E20.9402
G1 X92.600 Y202.030 E21.1589
G1 X92.600 Y190.428 E21.7841
G1 X95.332 Y187.583 E21.9966
G1 X97.825 Y187.483 E22.1310
G1 X98.170 Y187.440 E22.1497
G1 X98.477 Y187.378 E22.1666
G1 X98.795 Y187.286 E22.1844
G1 X99.103 Y187.169 E22.2022
G1 X99.397 Y187.030 E22.2197
G1 X99.700 Y186.855 E22.2386
G1 X99.957 Y186.677 E22.2554
G1 X100.214 Y186.468 E22.2732
G1 X100.452 Y186.240 E22.2910
G1 X100.668 Y185.996 E22.3086
G1 X100.877 Y185.717 E22.3274
G1 X101.044 Y185.453 E22.3442
G1 X101.199 Y185.159 E22.3621
G1 X101.328 Y184.856 E22.3798
G1 X101.432 Y184.547 E22.3974
G1 X101.515 Y184.208 E22.4162
G1 X101.565 Y183.901 E22.4330
G1 X101.592 Y183.570 E22.4509
G1 X101.593 Y183.243 E22.4685
G1 X101.565 Y182.899 E22.4871
G1 X101.512 Y182.576 E22.5047
G1 X101.433 Y182.256 E22.5225
G1 X101.328 Y181.944 E22.5402
G1 X101.199 Y181.641 E22.5580
G1 X101.044 Y181.347 E22.5759
G1 X100.878 Y181.083 E22.5927
G1 X100.668 Y180.804 E22.6115
G1 X100.452 Y180.560 E22.6291
G1 X100.214 Y180.332 E22.6468
G1 X99.957 Y180.123 E22.6647
G1 X99.700 Y179.945 E22.6815
G1 X99.397 Y179.770 E22.7003
G1 X99.103 Y179.631 E22.7179
G1 X98.795 Y179.514 E22.7356
G1 X98.477 Y179.422 E22.7535
G1 X98.170 Y179.359 E22.7703
G1 X97.825 Y179.317 E22.7891
G1 X95.332 Y179.217 E22.9235
G1 X92.600 Y176.372 E23.1360
G1 X92.600 Y123.028 E26.0103
G1 X95.332 Y120.183 E26.2228
G1 X97.827 Y120.083 E26.3573
G1 X98.166 Y120.041 E26.3757
G1 X98.478 Y119.978 E26.3929
G1 X98.796 Y119.886 E26.4107
G1 X99.104 Y119.769 E26.4285
G1 X99.400 Y119.629 E26.4461
G1 X99.696 Y119.457 E26.4646
G1 X99.958 Y119.276 E26.4817
G1 X100.214 Y119.067 E26.4995
G1 X100.453 Y118.839 E26.5173
G1 X100.670 Y118.594 E26.5349
G1 X100.875 Y118.320 E26.5534
G1 X101.045 Y118.052 E26.5705
G1 X101.199 Y117.758 E26.5884
G1 X101.329 Y117.455 E26.6061
G1 X101.433 Y117.144 E26.6238
G1 X101.515 Y116.812 E26.6422
G1 X101.566 Y116.499 E26.6593
G1 X101.592 Y116.168 E26.6772
G1 X101.593 Y115.840 E26.6949
G1 X101.565 Y115.501 E26.7132
G1 X101.513 Y115.178 E26.7309
G1 X101.433 Y114.858 E26.7486
G1 X101.329 Y114.545 E26.7664
G1 X101.199 Y114.242 E26.7842
G1 X101.045 Y113.948 E26.8020
G1 X100.875 Y113.680 E26.8191
G1 X100.670 Y113.406 E26.8376
G1 X100.453 Y113.161 E26.8552
G1 X100.214 Y112.933 E26.8730
G1 X99.958 Y112.724 E26.8908
G1 X99.696 Y112.543 E26.9080
G1 X99.400 Y112.371 E26.9264
G1 X99.104 Y112.231 E26.9441
G1 X98.796 Y112.114 E26.9618
G1 X98.478 Y112.022 E26.9796
G1 X98.166 Y111.959 E26.9968
G1 X97.827 Y111.917 E27.0152
G1 X95.332 Y111.817 E27.1497
G1 X92.600 Y108.972 E27.3622
G1 X92.600 Y97.970 E27.9550
G92 E0.0000
G1 E-5.0000 F1800
G1 X93.200 Y98.219 F4800
G1 E0.0000 F1800
G92 E0.0000
G1 X95.719 Y95.700 E0.1919 F1800
G1 X118.037 Y95.700 E1.3945
G1 X119.887 Y97.550 E1.5355
G1 X123.113 Y97.550 E1.7092
G1 X124.963 Y95.700 E1.8502
G1 X142.730 Y95.700 E2.8076
G1 X145.226 Y98.097 E2.9940
G1 X145.319 Y100.381 E3.1172
G1 X145.364 Y100.752 E3.1373
G1 X145.440 Y101.122 E3.1577
G1 X145.546 Y101.488 E3.1782
G1 X145.680 Y101.842 E3.1986
G1 X145.842 Y102.184 E3.2190
G1 X146.031 Y102.511 E3.2394
G1 X146.241 Y102.815 E3.2593
G1 X146.487 Y103.117 E3.2802
G1 X146.747 Y103.388 E3.3005
G1 X147.030 Y103.638 E3.3208
G1 X147.333 Y103.866 E3.3412
G1 X147.645 Y104.063 E3.3612
G1 X147.989 Y104.244 E3.3821
G1 X148.335 Y104.391 E3.4023
G1 X148.694 Y104.511 E3.4227
G1 X149.061 Y104.602 E3.4431
G1 X149.426 Y104.661 E3.4630
G1 X149.813 Y104.693 E3.4840
G1 X150.189 Y104.693 E3.5042
G1 X150.564 Y104.662 E3.5245
G1 X150.947 Y104.600 E3.5454
G1 X151.306 Y104.511 E3.5653
G1 X151.665 Y104.391 E3.5857
G1 X152.013 Y104.243 E3.6061
G1 X152.348 Y104.068 E3.6265
G1 X152.667 Y103.865 E3.6468
G1 X152.968 Y103.640 E3.6671
G1 X153.259 Y103.382 E3.6880
G1 X153.515 Y103.115 E3.7079
G1 X153.754 Y102.822 E3.7283
G1 X153.969 Y102.511 E3.7487
G1 X154.158 Y102.183 E3.7691
G1 X154.320 Y101.842 E3.7894
G1 X154.454 Y101.488 E3.8098
G1 X154.560 Y101.122 E3.8304
G1 X154.636 Y100.752 E3.8507
G1 X154.681 Y100.381 E3.8709
G1 X154.774 Y98.097 E3.9941
G1 X157.270 Y95.700 E4.1805
G1 X175.037 Y95.700 E5.1378
G1 X176.887 Y97.550 E5.2788
G1 X180.113 Y97.550 E5.4526
