; G-Code generated by Simplify3D(R) Version 4.1.2
; Apr 12, 2021 at 9:43:47 PM
; Settings Summary
;   processName,Fast CR10S
;   applyToModels,Goal_Cards_Middle
;   profileName,Creality CR-10S Pro (modified)
;   profileVersion,2019-01-15 08:00:00
;   baseProfile,
;   printMaterial,PLA
;   printQuality,Medium
;   printExtruders,
;   extruderName,Primary Extruder
;   extruderToolheadNumber,0
;   extruderDiameter,0.4
;   extruderAutoWidth,0
;   extruderWidth,0.4
;   extrusionMultiplier,0.9
;   extruderUseRetract,1
;   extruderRetractionDistance,5
;   extruderExtraRestartDistance,0
;   extruderRetractionZLift,0
;   extruderRetractionSpeed,1800
;   extruderUseCoasting,0
;   extruderCoastingDistance,0.2
;   extruderUseWipe,0
;   extruderWipeDistance,5
;   primaryExtruder,0
;   layerHeight,0.3
;   topSolidLayers,6
;   bottomSolidLayers,3
;   perimeterOutlines,2
;   printPerimetersInsideOut,1
;   startPointOption,2
;   startPointOriginX,0
;   startPointOriginY,0
;   sequentialIslands,0
;   spiralVaseMode,0
;   firstLayerHeightPercentage,120
;   firstLayerWidthPercentage,150
;   firstLayerUnderspeed,0.5
;   useRaft,0
;   raftExtruder,0
;   raftTopLayers,3
;   raftBaseLayers,2
;   raftOffset,3
;   raftSeparationDistance,0.14
;   raftTopInfill,100
;   aboveRaftSpeedMultiplier,0.3
;   useSkirt,1
;   skirtExtruder,0
;   skirtLayers,1
;   skirtOutlines,2
;   skirtOffset,4
;   usePrimePillar,0
;   primePillarExtruder,999
;   primePillarWidth,12
;   primePillarLocation,7
;   primePillarSpeedMultiplier,1
;   useOozeShield,0
;   oozeShieldExtruder,999
;   oozeShieldOffset,2
;   oozeShieldOutlines,1
;   oozeShieldSidewallShape,1
;   oozeShieldSidewallAngle,30
;   oozeShieldSpeedMultiplier,1
;   infillExtruder,0
;   internalInfillPattern,Rectilinear
;   externalInfillPattern,Rectilinear
;   infillPercentage,10
;   outlineOverlapPercentage,15
;   infillExtrusionWidthPercentage,100
;   minInfillLength,5
;   infillLayerInterval,1
;   internalInfillAngles,45,-45
;   overlapInternalInfillAngles,0
;   externalInfillAngles,45,-45
;   generateSupport,0
;   supportExtruder,0
;   supportInfillPercentage,30
;   supportExtraInflation,0
;   supportBaseLayers,0
;   denseSupportExtruder,0
;   denseSupportLayers,0
;   denseSupportInfillPercentage,70
;   supportLayerInterval,1
;   supportHorizontalPartOffset,0.3
;   supportUpperSeparationLayers,1
;   supportLowerSeparationLayers,1
;   supportType,0
;   supportGridSpacing,4
;   maxOverhangAngle,45
;   supportAngles,0
;   temperatureName,Primary Extruder,Heated Bed
;   temperatureNumber,0,0
;   temperatureSetpointCount,1,1
;   temperatureSetpointLayers,1,1
;   temperatureSetpointTemperatures,210,60
;   temperatureStabilizeAtStartup,1,1
;   temperatureHeatedBed,0,1
;   fanLayers,1,2
;   fanSpeeds,0,100
;   blipFanToFullPower,0
;   adjustSpeedForCooling,1
;   minSpeedLayerTime,15
;   minCoolingSpeedSlowdown,20
;   increaseFanForCooling,0
;   minFanLayerTime,45
;   maxCoolingFanSpeed,100
;   increaseFanForBridging,0
;   bridgingFanSpeed,100
;   use5D,1
;   relativeEdistances,0
;   allowEaxisZeroing,1
;   independentExtruderAxes,0
;   includeM10123,0
;   stickySupport,1
;   applyToolheadOffsets,0
;   gcodeXoffset,0
;   gcodeYoffset,0
;   gcodeZoffset,0
;   overrideMachineDefinition,1
;   machineTypeOverride,0
;   strokeXoverride,300
;   strokeYoverride,300
;   strokeZoverride,400
;   originOffsetXoverride,0
;   originOffsetYoverride,0
;   originOffsetZoverride,0
;   homeXdirOverride,-1
;   homeYdirOverride,-1
;   homeZdirOverride,-1
;   flipXoverride,1
;   flipYoverride,-1
;   flipZoverride,1
;   toolheadOffsets,0,0|0,0|0,0|0,0|0,0|0,0
;   overrideFirmwareConfiguration,1
;   firmwareTypeOverride,RepRap (Marlin/Repetier/Sprinter)
;   GPXconfigOverride,r2
;   baudRateOverride,115200
;   overridePrinterModels,1
;   printerModelsOverride
;   startingGcode,G28 ; home all axes,G29 ; auto-bed level,G1 Z5 F3000 ; lift,G1 X5 Y10 F1500 ; move to prime,G1 Z0.2 F3000 ; get ready to prime,G92 E0 ; reset extrusion distance,G1 Y80 E10 F600 ; prime nozzle,G1 Y100 F5000 ; quick wipe
;   layerChangeGcode,
;   retractionGcode,
;   toolChangeGcode,
;   endingGcode,G28 X0 ; home X axis,M106 S0 ; turn off cooling fan,M104 S0 ; turn off extruder,M140 S0 ; turn off bed,M84 ; disable motors
;   exportFileFormat,gcode
;   celebration,0
;   celebrationSong,Random Song
;   postProcessing,
;   defaultSpeed,5400
;   outlineUnderspeed,0.5
;   solidInfillUnderspeed,0.8
;   supportUnderspeed,0.8
;   rapidXYspeed,4800
;   rapidZspeed,1002
;   minBridgingArea,50
;   bridgingExtraInflation,0
;   bridgingExtrusionMultiplier,1
;   bridgingSpeedMultiplier,1
;   useFixedBridgingAngle,0
;   fixedBridgingAngle,0
;   applyBridgingToPerimeters,0
;   filamentDiameters,1.75|1.75|1.75|1.75|1.75|1.75
;   filamentPricesPerKg,46|46|46|46|46|46
;   filamentDensities,1.25|1.25|1.25|1.25|1.25|1.25
;   useMinPrintHeight,0
;   minPrintHeight,0
;   useMaxPrintHeight,0
;   maxPrintHeight,0
;   useDiaphragm,0
;   diaphragmLayerInterval,20
;   robustSlicing,1
;   mergeAllIntoSolid,0
;   onlyRetractWhenCrossingOutline,1
;   retractBetweenLayers,1
;   useRetractionMinTravel,0
;   retractionMinTravel,3
;   retractWhileWiping,0
;   onlyWipeOutlines,1
;   avoidCrossingOutline,0
;   maxMovementDetourFactor,3
;   toolChangeRetractionDistance,12
;   toolChangeExtraRestartDistance,-0.5
;   toolChangeRetractionSpeed,600
;   externalThinWallType,0
;   internalThinWallType,2
;   thinWallAllowedOverlapPercentage,10
;   singleExtrusionMinLength,1
;   singleExtrusionMinPrintingWidthPercentage,50
;   singleExtrusionMaxPrintingWidthPercentage,200
;   singleExtrusionEndpointExtension,0.2
;   horizontalSizeCompensation,0
G90
M82
M106 S0
M140 S60
M190 S60
M104 S210 T0
M109 S210 T0
G28 ; home all axes
G29 ; auto-bed level
G1 Z5 F3000 ; lift
G1 X5 Y10 F1500 ; move to prime
G1 Z0.2 F3000 ; get ready to prime
G92 E0 ; reset extrusion distance
G1 Y80 E10 F600 ; prime nozzle
G1 Y100 F5000 ; quick wipe
; process Fast CR10S
; layer 1, Z = 0.360
T0
G92 E0.0000
G1 E-5.0000 F1800
; feature skirt
; tool H0.360 W0.600
G1 Z0.360 F1002
G1 X97.594 Y113.689 F4800
G1 E0.0000 F1800
G92 E0.0000
G1 X98.110 Y113.298 E0.0523 F2700
G1 X98.415 Y113.101 E0.0817
G1 X98.980 Y112.794 E0.1336
G1 X99.299 Y112.648 E0.1620
G1 X99.896 Y112.426 E0.2135
G1 X100.233 Y112.328 E0.2418
G1 X100.937 Y112.176 E0.3001
G1 X101.452 Y112.120 E0.3419
G1 X116.783 Y112.097 E1.5810
G1 X119.659 Y114.969 E1.9095
G1 X119.659 Y115.350 E1.9403
G1 X120.341 Y115.350 E1.9954
G1 X120.341 Y114.971 E2.0261
G1 X123.212 Y112.100 E2.3542
G1 X176.788 Y112.100 E6.6844
G1 X179.659 Y114.970 E7.0125
G1 X179.659 Y115.350 E7.0431
G1 X180.341 Y115.350 E7.0983
G1 X180.341 Y114.970 E7.1290
G1 X183.212 Y112.100 E7.4571
G1 X198.182 Y112.100 E8.6670
G1 X198.533 Y112.125 E8.6954
G1 X199.519 Y112.268 E8.7760
G1 X200.024 Y112.397 E8.8181
G1 X200.701 Y112.648 E8.8764
G1 X201.020 Y112.794 E8.9048
G1 X201.580 Y113.099 E8.9563
G1 X201.875 Y113.288 E8.9847
G1 X202.385 Y113.670 E9.0362
G1 X202.650 Y113.899 E9.0645
G1 X203.101 Y114.350 E9.1160
G1 X203.330 Y114.615 E9.1444
G1 X203.712 Y115.125 E9.1959
G1 X203.901 Y115.420 E9.2242
G1 X204.206 Y115.980 E9.2757
G1 X204.352 Y116.299 E9.3041
G1 X204.574 Y116.896 E9.3556
G1 X204.672 Y117.233 E9.3839
G1 X204.806 Y117.854 E9.4352
G1 X204.855 Y118.198 E9.4633
G1 X204.894 Y118.740 E9.5072
G1 X204.900 Y118.913 E9.5213
G1 X204.900 Y136.990 E10.9822
G1 X202.126 Y139.842 E11.3038
G1 X199.434 Y139.918 E11.5215
G1 X198.871 Y139.965 E11.5671
G1 X198.301 Y140.046 E11.6137
G1 X197.754 Y140.155 E11.6588
G1 X197.209 Y140.295 E11.7042
G1 X196.669 Y140.467 E11.7501
G1 X196.139 Y140.669 E11.7959
G1 X195.622 Y140.900 E11.8417
G1 X195.123 Y141.158 E11.8871
G1 X194.606 Y141.464 E11.9356
G1 X194.160 Y141.762 E11.9790
G1 X193.706 Y142.103 E12.0248
G1 X193.273 Y142.468 E12.0706
G1 X192.861 Y142.858 E12.1164
G1 X192.472 Y143.269 E12.1622
G1 X192.110 Y143.698 E12.2076
G1 X191.749 Y144.180 E12.2562
G1 X191.451 Y144.625 E12.2995
G1 X191.163 Y145.114 E12.3454
G1 X190.903 Y145.617 E12.3912
G1 X190.671 Y146.135 E12.4370
G1 X190.469 Y146.664 E12.4828
G1 X190.299 Y147.198 E12.5281
G1 X190.149 Y147.782 E12.5768
G1 X190.045 Y148.308 E12.6202
G1 X189.965 Y148.869 E12.6659
G1 X189.918 Y149.434 E12.7118
G1 X189.902 Y150.000 E12.7575
G1 X189.918 Y150.566 E12.8033
G1 X189.965 Y151.131 E12.8491
G1 X190.045 Y151.692 E12.8949
G1 X190.149 Y152.218 E12.9383
G1 X190.299 Y152.802 E12.9870
G1 X190.469 Y153.336 E13.0323
G1 X190.671 Y153.866 E13.0781
G1 X190.903 Y154.383 E13.1239
G1 X191.163 Y154.886 E13.1697
G1 X191.451 Y155.375 E13.2155
G1 X191.749 Y155.820 E13.2589
G1 X192.110 Y156.302 E13.3075
G1 X192.472 Y156.731 E13.3529
G1 X192.861 Y157.142 E13.3987
G1 X193.273 Y157.531 E13.4445
G1 X193.707 Y157.897 E13.4903
G1 X194.160 Y158.238 E13.5361
G1 X194.606 Y158.536 E13.5795
G1 X195.123 Y158.842 E13.6280
G1 X195.622 Y159.100 E13.6734
G1 X196.139 Y159.331 E13.7192
G1 X196.669 Y159.533 E13.7650
G1 X197.209 Y159.705 E13.8108
G1 X197.754 Y159.845 E13.8563
G1 X198.301 Y159.954 E13.9014
G1 X198.871 Y160.035 E13.9480
G1 X199.434 Y160.082 E13.9936
G1 X202.126 Y160.158 E14.2113
G1 X204.900 Y163.011 E14.5329
G1 X204.900 Y181.182 E16.0015
G1 X204.875 Y181.533 E16.0299
G1 X204.732 Y182.519 E16.1105
G1 X204.603 Y183.024 E16.1526
G1 X204.352 Y183.701 E16.2109
G1 X204.206 Y184.020 E16.2393
G1 X203.901 Y184.580 E16.2908
G1 X203.712 Y184.875 E16.3192
G1 X203.330 Y185.385 E16.3707
G1 X203.101 Y185.650 E16.3990
G1 X202.662 Y186.089 E16.4492
G1 X202.406 Y186.311 E16.4766
G1 X201.890 Y186.702 E16.5289
G1 X201.585 Y186.898 E16.5582
G1 X201.020 Y187.206 E16.6102
G1 X200.701 Y187.352 E16.6386
G1 X200.104 Y187.574 E16.6901
G1 X199.767 Y187.672 E16.7184
G1 X199.146 Y187.806 E16.7697
G1 X198.802 Y187.855 E16.7978
G1 X198.260 Y187.894 E16.8417
G1 X198.087 Y187.900 E16.8557
G1 X183.212 Y187.900 E18.0580
G1 X180.341 Y185.030 E18.3861
G1 X180.341 Y184.650 E18.4167
G1 X179.659 Y184.650 E18.4719
G1 X179.659 Y185.030 E18.5026
G1 X176.788 Y187.900 E18.8307
G1 X123.212 Y187.900 E23.1609
G1 X120.341 Y185.029 E23.4890
G1 X120.341 Y184.650 E23.5196
G1 X119.659 Y184.650 E23.5748
G1 X119.659 Y185.029 E23.6054
G1 X116.789 Y187.900 E23.9335
G1 X101.913 Y187.900 E25.1358
G1 X101.740 Y187.894 E25.1498
G1 X101.193 Y187.855 E25.1941
G1 X100.840 Y187.804 E25.2230
G1 X100.121 Y187.646 E25.2824
G1 X99.627 Y187.480 E25.3246
G1 X98.643 Y187.030 E25.4120
G1 X98.194 Y186.763 E25.4542
G1 X97.615 Y186.330 E25.5126
G1 X97.350 Y186.101 E25.5410
G1 X96.900 Y185.651 E25.5925
G1 X96.671 Y185.386 E25.6207
G1 X96.298 Y184.889 E25.6709
G1 X96.114 Y184.603 E25.6984
G1 X95.801 Y184.035 E25.7508
G1 X95.650 Y183.706 E25.7801
G1 X95.397 Y183.024 E25.8389
G1 X95.268 Y182.519 E25.8810
G1 X95.125 Y181.532 E25.9616
G1 X95.100 Y181.181 E25.9901
G1 X95.120 Y118.457 E31.0596
G1 X95.175 Y117.939 E31.1017
G1 X95.328 Y117.233 E31.1600
G1 X95.426 Y116.896 E31.1884
G1 X95.648 Y116.299 E31.2399
G1 X95.794 Y115.980 E31.2682
G1 X96.099 Y115.420 E31.3197
G1 X96.288 Y115.125 E31.3481
G1 X96.670 Y114.615 E31.3996
G1 X96.899 Y114.350 E31.4279
G1 X97.338 Y113.911 E31.4781
G1 X97.594 Y113.689 E31.5055
G92 E0.0000
G1 E-5.0000 F1800
G1 X97.972 Y114.155 F4800
G1 E0.0000 F1800
G92 E0.0000
G1 X98.454 Y113.790 E0.0488 F2700
G1 X98.722 Y113.618 E0.0746
G1 X99.248 Y113.331 E0.1230
G1 X99.528 Y113.203 E0.1479
G1 X100.085 Y112.996 E0.1959
G1 X100.381 Y112.910 E0.2208
G1 X101.033 Y112.769 E0.2747
G1 X101.485 Y112.720 E0.3115
G1 X116.535 Y112.697 E1.5279
G1 X119.059 Y115.218 E1.8162
G1 X119.059 Y115.950 E1.8754
G1 X120.941 Y115.950 E2.0275
G1 X120.941 Y115.219 E2.0865
G1 X123.460 Y112.700 E2.3745
G1 X176.540 Y112.700 E6.6645
G1 X179.059 Y115.219 E6.9524
G1 X179.059 Y115.950 E7.0115
G1 X180.941 Y115.950 E7.1637
G1 X180.941 Y115.219 E7.2228
G1 X183.460 Y112.700 E7.5107
G1 X198.161 Y112.700 E8.6988
G1 X198.468 Y112.722 E8.7237
G1 X199.402 Y112.857 E8.7999
G1 X199.845 Y112.970 E8.8369
G1 X200.471 Y113.203 E8.8909
G1 X200.752 Y113.331 E8.9158
G1 X201.274 Y113.615 E8.9639
G1 X201.533 Y113.781 E8.9887
G1 X202.008 Y114.137 E9.0367
G1 X202.241 Y114.339 E9.0616
G1 X202.661 Y114.759 E9.1096
G1 X202.863 Y114.992 E9.1345
G1 X203.219 Y115.467 E9.1825
G1 X203.385 Y115.726 E9.2074
G1 X203.669 Y116.248 E9.2554
G1 X203.797 Y116.529 E9.2804
G1 X204.004 Y117.085 E9.3284
G1 X204.090 Y117.381 E9.3532
G1 X204.215 Y117.960 E9.4011
G1 X204.258 Y118.262 E9.4258
G1 X204.295 Y118.772 E9.4671
G1 X204.300 Y118.924 E9.4794
G1 X204.300 Y136.746 E10.9198
G1 X201.866 Y139.249 E11.2020
G1 X199.401 Y139.318 E11.4014
G1 X198.804 Y139.369 E11.4497
G1 X198.200 Y139.454 E11.4990
G1 X197.620 Y139.570 E11.5468
G1 X197.043 Y139.718 E11.5950
G1 X196.471 Y139.901 E11.6435
G1 X195.910 Y140.114 E11.6920
G1 X195.362 Y140.359 E11.7406
G1 X194.832 Y140.633 E11.7888
G1 X194.286 Y140.956 E11.8400
G1 X193.812 Y141.273 E11.8861
G1 X193.332 Y141.634 E11.9346
G1 X192.874 Y142.021 E11.9831
G1 X192.437 Y142.433 E12.0317
G1 X192.025 Y142.869 E12.0802
G1 X191.640 Y143.324 E12.1283
G1 X191.259 Y143.833 E12.1797
G1 X190.943 Y144.306 E12.2257
G1 X190.637 Y144.823 E12.2742
G1 X190.362 Y145.357 E12.3228
G1 X190.117 Y145.905 E12.3713
G1 X189.902 Y146.465 E12.4198
G1 X189.722 Y147.033 E12.4679
G1 X189.564 Y147.649 E12.5193
G1 X189.453 Y148.207 E12.5653
G1 X189.369 Y148.802 E12.6139
G1 X189.319 Y149.400 E12.6624
G1 X189.302 Y150.000 E12.7109
G1 X189.319 Y150.600 E12.7594
G1 X189.369 Y151.198 E12.8079
G1 X189.453 Y151.793 E12.8565
G1 X189.564 Y152.351 E12.9025
G1 X189.722 Y152.967 E12.9539
G1 X189.902 Y153.535 E13.0020
G1 X190.117 Y154.095 E13.0505
G1 X190.362 Y154.643 E13.0990
G1 X190.637 Y155.177 E13.1475
G1 X190.943 Y155.694 E13.1961
G1 X191.259 Y156.167 E13.2421
G1 X191.640 Y156.676 E13.2935
G1 X192.025 Y157.131 E13.3416
G1 X192.437 Y157.567 E13.3901
G1 X192.874 Y157.979 E13.4387
G1 X193.332 Y158.366 E13.4872
G1 X193.812 Y158.727 E13.5357
G1 X194.286 Y159.044 E13.5818
G1 X194.832 Y159.367 E13.6330
G1 X195.362 Y159.641 E13.6812
G1 X195.910 Y159.886 E13.7298
G1 X196.471 Y160.099 E13.7783
G1 X197.043 Y160.282 E13.8268
G1 X197.620 Y160.430 E13.8750
G1 X198.200 Y160.546 E13.9227
G1 X198.804 Y160.631 E13.9721
G1 X199.401 Y160.681 E14.0204
G1 X201.866 Y160.751 E14.2198
G1 X204.300 Y163.254 E14.5020
G1 X204.300 Y181.161 E15.9492
G1 X204.278 Y181.468 E15.9742
G1 X204.143 Y182.402 E16.0504
G1 X204.030 Y182.845 E16.0873
G1 X203.797 Y183.471 E16.1414
G1 X203.669 Y183.752 E16.1663
G1 X203.385 Y184.274 E16.2143
G1 X203.219 Y184.533 E16.2392
G1 X202.863 Y185.008 E16.2872
G1 X202.661 Y185.241 E16.3121
G1 X202.252 Y185.650 E16.3588
G1 X202.028 Y185.845 E16.3829
G1 X201.546 Y186.210 E16.4317
G1 X201.278 Y186.382 E16.4574
G1 X200.752 Y186.669 E16.5059
G1 X200.472 Y186.797 E16.5308
G1 X199.915 Y187.004 E16.5788
G1 X199.619 Y187.090 E16.6037
G1 X199.040 Y187.215 E16.6515
G1 X198.738 Y187.258 E16.6762
G1 X198.228 Y187.295 E16.7175
G1 X198.076 Y187.300 E16.7298
G1 X183.460 Y187.300 E17.9111
G1 X180.941 Y184.781 E18.1990
G1 X180.941 Y184.050 E18.2581
G1 X179.059 Y184.050 E18.4103
G1 X179.059 Y184.781 E18.4694
G1 X176.540 Y187.300 E18.7573
G1 X123.460 Y187.300 E23.0473
G1 X120.941 Y184.781 E23.3352
G1 X120.941 Y184.050 E23.3943
G1 X119.059 Y184.050 E23.5464
G1 X119.059 Y184.780 E23.6055
G1 X116.540 Y187.300 E23.8934
G1 X101.924 Y187.300 E25.0747
G1 X101.772 Y187.295 E25.0870
G1 X101.258 Y187.258 E25.1287
G1 X100.947 Y187.213 E25.1540
G1 X100.281 Y187.067 E25.2091
G1 X99.847 Y186.921 E25.2461
G1 X98.921 Y186.497 E25.3284
G1 X98.528 Y186.264 E25.3654
G1 X97.992 Y185.863 E25.4195
G1 X97.759 Y185.661 E25.4444
G1 X97.339 Y185.241 E25.4924
G1 X97.138 Y185.009 E25.5172
G1 X96.791 Y184.546 E25.5640
G1 X96.629 Y184.295 E25.5881
G1 X96.337 Y183.765 E25.6370
G1 X96.205 Y183.476 E25.6627
G1 X95.970 Y182.845 E25.7172
G1 X95.857 Y182.402 E25.7541
G1 X95.722 Y181.468 E25.8304
G1 X95.700 Y181.160 E25.8554
G1 X95.720 Y118.489 E30.9206
G1 X95.769 Y118.034 E30.9575
G1 X95.910 Y117.381 E31.0115
G1 X95.996 Y117.085 E31.0364
G1 X96.203 Y116.528 E31.0844
G1 X96.331 Y116.248 E31.1093
G1 X96.615 Y115.726 E31.1573
G1 X96.781 Y115.467 E31.1822
