; G-Code generated by Simplify3D(R) Version 4.1.2
; Apr 12, 2021 at 9:44:06 PM
; Settings Summary
;   processName,Fast CR10S
;   applyToModels,Money
;   profileName,Creality CR-10S Pro (modified)
;   profileVersion,2019-01-15 08:00:00
;   baseProfile,
;   printMaterial,PLA
;   printQuality,Medium
;   printExtruders,
;   extruderName,Primary Extruder
;   extruderToolheadNumber,0
;   extruderDiameter,0.4
;   extruderAutoWidth,0
;   extruderWidth,0.4
;   extrusionMultiplier,0.9
;   extruderUseRetract,1
;   extruderRetractionDistance,5
;   extruderExtraRestartDistance,0
;   extruderRetractionZLift,0
;   extruderRetractionSpeed,1800
;   extruderUseCoasting,0
;   extruderCoastingDistance,0.2
;   extruderUseWipe,0
;   extruderWipeDistance,5
;   primaryExtruder,0
;   layerHeight,0.3
;   topSolidLayers,6
;   bottomSolidLayers,3
;   perimeterOutlines,2
;   printPerimetersInsideOut,1
;   startPointOption,2
;   startPointOriginX,0
;   startPointOriginY,0
;   sequentialIslands,0
;   spiralVaseMode,0
;   firstLayerHeightPercentage,120
;   firstLayerWidthPercentage,150
;   firstLayerUnderspeed,0.5
;   useRaft,0
;   raftExtruder,0
;   raftTopLayers,3
;   raftBaseLayers,2
;   raftOffset,3
;   raftSeparationDistance,0.14
;   raftTopInfill,100
;   aboveRaftSpeedMultiplier,0.3
;   useSkirt,1
;   skirtExtruder,0
;   skirtLayers,1
;   skirtOutlines,2
;   skirtOffset,4
;   usePrimePillar,0
;   primePillarExtruder,999
;   primePillarWidth,12
;   primePillarLocation,7
;   primePillarSpeedMultiplier,1
;   useOozeShield,0
;   oozeShieldExtruder,999
;   oozeShieldOffset,2
;   oozeShieldOutlines,1
;   oozeShieldSidewallShape,1
;   oozeShieldSidewallAngle,30
;   oozeShieldSpeedMultiplier,1
;   infillExtruder,0
;   internalInfillPattern,Rectilinear
;   externalInfillPattern,Rectilinear
;   infillPercentage,10
;   outlineOverlapPercentage,15
;   infillExtrusionWidthPercentage,100
;   minInfillLength,5
;   infillLayerInterval,1
;   internalInfillAngles,45,-45
;   overlapInternalInfillAngles,0
;   externalInfillAngles,45,-45
;   generateSupport,0
;   supportExtruder,0
;   supportInfillPercentage,30
;   supportExtraInflation,0
;   supportBaseLayers,0
;   denseSupportExtruder,0
;   denseSupportLayers,0
;   denseSupportInfillPercentage,70
;   supportLayerInterval,1
;   supportHorizontalPartOffset,0.3
;   supportUpperSeparationLayers,1
;   supportLowerSeparationLayers,1
;   supportType,0
;   supportGridSpacing,4
;   maxOverhangAngle,45
;   supportAngles,0
;   temperatureName,Primary Extruder,Heated Bed
;   temperatureNumber,0,0
;   temperatureSetpointCount,1,1
;   temperatureSetpointLayers,1,1
;   temperatureSetpointTemperatures,210,60
;   temperatureStabilizeAtStartup,1,1
;   temperatureHeatedBed,0,1
;   fanLayers,1,2
;   fanSpeeds,0,100
;   blipFanToFullPower,0
;   adjustSpeedForCooling,1
;   minSpeedLayerTime,15
;   minCoolingSpeedSlowdown,20
;   increaseFanForCooling,0
;   minFanLayerTime,45
;   maxCoolingFanSpeed,100
;   increaseFanForBridging,0
;   bridgingFanSpeed,100
;   use5D,1
;   relativeEdistances,0
;   allowEaxisZeroing,1
;   independentExtruderAxes,0
;   includeM10123,0
;   stickySupport,1
;   applyToolheadOffsets,0
;   gcodeXoffset,0
;   gcodeYoffset,0
;   gcodeZoffset,0
;   overrideMachineDefinition,1
;   machineTypeOverride,0
;   strokeXoverride,300
;   strokeYoverride,300
;   strokeZoverride,400
;   originOffsetXoverride,0
;   originOffsetYoverride,0
;   originOffsetZoverride,0
;   homeXdirOverride,-1
;   homeYdirOverride,-1
;   homeZdirOverride,-1
;   flipXoverride,1
;   flipYoverride,-1
;   flipZoverride,1
;   toolheadOffsets,0,0|0,0|0,0|0,0|0,0|0,0
;   overrideFirmwareConfiguration,1
;   firmwareTypeOverride,RepRap (Marlin/Repetier/Sprinter)
;   GPXconfigOverride,r2
;   baudRateOverride,115200
;   overridePrinterModels,1
;   printerModelsOverride
;   startingGcode,G28 ; home all axes,G29 ; auto-bed level,G1 Z5 F3000 ; lift,G1 X5 Y10 F1500 ; move to prime,G1 Z0.2 F3000 ; get ready to prime,G92 E0 ; reset extrusion distance,G1 Y80 E10 F600 ; prime nozzle,G1 Y100 F5000 ; quick wipe
;   layerChangeGcode,
;   retractionGcode,
;   toolChangeGcode,
;   endingGcode,G28 X0 ; home X axis,M106 S0 ; turn off cooling fan,M104 S0 ; turn off extruder,M140 S0 ; turn off bed,M84 ; disable motors
;   exportFileFormat,gcode
;   celebration,0
;   celebrationSong,Random Song
;   postProcessing,
;   defaultSpeed,5400
;   outlineUnderspeed,0.5
;   solidInfillUnderspeed,0.8
;   supportUnderspeed,0.8
;   rapidXYspeed,4800
;   rapidZspeed,1002
;   minBridgingArea,50
;   bridgingExtraInflation,0
;   bridgingExtrusionMultiplier,1
;   bridgingSpeedMultiplier,1
;   useFixedBridgingAngle,0
;   fixedBridgingAngle,0
;   applyBridgingToPerimeters,0
;   filamentDiameters,1.75|1.75|1.75|1.75|1.75|1.75
;   filamentPricesPerKg,46|46|46|46|46|46
;   filamentDensities,1.25|1.25|1.25|1.25|1.25|1.25
;   useMinPrintHeight,0
;   minPrintHeight,0
;   useMaxPrintHeight,0
;   maxPrintHeight,0
;   useDiaphragm,0
;   diaphragmLayerInterval,20
;   robustSlicing,1
;   mergeAllIntoSolid,0
;   onlyRetractWhenCrossingOutline,1
;   retractBetweenLayers,1
;   useRetractionMinTravel,0
;   retractionMinTravel,3
;   retractWhileWiping,0
;   onlyWipeOutlines,1
;   avoidCrossingOutline,0
;   maxMovementDetourFactor,3
;   toolChangeRetractionDistance,12
;   toolChangeExtraRestartDistance,-0.5
;   toolChangeRetractionSpeed,600
;   externalThinWallType,0
;   internalThinWallType,2
;   thinWallAllowedOverlapPercentage,10
;   singleExtrusionMinLength,1
;   singleExtrusionMinPrintingWidthPercentage,50
;   singleExtrusionMaxPrintingWidthPercentage,200
;   singleExtrusionEndpointExtension,0.2
;   horizontalSizeCompensation,0
G90
M82
M106 S0
M140 S60
M190 S60
M104 S210 T0
M109 S210 T0
G28 ; home all axes
G29 ; auto-bed level
G1 Z5 F3000 ; lift
G1 X5 Y10 F1500 ; move to prime
G1 Z0.2 F3000 ; get ready to prime
G92 E0 ; reset extrusion distance
G1 Y80 E10 F600 ; prime nozzle
G1 Y100 F5000 ; quick wipe
; process Fast CR10S
; layer 1, Z = 0.360
T0
G92 E0.0000
G1 E-5.0000 F1800
; feature skirt
; tool H0.360 W0.600
G1 Z0.360 F1002
G1 X71.232 Y96.574 F4800
G1 E0.0000 F1800
G92 E0.0000
G1 X71.859 Y96.135 E0.0618 F2700
G1 X72.224 Y95.924 E0.0959
G1 X72.925 Y95.595 E0.1585
G1 X73.326 Y95.448 E0.1931
G1 X74.077 Y95.245 E0.2559
G1 X74.499 Y95.170 E0.2906
G1 X75.173 Y95.110 E0.3453
G1 X75.391 Y95.100 E0.3629
G1 X224.609 Y95.100 E12.4230
G1 X224.827 Y95.110 E12.4406
G1 X225.501 Y95.170 E12.4953
G1 X225.923 Y95.245 E12.5300
G1 X226.674 Y95.448 E12.5928
G1 X227.075 Y95.595 E12.6274
G1 X227.776 Y95.924 E12.6899
G1 X228.141 Y96.135 E12.7240
G1 X228.766 Y96.572 E12.7856
G1 X229.089 Y96.844 E12.8198
G1 X229.640 Y97.391 E12.8825
G1 X229.919 Y97.723 E12.9175
G1 X230.371 Y98.369 E12.9812
G1 X230.585 Y98.739 E13.0158
G1 X230.908 Y99.432 E13.0777
G1 X231.053 Y99.829 E13.1118
G1 X231.255 Y100.577 E13.1744
G1 X231.330 Y100.999 E13.2091
G1 X231.390 Y101.673 E13.2638
G1 X231.400 Y101.891 E13.2814
G1 X231.400 Y198.109 E21.0579
G1 X231.390 Y198.327 E21.0755
G1 X231.330 Y199.001 E21.1302
G1 X231.255 Y199.423 E21.1649
G1 X231.053 Y200.171 E21.2275
G1 X230.908 Y200.568 E21.2616
G1 X230.585 Y201.261 E21.3234
G1 X230.371 Y201.631 E21.3580
G1 X229.919 Y202.277 E21.4217
G1 X229.640 Y202.609 E21.4568
G1 X229.089 Y203.156 E21.5195
G1 X228.766 Y203.428 E21.5536
G1 X228.139 Y203.866 E21.6155
G1 X227.769 Y204.080 E21.6500
G1 X227.054 Y204.413 E21.7137
G1 X226.647 Y204.561 E21.7488
G1 X225.896 Y204.760 E21.8116
G1 X225.478 Y204.833 E21.8458
G1 X224.819 Y204.891 E21.8993
G1 X224.606 Y204.900 E21.9165
G1 X75.391 Y204.900 E33.9764
G1 X75.173 Y204.890 E33.9940
G1 X74.499 Y204.830 E34.0487
G1 X74.077 Y204.755 E34.0834
G1 X73.327 Y204.552 E34.1462
G1 X72.925 Y204.405 E34.1808
G1 X72.224 Y204.076 E34.2433
G1 X71.859 Y203.865 E34.2775
G1 X71.234 Y203.428 E34.3391
G1 X70.911 Y203.156 E34.3732
G1 X70.362 Y202.611 E34.4357
G1 X70.086 Y202.283 E34.4703
G1 X69.640 Y201.648 E34.5331
G1 X69.425 Y201.278 E34.5677
G1 X69.095 Y200.575 E34.6304
G1 X68.948 Y200.174 E34.6650
G1 X68.745 Y199.423 E34.7278
G1 X68.670 Y199.001 E34.7625
G1 X68.610 Y198.327 E34.8172
G1 X68.600 Y198.109 E34.8348
G1 X68.600 Y101.888 E42.6116
G1 X68.610 Y101.670 E42.6292
G1 X68.670 Y101.001 E42.6835
G1 X68.744 Y100.584 E42.7177
G1 X68.941 Y99.848 E42.7793
G1 X69.085 Y99.451 E42.8135
G1 X69.410 Y98.749 E42.8760
G1 X69.623 Y98.378 E42.9106
G1 X70.069 Y97.739 E42.9736
G1 X70.347 Y97.406 E43.0086
G1 X70.904 Y96.849 E43.0723
G1 X71.232 Y96.574 E43.1069
G92 E0.0000
G1 E-5.0000 F1800
G1 X71.598 Y97.050 F4800
G1 E0.0000 F1800
G92 E0.0000
G1 X72.182 Y96.642 E0.0576 F2700
G1 X72.502 Y96.456 E0.0876
G1 X73.156 Y96.150 E0.1459
G1 X73.508 Y96.020 E0.1762
G1 X74.208 Y95.831 E0.2348
G1 X74.579 Y95.765 E0.2653
G1 X75.213 Y95.709 E0.3167
G1 X75.404 Y95.700 E0.3322
G1 X224.596 Y95.700 E12.3901
G1 X224.787 Y95.709 E12.4056
G1 X225.421 Y95.765 E12.4571
G1 X225.792 Y95.831 E12.4875
G1 X226.492 Y96.020 E12.5461
G1 X226.844 Y96.150 E12.5765
G1 X227.498 Y96.456 E12.6348
G1 X227.818 Y96.642 E12.6647
G1 X228.400 Y97.049 E12.7221
G1 X228.684 Y97.287 E12.7521
G1 X229.198 Y97.798 E12.8106
G1 X229.442 Y98.089 E12.8414
G1 X229.864 Y98.691 E12.9008
G1 X230.052 Y99.017 E12.9312
G1 X230.353 Y99.663 E12.9888
G1 X230.480 Y100.011 E13.0187
G1 X230.669 Y100.708 E13.0771
G1 X230.735 Y101.079 E13.1075
G1 X230.792 Y101.713 E13.1590
G1 X230.800 Y101.904 E13.1745
G1 X230.800 Y198.096 E20.9489
G1 X230.792 Y198.287 E20.9643
G1 X230.735 Y198.921 E21.0158
G1 X230.669 Y199.292 E21.0463
G1 X230.480 Y199.989 E21.1046
G1 X230.353 Y200.337 E21.1346
G1 X230.052 Y200.983 E21.1922
G1 X229.864 Y201.309 E21.2225
G1 X229.442 Y201.911 E21.2820
G1 X229.197 Y202.202 E21.3127
G1 X228.684 Y202.713 E21.3712
G1 X228.400 Y202.951 E21.4012
G1 X227.816 Y203.360 E21.4588
G1 X227.491 Y203.547 E21.4891
G1 X226.825 Y203.858 E21.5486
G1 X226.467 Y203.988 E21.5793
G1 X225.767 Y204.174 E21.6379
G1 X225.400 Y204.238 E21.6679
G1 X224.780 Y204.292 E21.7183
G1 X224.593 Y204.300 E21.7334
G1 X75.404 Y204.300 E33.7911
G1 X75.213 Y204.291 E33.8066
G1 X74.579 Y204.235 E33.8581
G1 X74.208 Y204.169 E33.8885
G1 X73.508 Y203.980 E33.9471
G1 X73.156 Y203.850 E33.9775
G1 X72.502 Y203.544 E34.0358
G1 X72.182 Y203.358 E34.0657
G1 X71.600 Y202.951 E34.1232
G1 X71.316 Y202.713 E34.1531
G1 X70.804 Y202.204 E34.2114
G1 X70.562 Y201.917 E34.2418
G1 X70.145 Y201.324 E34.3003
G1 X69.957 Y201.000 E34.3306
G1 X69.650 Y200.344 E34.3892
G1 X69.520 Y199.992 E34.4195
G1 X69.331 Y199.292 E34.4781
G1 X69.265 Y198.921 E34.5085
G1 X69.209 Y198.287 E34.5600
G1 X69.200 Y198.096 E34.5755
G1 X69.200 Y101.902 E42.3501
G1 X69.209 Y101.710 E42.3656
G1 X69.265 Y101.080 E42.4167
G1 X69.330 Y100.715 E42.4467
G1 X69.514 Y100.028 E42.5041
G1 X69.640 Y99.680 E42.5341
G1 X69.944 Y99.025 E42.5924
G1 X70.131 Y98.700 E42.6228
G1 X70.546 Y98.104 E42.6815
G1 X70.790 Y97.812 E42.7122
G1 X71.310 Y97.292 E42.7717
G1 X71.598 Y97.050 E42.8020
G92 E0.0000
G1 E-5.0000 F1800
; feature inner perimeter
G1 X74.799 Y101.157 F4800
G1 E0.0000 F1800
G92 E0.0000
G1 X74.949 Y101.052 E0.0148 F2025
G1 X75.123 Y100.971 E0.0303
G1 X75.307 Y100.921 E0.0458
G1 X75.540 Y100.900 E0.0647
G1 X224.460 Y100.900 E12.1007
G1 X224.693 Y100.921 E12.1196
G1 X224.877 Y100.971 E12.1350
G1 X225.051 Y101.052 E12.1506
G1 X225.202 Y101.158 E12.1655
G1 X225.338 Y101.293 E12.1809
G1 X225.452 Y101.456 E12.1970
G1 X225.529 Y101.622 E12.2118
G1 X225.579 Y101.807 E12.2273
G1 X225.600 Y102.040 E12.2462
G1 X225.600 Y197.960 E19.9987
G1 X225.579 Y198.193 E20.0176
G1 X225.529 Y198.378 E20.0331
G1 X225.452 Y198.544 E20.0479
G1 X225.338 Y198.707 E20.0640
G1 X225.202 Y198.842 E20.0794
G1 X225.052 Y198.947 E20.0942
G1 X224.872 Y199.031 E20.1103
G1 X224.687 Y199.080 E20.1257
G1 X224.461 Y199.100 E20.1441
G1 X75.540 Y199.100 E32.1802
G1 X75.307 Y199.079 E32.1991
G1 X75.123 Y199.029 E32.2145
G1 X74.949 Y198.948 E32.2301
G1 X74.798 Y198.842 E32.2450
G1 X74.662 Y198.707 E32.2605
G1 X74.552 Y198.550 E32.2759
G1 X74.471 Y198.377 E32.2914
G1 X74.421 Y198.193 E32.3068
G1 X74.400 Y197.960 E32.3257
G1 X74.400 Y102.038 E40.0783
G1 X74.421 Y101.806 E40.0972
G1 X74.468 Y101.628 E40.1120
G1 X74.549 Y101.454 E40.1276
G1 X74.658 Y101.298 E40.1429
G1 X74.799 Y101.157 E40.1590
; feature outer perimeter
G1 X74.412 Y100.696 F4800
G92 E0.0000
G1 X74.647 Y100.531 E0.0232 F1350
G1 X74.915 Y100.405 E0.0472
G1 X75.201 Y100.328 E0.0711
G1 X75.513 Y100.300 E0.0965
G1 X224.487 Y100.300 E12.1368
G1 X224.799 Y100.328 E12.1621
G1 X225.085 Y100.405 E12.1860
G1 X225.353 Y100.531 E12.2100
G1 X225.589 Y100.696 E12.2333
G1 X225.799 Y100.905 E12.2572
G1 X225.973 Y101.155 E12.2818
G1 X226.095 Y101.415 E12.3051
G1 X226.172 Y101.701 E12.3290
G1 X226.200 Y102.013 E12.3543
G1 X226.200 Y197.987 E20.1111
G1 X226.172 Y198.299 E20.1364
G1 X226.095 Y198.585 E20.1604
G1 X225.973 Y198.845 E20.1836
G1 X225.799 Y199.095 E20.2083
G1 X225.589 Y199.304 E20.2322
G1 X225.353 Y199.469 E20.2554
G1 X225.077 Y199.598 E20.2800
G1 X224.791 Y199.674 E20.3040
G1 X224.487 Y199.700 E20.3286
G1 X75.513 Y199.700 E32.3690
G1 X75.201 Y199.672 E32.3943
G1 X74.915 Y199.595 E32.4182
G1 X74.647 Y199.469 E32.4422
G1 X74.411 Y199.304 E32.4655
G1 X74.201 Y199.095 E32.4894
G1 X74.031 Y198.853 E32.5134
G1 X73.905 Y198.585 E32.5373
G1 X73.828 Y198.299 E32.5612
G1 X73.800 Y197.987 E32.5865
G1 X73.800 Y102.011 E40.3435
G1 X73.828 Y101.701 E40.3687
G1 X73.902 Y101.423 E40.3919
G1 X74.027 Y101.154 E40.4159
G1 X74.196 Y100.911 E40.4398
G1 X74.412 Y100.696 E40.4644
; feature solid layer
G1 X75.553 Y198.589 F4800
G92 E0.0000
G1 X74.911 Y197.947 E0.0733 F2160
G1 X74.910 Y197.937 E0.0742
G1 X74.910 Y197.098 E0.1420
G1 X76.402 Y198.590 E0.3125
G1 X77.250 Y198.590 E0.3811
G1 X74.910 Y196.250 E0.6486
G1 X74.910 Y195.401 E0.7172
G1 X78.099 Y198.590 E1.0817
G1 X78.948 Y198.590 E1.1503
G1 X74.910 Y194.552 E1.6118
G1 X74.910 Y193.704 E1.6804
G1 X79.796 Y198.590 E2.2388
G1 X80.645 Y198.590 E2.3074
G1 X74.910 Y192.855 E2.9629
G1 X74.910 Y192.007 E3.0315
G1 X81.493 Y198.590 E3.7839
G1 X82.342 Y198.590 E3.8525
G1 X74.910 Y191.158 E4.7019
G1 X74.910 Y190.310 E4.7705
G1 X83.190 Y198.590 E5.7169
G1 X84.039 Y198.590 E5.7855
G1 X74.910 Y189.461 E6.8289
G1 X74.910 Y188.613 E6.8975
G1 X84.887 Y198.590 E8.0379
G1 X85.736 Y198.590 E8.1065
G1 X74.910 Y187.764 E9.3438
G1 X74.910 Y186.916 E9.4124
G1 X86.584 Y198.590 E10.7468
G1 X87.433 Y198.590 E10.8154
G1 X74.910 Y186.067 E12.2467
G1 X74.910 Y185.219 E12.3153
G1 X88.281 Y198.590 E13.8436
G1 X89.130 Y198.590 E13.9122
G1 X74.910 Y184.370 E15.5376
G1 X74.910 Y183.522 E15.6061
G1 X89.978 Y198.590 E17.3285
G1 X90.827 Y198.590 E17.3970
G1 X74.910 Y182.673 E19.2163
G1 X74.910 Y181.825 E19.2849
G1 X91.675 Y198.590 E21.2012
G1 X92.524 Y198.590 E21.2698
G1 X74.910 Y180.976 E23.2831
G1 X74.910 Y180.127 E23.3516
G1 X93.373 Y198.590 E25.4619
G1 X94.221 Y198.590 E25.5305
G1 X74.910 Y179.279 E27.7377
G1 X74.910 Y178.430 E27.8063
G1 X95.070 Y198.590 E30.1105
G1 X95.918 Y198.590 E30.1791
G1 X74.910 Y177.582 E32.5803
G1 X74.910 Y176.733 E32.6489
G1 X96.767 Y198.590 E35.1471
G1 X97.615 Y198.590 E35.2157
G1 X74.910 Y175.885 E37.8109
G1 X74.910 Y175.036 E37.8795
G1 X98.464 Y198.590 E40.5716
G1 X99.312 Y198.590 E40.6402
G1 X74.910 Y174.188 E43.4294
G1 X74.910 Y173.339 E43.4980
G1 X100.161 Y198.590 E46.3841
G1 X101.009 Y198.590 E46.4527
G1 X74.910 Y172.491 E49.4358
G1 X74.910 Y171.642 E49.5044
G1 X101.858 Y198.590 E52.5845
G1 X102.706 Y198.590 E52.6531
G1 X74.910 Y170.794 E55.8302
G1 X74.910 Y169.945 E55.8988
G1 X103.555 Y198.590 E59.1729
G1 X104.403 Y198.590 E59.2415
G1 X74.910 Y169.097 E62.6126
G1 X74.910 Y168.248 E62.6812
G1 X105.252 Y198.590 E66.1492
G1 X106.100 Y198.590 E66.2178
G1 X74.910 Y167.400 E69.7829
G1 X74.910 Y166.551 E69.8514
G1 X106.949 Y198.590 E73.5135
G1 X107.798 Y198.590 E73.5821
G1 X74.910 Y165.703 E77.3411
G1 X74.910 Y164.854 E77.4097
G1 X108.646 Y198.590 E81.2657
G1 X109.495 Y198.590 E81.3343
G1 X74.910 Y164.005 E85.2873
G1 X74.910 Y163.157 E85.3559
G1 X110.343 Y198.590 E89.4058
G1 X111.192 Y198.590 E89.4744
G1 X74.910 Y162.308 E93.6214
G1 X74.910 Y161.460 E93.6900
G1 X112.040 Y198.590 E97.9339
