; G-Code generated by Simplify3D(R) Version 4.1.2
; Apr 9, 2021 at 8:16:01 PM
; Settings Summary
;   processName,Fast CR10S
;   applyToModels,Player_Tray
;   profileName,Creality CR-10S Pro
;   profileVersion,2019-01-15 08:00:00
;   baseProfile,
;   printMaterial,PLA
;   printQuality,Medium
;   printExtruders,
;   extruderName,Primary Extruder
;   extruderToolheadNumber,0
;   extruderDiameter,0.4
;   extruderAutoWidth,0
;   extruderWidth,0.4
;   extrusionMultiplier,0.9
;   extruderUseRetract,1
;   extruderRetractionDistance,5
;   extruderExtraRestartDistance,0
;   extruderRetractionZLift,0
;   extruderRetractionSpeed,1800
;   extruderUseCoasting,0
;   extruderCoastingDistance,0.2
;   extruderUseWipe,0
;   extruderWipeDistance,5
;   primaryExtruder,0
;   layerHeight,0.3
;   topSolidLayers,3
;   bottomSolidLayers,3
;   perimeterOutlines,2
;   printPerimetersInsideOut,1
;   startPointOption,2
;   startPointOriginX,0
;   startPointOriginY,0
;   sequentialIslands,0
;   spiralVaseMode,0
;   firstLayerHeightPercentage,120
;   firstLayerWidthPercentage,150
;   firstLayerUnderspeed,0.5
;   useRaft,0
;   raftExtruder,0
;   raftTopLayers,3
;   raftBaseLayers,2
;   raftOffset,3
;   raftSeparationDistance,0.14
;   raftTopInfill,100
;   aboveRaftSpeedMultiplier,0.3
;   useSkirt,1
;   skirtExtruder,0
;   skirtLayers,1
;   skirtOutlines,2
;   skirtOffset,4
;   usePrimePillar,0
;   primePillarExtruder,999
;   primePillarWidth,12
;   primePillarLocation,7
;   primePillarSpeedMultiplier,1
;   useOozeShield,0
;   oozeShieldExtruder,999
;   oozeShieldOffset,2
;   oozeShieldOutlines,1
;   oozeShieldSidewallShape,1
;   oozeShieldSidewallAngle,30
;   oozeShieldSpeedMultiplier,1
;   infillExtruder,0
;   internalInfillPattern,Rectilinear
;   externalInfillPattern,Rectilinear
;   infillPercentage,10
;   outlineOverlapPercentage,15
;   infillExtrusionWidthPercentage,100
;   minInfillLength,5
;   infillLayerInterval,1
;   internalInfillAngles,45,-45
;   overlapInternalInfillAngles,0
;   externalInfillAngles,45,-45
;   generateSupport,0
;   supportExtruder,0
;   supportInfillPercentage,30
;   supportExtraInflation,0
;   supportBaseLayers,0
;   denseSupportExtruder,0
;   denseSupportLayers,0
;   denseSupportInfillPercentage,70
;   supportLayerInterval,1
;   supportHorizontalPartOffset,0.3
;   supportUpperSeparationLayers,1
;   supportLowerSeparationLayers,1
;   supportType,0
;   supportGridSpacing,4
;   maxOverhangAngle,45
;   supportAngles,0
;   temperatureName,Primary Extruder,Heated Bed
;   temperatureNumber,0,0
;   temperatureSetpointCount,1,1
;   temperatureSetpointLayers,1,1
;   temperatureSetpointTemperatures,210,60
;   temperatureStabilizeAtStartup,1,1
;   temperatureHeatedBed,0,1
;   fanLayers,1,2
;   fanSpeeds,0,100
;   blipFanToFullPower,0
;   adjustSpeedForCooling,1
;   minSpeedLayerTime,15
;   minCoolingSpeedSlowdown,20
;   increaseFanForCooling,0
;   minFanLayerTime,45
;   maxCoolingFanSpeed,100
;   increaseFanForBridging,0
;   bridgingFanSpeed,100
;   use5D,1
;   relativeEdistances,0
;   allowEaxisZeroing,1
;   independentExtruderAxes,0
;   includeM10123,0
;   stickySupport,1
;   applyToolheadOffsets,0
;   gcodeXoffset,0
;   gcodeYoffset,0
;   gcodeZoffset,0
;   overrideMachineDefinition,1
;   machineTypeOverride,0
;   strokeXoverride,300
;   strokeYoverride,300
;   strokeZoverride,400
;   originOffsetXoverride,0
;   originOffsetYoverride,0
;   originOffsetZoverride,0
;   homeXdirOverride,-1
;   homeYdirOverride,-1
;   homeZdirOverride,-1
;   flipXoverride,1
;   flipYoverride,-1
;   flipZoverride,1
;   toolheadOffsets,0,0|0,0|0,0|0,0|0,0|0,0
;   overrideFirmwareConfiguration,1
;   firmwareTypeOverride,RepRap (Marlin/Repetier/Sprinter)
;   GPXconfigOverride,r2
;   baudRateOverride,115200
;   overridePrinterModels,1
;   printerModelsOverride
;   startingGcode,G28 ; home all axes,G29 ; auto-bed level,G1 Z5 F3000 ; lift,G1 X5 Y10 F1500 ; move to prime,G1 Z0.2 F3000 ; get ready to prime,G92 E0 ; reset extrusion distance,G1 Y80 E10 F600 ; prime nozzle,G1 Y100 F5000 ; quick wipe
;   layerChangeGcode,
;   retractionGcode,
;   toolChangeGcode,
;   endingGcode,G28 X0 ; home X axis,M106 S0 ; turn off cooling fan,M104 S0 ; turn off extruder,M140 S0 ; turn off bed,M84 ; disable motors
;   exportFileFormat,gcode
;   celebration,0
;   celebrationSong,Random Song
;   postProcessing,
;   defaultSpeed,5400
;   outlineUnderspeed,0.5
;   solidInfillUnderspeed,0.8
;   supportUnderspeed,0.8
;   rapidXYspeed,4800
;   rapidZspeed,1002
;   minBridgingArea,50
;   bridgingExtraInflation,0
;   bridgingExtrusionMultiplier,1
;   bridgingSpeedMultiplier,1
;   useFixedBridgingAngle,0
;   fixedBridgingAngle,0
;   applyBridgingToPerimeters,0
;   filamentDiameters,1.75|1.75|1.75|1.75|1.75|1.75
;   filamentPricesPerKg,46|46|46|46|46|46
;   filamentDensities,1.25|1.25|1.25|1.25|1.25|1.25
;   useMinPrintHeight,0
;   minPrintHeight,0
;   useMaxPrintHeight,0
;   maxPrintHeight,0
;   useDiaphragm,0
;   diaphragmLayerInterval,20
;   robustSlicing,1
;   mergeAllIntoSolid,0
;   onlyRetractWhenCrossingOutline,1
;   retractBetweenLayers,1
;   useRetractionMinTravel,0
;   retractionMinTravel,3
;   retractWhileWiping,0
;   onlyWipeOutlines,1
;   avoidCrossingOutline,0
;   maxMovementDetourFactor,3
;   toolChangeRetractionDistance,12
;   toolChangeExtraRestartDistance,-0.5
;   toolChangeRetractionSpeed,600
;   externalThinWallType,0
;   internalThinWallType,2
;   thinWallAllowedOverlapPercentage,10
;   singleExtrusionMinLength,1
;   singleExtrusionMinPrintingWidthPercentage,50
;   singleExtrusionMaxPrintingWidthPercentage,200
;   singleExtrusionEndpointExtension,0.2
;   horizontalSizeCompensation,0
G90
M82
M106 S0
M140 S60
M190 S60
M104 S210 T0
M109 S210 T0
G28 ; home all axes
G29 ; auto-bed level
G1 Z5 F3000 ; lift
G1 X5 Y10 F1500 ; move to prime
G1 Z0.2 F3000 ; get ready to prime
G92 E0 ; reset extrusion distance
G1 Y80 E10 F600 ; prime nozzle
G1 Y100 F5000 ; quick wipe
; process Fast CR10S
; layer 1, Z = 0.360
T0
G92 E0.0000
G1 E-5.0000 F1800
; feature skirt
; tool H0.360 W0.600
G1 Z0.360 F1002
G1 X69.253 Y110.389 F4800
G1 E0.0000 F1800
G92 E0.0000
G1 X69.623 Y110.174 E0.0346 F2700
G1 X70.326 Y109.845 E0.0973
G1 X70.727 Y109.698 E0.1319
G1 X71.478 Y109.495 E0.1947
G1 X71.900 Y109.420 E0.2294
G1 X72.574 Y109.360 E0.2841
G1 X72.791 Y109.350 E0.3017
G1 X227.209 Y109.350 E12.7820
G1 X227.426 Y109.360 E12.7996
G1 X228.100 Y109.420 E12.8543
G1 X228.522 Y109.495 E12.8889
G1 X229.270 Y109.697 E12.9515
G1 X229.667 Y109.842 E12.9857
G1 X230.359 Y110.164 E13.0474
G1 X230.725 Y110.375 E13.0815
G1 X231.360 Y110.818 E13.1441
G1 X231.688 Y111.092 E13.1787
G1 X232.238 Y111.640 E13.2414
G1 X232.514 Y111.967 E13.2760
G1 X232.962 Y112.604 E13.3390
G1 X233.179 Y112.979 E13.3740
G1 X233.512 Y113.693 E13.4376
G1 X233.658 Y114.095 E13.4722
G1 X233.856 Y114.835 E13.5341
G1 X233.930 Y115.251 E13.5682
G1 X233.990 Y115.917 E13.6223
G1 X234.000 Y116.136 E13.6400
G1 X234.000 Y183.856 E19.1133
G1 X233.991 Y184.069 E19.1305
G1 X233.933 Y184.729 E19.1841
G1 X233.860 Y185.146 E19.2183
G1 X233.661 Y185.897 E19.2811
G1 X233.513 Y186.305 E19.3161
G1 X233.179 Y187.021 E19.3800
G1 X232.962 Y187.395 E19.4150
G1 X232.514 Y188.033 E19.4779
G1 X232.238 Y188.360 E19.5125
G1 X231.688 Y188.908 E19.5753
G1 X231.360 Y189.182 E19.6099
G1 X230.725 Y189.625 E19.6724
G1 X230.359 Y189.836 E19.7066
G1 X229.667 Y190.158 E19.7682
G1 X229.270 Y190.303 E19.8024
G1 X228.522 Y190.505 E19.8650
G1 X228.100 Y190.580 E19.8997
G1 X227.426 Y190.640 E19.9543
G1 X227.209 Y190.650 E19.9719
G1 X72.794 Y190.650 E32.4521
G1 X72.581 Y190.641 E32.4693
G1 X71.921 Y190.583 E32.5228
G1 X71.504 Y190.510 E32.5571
G1 X70.753 Y190.311 E32.6199
G1 X70.345 Y190.163 E32.6549
G1 X69.632 Y189.830 E32.7186
G1 X69.261 Y189.616 E32.7531
G1 X68.634 Y189.177 E32.8150
G1 X68.310 Y188.906 E32.8492
G1 X67.762 Y188.360 E32.9117
G1 X67.486 Y188.033 E32.9463
G1 X67.039 Y187.397 E33.0091
G1 X66.824 Y187.027 E33.0436
G1 X66.495 Y186.324 E33.1064
G1 X66.348 Y185.922 E33.1410
G1 X66.145 Y185.172 E33.2038
G1 X66.070 Y184.750 E33.2385
G1 X66.010 Y184.076 E33.2931
G1 X66.000 Y183.859 E33.3107
G1 X66.000 Y116.144 E38.7836
G1 X66.009 Y115.931 E38.8008
G1 X66.067 Y115.271 E38.8543
G1 X66.140 Y114.854 E38.8886
G1 X66.339 Y114.102 E38.9514
G1 X66.487 Y113.695 E38.9864
G1 X66.820 Y112.982 E39.0501
G1 X67.034 Y112.611 E39.0846
G1 X67.473 Y111.984 E39.1465
G1 X67.744 Y111.660 E39.1807
G1 X68.290 Y111.112 E39.2432
G1 X68.617 Y110.836 E39.2778
G1 X69.253 Y110.389 E39.3406
G92 E0.0000
G1 E-5.0000 F1800
G1 X69.576 Y110.895 F4800
G1 E0.0000 F1800
G92 E0.0000
G1 X69.901 Y110.707 E0.0303 F2700
G1 X70.557 Y110.399 E0.0889
G1 X70.909 Y110.270 E0.1192
G1 X71.609 Y110.081 E0.1778
G1 X71.980 Y110.015 E0.2082
G1 X72.614 Y109.958 E0.2597
G1 X72.805 Y109.950 E0.2751
G1 X227.195 Y109.950 E12.7533
G1 X227.386 Y109.958 E12.7688
G1 X228.020 Y110.015 E12.8202
G1 X228.391 Y110.081 E12.8506
G1 X229.089 Y110.269 E12.9090
G1 X229.437 Y110.397 E12.9390
G1 X230.082 Y110.697 E12.9965
G1 X230.403 Y110.882 E13.0265
G1 X230.995 Y111.295 E13.0848
G1 X231.283 Y111.536 E13.1152
G1 X231.796 Y112.047 E13.1737
G1 X232.038 Y112.334 E13.2040
G1 X232.456 Y112.928 E13.2627
G1 X232.647 Y113.257 E13.2934
G1 X232.957 Y113.923 E13.3528
G1 X233.086 Y114.276 E13.3832
G1 X233.270 Y114.965 E13.4408
G1 X233.335 Y115.330 E13.4708
G1 X233.391 Y115.958 E13.5217
G1 X233.400 Y116.150 E13.5373
G1 X233.400 Y183.843 E19.0084
G1 X233.392 Y184.030 E19.0235
G1 X233.338 Y184.651 E19.0739
G1 X233.274 Y185.017 E19.1040
G1 X233.088 Y185.718 E19.1625
G1 X232.958 Y186.075 E19.1933
G1 X232.647 Y186.743 E19.2528
G1 X232.456 Y187.072 E19.2835
G1 X232.038 Y187.666 E19.3422
G1 X231.796 Y187.953 E19.3726
G1 X231.283 Y188.464 E19.4311
G1 X230.995 Y188.705 E19.4614
G1 X230.403 Y189.118 E19.5198
G1 X230.082 Y189.303 E19.5498
G1 X229.437 Y189.603 E19.6073
G1 X229.088 Y189.731 E19.6373
G1 X228.391 Y189.919 E19.6956
G1 X228.020 Y189.985 E19.7261
G1 X227.386 Y190.042 E19.7775
G1 X227.196 Y190.050 E19.7930
G1 X72.807 Y190.050 E32.2710
G1 X72.620 Y190.042 E32.2861
G1 X71.999 Y189.988 E32.3365
G1 X71.633 Y189.924 E32.3665
G1 X70.932 Y189.738 E32.4251
G1 X70.575 Y189.608 E32.4558
G1 X69.909 Y189.298 E32.5152
G1 X69.584 Y189.110 E32.5456
G1 X68.999 Y188.701 E32.6032
G1 X68.715 Y188.462 E32.6332
G1 X68.204 Y187.953 E32.6915
G1 X67.962 Y187.666 E32.7219
G1 X67.545 Y187.074 E32.7804
G1 X67.357 Y186.749 E32.8108
G1 X67.049 Y186.093 E32.8693
G1 X66.920 Y185.741 E32.8996
G1 X66.731 Y185.041 E32.9582
G1 X66.665 Y184.670 E32.9886
G1 X66.608 Y184.036 E33.0401
G1 X66.600 Y183.845 E33.0555
G1 X66.600 Y116.157 E38.5263
G1 X66.608 Y115.970 E38.5413
G1 X66.662 Y115.349 E38.5918
G1 X66.726 Y114.983 E38.6218
G1 X66.912 Y114.282 E38.6804
G1 X67.042 Y113.925 E38.7111
G1 X67.352 Y113.259 E38.7705
G1 X67.540 Y112.934 E38.8008
G1 X67.949 Y112.349 E38.8585
G1 X68.187 Y112.065 E38.8885
G1 X68.697 Y111.554 E38.9468
G1 X68.984 Y111.311 E38.9772
G1 X69.576 Y110.895 E39.0357
G92 E0.0000
G1 E-5.0000 F1800
; feature inner perimeter
G1 X72.350 Y115.302 F4800
G1 E0.0000 F1800
G92 E0.0000
G1 X72.523 Y115.221 E0.0154 F2025
G1 X72.707 Y115.171 E0.0309
G1 X72.940 Y115.150 E0.0498
G1 X227.060 Y115.150 E12.5061
G1 X227.293 Y115.171 E12.5250
G1 X227.478 Y115.221 E12.5405
G1 X227.645 Y115.299 E12.5554
G1 X227.803 Y115.409 E12.5709
G1 X227.938 Y115.543 E12.5864
G1 X228.048 Y115.699 E12.6017
G1 X228.132 Y115.879 E12.6178
G1 X228.179 Y116.056 E12.6326
G1 X228.200 Y116.286 E12.6513
G1 X228.200 Y183.711 E18.1007
G1 X228.180 Y183.938 E18.1191
G1 X228.131 Y184.122 E18.1345
G1 X228.048 Y184.301 E18.1505
G1 X227.938 Y184.456 E18.1658
G1 X227.803 Y184.591 E18.1813
G1 X227.645 Y184.701 E18.1968
G1 X227.478 Y184.779 E18.2117
G1 X227.293 Y184.829 E18.2272
G1 X227.060 Y184.850 E18.2461
G1 X72.939 Y184.850 E30.7025
G1 X72.713 Y184.830 E30.7209
G1 X72.528 Y184.781 E30.7363
G1 X72.348 Y184.697 E30.7523
G1 X72.198 Y184.592 E30.7672
G1 X72.062 Y184.457 E30.7827
G1 X71.952 Y184.300 E30.7982
G1 X71.871 Y184.127 E30.8136
G1 X71.821 Y183.943 E30.8290
G1 X71.800 Y183.710 E30.8479
G1 X71.800 Y116.289 E36.2970
G1 X71.820 Y116.063 E36.3154
G1 X71.869 Y115.878 E36.3308
G1 X71.953 Y115.698 E36.3469
G1 X72.058 Y115.548 E36.3617
G1 X72.193 Y115.412 E36.3773
G1 X72.350 Y115.302 E36.3927
; feature outer perimeter
G1 X72.048 Y114.781 F4800
G92 E0.0000
G1 X72.316 Y114.655 E0.0239 F1350
G1 X72.601 Y114.578 E0.0479
G1 X72.913 Y114.550 E0.0732
G1 X227.087 Y114.550 E12.5338
G1 X227.399 Y114.578 E12.5591
G1 X227.685 Y114.655 E12.5830
G1 X227.946 Y114.777 E12.6063
G1 X228.189 Y114.946 E12.6303
G1 X228.399 Y115.155 E12.6542
G1 X228.569 Y115.397 E12.6781
G1 X228.698 Y115.673 E12.7027
G1 X228.772 Y115.951 E12.7260
G1 X228.800 Y116.259 E12.7510
G1 X228.800 Y183.737 E18.2047
G1 X228.774 Y184.041 E18.2294
G1 X228.698 Y184.327 E18.2533
G1 X228.569 Y184.603 E18.2779
G1 X228.399 Y184.845 E18.3018
G1 X228.189 Y185.054 E18.3257
G1 X227.946 Y185.223 E18.3496
G1 X227.685 Y185.345 E18.3730
G1 X227.399 Y185.422 E18.3969
G1 X227.087 Y185.450 E18.4222
G1 X72.913 Y185.450 E30.8829
G1 X72.609 Y185.424 E30.9075
G1 X72.323 Y185.348 E30.9315
G1 X72.047 Y185.219 E30.9560
G1 X71.811 Y185.054 E30.9793
G1 X71.601 Y184.845 E31.0033
G1 X71.431 Y184.602 E31.0272
G1 X71.305 Y184.334 E31.0511
G1 X71.228 Y184.049 E31.0751
G1 X71.200 Y183.737 E31.1004
G1 X71.200 Y116.263 E36.5537
G1 X71.226 Y115.959 E36.5784
G1 X71.302 Y115.673 E36.6024
G1 X71.431 Y115.397 E36.6269
G1 X71.596 Y115.161 E36.6502
G1 X71.805 Y114.951 E36.6742
G1 X72.048 Y114.781 E36.6981
; feature solid layer
G1 X73.183 Y184.340 F4800
G92 E0.0000
G1 X72.310 Y183.467 E0.0998 F2160
G1 X72.310 Y182.619 E0.1683
G1 X74.031 Y184.340 E0.3651
G1 X74.880 Y184.340 E0.4337
G1 X72.310 Y181.770 E0.7274
G1 X72.310 Y180.922 E0.7960
G1 X75.728 Y184.340 E1.1867
G1 X76.577 Y184.340 E1.2553
G1 X72.310 Y180.073 E1.7430
G1 X72.310 Y179.225 E1.8116
G1 X77.425 Y184.340 E2.3963
G1 X78.274 Y184.340 E2.4649
G1 X72.310 Y178.376 E3.1465
G1 X72.310 Y177.527 E3.2151
G1 X79.123 Y184.340 E3.9938
G1 X79.971 Y184.340 E4.0624
G1 X72.310 Y176.679 E4.9380
G1 X72.310 Y175.830 E5.0066
G1 X80.820 Y184.340 E5.9793
G1 X81.668 Y184.340 E6.0478
G1 X72.310 Y174.982 E7.1175
G1 X72.310 Y174.133 E7.1860
G1 X82.517 Y184.340 E8.3527
G1 X83.365 Y184.340 E8.4212
G1 X72.310 Y173.285 E9.6848
G1 X72.310 Y172.436 E9.7534
G1 X84.214 Y184.340 E11.1140
G1 X85.062 Y184.340 E11.1826
G1 X72.310 Y171.588 E12.6402
G1 X72.310 Y170.739 E12.7087
G1 X85.911 Y184.340 E14.2633
G1 X86.759 Y184.340 E14.3319
G1 X72.310 Y169.891 E15.9834
G1 X72.310 Y169.042 E16.0520
G1 X87.608 Y184.340 E17.8006
G1 X88.456 Y184.340 E17.8691
G1 X72.310 Y168.194 E19.7147
G1 X72.310 Y167.345 E19.7832
G1 X89.305 Y184.340 E21.7257
G1 X90.153 Y184.340 E21.7943
G1 X72.310 Y166.497 E23.8338
G1 X72.310 Y165.648 E23.9024
G1 X91.002 Y184.340 E26.0389
G1 X91.850 Y184.340 E26.1075
G1 X72.310 Y164.800 E28.3409
G1 X72.310 Y163.951 E28.4095
G1 X92.699 Y184.340 E30.7400
G1 X93.548 Y184.340 E30.8085
G1 X72.310 Y163.102 E33.2360
G1 X72.310 Y162.254 E33.3046
G1 X94.396 Y184.340 E35.8290
G1 X95.245 Y184.340 E35.8976
G1 X72.310 Y161.405 E38.5190
G1 X72.310 Y160.557 E38.5876
G1 X96.093 Y184.340 E41.3060
G1 X96.942 Y184.340 E41.3745
G1 X72.310 Y159.708 E44.1899
G1 X72.310 Y158.860 E44.2585
G1 X97.790 Y184.340 E47.1709
G1 X98.639 Y184.340 E47.2395
G1 X72.310 Y158.011 E50.2488
G1 X72.310 Y157.163 E50.3174
G1 X99.487 Y184.340 E53.4238
G1 X100.336 Y184.340 E53.4923
G1 X72.310 Y156.314 E56.6957
G1 X72.310 Y155.466 E56.7642
G1 X101.184 Y184.340 E60.0646
G1 X102.033 Y184.340 E60.1331
G1 X72.310 Y154.617 E63.5305
G1 X72.310 Y153.769 E63.5990
G1 X102.881 Y184.340 E67.0933
G1 X103.730 Y184.340 E67.1619
G1 X72.310 Y152.920 E70.7532
G1 X72.310 Y152.072 E70.8218
G1 X104.578 Y184.340 E74.5100
G1 X105.427 Y184.340 E74.5786
G1 X72.310 Y151.223 E78.3639
G1 X72.310 Y150.375 E78.4324
G1 X106.275 Y184.340 E82.3147
G1 X107.124 Y184.340 E82.3833
G1 X72.310 Y149.526 E86.3625
G1 X72.310 Y148.678 E86.4311
G1 X107.972 Y184.340 E90.5073
G1 X108.821 Y184.340 E90.5759
G1 X72.310 Y147.829 E94.7491
G1 X72.310 Y146.980 E94.8176
