; G-Code generated by Simplify3D(R) Version 4.1.2
; Apr 11, 2021 at 12:04:31 AM
; Settings Summary
;   processName,Fast CR10S
;   applyToModels,Spacer
;   profileName,Creality CR-10S Pro (modified)
;   profileVersion,2019-01-15 08:00:00
;   baseProfile,
;   printMaterial,PLA
;   printQuality,Medium
;   printExtruders,
;   extruderName,Primary Extruder
;   extruderToolheadNumber,0
;   extruderDiameter,0.4
;   extruderAutoWidth,0
;   extruderWidth,0.4
;   extrusionMultiplier,0.9
;   extruderUseRetract,1
;   extruderRetractionDistance,5
;   extruderExtraRestartDistance,0
;   extruderRetractionZLift,0
;   extruderRetractionSpeed,1800
;   extruderUseCoasting,0
;   extruderCoastingDistance,0.2
;   extruderUseWipe,0
;   extruderWipeDistance,5
;   primaryExtruder,0
;   layerHeight,0.3
;   topSolidLayers,6
;   bottomSolidLayers,3
;   perimeterOutlines,2
;   printPerimetersInsideOut,1
;   startPointOption,2
;   startPointOriginX,0
;   startPointOriginY,0
;   sequentialIslands,0
;   spiralVaseMode,0
;   firstLayerHeightPercentage,120
;   firstLayerWidthPercentage,150
;   firstLayerUnderspeed,0.5
;   useRaft,0
;   raftExtruder,0
;   raftTopLayers,3
;   raftBaseLayers,2
;   raftOffset,3
;   raftSeparationDistance,0.14
;   raftTopInfill,100
;   aboveRaftSpeedMultiplier,0.3
;   useSkirt,1
;   skirtExtruder,0
;   skirtLayers,1
;   skirtOutlines,2
;   skirtOffset,4
;   usePrimePillar,0
;   primePillarExtruder,999
;   primePillarWidth,12
;   primePillarLocation,7
;   primePillarSpeedMultiplier,1
;   useOozeShield,0
;   oozeShieldExtruder,999
;   oozeShieldOffset,2
;   oozeShieldOutlines,1
;   oozeShieldSidewallShape,1
;   oozeShieldSidewallAngle,30
;   oozeShieldSpeedMultiplier,1
;   infillExtruder,0
;   internalInfillPattern,Rectilinear
;   externalInfillPattern,Rectilinear
;   infillPercentage,10
;   outlineOverlapPercentage,15
;   infillExtrusionWidthPercentage,100
;   minInfillLength,5
;   infillLayerInterval,1
;   internalInfillAngles,45,-45
;   overlapInternalInfillAngles,0
;   externalInfillAngles,45,-45
;   generateSupport,0
;   supportExtruder,0
;   supportInfillPercentage,30
;   supportExtraInflation,0
;   supportBaseLayers,0
;   denseSupportExtruder,0
;   denseSupportLayers,0
;   denseSupportInfillPercentage,70
;   supportLayerInterval,1
;   supportHorizontalPartOffset,0.3
;   supportUpperSeparationLayers,1
;   supportLowerSeparationLayers,1
;   supportType,0
;   supportGridSpacing,4
;   maxOverhangAngle,45
;   supportAngles,0
;   temperatureName,Primary Extruder,Heated Bed
;   temperatureNumber,0,0
;   temperatureSetpointCount,2,1
;   temperatureSetpointLayers,1,2,1
;   temperatureSetpointTemperatures,210,230,60
;   temperatureStabilizeAtStartup,1,1
;   temperatureHeatedBed,0,1
;   fanLayers,1,2
;   fanSpeeds,0,100
;   blipFanToFullPower,0
;   adjustSpeedForCooling,1
;   minSpeedLayerTime,15
;   minCoolingSpeedSlowdown,20
;   increaseFanForCooling,0
;   minFanLayerTime,45
;   maxCoolingFanSpeed,100
;   increaseFanForBridging,0
;   bridgingFanSpeed,100
;   use5D,1
;   relativeEdistances,0
;   allowEaxisZeroing,1
;   independentExtruderAxes,0
;   includeM10123,0
;   stickySupport,1
;   applyToolheadOffsets,0
;   gcodeXoffset,0
;   gcodeYoffset,0
;   gcodeZoffset,0
;   overrideMachineDefinition,1
;   machineTypeOverride,0
;   strokeXoverride,300
;   strokeYoverride,300
;   strokeZoverride,400
;   originOffsetXoverride,0
;   originOffsetYoverride,0
;   originOffsetZoverride,0
;   homeXdirOverride,-1
;   homeYdirOverride,-1
;   homeZdirOverride,-1
;   flipXoverride,1
;   flipYoverride,-1
;   flipZoverride,1
;   toolheadOffsets,0,0|0,0|0,0|0,0|0,0|0,0
;   overrideFirmwareConfiguration,1
;   firmwareTypeOverride,RepRap (Marlin/Repetier/Sprinter)
;   GPXconfigOverride,r2
;   baudRateOverride,115200
;   overridePrinterModels,1
;   printerModelsOverride
;   startingGcode,G28 ; home all axes,G29 ; auto-bed level,G1 Z5 F3000 ; lift,G1 X5 Y10 F1500 ; move to prime,G1 Z0.2 F3000 ; get ready to prime,G92 E0 ; reset extrusion distance,G1 Y80 E10 F600 ; prime nozzle,G1 Y100 F5000 ; quick wipe
;   layerChangeGcode,
;   retractionGcode,
;   toolChangeGcode,
;   endingGcode,G28 X0 ; home X axis,M106 S0 ; turn off cooling fan,M104 S0 ; turn off extruder,M140 S0 ; turn off bed,M84 ; disable motors
;   exportFileFormat,gcode
;   celebration,0
;   celebrationSong,Random Song
;   postProcessing,
;   defaultSpeed,5400
;   outlineUnderspeed,0.5
;   solidInfillUnderspeed,0.8
;   supportUnderspeed,0.8
;   rapidXYspeed,4800
;   rapidZspeed,1002
;   minBridgingArea,50
;   bridgingExtraInflation,0
;   bridgingExtrusionMultiplier,1
;   bridgingSpeedMultiplier,1
;   useFixedBridgingAngle,0
;   fixedBridgingAngle,0
;   applyBridgingToPerimeters,0
;   filamentDiameters,1.75|1.75|1.75|1.75|1.75|1.75
;   filamentPricesPerKg,46|46|46|46|46|46
;   filamentDensities,1.25|1.25|1.25|1.25|1.25|1.25
;   useMinPrintHeight,0
;   minPrintHeight,0
;   useMaxPrintHeight,0
;   maxPrintHeight,0
;   useDiaphragm,0
;   diaphragmLayerInterval,20
;   robustSlicing,1
;   mergeAllIntoSolid,0
;   onlyRetractWhenCrossingOutline,1
;   retractBetweenLayers,1
;   useRetractionMinTravel,0
;   retractionMinTravel,3
;   retractWhileWiping,0
;   onlyWipeOutlines,1
;   avoidCrossingOutline,0
;   maxMovementDetourFactor,3
;   toolChangeRetractionDistance,12
;   toolChangeExtraRestartDistance,-0.5
;   toolChangeRetractionSpeed,600
;   externalThinWallType,0
;   internalThinWallType,2
;   thinWallAllowedOverlapPercentage,10
;   singleExtrusionMinLength,1
;   singleExtrusionMinPrintingWidthPercentage,50
;   singleExtrusionMaxPrintingWidthPercentage,200
;   singleExtrusionEndpointExtension,0.2
;   horizontalSizeCompensation,0
G90
M82
M106 S0
M140 S60
M190 S60
M104 S210 T0
M109 S210 T0
G28 ; home all axes
G29 ; auto-bed level
G1 Z5 F3000 ; lift
G1 X5 Y10 F1500 ; move to prime
G1 Z0.2 F3000 ; get ready to prime
G92 E0 ; reset extrusion distance
G1 Y80 E10 F600 ; prime nozzle
G1 Y100 F5000 ; quick wipe
; process Fast CR10S
; layer 1, Z = 0.360
T0
G92 E0.0000
G1 E-5.0000 F1800
; feature skirt
; tool H0.360 W0.600
G1 Z0.360 F1002
G1 X9.167 Y131.610 F4800
G1 E0.0000 F1800
G92 E0.0000
G1 X9.386 Y131.600 E0.0177 F2700
G1 X290.606 Y131.600 E22.7466
G1 X290.818 Y131.609 E22.7637
G1 X291.478 Y131.666 E22.8172
G1 X291.896 Y131.740 E22.8515
G1 X292.644 Y131.938 E22.9141
G1 X293.046 Y132.084 E22.9487
G1 X293.751 Y132.410 E23.0114
G1 X294.122 Y132.623 E23.0460
G1 X294.759 Y133.067 E23.1088
G1 X295.088 Y133.342 E23.1434
G1 X295.638 Y133.890 E23.2061
G1 X295.913 Y134.216 E23.2407
G1 X296.360 Y134.851 E23.3034
G1 X296.575 Y135.221 E23.3380
G1 X296.905 Y135.925 E23.4008
G1 X297.052 Y136.326 E23.4354
G1 X297.255 Y137.076 E23.4981
G1 X297.330 Y137.497 E23.5327
G1 X297.390 Y138.166 E23.5870
G1 X297.400 Y138.386 E23.6048
G1 X297.400 Y161.606 E25.4815
G1 X297.391 Y161.819 E25.4987
G1 X297.333 Y162.478 E25.5522
G1 X297.260 Y162.895 E25.5864
G1 X297.062 Y163.644 E25.6490
G1 X296.916 Y164.046 E25.6836
G1 X296.590 Y164.751 E25.7464
G1 X296.376 Y165.122 E25.7810
G1 X295.933 Y165.759 E25.8437
G1 X295.659 Y166.087 E25.8782
G1 X295.111 Y166.637 E25.9410
G1 X294.784 Y166.913 E25.9756
G1 X294.148 Y167.360 E26.0384
G1 X293.778 Y167.575 E26.0730
G1 X293.075 Y167.905 E26.1357
G1 X292.674 Y168.052 E26.1703
G1 X291.923 Y168.255 E26.2331
G1 X291.501 Y168.330 E26.2678
G1 X290.827 Y168.390 E26.3225
G1 X290.609 Y168.400 E26.3401
G1 X9.394 Y168.400 E49.0685
G1 X9.182 Y168.391 E49.0857
G1 X8.522 Y168.333 E49.1392
G1 X8.104 Y168.260 E49.1735
G1 X7.356 Y168.062 E49.2360
G1 X6.954 Y167.916 E49.2706
G1 X6.249 Y167.590 E49.3334
G1 X5.878 Y167.377 E49.3680
G1 X5.241 Y166.933 E49.4307
G1 X4.913 Y166.659 E49.4653
G1 X4.362 Y166.111 E49.5280
G1 X4.087 Y165.784 E49.5626
G1 X3.640 Y165.148 E49.6254
G1 X3.425 Y164.778 E49.6600
G1 X3.095 Y164.075 E49.7227
G1 X2.948 Y163.674 E49.7573
G1 X2.745 Y162.923 E49.8201
G1 X2.670 Y162.501 E49.8548
G1 X2.610 Y161.827 E49.9095
G1 X2.600 Y161.609 E49.9271
G1 X2.600 Y138.388 E51.8039
G1 X2.610 Y138.175 E51.8211
G1 X2.667 Y137.520 E51.8743
G1 X2.740 Y137.104 E51.9084
G1 X2.938 Y136.356 E51.9709
G1 X3.084 Y135.954 E52.0055
G1 X3.410 Y135.249 E52.0683
G1 X3.623 Y134.878 E52.1029
G1 X4.067 Y134.241 E52.1656
G1 X4.341 Y133.913 E52.2002
G1 X4.889 Y133.363 E52.2629
G1 X5.216 Y133.087 E52.2975
G1 X5.851 Y132.640 E52.3603
G1 X6.222 Y132.425 E52.3949
G1 X6.925 Y132.095 E52.4576
G1 X7.326 Y131.948 E52.4922
G1 X8.076 Y131.745 E52.5550
G1 X8.497 Y131.670 E52.5896
G1 X9.167 Y131.610 E52.6439
G92 E0.0000
G1 E-5.0000 F1800
G1 X9.207 Y132.209 F4800
G1 E0.0000 F1800
G92 E0.0000
G1 X9.399 Y132.200 E0.0156 F2700
G1 X290.593 Y132.200 E22.7423
G1 X290.779 Y132.208 E22.7573
G1 X291.400 Y132.262 E22.8077
G1 X291.767 Y132.326 E22.8378
G1 X292.465 Y132.511 E22.8961
G1 X292.818 Y132.639 E22.9265
G1 X293.475 Y132.943 E22.9850
G1 X293.800 Y133.131 E23.0153
G1 X294.394 Y133.545 E23.0739
G1 X294.683 Y133.785 E23.1042
G1 X295.196 Y134.296 E23.1627
G1 X295.438 Y134.583 E23.1931
G1 X295.854 Y135.175 E23.2516
G1 X296.043 Y135.500 E23.2819
G1 X296.350 Y136.156 E23.3405
G1 X296.480 Y136.508 E23.3708
G1 X296.669 Y137.207 E23.4293
G1 X296.735 Y137.577 E23.4597
G1 X296.791 Y138.207 E23.5108
G1 X296.800 Y138.399 E23.5264
G1 X296.800 Y161.593 E25.4010
G1 X296.792 Y161.780 E25.4160
G1 X296.738 Y162.400 E25.4664
G1 X296.674 Y162.766 E25.4964
G1 X296.489 Y163.464 E25.5548
G1 X296.361 Y163.818 E25.5852
G1 X296.056 Y164.475 E25.6437
G1 X295.869 Y164.801 E25.6741
G1 X295.455 Y165.395 E25.7326
G1 X295.215 Y165.682 E25.7629
G1 X294.704 Y166.196 E25.8214
G1 X294.417 Y166.438 E25.8518
G1 X293.825 Y166.854 E25.9103
G1 X293.500 Y167.043 E25.9407
G1 X292.844 Y167.350 E25.9992
G1 X292.492 Y167.480 E26.0295
G1 X291.792 Y167.669 E26.0881
G1 X291.422 Y167.735 E26.1185
G1 X290.787 Y167.791 E26.1700
G1 X290.596 Y167.800 E26.1855
G1 X9.407 Y167.800 E48.9118
G1 X9.221 Y167.792 E48.9268
G1 X8.600 Y167.738 E48.9772
G1 X8.233 Y167.674 E49.0073
G1 X7.535 Y167.489 E49.0656
G1 X7.182 Y167.361 E49.0960
G1 X6.525 Y167.056 E49.1545
G1 X6.200 Y166.869 E49.1848
G1 X5.606 Y166.455 E49.2434
G1 X5.317 Y166.215 E49.2737
G1 X4.804 Y165.704 E49.3322
G1 X4.562 Y165.417 E49.3626
G1 X4.146 Y164.825 E49.4211
G1 X3.957 Y164.500 E49.4515
G1 X3.650 Y163.844 E49.5100
G1 X3.520 Y163.492 E49.5403
G1 X3.331 Y162.792 E49.5989
G1 X3.265 Y162.421 E49.6293
G1 X3.208 Y161.787 E49.6808
G1 X3.200 Y161.596 E49.6963
G1 X3.200 Y138.402 E51.5709
G1 X3.208 Y138.214 E51.5861
G1 X3.262 Y137.598 E51.6361
G1 X3.326 Y137.233 E51.6660
G1 X3.511 Y136.535 E51.7243
G1 X3.639 Y136.182 E51.7547
G1 X3.944 Y135.525 E51.8132
G1 X4.131 Y135.200 E51.8436
G1 X4.545 Y134.606 E51.9021
G1 X4.785 Y134.317 E51.9324
G1 X5.296 Y133.804 E51.9909
G1 X5.583 Y133.562 E52.0213
G1 X6.175 Y133.146 E52.0798
G1 X6.500 Y132.957 E52.1102
G1 X7.156 Y132.650 E52.1687
G1 X7.508 Y132.520 E52.1990
G1 X8.207 Y132.331 E52.2575
G1 X8.577 Y132.265 E52.2879
G1 X9.207 Y132.209 E52.3390
G92 E0.0000
G1 E-5.0000 F1800
; feature inner perimeter
G1 X9.536 Y137.400 F4800
G1 E0.0000 F1800
G92 E0.0000
G1 X10.721 Y137.400 E0.0958 F2025
G1 X290.461 Y137.400 E22.7050
G1 X290.687 Y137.420 E22.7233
G1 X290.873 Y137.469 E22.7388
G1 X291.046 Y137.549 E22.7543
G1 X291.203 Y137.659 E22.7697
G1 X291.338 Y137.793 E22.7852
G1 X291.448 Y137.950 E22.8006
G1 X291.529 Y138.123 E22.8161
G1 X291.579 Y138.307 E22.8315
G1 X291.600 Y138.536 E22.8500
G1 X291.600 Y161.461 E24.7029
G1 X291.580 Y161.687 E24.7213
G1 X291.531 Y161.873 E24.7368
G1 X291.451 Y162.046 E24.7522
G1 X291.341 Y162.203 E24.7677
G1 X291.207 Y162.338 E24.7831
G1 X291.050 Y162.448 E24.7986
G1 X290.877 Y162.529 E24.8140
G1 X290.693 Y162.579 E24.8294
G1 X290.460 Y162.600 E24.8483
G1 X9.539 Y162.600 E47.5530
G1 X9.313 Y162.580 E47.5713
G1 X9.127 Y162.531 E47.5868
G1 X8.954 Y162.451 E47.6023
G1 X8.797 Y162.341 E47.6177
G1 X8.662 Y162.207 E47.6332
G1 X8.552 Y162.050 E47.6486
G1 X8.471 Y161.877 E47.6641
G1 X8.421 Y161.693 E47.6795
G1 X8.400 Y161.460 E47.6984
G1 X8.400 Y138.535 E49.5513
G1 X8.420 Y138.313 E49.5693
G1 X8.469 Y138.127 E49.5848
G1 X8.549 Y137.954 E49.6002
G1 X8.659 Y137.797 E49.6157
G1 X8.793 Y137.662 E49.6311
G1 X8.950 Y137.552 E49.6466
G1 X9.123 Y137.471 E49.6620
G1 X9.307 Y137.421 E49.6775
G1 X9.536 Y137.400 E49.6960
; feature outer perimeter
G1 X9.509 Y136.800 F4800
G92 E0.0000
G1 X10.721 Y136.800 E0.0980 F1350
G1 X290.487 Y136.800 E22.7092
G1 X290.791 Y136.826 E22.7339
G1 X291.077 Y136.902 E22.7579
G1 X291.346 Y137.027 E22.7818
G1 X291.589 Y137.196 E22.8057
G1 X291.799 Y137.405 E22.8296
G1 X291.969 Y137.647 E22.8536
G1 X292.095 Y137.915 E22.8775
G1 X292.172 Y138.201 E22.9014
G1 X292.200 Y138.509 E22.9264
G1 X292.200 Y161.487 E24.7835
G1 X292.174 Y161.791 E24.8082
G1 X292.098 Y162.077 E24.8322
G1 X291.973 Y162.346 E24.8561
G1 X291.804 Y162.589 E24.8800
G1 X291.595 Y162.799 E24.9039
G1 X291.353 Y162.969 E24.9279
G1 X291.085 Y163.095 E24.9518
G1 X290.799 Y163.172 E24.9757
G1 X290.487 Y163.200 E25.0011
G1 X9.513 Y163.200 E47.7100
G1 X9.209 Y163.174 E47.7346
G1 X8.923 Y163.098 E47.7586
G1 X8.654 Y162.973 E47.7825
G1 X8.411 Y162.804 E47.8064
G1 X8.201 Y162.595 E47.8304
G1 X8.031 Y162.353 E47.8543
G1 X7.905 Y162.085 E47.8782
G1 X7.828 Y161.799 E47.9021
G1 X7.800 Y161.487 E47.9275
G1 X7.800 Y138.509 E49.7846
G1 X7.826 Y138.209 E49.8089
G1 X7.902 Y137.923 E49.8329
G1 X8.027 Y137.654 E49.8568
G1 X8.196 Y137.411 E49.8807
G1 X8.405 Y137.201 E49.9047
G1 X8.647 Y137.031 E49.9286
G1 X8.915 Y136.905 E49.9525
G1 X9.201 Y136.828 E49.9764
G1 X9.509 Y136.800 E50.0014
; feature solid layer
G1 X9.319 Y162.054 F4800
G92 E0.0000
G1 X8.946 Y161.681 E0.0427 F2160
G1 X8.925 Y161.603 E0.0492
G1 X8.910 Y161.437 E0.0627
G1 X8.910 Y160.797 E0.1144
G1 X10.203 Y162.090 E0.2623
G1 X11.052 Y162.090 E0.3309
G1 X8.910 Y159.948 E0.5757
G1 X8.910 Y159.099 E0.6443
G1 X11.901 Y162.090 E0.9861
G1 X12.749 Y162.090 E1.0547
G1 X8.910 Y158.251 E1.4935
G1 X8.910 Y157.402 E1.5621
G1 X13.598 Y162.090 E2.0978
G1 X14.446 Y162.090 E2.1664
G1 X8.910 Y156.554 E2.7992
G1 X8.910 Y155.705 E2.8678
G1 X15.295 Y162.090 E3.5975
G1 X16.143 Y162.090 E3.6661
G1 X8.910 Y154.857 E4.4929
G1 X8.910 Y154.008 E4.5614
G1 X16.992 Y162.090 E5.4852
G1 X17.840 Y162.090 E5.5537
G1 X8.910 Y153.160 E6.5745
G1 X8.910 Y152.311 E6.6430
G1 X18.689 Y162.090 E7.7607
G1 X19.537 Y162.090 E7.8293
G1 X8.910 Y151.463 E9.0440
G1 X8.910 Y150.614 E9.1126
G1 X20.386 Y162.090 E10.4243
G1 X21.234 Y162.090 E10.4928
G1 X8.910 Y149.766 E11.9015
G1 X8.910 Y148.917 E11.9701
G1 X22.083 Y162.090 E13.4757
G1 X22.931 Y162.090 E13.5443
G1 X8.910 Y148.069 E15.1469
G1 X8.910 Y147.220 E15.2155
G1 X23.780 Y162.090 E16.9151
G1 X24.628 Y162.090 E16.9837
G1 X8.910 Y146.372 E18.7803
G1 X8.910 Y145.523 E18.8489
G1 X25.477 Y162.090 E20.7425
G1 X26.326 Y162.090 E20.8110
G1 X8.910 Y144.675 E22.8016
G1 X8.910 Y143.826 E22.8702
G1 X27.174 Y162.090 E24.9578
G1 X28.023 Y162.090 E25.0263
G1 X8.910 Y142.978 E27.2109
G1 X8.910 Y142.129 E27.2795
G1 X28.871 Y162.090 E29.5610
G1 X29.720 Y162.090 E29.6296
G1 X8.910 Y141.281 E32.0081
G1 X8.910 Y140.432 E32.0767
G1 X30.568 Y162.090 E34.5522
G1 X31.417 Y162.090 E34.6207
G1 X8.910 Y139.584 E37.1932
G1 X8.910 Y138.735 E37.2618
G1 X32.265 Y162.090 E39.9313
G1 X33.114 Y162.090 E39.9999
G1 X9.100 Y138.076 E42.7446
G1 X9.123 Y138.053 E42.7473
G1 X9.207 Y137.994 E42.7555
G1 X9.299 Y137.951 E42.7637
G1 X9.397 Y137.925 E42.7720
G1 X9.559 Y137.910 E42.7851
G1 X9.782 Y137.910 E42.8031
G1 X33.962 Y162.090 E45.5669
G1 X34.811 Y162.090 E45.6355
G1 X10.631 Y137.910 E48.3992
G1 X10.721 Y137.910 E48.4066
G1 X11.479 Y137.910 E48.4678
G1 X35.659 Y162.090 E51.2316
G1 X36.508 Y162.090 E51.3002
G1 X12.328 Y137.910 E54.0639
G1 X13.176 Y137.910 E54.1325
G1 X37.356 Y162.090 E56.8963
G1 X38.205 Y162.090 E56.9649
G1 X14.025 Y137.910 E59.7286
G1 X14.873 Y137.910 E59.7972
G1 X39.053 Y162.090 E62.5610
G1 X39.902 Y162.090 E62.6296
G1 X15.722 Y137.910 E65.3933
G1 X16.570 Y137.910 E65.4619
G1 X40.750 Y162.090 E68.2257
G1 X41.599 Y162.090 E68.2943
G1 X17.419 Y137.910 E71.0580
G1 X18.268 Y137.910 E71.1266
G1 X42.448 Y162.090 E73.8904
G1 X43.296 Y162.090 E73.9590
G1 X19.116 Y137.910 E76.7227
