; G-Code generated by Simplify3D(R) Version 4.1.2
; Apr 10, 2021 at 11:58:02 PM
; Settings Summary
;   processName,Fast FFCP
;   applyToModels,Starting_Cards_Bottom
;   profileName,FlashForge Creator Pro (modified)
;   profileVersion,2021-04-09 12:59:36
;   baseProfile,
;   printMaterial,PLA
;   printQuality,Fast
;   printExtruders,Left Extruder Only
;   extruderName,Right Extruder,Left Extruder
;   extruderToolheadNumber,0,1
;   extruderDiameter,0.4,0.4
;   extruderAutoWidth,0,0
;   extruderWidth,0.4,0.4
;   extrusionMultiplier,0.9,0.9
;   extruderUseRetract,1,1
;   extruderRetractionDistance,1.5,1.5
;   extruderExtraRestartDistance,0,0
;   extruderRetractionZLift,0,0
;   extruderRetractionSpeed,1200,1200
;   extruderUseCoasting,0,0
;   extruderCoastingDistance,0.2,0.2
;   extruderUseWipe,0,0
;   extruderWipeDistance,5,5
;   primaryExtruder,1
;   layerHeight,0.3
;   topSolidLayers,6
;   bottomSolidLayers,3
;   perimeterOutlines,2
;   printPerimetersInsideOut,1
;   startPointOption,2
;   startPointOriginX,0
;   startPointOriginY,0
;   sequentialIslands,0
;   spiralVaseMode,0
;   firstLayerHeightPercentage,90
;   firstLayerWidthPercentage,100
;   firstLayerUnderspeed,0.4
;   useRaft,0
;   raftExtruder,1
;   raftTopLayers,3
;   raftBaseLayers,2
;   raftOffset,3
;   raftSeparationDistance,0.14
;   raftTopInfill,100
;   aboveRaftSpeedMultiplier,0.3
;   useSkirt,1
;   skirtExtruder,1
;   skirtLayers,1
;   skirtOutlines,3
;   skirtOffset,13
;   usePrimePillar,0
;   primePillarExtruder,999
;   primePillarWidth,2
;   primePillarLocation,7
;   primePillarSpeedMultiplier,1
;   useOozeShield,0
;   oozeShieldExtruder,999
;   oozeShieldOffset,2
;   oozeShieldOutlines,1
;   oozeShieldSidewallShape,1
;   oozeShieldSidewallAngle,30
;   oozeShieldSpeedMultiplier,1
;   infillExtruder,1
;   internalInfillPattern,Rectilinear
;   externalInfillPattern,Rectilinear
;   infillPercentage,10
;   outlineOverlapPercentage,20
;   infillExtrusionWidthPercentage,100
;   minInfillLength,5
;   infillLayerInterval,1
;   internalInfillAngles,45,-45
;   overlapInternalInfillAngles,0
;   externalInfillAngles,45,-45
;   generateSupport,1
;   supportExtruder,1
;   supportInfillPercentage,25
;   supportExtraInflation,0
;   supportBaseLayers,0
;   denseSupportExtruder,1
;   denseSupportLayers,0
;   denseSupportInfillPercentage,70
;   supportLayerInterval,1
;   supportHorizontalPartOffset,0.3
;   supportUpperSeparationLayers,1
;   supportLowerSeparationLayers,1
;   supportType,0
;   supportGridSpacing,1.5
;   maxOverhangAngle,45
;   supportAngles,0
;   temperatureName,Right Extruder,Left Extruder,Heated Build Platform
;   temperatureNumber,0,1,0
;   temperatureSetpointCount,1,1,1
;   temperatureSetpointLayers,1,1,1
;   temperatureSetpointTemperatures,0,210,60
;   temperatureStabilizeAtStartup,0,0,0
;   temperatureHeatedBed,0,0,1
;   fanLayers,1,2
;   fanSpeeds,0,100
;   blipFanToFullPower,0
;   adjustSpeedForCooling,1
;   minSpeedLayerTime,15
;   minCoolingSpeedSlowdown,20
;   increaseFanForCooling,0
;   minFanLayerTime,45
;   maxCoolingFanSpeed,100
;   increaseFanForBridging,1
;   bridgingFanSpeed,100
;   use5D,1
;   relativeEdistances,1
;   allowEaxisZeroing,0
;   independentExtruderAxes,1
;   includeM10123,0
;   stickySupport,1
;   applyToolheadOffsets,0
;   gcodeXoffset,0
;   gcodeYoffset,0
;   gcodeZoffset,0
;   overrideMachineDefinition,1
;   machineTypeOverride,0
;   strokeXoverride,225
;   strokeYoverride,145
;   strokeZoverride,150
;   originOffsetXoverride,112.5
;   originOffsetYoverride,72.5
;   originOffsetZoverride,0
;   homeXdirOverride,1
;   homeYdirOverride,1
;   homeZdirOverride,-1
;   flipXoverride,1
;   flipYoverride,-1
;   flipZoverride,1
;   toolheadOffsets,0,0|34,0|0,0|0,0|0,0|0,0
;   overrideFirmwareConfiguration,1
;   firmwareTypeOverride,MakerBot/Sailfish Firmware
;   GPXconfigOverride,r1d
;   baudRateOverride,115200
;   overridePrinterModels,1
;   printerModelsOverride,FlashForge_CreatorPro.stl
;   startingGcode,; **** Replicator 1 dual start.gcode ****,M73 P0 ; enable build progress,G162 X Y F3000 ; home XY maximum,G161 Z F1200 ; home Z minimum,G92 Z-5 ; set Z to -5,G1 Z0 ; move Z to 0,G161 Z F100 ; home Z slowly,M132 X Y Z A B ; recall home offsets,M135 T0 ; load right extruder offsets,G1 X-110 Y-70 Z30 F9000 ; move to wait position left hand side of the table,G130 X20 Y20 Z20 A20 B20 ; lower stepper Vrefs while heating,M126 S[fan_speed_pwm],M140 S[bed0_temperature] T0,M134 T0 ; stabilize bed temperature,M104 S[extruder1_temperature] T1,M133 T1 ; stabilize left extruder temperature,G130 X127 Y127 Z40 A127 B127 ; default stepper Vrefs,G92 A0 B0 ; zero extruders,G1 Z0.4 ; position nozzle,M135 T1 ; left tool,G1 X-140 Y-70 F9000 ; reposition nozzle,G1 X-100 Y-70 E25 F300 ; purge nozzle,G1 X-110 Y-70 Z0.15 F1200 ; slow wipe,G1 X-100 Y-70 Z0.5 F1200 ; lift,G92 A0 B0 ; zero extruders,M73 P1 ;@body (notify GPX body has started),; **** end of start.gcode ****
;   layerChangeGcode,
;   retractionGcode,
;   toolChangeGcode,
;   endingGcode,; **** Replicator 1 dual end.gcode ****,M73 P100 ; end build progress,G1 Z150 F1000 ; send Z axis to bottom of machine,M140 S0 T0 ; cool down HBP,M104 S0 T0 ; cool down right extruder,M104 S0 T1 ; cool down left extruder,M127 ; stop blower fan,G162 X Y F3000 ; home XY maximum,M18 ; disable stepper,M72 P1 ; play Ta-Da song,; **** end of end.gcode ****
;   exportFileFormat,x3g
;   celebration,0
;   celebrationSong,Random Song
;   postProcessing,
;   defaultSpeed,5400
;   outlineUnderspeed,0.5
;   solidInfillUnderspeed,0.8
;   supportUnderspeed,0.8
;   rapidXYspeed,4200
;   rapidZspeed,1200
;   minBridgingArea,50
;   bridgingExtraInflation,0
;   bridgingExtrusionMultiplier,1
;   bridgingSpeedMultiplier,0.8
;   useFixedBridgingAngle,0
;   fixedBridgingAngle,0
;   applyBridgingToPerimeters,0
;   filamentDiameters,1.75|1.75|1.75|1.75|1.75|1.75
;   filamentPricesPerKg,46|46|46|46|46|46
;   filamentDensities,1.25|1.25|1.25|1.25|1.25|1.25
;   useMinPrintHeight,0
;   minPrintHeight,0
;   useMaxPrintHeight,0
;   maxPrintHeight,0
;   useDiaphragm,0
;   diaphragmLayerInterval,20
;   robustSlicing,1
;   mergeAllIntoSolid,0
;   onlyRetractWhenCrossingOutline,1
;   retractBetweenLayers,1
;   useRetractionMinTravel,0
;   retractionMinTravel,3
;   retractWhileWiping,0
;   onlyWipeOutlines,1
;   avoidCrossingOutline,0
;   maxMovementDetourFactor,3
;   toolChangeRetractionDistance,12
;   toolChangeExtraRestartDistance,-0.5
;   toolChangeRetractionSpeed,600
;   externalThinWallType,0
;   internalThinWallType,2
;   thinWallAllowedOverlapPercentage,10
;   singleExtrusionMinLength,1
;   singleExtrusionMinPrintingWidthPercentage,50
;   singleExtrusionMaxPrintingWidthPercentage,200
;   singleExtrusionEndpointExtension,0.2
;   horizontalSizeCompensation,0
G90
M83
; **** Replicator 1 dual start.gcode ****
M73 P0 ; enable build progress
G162 X Y F3000 ; home XY maximum
G161 Z F1200 ; home Z minimum
G92 Z-5 ; set Z to -5
G1 Z0 ; move Z to 0
G161 Z F100 ; home Z slowly
M132 X Y Z A B ; recall home offsets
M135 T0 ; load right extruder offsets
G1 X-110 Y-70 Z30 F9000 ; move to wait position left hand side of the table
G130 X20 Y20 Z20 A20 B20 ; lower stepper Vrefs while heating
M127
M140 S60 T0
M134 T0 ; stabilize bed temperature
M104 S210 T1
M133 T1 ; stabilize left extruder temperature
G130 X127 Y127 Z40 A127 B127 ; default stepper Vrefs
G92 A0 B0 ; zero extruders
G1 Z0.4 ; position nozzle
M135 T1 ; left tool
G1 X-140 Y-70 F9000 ; reposition nozzle
G1 X-100 Y-70 E25 F300 ; purge nozzle
G1 X-110 Y-70 Z0.15 F1200 ; slow wipe
G1 X-100 Y-70 Z0.5 F1200 ; lift
G92 A0 B0 ; zero extruders
M73 P1 ;@body (notify GPX body has started)
; **** end of start.gcode ****
; process Fast FFCP
; layer 1, Z = 0.270
M135 T1
G1 E-1.5000 F1200
; feature skirt
; tool H0.270 W0.400
G1 Z0.270 F1200
G1 X49.006 Y0.000 F4200
G1 E1.5000 F1200
G1 X49.007 Y0.056 E0.0023 F2160
G1 X49.012 Y0.111 E0.0022
G1 X49.020 Y0.167 E0.0023
G1 X49.027 Y0.203 E0.0015
G1 X49.049 Y0.290 E0.0036
G1 X49.061 Y0.329 E0.0017
G1 X49.081 Y0.380 E0.0022
G1 X49.104 Y0.432 E0.0023
G1 X49.130 Y0.481 E0.0023
G1 X49.159 Y0.530 E0.0023
G1 X49.178 Y0.560 E0.0014
G1 X49.232 Y0.631 E0.0036
G1 X49.259 Y0.663 E0.0017
G1 X49.297 Y0.703 E0.0022
G1 X49.337 Y0.741 E0.0022
G1 X49.380 Y0.778 E0.0023
G1 X49.427 Y0.813 E0.0023
G1 X49.455 Y0.832 E0.0014
G1 X49.531 Y0.877 E0.0036
G1 X49.569 Y0.896 E0.0017
G1 X49.620 Y0.919 E0.0023
G1 X49.672 Y0.939 E0.0022
G1 X49.726 Y0.956 E0.0023
G1 X49.780 Y0.970 E0.0023
G1 X49.822 Y0.978 E0.0017
G1 X49.897 Y0.989 E0.0031
G1 X49.945 Y0.993 E0.0019
G1 X56.075 Y1.165 E0.2478
G1 X64.000 Y9.316 E0.4594
G1 X64.000 Y31.250 E0.8864
G1 X63.982 Y31.750 E0.0202
G1 X63.908 Y32.782 E0.0418
G1 X63.766 Y33.772 E0.0404
G1 X63.493 Y35.028 E0.0519
G1 X63.211 Y35.987 E0.0404
G1 X62.762 Y37.192 E0.0519
G1 X62.346 Y38.101 E0.0404
G1 X61.730 Y39.230 E0.0520
G1 X61.190 Y40.071 E0.0404
G1 X60.419 Y41.100 E0.0519
G1 X59.764 Y41.856 E0.0404
G1 X58.856 Y42.764 E0.0519
G1 X58.100 Y43.419 E0.0404
G1 X57.071 Y44.190 E0.0519
G1 X56.230 Y44.730 E0.0404
G1 X55.101 Y45.346 E0.0519
G1 X54.192 Y45.762 E0.0404
G1 X52.987 Y46.211 E0.0519
G1 X52.028 Y46.493 E0.0404
G1 X50.772 Y46.766 E0.0519
G1 X49.782 Y46.908 E0.0404
G1 X48.750 Y46.982 E0.0418
G1 X48.250 Y47.000 E0.0202
G1 X-48.250 Y47.000 E3.8997
G1 X-48.750 Y46.982 E0.0202
G1 X-49.782 Y46.908 E0.0418
G1 X-50.772 Y46.766 E0.0404
G1 X-52.028 Y46.493 E0.0519
G1 X-52.987 Y46.211 E0.0404
G1 X-54.192 Y45.762 E0.0519
G1 X-55.101 Y45.347 E0.0404
G1 X-56.229 Y44.731 E0.0519
G1 X-57.071 Y44.190 E0.0404
G1 X-58.100 Y43.419 E0.0519
G1 X-58.856 Y42.764 E0.0404
G1 X-59.765 Y41.856 E0.0519
G1 X-60.419 Y41.100 E0.0404
G1 X-61.190 Y40.071 E0.0519
G1 X-61.730 Y39.230 E0.0404
G1 X-62.346 Y38.102 E0.0519
G1 X-62.762 Y37.192 E0.0404
G1 X-63.211 Y35.987 E0.0519
G1 X-63.493 Y35.028 E0.0404
G1 X-63.766 Y33.772 E0.0519
G1 X-63.908 Y32.782 E0.0404
G1 X-63.982 Y31.755 E0.0416
G1 X-64.000 Y31.255 E0.0202
G1 X-64.000 Y-31.250 E2.5259
G1 X-63.982 Y-31.750 E0.0202
G1 X-63.908 Y-32.782 E0.0418
G1 X-63.766 Y-33.772 E0.0404
G1 X-63.493 Y-35.028 E0.0519
G1 X-63.211 Y-35.987 E0.0404
G1 X-62.762 Y-37.192 E0.0519
G1 X-62.346 Y-38.101 E0.0404
G1 X-61.730 Y-39.230 E0.0519
G1 X-61.190 Y-40.071 E0.0404
G1 X-60.419 Y-41.100 E0.0519
G1 X-59.765 Y-41.856 E0.0404
G1 X-58.856 Y-42.765 E0.0519
G1 X-58.100 Y-43.420 E0.0404
G1 X-57.071 Y-44.190 E0.0519
G1 X-56.230 Y-44.730 E0.0404
G1 X-55.102 Y-45.346 E0.0519
G1 X-54.192 Y-45.762 E0.0404
G1 X-52.987 Y-46.211 E0.0519
G1 X-52.028 Y-46.493 E0.0404
G1 X-50.772 Y-46.766 E0.0519
G1 X-49.782 Y-46.908 E0.0404
G1 X-48.750 Y-46.982 E0.0418
G1 X-48.250 Y-47.000 E0.0202
G1 X48.250 Y-47.000 E3.8997
G1 X48.750 Y-46.982 E0.0202
G1 X49.782 Y-46.908 E0.0418
G1 X50.772 Y-46.766 E0.0404
G1 X52.028 Y-46.493 E0.0519
G1 X52.987 Y-46.211 E0.0404
G1 X54.192 Y-45.762 E0.0519
G1 X55.102 Y-45.346 E0.0404
G1 X56.230 Y-44.730 E0.0519
G1 X57.071 Y-44.190 E0.0404
G1 X58.100 Y-43.420 E0.0519
G1 X58.856 Y-42.765 E0.0404
G1 X59.764 Y-41.856 E0.0519
G1 X60.419 Y-41.100 E0.0404
G1 X61.190 Y-40.071 E0.0519
G1 X61.731 Y-39.229 E0.0404
G1 X62.347 Y-38.101 E0.0519
G1 X62.762 Y-37.192 E0.0404
G1 X63.211 Y-35.987 E0.0519
G1 X63.493 Y-35.028 E0.0404
G1 X63.766 Y-33.772 E0.0519
G1 X63.908 Y-32.782 E0.0404
G1 X63.982 Y-31.750 E0.0418
G1 X64.000 Y-31.250 E0.0202
G1 X64.000 Y-9.316 E0.8864
G1 X56.075 Y-1.165 E0.4594
G1 X49.944 Y-0.993 E0.2478
G1 X49.898 Y-0.989 E0.0019
G1 X49.822 Y-0.978 E0.0031
G1 X49.780 Y-0.970 E0.0017
G1 X49.726 Y-0.956 E0.0023
G1 X49.672 Y-0.939 E0.0023
G1 X49.620 Y-0.919 E0.0022
G1 X49.569 Y-0.896 E0.0023
G1 X49.531 Y-0.877 E0.0017
G1 X49.455 Y-0.832 E0.0036
G1 X49.427 Y-0.813 E0.0014
G1 X49.380 Y-0.778 E0.0023
G1 X49.337 Y-0.741 E0.0023
G1 X49.297 Y-0.704 E0.0022
G1 X49.259 Y-0.663 E0.0023
G1 X49.232 Y-0.631 E0.0017
G1 X49.178 Y-0.560 E0.0036
G1 X49.159 Y-0.530 E0.0014
G1 X49.130 Y-0.481 E0.0023
G1 X49.104 Y-0.432 E0.0023
G1 X49.081 Y-0.380 E0.0023
G1 X49.061 Y-0.329 E0.0022
G1 X49.049 Y-0.290 E0.0017
G1 X49.027 Y-0.203 E0.0036
G1 X49.020 Y-0.167 E0.0015
G1 X49.012 Y-0.111 E0.0023
G1 X49.007 Y-0.056 E0.0022
G1 X49.006 Y0.000 E0.0023
G1 E-1.5000 F1200
G1 X48.605 Y0.000 F4200
G1 E1.5000 F1200
G1 X48.608 Y0.078 E0.0032 F2160
G1 X48.614 Y0.156 E0.0032
G1 X48.625 Y0.234 E0.0032
G1 X48.636 Y0.291 E0.0024
G1 X48.664 Y0.400 E0.0045
G1 X48.684 Y0.461 E0.0026
G1 X48.712 Y0.534 E0.0032
G1 X48.744 Y0.605 E0.0032
G1 X48.779 Y0.675 E0.0032
G1 X48.820 Y0.743 E0.0032
G1 X48.852 Y0.791 E0.0023
G1 X48.919 Y0.880 E0.0045
G1 X48.960 Y0.930 E0.0026
G1 X49.014 Y0.986 E0.0031
G1 X49.071 Y1.040 E0.0032
G1 X49.131 Y1.091 E0.0032
G1 X49.195 Y1.139 E0.0033
G1 X49.242 Y1.171 E0.0023
G1 X49.337 Y1.227 E0.0045
G1 X49.395 Y1.257 E0.0026
G1 X49.467 Y1.289 E0.0032
G1 X49.540 Y1.317 E0.0032
G1 X49.615 Y1.340 E0.0032
G1 X49.691 Y1.360 E0.0032
G1 X49.755 Y1.373 E0.0026
G1 X49.852 Y1.387 E0.0040
G1 X49.922 Y1.392 E0.0028
G1 X55.901 Y1.560 E0.2417
G1 X63.600 Y9.478 E0.4463
G1 X63.600 Y31.243 E0.8795
G1 X63.583 Y31.728 E0.0196
G1 X63.510 Y32.739 E0.0410
G1 X63.372 Y33.701 E0.0393
G1 X63.105 Y34.929 E0.0508
G1 X62.831 Y35.861 E0.0393
G1 X62.392 Y37.038 E0.0508
G1 X61.989 Y37.922 E0.0393
G1 X61.386 Y39.025 E0.0508
G1 X60.861 Y39.843 E0.0393
G1 X60.108 Y40.849 E0.0508
G1 X59.472 Y41.583 E0.0392
G1 X58.583 Y42.472 E0.0508
G1 X57.849 Y43.108 E0.0392
G1 X56.843 Y43.861 E0.0508
G1 X56.025 Y44.386 E0.0393
G1 X54.922 Y44.989 E0.0508
G1 X54.038 Y45.392 E0.0393
G1 X52.861 Y45.831 E0.0508
G1 X51.929 Y46.105 E0.0393
G1 X50.701 Y46.372 E0.0508
G1 X49.739 Y46.510 E0.0393
G1 X48.728 Y46.583 E0.0410
G1 X48.243 Y46.600 E0.0196
G1 X-48.243 Y46.600 E3.8991
G1 X-48.728 Y46.583 E0.0196
G1 X-49.739 Y46.510 E0.0410
G1 X-50.701 Y46.372 E0.0393
G1 X-51.929 Y46.105 E0.0508
G1 X-52.861 Y45.831 E0.0393
G1 X-54.039 Y45.392 E0.0508
G1 X-54.922 Y44.989 E0.0392
G1 X-56.025 Y44.386 E0.0508
G1 X-56.843 Y43.861 E0.0393
G1 X-57.849 Y43.108 E0.0508
G1 X-58.583 Y42.472 E0.0392
G1 X-59.472 Y41.583 E0.0508
G1 X-60.108 Y40.849 E0.0393
G1 X-60.861 Y39.843 E0.0508
G1 X-61.386 Y39.026 E0.0393
G1 X-61.988 Y37.922 E0.0508
G1 X-62.392 Y37.039 E0.0393
G1 X-62.831 Y35.861 E0.0508
G1 X-63.105 Y34.929 E0.0393
G1 X-63.372 Y33.701 E0.0508
G1 X-63.510 Y32.739 E0.0393
G1 X-63.582 Y31.733 E0.0407
G1 X-63.600 Y31.248 E0.0196
G1 X-63.600 Y-31.243 E2.5253
G1 X-63.583 Y-31.728 E0.0196
G1 X-63.510 Y-32.739 E0.0410
G1 X-63.372 Y-33.701 E0.0393
G1 X-63.105 Y-34.929 E0.0508
G1 X-62.831 Y-35.861 E0.0393
G1 X-62.392 Y-37.039 E0.0508
G1 X-61.989 Y-37.922 E0.0393
G1 X-61.386 Y-39.025 E0.0508
G1 X-60.861 Y-39.843 E0.0393
G1 X-60.108 Y-40.849 E0.0508
G1 X-59.472 Y-41.583 E0.0393
G1 X-58.583 Y-42.472 E0.0508
G1 X-57.849 Y-43.108 E0.0393
G1 X-56.842 Y-43.861 E0.0508
G1 X-56.026 Y-44.386 E0.0392
G1 X-54.923 Y-44.988 E0.0508
G1 X-54.039 Y-45.392 E0.0393
G1 X-52.861 Y-45.831 E0.0508
G1 X-51.929 Y-46.105 E0.0393
G1 X-50.701 Y-46.372 E0.0508
G1 X-49.739 Y-46.510 E0.0393
G1 X-48.728 Y-46.583 E0.0410
G1 X-48.243 Y-46.600 E0.0196
G1 X48.243 Y-46.600 E3.8991
G1 X48.728 Y-46.583 E0.0196
G1 X49.739 Y-46.510 E0.0410
G1 X50.701 Y-46.372 E0.0393
G1 X51.929 Y-46.105 E0.0508
G1 X52.861 Y-45.831 E0.0393
G1 X54.039 Y-45.392 E0.0508
G1 X54.923 Y-44.988 E0.0393
G1 X56.026 Y-44.386 E0.0508
G1 X56.843 Y-43.861 E0.0392
G1 X57.849 Y-43.108 E0.0508
G1 X58.583 Y-42.472 E0.0393
G1 X59.472 Y-41.583 E0.0508
G1 X60.108 Y-40.849 E0.0392
G1 X60.861 Y-39.843 E0.0508
G1 X61.386 Y-39.025 E0.0393
G1 X61.989 Y-37.922 E0.0508
G1 X62.392 Y-37.039 E0.0392
G1 X62.831 Y-35.861 E0.0508
G1 X63.105 Y-34.929 E0.0393
G1 X63.372 Y-33.701 E0.0508
G1 X63.510 Y-32.739 E0.0393
G1 X63.583 Y-31.728 E0.0410
G1 X63.600 Y-31.243 E0.0196
G1 X63.600 Y-9.478 E0.8795
G1 X55.901 Y-1.560 E0.4463
G1 X49.922 Y-1.392 E0.2417
G1 X49.852 Y-1.387 E0.0028
G1 X49.755 Y-1.373 E0.0040
G1 X49.691 Y-1.360 E0.0026
G1 X49.615 Y-1.340 E0.0032
G1 X49.540 Y-1.317 E0.0032
G1 X49.467 Y-1.289 E0.0032
G1 X49.395 Y-1.257 E0.0032
G1 X49.337 Y-1.227 E0.0026
G1 X49.242 Y-1.171 E0.0045
G1 X49.195 Y-1.139 E0.0023
G1 X49.131 Y-1.091 E0.0033
