;FLAVOR:Marlin
;TIME:6999
;Filament used: 3.92741m
;Layer height: 0.2
;MINX:97.406
;MINY:84.457
;MINZ:0.2
;MAXX:202.543
;MAXY:215.594
;MAXZ:24.6
;Generated with Cura_SteamEngine 5.2.1
M140 S60
M105
M190 S60
M104 S210
M105
M109 S210
M82 ;absolute extrusion mode
M201 X500.00 Y500.00 Z100.00 E5000.00 ;Setup machine max acceleration
M203 X500.00 Y500.00 Z10.00 E50.00 ;Setup machine max feedrate
M204 P500.00 R1000.00 T500.00 ;Setup Print/Retract/Travel acceleration
M205 X8.00 Y8.00 Z0.40 E5.00 ;Setup Jerk
M220 S100 ;Reset Feedrate
M221 S100 ;Reset Flowrate

G28 ;Home
G29 ;Auto bed Level

G92 E0 ;Reset Extruder
G1 Z2.0 F3000 ;Move Z Axis up
G1 X10.1 Y20 Z0.28 F5000.0 ;Move to start position
G1 X10.1 Y200.0 Z0.28 F1500.0 E15 ;Draw the first line
G1 X10.4 Y200.0 Z0.28 F5000.0 ;Move to side a little
G1 X10.4 Y20 Z0.28 F1500.0 E30 ;Draw the second line
G92 E0 ;Reset Extruder
G1 Z2.0 F3000 ;Move Z Axis up

G92 E0
G92 E0
G1 F2700 E-7
;LAYER_COUNT:123
;LAYER:0
M107
G0 F6000 X100.029 Y90.66 Z0.2
;TYPE:SKIRT
G1 F2700 E0
G1 F1200 X100.632 Y89.996 E0.02983
G1 X102.95 Y87.677 E0.13889
G1 X103.642 Y87.044 E0.17008
G1 X104.385 Y86.472 E0.20127
G1 X105.175 Y85.965 E0.23249
G1 X106.004 Y85.528 E0.26366
G1 X106.868 Y85.163 E0.29485
G1 X107.76 Y84.872 E0.32606
G1 X108.673 Y84.659 E0.35724
G1 X109.601 Y84.525 E0.38843
G1 X110.486 Y84.47 E0.41792
G1 X111.196 Y84.458 E0.44154
G1 X165.576 Y84.457 E2.25022
G1 X168.34 Y84.467 E2.34216
G1 X169.228 Y84.458 E2.37169
G1 X189.945 Y84.458 E3.06074
G1 X190.653 Y84.468 E3.08429
G1 X191.59 Y84.521 E3.11551
G1 X192.214 Y84.602 E3.13644
G1 X192.518 Y84.65 E3.14667
G1 X193.437 Y84.835 E3.17785
G1 X194.337 Y85.099 E3.20905
G1 X195.178 Y85.423 E3.23902
G1 X195.487 Y85.557 E3.25022
G1 X196.331 Y85.967 E3.28143
G1 X197.137 Y86.446 E3.31262
G1 X197.899 Y86.993 E3.34382
G1 X198.612 Y87.603 E3.37503
G1 X199.27 Y88.271 E3.40621
G1 X199.592 Y88.643 E3.42258
G1 X199.877 Y88.988 E3.43746
G1 X200.443 Y89.736 E3.46866
G1 X200.943 Y90.53 E3.49987
G1 X201.373 Y91.363 E3.53105
G1 X201.837 Y92.531 E3.57285
G1 X201.968 Y92.926 E3.58669
G1 X202.225 Y93.828 E3.61788
G1 X202.404 Y94.749 E3.64909
G1 X202.504 Y95.681 E3.68026
G1 X202.525 Y96.19 E3.69721
G1 X202.543 Y97.274 E3.73327
G1 X202.542 Y144.931 E5.31835
G1 X202.531 Y145.674 E5.34306
G1 X202.477 Y146.61 E5.37424
G1 X202.393 Y147.252 E5.39578
G1 X202.347 Y147.539 E5.40545
G1 X202.16 Y148.458 E5.43664
G1 X201.894 Y149.357 E5.46782
G1 X201.561 Y150.226 E5.49877
G1 X201.11 Y151.171 E5.5336
G1 X200.762 Y151.78 E5.55693
G1 X199.215 Y154.293 E5.65508
G1 X197.943 Y156.5 E5.7398
G1 X196.76 Y158.697 E5.8228
G1 X195.643 Y160.92 E5.90554
G1 X194.566 Y163.221 E5.99004
G1 X193.564 Y165.533 E6.07385
G1 X192.614 Y167.905 E6.15884
G1 X191.761 Y170.223 E6.24099
G1 X190.953 Y172.626 E6.32531
G1 X190.221 Y175.026 E6.40876
G1 X189.56 Y177.433 E6.49179
G1 X188.955 Y179.912 E6.57666
G1 X188.432 Y182.356 E6.65979
G1 X187.973 Y184.83 E6.74347
G1 X187.581 Y187.348 E6.82823
G1 X187.27 Y189.792 E6.91018
G1 X187.019 Y192.34 E6.99533
G1 X186.846 Y194.808 E7.07762
G1 X186.741 Y197.363 E7.16267
G1 X186.706 Y199.849 E7.24536
G1 X186.704 Y203.847 E7.37834
G1 X186.694 Y204.549 E7.40169
G1 X186.641 Y205.485 E7.43287
G1 X186.508 Y206.413 E7.46405
G1 X186.296 Y207.327 E7.49526
G1 X186.008 Y208.22 E7.52647
G1 X185.613 Y209.161 E7.56041
G1 X185.131 Y210.084 E7.59504
G1 X184.628 Y210.876 E7.62625
G1 X184.059 Y211.621 E7.65743
G1 X183.429 Y212.316 E7.68863
G1 X182.742 Y212.954 E7.71981
G1 X182.003 Y213.532 E7.75101
G1 X181.218 Y214.044 E7.78219
G1 X180.391 Y214.488 E7.81341
G1 X179.53 Y214.86 E7.8446
G1 X178.641 Y215.157 E7.87578
G1 X177.729 Y215.377 E7.90698
G1 X176.802 Y215.519 E7.93817
G1 X175.786 Y215.583 E7.97203
G1 X175.18 Y215.593 E7.99219
G1 X109.897 Y215.594 E10.16351
G1 X109.221 Y215.584 E10.186
G1 X108.285 Y215.53 E10.21718
G1 X107.357 Y215.397 E10.24836
G1 X106.443 Y215.185 E10.27957
G1 X105.844 Y215 E10.30042
G1 X105.441 Y214.863 E10.31458
G1 X104.566 Y214.523 E10.3458
G1 X103.724 Y214.111 E10.37698
G1 X102.92 Y213.628 E10.40817
G1 X102.038 Y212.98 E10.44457
G1 X101.732 Y212.731 E10.4577
G1 X101.031 Y212.109 E10.48887
G1 X100.385 Y211.429 E10.52006
G1 X99.799 Y210.696 E10.55127
G1 X99.268 Y209.901 E10.58307
G1 X99.091 Y209.609 E10.59443
G1 X98.64 Y208.787 E10.62561
G1 X98.26 Y207.93 E10.65679
G1 X97.914 Y206.903 E10.69284
G1 X97.837 Y206.631 E10.70224
G1 X97.62 Y205.719 E10.73342
G1 X97.482 Y204.791 E10.76463
G1 X97.423 Y203.83 E10.79665
G1 X97.406 Y202.788 E10.83131
G1 X97.406 Y154.9 E12.42407
G1 X97.425 Y153.909 E12.45704
G1 X97.478 Y152.656 E12.49875
G1 X97.553 Y150.007 E12.58689
G1 X97.553 Y147.489 E12.67064
G1 X97.506 Y145.542 E12.73542
G1 X97.46 Y144.055 E12.7849
G1 X97.458 Y98.265 E14.30788
G1 X97.468 Y97.561 E14.3313
G1 X97.521 Y96.624 E14.36251
G1 X97.654 Y95.696 E14.39369
G1 X97.866 Y94.782 E14.4249
G1 X98.154 Y93.89 E14.45608
G1 X98.518 Y93.025 E14.48729
G1 X98.954 Y92.195 E14.51847
G1 X99.459 Y91.405 E14.54966
G1 X100.029 Y90.66 E14.58086
G0 F6000 X100.423 Y90.814
G1 F1200 X100.917 Y90.277 E14.60513
G1 X101.458 Y89.728 E14.63076
G1 X103.232 Y87.96 E14.71406
G1 X103.912 Y87.339 E14.74469
G1 X104.643 Y86.779 E14.77532
G1 X105.42 Y86.285 E14.80594
G1 X106.237 Y85.86 E14.83658
G1 X107.087 Y85.508 E14.86717
G1 X107.965 Y85.231 E14.8978
G1 X108.864 Y85.031 E14.92843
G1 X109.776 Y84.91 E14.95903
G1 X110.495 Y84.87 E14.98298
G1 X111.196 Y84.858 E15.0063
G1 X165.575 Y84.857 E16.81495
G1 X168.343 Y84.867 E16.90701
G1 X169.228 Y84.858 E16.93645
G1 X189.94 Y84.858 E17.62533
G1 X190.648 Y84.868 E17.64889
G1 X191.567 Y84.921 E17.6795
G1 X192.151 Y84.997 E17.69909
G1 X192.455 Y85.045 E17.70933
G1 X193.357 Y85.228 E17.73994
G1 X194.241 Y85.488 E17.77059
G1 X195.019 Y85.79 E17.79834
G1 X195.328 Y85.924 E17.80954
G1 X196.156 Y86.327 E17.84017
G1 X196.946 Y86.8 E17.8708
G1 X197.692 Y87.339 E17.90141
G1 X198.388 Y87.942 E17.93204
G1 X199.283 Y88.898 E17.97559
G1 X199.568 Y89.243 E17.99048
G1 X200.123 Y89.978 E18.02111
G1 X200.612 Y90.758 E18.05173
G1 X201.032 Y91.577 E18.08234
G1 X201.457 Y92.657 E18.12095
G1 X201.588 Y93.052 E18.13479
G1 X201.84 Y93.938 E18.16542
G1 X202.014 Y94.842 E18.19604
G1 X202.125 Y96.197 E18.24126
G1 X202.143 Y97.274 E18.27709
G1 X202.142 Y144.925 E19.86197
G1 X202.131 Y145.668 E19.88668
G1 X202.077 Y146.587 E19.9173
G1 X201.998 Y147.189 E19.93749
G1 X201.952 Y147.476 E19.94716
G1 X201.767 Y148.377 E19.97775
G1 X201.505 Y149.26 E20.00839
G1 X201.191 Y150.074 E20.03741
G1 X200.749 Y150.998 E20.07147
G1 X200.421 Y151.57 E20.09341
G1 X198.87 Y154.089 E20.1918
G1 X197.602 Y156.29 E20.27628
G1 X196.408 Y158.506 E20.36
G1 X195.273 Y160.765 E20.44409
G1 X194.208 Y163.043 E20.52773
G1 X193.189 Y165.391 E20.61286
G1 X192.246 Y167.747 E20.69726
G1 X191.386 Y170.083 E20.78006
G1 X190.575 Y172.497 E20.86476
G1 X189.839 Y174.908 E20.9486
G1 X189.163 Y177.371 E21.03355
G1 X188.571 Y179.798 E21.11664
G1 X188.032 Y182.312 E21.20215
G1 X187.578 Y184.766 E21.28516
G1 X187.193 Y187.234 E21.36824
G1 X186.87 Y189.778 E21.45353
G1 X186.62 Y192.306 E21.53802
G1 X186.446 Y194.8 E21.62118
G1 X186.341 Y197.34 E21.70573
G1 X186.306 Y199.843 E21.78899
G1 X186.304 Y203.841 E21.92196
G1 X186.294 Y204.543 E21.94531
G1 X186.241 Y205.462 E21.97593
G1 X186.108 Y206.373 E22.00655
G1 X185.897 Y207.269 E22.03717
G1 X185.609 Y208.144 E22.0678
G1 X185.249 Y208.995 E22.09854
G1 X184.776 Y209.899 E22.13247
G1 X184.281 Y210.675 E22.16308
G1 X183.719 Y211.404 E22.1937
G1 X183.097 Y212.083 E22.22433
G1 X182.418 Y212.705 E22.25495
G1 X181.688 Y213.265 E22.28556
G1 X180.911 Y213.76 E22.3162
G1 X180.095 Y214.186 E22.34681
G1 X179.245 Y214.539 E22.37743
G1 X178.367 Y214.818 E22.40807
G1 X177.469 Y215.019 E22.43867
G1 X176.556 Y215.141 E22.46931
G1 X175.78 Y215.183 E22.49516
G1 X175.174 Y215.193 E22.51532
G1 X109.903 Y215.194 E24.68624
G1 X109.227 Y215.184 E24.70872
G1 X108.308 Y215.13 E24.73934
G1 X107.397 Y214.997 E24.76996
G1 X106.501 Y214.785 E24.80059
G1 X105.972 Y214.621 E24.81901
G1 X105.569 Y214.484 E24.83317
G1 X104.711 Y214.15 E24.86379
G1 X103.886 Y213.743 E24.89439
G1 X103.098 Y213.266 E24.92502
G1 X102.291 Y212.67 E24.95839
G1 X101.985 Y212.421 E24.97151
G1 X101.296 Y211.809 E25.00216
G1 X100.664 Y211.14 E25.03277
G1 X100.092 Y210.419 E25.06338
G1 X99.61 Y209.694 E25.09234
G1 X99.433 Y209.402 E25.1037
G1 X98.991 Y208.594 E25.13433
G1 X98.62 Y207.752 E25.16493
G1 X98.299 Y206.794 E25.19854
G1 X98.222 Y206.522 E25.20794
G1 X98.01 Y205.626 E25.23856
G1 X97.876 Y204.715 E25.26919
G1 X97.823 Y203.823 E25.29891
G1 X97.806 Y202.788 E25.33334
G1 X97.806 Y154.905 E26.92593
G1 X97.824 Y153.926 E26.9585
G1 X97.88 Y152.614 E27.00218
G1 X97.953 Y150.018 E27.08855
G1 X97.953 Y147.476 E27.1731
G1 X97.906 Y145.533 E27.23775
G1 X97.86 Y144.055 E27.28693
G1 X97.857 Y98.422 E28.80469
G1 X97.868 Y97.566 E28.83316
G1 X97.921 Y96.647 E28.86378
G1 X98.054 Y95.736 E28.8944
G1 X98.265 Y94.84 E28.92501
G1 X98.553 Y93.966 E28.95562
G1 X98.916 Y93.12 E28.98624
G1 X99.351 Y92.308 E29.01688
G1 X99.855 Y91.538 E29.04749
G1 X100.423 Y90.814 E29.07809
G0 F6000 X100.817 Y90.97
G1 F1200 X101.202 Y90.558 E29.09685
G1 X101.741 Y90.011 E29.12239
G1 X103.515 Y88.243 E29.20569
G1 X104.182 Y87.635 E29.23571
G1 X104.9 Y87.088 E29.26573
G1 X105.665 Y86.606 E29.29581
G1 X106.468 Y86.194 E29.32582
G1 X107.305 Y85.855 E29.35586
G1 X108.169 Y85.591 E29.38591
G1 X109.052 Y85.404 E29.41593
G1 X109.949 Y85.297 E29.44597
G1 X110.503 Y85.27 E29.46442
G1 X111.196 Y85.258 E29.48747
G1 X165.573 Y85.257 E31.29606
G1 X168.345 Y85.267 E31.38826
G1 X169.229 Y85.258 E31.41766
G1 X189.934 Y85.258 E32.10631
G1 X190.642 Y85.268 E32.12986
G1 X191.544 Y85.321 E32.15992
G1 X192.089 Y85.392 E32.1782
G1 X192.393 Y85.44 E32.18843
G1 X193.278 Y85.62 E32.21847
G1 X194.143 Y85.878 E32.24849
G1 X194.86 Y86.157 E32.27408
G1 X195.169 Y86.291 E32.28528
G1 X195.981 Y86.687 E32.31533
G1 X196.755 Y87.153 E32.34538
G1 X197.484 Y87.685 E32.3754
G1 X198.164 Y88.28 E32.40545
G1 X198.975 Y89.153 E32.44508
G1 X199.26 Y89.498 E32.45997
G1 X199.804 Y90.219 E32.49001
G1 X200.281 Y90.985 E32.52002
G1 X200.69 Y91.791 E32.55008
G1 X201.077 Y92.783 E32.5855
G1 X201.208 Y93.178 E32.59934
G1 X201.455 Y94.047 E32.62939
G1 X201.623 Y94.934 E32.65941
G1 X201.725 Y96.205 E32.70182
G1 X201.743 Y97.274 E32.73738
G1 X201.742 Y144.919 E34.32206
G1 X201.731 Y145.662 E34.34678
G1 X201.678 Y146.564 E34.37683
G1 X201.557 Y147.412 E34.40532
G1 X201.375 Y148.297 E34.43537
G1 X201.115 Y149.162 E34.46541
G1 X200.822 Y149.92 E34.49244
G1 X200.388 Y150.825 E34.52582
G1 X200.08 Y151.361 E34.54639
G1 X198.516 Y153.901 E34.6456
G1 X197.269 Y156.065 E34.72867
G1 X196.042 Y158.344 E34.81475
G1 X194.918 Y160.58 E34.89799
G1 X193.837 Y162.892 E34.98288
G1 X192.827 Y165.219 E35.06725
G1 X191.875 Y167.597 E35.15245
G1 X191.004 Y169.965 E35.23637
G1 X190.189 Y172.39 E35.32145
G1 X189.456 Y174.791 E35.40495
G1 X188.784 Y177.242 E35.48948
G1 X188.177 Y179.725 E35.5745
G1 X187.642 Y182.227 E35.65959
G1 X187.184 Y184.698 E35.74318
G1 X186.794 Y187.198 E35.82734
G1 X186.474 Y189.72 E35.91189
G1 X186.222 Y192.275 E35.99728
G1 X186.046 Y194.789 E36.0811
G1 X185.941 Y197.318 E36.16529
G1 X185.906 Y199.838 E36.24911
G1 X185.904 Y203.835 E36.38206
G1 X185.894 Y204.537 E36.40541
G1 X185.841 Y205.439 E36.43546
G1 X185.709 Y206.332 E36.46548
G1 X185.498 Y207.21 E36.49552
G1 X185.21 Y208.066 E36.52556
G1 X184.885 Y208.829 E36.55314
G1 X184.422 Y209.713 E36.58633
G1 X183.933 Y210.473 E36.61639
G1 X183.38 Y211.187 E36.64643
G1 X182.765 Y211.848 E36.67645
G1 X182.095 Y212.453 E36.70648
G1 X181.373 Y212.996 E36.73653
G1 X180.606 Y213.474 E36.76659
G1 X179.801 Y213.881 E36.79659
G1 X178.962 Y214.216 E36.82663
G1 X178.097 Y214.475 E36.85667
G1 X177.212 Y214.657 E36.88672
G1 X176.315 Y214.759 E36.91674
G1 X175.773 Y214.783 E36.93479
G1 X175.167 Y214.793 E36.95495
G1 X109.909 Y214.794 E39.12544
G1 X109.233 Y214.784 E39.14792
G1 X108.332 Y214.731 E39.17794
G1 X107.438 Y214.598 E39.20801
G1 X106.56 Y214.386 E39.23805
G1 X106.101 Y214.242 E39.25405
G1 X105.698 Y214.105 E39.2682
G1 X104.857 Y213.777 E39.29823
G1 X104.048 Y213.376 E39.32826
G1 X103.277 Y212.904 E39.35833
G1 X102.543 Y212.36 E39.38871
G1 X102.237 Y212.111 E39.40184
G1 X101.563 Y211.51 E39.43187
G1 X100.944 Y210.852 E39.46192
G1 X100.386 Y210.142 E39.49195
G1 X99.952 Y209.486 E39.51811
G1 X99.775 Y209.194 E39.52947
G1 X99.342 Y208.402 E39.55949
G1 X98.98 Y207.575 E39.58952
G1 X98.684 Y206.685 E39.62071
G1 X98.607 Y206.413 E39.63012
G1 X98.399 Y205.534 E39.66016
G1 X98.271 Y204.64 E39.6902
G1 X98.223 Y203.816 E39.71765
G1 X98.206 Y202.788 E39.75185
G1 X98.206 Y154.911 E41.34424
G1 X98.224 Y153.943 E41.37644
G1 X98.279 Y152.643 E41.41972
G1 X98.353 Y150.029 E41.5067
G1 X98.353 Y147.47 E41.59181
G1 X98.309 Y145.635 E41.65286
G1 X98.266 Y144.412 E41.69356
G1 X98.26 Y144.055 E41.70544
G1 X98.257 Y98.422 E43.2232
G1 X98.268 Y97.572 E43.25147
G1 X98.321 Y96.671 E43.28149
G1 X98.453 Y95.777 E43.31155
G1 X98.664 Y94.899 E43.34158
G1 X98.952 Y94.043 E43.37162
G1 X99.314 Y93.216 E43.40164
G1 X99.748 Y92.424 E43.43168
G1 X100.25 Y91.673 E43.46173
G1 X100.817 Y90.97 E43.49177
G1 F2700 E36.49177
;MESH:Raspi_4_Case_Frame.stl
G0 F6000 X113.671 Y101.32
G0 X160.008 Y141.895
;TYPE:WALL-INNER
G1 F2700 E43.49177
G1 F1200 X116.503 Y141.896 E44.93875
G1 X116.104 Y141.845 E44.95213
G1 X115.63 Y141.737 E44.9683
G1 X115.191 Y141.573 E44.98388
G1 X114.649 Y141.293 E45.00417
G1 X114.187 Y140.942 E45.02347
G1 X113.812 Y140.561 E45.04125
G1 X113.459 Y140.102 E45.06051
G1 X113.203 Y139.622 E45.07861
G1 X113.037 Y139.194 E45.09387
G1 X112.908 Y138.672 E45.11176
G1 X112.855 Y138.262 E45.12551
G1 X112.854 Y103.753 E46.27328
G1 X112.905 Y103.354 E46.28666
G1 X113.023 Y102.838 E46.30427
G1 X113.204 Y102.381 E46.32061
G1 X113.464 Y101.883 E46.3393
G1 X113.837 Y101.403 E46.35952
G1 X114.188 Y101.062 E46.37579
G1 X114.659 Y100.702 E46.39551
G1 X115.127 Y100.453 E46.41314
G1 X115.556 Y100.287 E46.42844
G1 X116.078 Y100.158 E46.44633
G1 X116.492 Y100.105 E46.46021
G1 X159.997 Y100.104 E47.90719
G1 X160.396 Y100.155 E47.92057
G1 X160.87 Y100.263 E47.93674
G1 X161.309 Y100.427 E47.95233
G1 X161.876 Y100.722 E47.97358
G1 X162.331 Y101.073 E47.9927
G1 X162.644 Y101.388 E48.00747
G1 X163.036 Y101.885 E48.02852
G1 X163.297 Y102.377 E48.04704
G1 X163.476 Y102.843 E48.06365
G1 X163.59 Y103.317 E48.07986
G1 X163.647 Y103.771 E48.09508
G1 X163.646 Y138.252 E49.24192
G1 X163.59 Y138.678 E49.25622
G1 X163.479 Y139.15 E49.27234
G1 X163.315 Y139.577 E49.28756
G1 X163.038 Y140.109 E49.3075
G1 X162.683 Y140.575 E49.32699
G1 X162.311 Y140.938 E49.34428
G1 X161.863 Y141.287 E49.36316
G1 X161.372 Y141.547 E49.38164
G1 X160.944 Y141.713 E49.39691
G1 X160.422 Y141.842 E49.4148
G1 X160.008 Y141.895 E49.42868
G0 F6000 X159.958 Y141.498
;TYPE:WALL-OUTER
G1 F1200 X116.554 Y141.499 E50.8723
G1 X116.155 Y141.448 E50.88568
G1 X115.694 Y141.339 E50.90144
G1 X115.316 Y141.191 E50.91494
G1 X114.829 Y140.933 E50.93327
G1 X114.432 Y140.626 E50.94996
G1 X114.128 Y140.315 E50.96442
G1 X113.799 Y139.891 E50.98227
G1 X113.546 Y139.412 E51.00029
G1 X113.411 Y139.053 E51.01305
G1 X113.302 Y138.603 E51.02845
G1 X113.252 Y138.211 E51.04159
G1 X113.251 Y103.804 E52.18597
G1 X113.302 Y103.405 E52.19935
G1 X113.411 Y102.944 E52.21511
G1 X113.559 Y102.566 E52.22861
G1 X113.803 Y102.1 E52.2461
G1 X114.134 Y101.671 E52.26413
G1 X114.434 Y101.378 E52.27807
G1 X114.868 Y101.044 E52.29629
G1 X115.338 Y100.796 E52.31396
G1 X115.697 Y100.661 E52.32672
G1 X116.147 Y100.552 E52.34212
G1 X116.542 Y100.502 E52.35536
G1 X159.946 Y100.501 E53.79899
G1 X160.345 Y100.552 E53.81236
G1 X160.806 Y100.661 E53.82812
G1 X161.184 Y100.809 E53.84162
G1 X161.658 Y101.058 E53.85943
G1 X162.074 Y101.379 E53.87691
G1 X162.37 Y101.681 E53.89097
G1 X162.706 Y102.118 E53.90931
G1 X162.954 Y102.588 E53.92698
G1 X163.093 Y102.959 E53.94016
G1 X163.199 Y103.406 E53.95544
G1 X163.248 Y103.791 E53.96835
G1 X163.25 Y138.188 E55.11239
G1 X163.198 Y138.597 E55.12611
G1 X163.095 Y139.039 E55.1412
G1 X162.941 Y139.434 E55.1553
G1 X162.697 Y139.9 E55.1728
G1 X162.373 Y140.322 E55.19049
