;FLAVOR:Marlin
;TIME:860
;Filament used: 0.394089m
;Layer height: 0.2
;MINX:129.053
;MINY:53.919
;MINZ:0.2
;MAXX:176.053
;MAXY:91.914
;MAXZ:6
;Generated with Cura_SteamEngine 5.2.1
M140 S60
M105
M190 S60
M104 S210
M105
M109 S210
M82 ;absolute extrusion mode
M201 X500.00 Y500.00 Z100.00 E5000.00 ;Setup machine max acceleration
M203 X500.00 Y500.00 Z10.00 E50.00 ;Setup machine max feedrate
M204 P500.00 R1000.00 T500.00 ;Setup Print/Retract/Travel acceleration
M205 X8.00 Y8.00 Z0.40 E5.00 ;Setup Jerk
M220 S100 ;Reset Feedrate
M221 S100 ;Reset Flowrate

G28 ;Home
G29 ;Auto bed Level

G92 E0 ;Reset Extruder
G1 Z2.0 F3000 ;Move Z Axis up
G1 X10.1 Y20 Z0.28 F5000.0 ;Move to start position
G1 X10.1 Y200.0 Z0.28 F1500.0 E15 ;Draw the first line
G1 X10.4 Y200.0 Z0.28 F5000.0 ;Move to side a little
G1 X10.4 Y20 Z0.28 F1500.0 E30 ;Draw the second line
G92 E0 ;Reset Extruder
G1 Z2.0 F3000 ;Move Z Axis up

G92 E0
G92 E0
G1 F2700 E-0.75
;LAYER_COUNT:30
;LAYER:0
M107
G0 F6000 X130.316 Y61.373 Z0.2
;TYPE:SKIRT
G1 F2700 E0
G1 F1200 X130.742 Y60.538 E0.02806
G1 X131.133 Y59.898 E0.05051
G1 X131.282 Y59.672 E0.05861
G1 X131.831 Y58.912 E0.08668
G1 X132.273 Y58.387 E0.10722
G1 X132.488 Y58.147 E0.11687
G1 X133.143 Y57.476 E0.14494
G1 X133.683 Y57 E0.16648
G1 X133.911 Y56.812 E0.17533
G1 X134.659 Y56.247 E0.20339
G1 X135.307 Y55.832 E0.22642
G1 X135.574 Y55.674 E0.23571
G1 X136.401 Y55.232 E0.26378
G1 X137.021 Y54.956 E0.2841
G1 X137.401 Y54.801 E0.29638
G1 X138.284 Y54.484 E0.32446
G1 X139.191 Y54.243 E0.35256
G1 X139.948 Y54.104 E0.3756
G1 X140.3 Y54.052 E0.38625
G1 X141.233 Y53.955 E0.41433
G1 X141.725 Y53.936 E0.42906
G1 X142.81 Y53.919 E0.46155
G1 X162.464 Y53.919 E1.04987
G1 X163.256 Y53.929 E1.07358
G1 X164.546 Y54.023 E1.1123
G1 X165.021 Y54.086 E1.12664
G1 X165.945 Y54.249 E1.15473
G1 X166.851 Y54.49 E1.18279
G1 X167.618 Y54.761 E1.20714
G1 X167.909 Y54.876 E1.21651
G1 X169.179 Y55.474 E1.25853
G1 X169.46 Y55.629 E1.26813
G1 X170.261 Y56.117 E1.29621
G1 X170.867 Y56.553 E1.31856
G1 X171.178 Y56.793 E1.33032
G1 X171.896 Y57.397 E1.3584
G1 X172.559 Y58.06 E1.38647
G1 X173.031 Y58.608 E1.40812
G1 X173.232 Y58.858 E1.41772
G1 X173.788 Y59.614 E1.44581
G1 X174.124 Y60.147 E1.46468
G1 X174.304 Y60.451 E1.47525
G1 X174.747 Y61.277 E1.50331
G1 X175.021 Y61.891 E1.52343
G1 X175.14 Y62.182 E1.53285
G1 X175.457 Y63.065 E1.56093
G1 X175.688 Y63.901 E1.58689
G1 X175.885 Y64.914 E1.61778
G1 X175.959 Y65.527 E1.63627
G1 X175.995 Y65.912 E1.64784
G1 X176.038 Y66.595 E1.66833
G1 X176.052 Y67.225 E1.68719
G1 X176.053 Y78.216 E2.0162
G1 X176.035 Y79.305 E2.0488
G1 X175.978 Y80.241 E2.07687
G1 X175.802 Y81.369 E2.11104
G1 X175.727 Y81.726 E2.12196
G1 X175.495 Y82.634 E2.15002
G1 X175.26 Y83.33 E2.17201
G1 X175.147 Y83.631 E2.18163
G1 X174.78 Y84.494 E2.2097
G1 X174.473 Y85.093 E2.22985
G1 X174.344 Y85.326 E2.23782
G1 X173.855 Y86.126 E2.26589
G1 X173.439 Y86.705 E2.28723
G1 X173.249 Y86.952 E2.29656
G1 X172.646 Y87.67 E2.32463
G1 X172.146 Y88.182 E2.34605
G1 X171.85 Y88.466 E2.35833
G1 X171.146 Y89.086 E2.38641
G1 X170.392 Y89.644 E2.41449
G1 X169.753 Y90.045 E2.43707
G1 X169.384 Y90.259 E2.44984
G1 X168.553 Y90.694 E2.47791
G1 X167.688 Y91.057 E2.506
G1 X167.199 Y91.226 E2.52148
G1 X166.872 Y91.33 E2.53175
G1 X165.967 Y91.575 E2.55982
G1 X165.371 Y91.693 E2.57801
G1 X165.081 Y91.742 E2.58681
G1 X164.15 Y91.859 E2.6149
G1 X163.453 Y91.894 E2.63579
G1 X162.283 Y91.914 E2.67082
G1 X142.445 Y91.913 E3.26465
G1 X141.83 Y91.904 E3.28306
G1 X140.545 Y91.81 E3.32163
G1 X140.168 Y91.76 E3.33301
G1 X139.244 Y91.597 E3.3611
G1 X138.501 Y91.405 E3.38407
G1 X138.24 Y91.328 E3.39222
G1 X137.353 Y91.025 E3.42028
G1 X136.76 Y90.773 E3.43956
G1 X136.501 Y90.654 E3.44809
G1 X135.667 Y90.227 E3.47614
G1 X135.026 Y89.834 E3.49865
G1 X134.778 Y89.67 E3.50755
G1 X134.019 Y89.12 E3.53561
G1 X133.498 Y88.68 E3.55602
G1 X133.185 Y88.399 E3.56861
G1 X132.514 Y87.744 E3.59668
G1 X131.902 Y87.033 E3.62476
G1 X131.417 Y86.37 E3.64935
G1 X131.234 Y86.099 E3.65914
G1 X130.542 Y84.923 E3.69998
G1 X130.411 Y84.665 E3.70865
G1 X130.022 Y83.811 E3.73674
G1 X129.749 Y83.057 E3.76074
G1 X129.654 Y82.762 E3.77002
G1 X129.404 Y81.858 E3.79809
G1 X129.276 Y81.214 E3.81775
G1 X129.22 Y80.881 E3.82786
G1 X129.104 Y79.951 E3.85591
G1 X129.07 Y79.24 E3.87722
G1 X129.053 Y78.154 E3.90973
G1 X129.053 Y67.611 E4.22533
G1 X129.069 Y66.617 E4.25509
G1 X129.114 Y65.798 E4.27964
G1 X129.138 Y65.538 E4.28745
G1 X129.264 Y64.609 E4.31552
G1 X129.558 Y63.378 E4.3534
G1 X129.648 Y63.079 E4.36275
G1 X129.956 Y62.194 E4.3908
G1 X130.18 Y61.67 E4.40786
G1 X130.316 Y61.373 E4.41764
G0 F6000 X130.679 Y61.54
G1 F1200 X131.099 Y60.72 E4.44522
G1 X131.467 Y60.118 E4.46634
G1 X131.616 Y59.892 E4.47444
G1 X132.156 Y59.147 E4.50198
G1 X132.571 Y58.654 E4.52127
G1 X132.786 Y58.414 E4.53092
G1 X133.429 Y57.756 E4.55846
G1 X133.937 Y57.309 E4.57871
G1 X134.165 Y57.121 E4.58756
G1 X134.901 Y56.566 E4.61515
G1 X135.511 Y56.177 E4.63681
G1 X135.778 Y56.019 E4.6461
G1 X136.59 Y55.585 E4.67366
G1 X137.173 Y55.326 E4.69275
G1 X137.553 Y55.171 E4.70504
G1 X138.419 Y54.861 E4.73257
G1 X139.31 Y54.627 E4.76015
G1 X140.007 Y54.5 E4.78135
G1 X140.359 Y54.448 E4.79201
G1 X141.732 Y54.335 E4.83324
G1 X142.634 Y54.32 E4.86025
G1 X162.464 Y54.319 E5.45384
G1 X163.25 Y54.329 E5.47737
G1 X164.494 Y54.42 E5.51471
G1 X164.969 Y54.483 E5.52905
G1 X165.875 Y54.644 E5.5566
G1 X166.764 Y54.882 E5.58415
G1 X167.471 Y55.133 E5.6066
G1 X167.762 Y55.248 E5.61597
G1 X168.986 Y55.824 E5.65646
G1 X169.267 Y55.979 E5.66607
G1 X170.053 Y56.459 E5.69364
G1 X170.623 Y56.869 E5.71466
G1 X170.934 Y57.109 E5.72642
G1 X171.638 Y57.703 E5.75399
G1 X172.287 Y58.355 E5.78153
G1 X172.719 Y58.859 E5.8014
G1 X172.92 Y59.109 E5.811
G1 X173.465 Y59.851 E5.83856
G1 X173.78 Y60.35 E5.85622
G1 X173.96 Y60.654 E5.8668
G1 X174.394 Y61.466 E5.89436
G1 X174.65 Y62.043 E5.91325
G1 X174.769 Y62.334 E5.92267
G1 X175.08 Y63.2 E5.95021
G1 X175.299 Y63.995 E5.97489
G1 X175.492 Y64.991 E6.00526
G1 X175.561 Y65.564 E6.02254
G1 X175.597 Y65.949 E6.03411
G1 X175.638 Y66.607 E6.05385
G1 X175.652 Y67.225 E6.07235
G1 X175.653 Y78.216 E6.40136
G1 X175.635 Y79.298 E6.43375
G1 X175.579 Y80.216 E6.46128
G1 X175.411 Y81.286 E6.4937
G1 X175.336 Y81.643 E6.50462
G1 X175.107 Y82.535 E6.53219
G1 X174.886 Y83.19 E6.55288
G1 X174.773 Y83.491 E6.56251
G1 X174.412 Y84.338 E6.59007
G1 X174.123 Y84.899 E6.60896
G1 X173.994 Y85.132 E6.61693
G1 X173.513 Y85.918 E6.64452
G1 X173.122 Y86.461 E6.66455
G1 X172.932 Y86.708 E6.67387
G1 X172.339 Y87.413 E6.70145
G1 X171.869 Y87.894 E6.72158
G1 X171.573 Y88.178 E6.73386
G1 X170.881 Y88.786 E6.76143
G1 X170.14 Y89.331 E6.78897
G1 X169.552 Y89.699 E6.80973
G1 X169.183 Y89.913 E6.8225
G1 X168.367 Y90.339 E6.85006
G1 X167.517 Y90.694 E6.87763
G1 X166.751 Y90.948 E6.90179
G1 X165.862 Y91.189 E6.92936
G1 X165.304 Y91.299 E6.94638
G1 X165.014 Y91.348 E6.95519
G1 X164.1 Y91.462 E6.98276
G1 X163.446 Y91.494 E7.00236
G1 X162.283 Y91.514 E7.03718
G1 X142.451 Y91.513 E7.63083
G1 X141.836 Y91.504 E7.64924
G1 X140.597 Y91.413 E7.68643
G1 X140.22 Y91.363 E7.69782
G1 X139.314 Y91.202 E7.72536
G1 X138.615 Y91.022 E7.74697
G1 X138.354 Y90.945 E7.75511
G1 X137.483 Y90.646 E7.78268
G1 X136.927 Y90.41 E7.80076
G1 X136.668 Y90.291 E7.80929
G1 X135.849 Y89.871 E7.83684
G1 X135.247 Y89.501 E7.858
G1 X134.999 Y89.337 E7.8669
G1 X134.254 Y88.796 E7.89446
G1 X133.765 Y88.383 E7.91362
G1 X133.452 Y88.102 E7.92621
G1 X132.794 Y87.457 E7.95379
G1 X132.195 Y86.759 E7.98132
G1 X131.748 Y86.146 E8.00403
G1 X131.565 Y85.875 E8.01382
G1 X130.899 Y84.742 E8.05316
G1 X130.768 Y84.484 E8.06182
G1 X130.387 Y83.646 E8.08938
G1 X130.129 Y82.934 E8.11205
G1 X130.034 Y82.639 E8.12133
G1 X129.79 Y81.751 E8.14889
G1 X129.671 Y81.148 E8.16729
G1 X129.615 Y80.815 E8.1774
G1 X129.502 Y79.901 E8.20497
G1 X129.469 Y79.233 E8.22499
G1 X129.454 Y78.33 E8.25202
G1 X129.453 Y67.611 E8.57288
G1 X129.469 Y66.624 E8.60243
G1 X129.512 Y65.835 E8.62609
G1 X129.536 Y65.575 E8.6339
G1 X129.66 Y64.662 E8.66148
G1 X129.941 Y63.494 E8.69744
G1 X130.031 Y63.195 E8.70679
G1 X130.334 Y62.326 E8.73434
G1 X130.543 Y61.837 E8.75026
G1 X130.679 Y61.54 E8.76004
G0 F6000 X131.043 Y61.706
G1 F1200 X131.455 Y60.903 E8.78705
G1 X131.801 Y60.339 E8.80686
G1 X131.95 Y60.113 E8.81496
G1 X132.48 Y59.381 E8.84202
G1 X132.869 Y58.921 E8.86005
G1 X133.084 Y58.681 E8.86969
G1 X133.715 Y58.036 E8.8967
G1 X134.192 Y57.617 E8.91571
G1 X134.42 Y57.429 E8.92455
G1 X135.141 Y56.886 E8.95157
G1 X135.714 Y56.521 E8.97191
G1 X135.981 Y56.363 E8.9812
G1 X136.778 Y55.938 E9.00823
G1 X137.324 Y55.696 E9.02611
G1 X137.704 Y55.541 E9.0384
G1 X138.554 Y55.238 E9.06541
G1 X139.428 Y55.01 E9.09245
G1 X140.065 Y54.896 E9.11182
G1 X140.417 Y54.844 E9.12247
G1 X141.738 Y54.735 E9.16215
G1 X142.64 Y54.72 E9.18915
G1 X162.464 Y54.719 E9.78256
G1 X163.244 Y54.729 E9.80592
G1 X164.441 Y54.817 E9.84184
G1 X164.916 Y54.88 E9.85619
G1 X165.805 Y55.038 E9.88321
G1 X166.677 Y55.274 E9.91026
G1 X167.324 Y55.505 E9.93082
G1 X167.615 Y55.62 E9.94019
G1 X168.793 Y56.175 E9.97917
G1 X169.074 Y56.33 E9.98877
G1 X169.844 Y56.8 E10.01578
G1 X170.379 Y57.186 E10.03553
G1 X170.69 Y57.426 E10.04728
G1 X171.379 Y58.009 E10.0743
G1 X172.015 Y58.65 E10.10133
G1 X172.407 Y59.11 E10.11942
G1 X172.608 Y59.36 E10.12903
G1 X173.142 Y60.088 E10.15605
G1 X173.436 Y60.554 E10.17255
G1 X173.616 Y60.858 E10.18312
G1 X174.041 Y61.655 E10.21016
G1 X174.28 Y62.194 E10.22781
G1 X174.399 Y62.485 E10.23722
G1 X174.704 Y63.335 E10.26425
G1 X174.911 Y64.094 E10.2878
G1 X175.098 Y65.067 E10.31746
G1 X175.163 Y65.601 E10.33356
G1 X175.199 Y65.986 E10.34514
G1 X175.238 Y66.62 E10.36415
G1 X175.252 Y67.225 E10.38227
G1 X175.253 Y78.216 E10.71127
G1 X175.235 Y79.29 E10.74343
G1 X175.179 Y80.192 E10.77048
G1 X175.019 Y81.204 E10.80115
G1 X174.944 Y81.561 E10.81207
G1 X174.719 Y82.436 E10.83911
G1 X174.511 Y83.049 E10.85849
G1 X174.398 Y83.35 E10.86811
G1 X174.044 Y84.181 E10.89515
G1 X173.773 Y84.706 E10.91284
G1 X173.644 Y84.939 E10.92081
G1 X173.172 Y85.709 E10.94785
G1 X172.805 Y86.217 E10.96661
G1 X172.615 Y86.464 E10.97593
G1 X172.033 Y87.155 E11.00298
G1 X171.592 Y87.605 E11.02184
G1 X171.296 Y87.889 E11.03412
G1 X170.617 Y88.485 E11.06116
G1 X169.888 Y89.018 E11.08819
G1 X169.351 Y89.353 E11.10714
G1 X168.982 Y89.567 E11.11991
G1 X168.182 Y89.985 E11.14693
G1 X166.956 Y90.463 E11.18632
G1 X166.629 Y90.567 E11.19659
G1 X165.758 Y90.803 E11.2236
G1 X164.947 Y90.953 E11.24829
G1 X164.051 Y91.064 E11.27532
G1 X163.438 Y91.094 E11.29369
G1 X162.283 Y91.114 E11.32827
G1 X142.457 Y91.113 E11.92174
G1 X141.842 Y91.104 E11.94015
G1 X140.65 Y91.016 E11.97593
G1 X140.273 Y90.966 E11.98732
G1 X139.384 Y90.808 E12.01434
G1 X138.728 Y90.638 E12.03463
G1 X138.467 Y90.561 E12.04277
G1 X137.613 Y90.267 E12.06981
G1 X137.094 Y90.047 E12.08668
G1 X136.835 Y89.928 E12.09522
G1 X136.032 Y89.514 E12.12226
G1 X135.468 Y89.167 E12.14208
G1 X135.22 Y89.003 E12.15098
G1 X134.489 Y88.472 E12.17803
G1 X134.032 Y88.085 E12.19595
G1 X133.719 Y87.804 E12.20855
G1 X133.074 Y87.172 E12.23558
G1 X132.488 Y86.485 E12.26261
G1 X132.08 Y85.922 E12.28342
G1 X131.897 Y85.651 E12.29321
G1 X131.255 Y84.561 E12.33108
G1 X131.124 Y84.303 E12.33974
G1 X130.751 Y83.48 E12.36678
G1 X130.51 Y82.812 E12.38804
G1 X130.415 Y82.517 E12.39732
G1 X130.177 Y81.646 E12.42435
G1 X130.065 Y81.082 E12.44156
G1 X130.009 Y80.749 E12.45167
G1 X129.899 Y79.852 E12.47872
G1 X129.869 Y79.226 E12.49748
G1 X129.854 Y78.323 E12.52452
G1 X129.853 Y67.611 E12.84517
G1 X129.869 Y66.631 E12.87451
G1 X129.91 Y65.871 E12.89729
G1 X129.934 Y65.611 E12.90511
G1 X130.057 Y64.717 E12.93212
G1 X130.324 Y63.609 E12.96624
G1 X130.414 Y63.31 E12.97558
G1 X130.712 Y62.458 E13.0026
G1 X131.043 Y61.706 E13.0272
G1 F2700 E12.2772
;MESH:Bed_Clip_Mount.stl
G0 F6000 X139.392 Y66.836
G0 X141.533 Y80.218
;TYPE:WALL-INNER
G1 F2700 E13.0272
G1 F1200 X141.948 Y80.314 E13.03995
G1 X163.257 Y80.314 E13.67781
G1 X163.615 Y80.203 E13.68903
G1 X163.885 Y80.047 E13.69837
G1 X164.073 Y79.874 E13.70602
G1 X164.31 Y79.531 E13.7185
G1 X164.453 Y79.067 E13.73303
G1 X164.453 Y66.996 E14.09437
G1 X164.435 Y66.71 E14.10294
G1 X164.292 Y66.244 E14.11753
G1 X164.049 Y65.932 E14.12937
G1 X163.749 Y65.694 E14.14084
G1 X163.418 Y65.565 E14.15147
G1 X163.123 Y65.519 E14.16041
G1 X141.991 Y65.519 E14.79297
G1 X141.697 Y65.563 E14.80187
G1 X141.457 Y65.655 E14.80957
G1 X141.105 Y65.893 E14.82229
G1 X140.959 Y66.048 E14.82866
G1 X140.751 Y66.412 E14.84121
G1 X140.675 Y66.661 E14.849
G1 X140.653 Y66.927 E14.85699
G1 X140.654 Y78.986 E15.21797
G1 X140.768 Y79.506 E15.2339
G1 X140.986 Y79.829 E15.24557
G1 X141.181 Y80.011 E15.25355
G1 X141.533 Y80.218 E15.26578
G0 F6000 X141.661 Y80.674
;TYPE:WALL-OUTER
G1 F1200 X141.917 Y80.714 E15.27353
G1 X163.185 Y80.714 E15.91017
G1 X163.447 Y80.674 E15.91811
G1 X163.776 Y80.572 E15.92842
G1 X164.124 Y80.371 E15.94045
G1 X164.367 Y80.147 E15.95034
G1 X164.537 Y79.933 E15.95852
G1 X164.671 Y79.707 E15.96639
G1 X164.77 Y79.456 E15.97446
G1 X164.831 Y79.19 E15.98263
G1 X164.853 Y78.915 E15.99089
G1 X164.853 Y66.996 E16.34767
G1 X164.832 Y66.65 E16.35805
G1 X164.775 Y66.401 E16.3657
G1 X164.679 Y66.152 E16.37369
G1 X164.547 Y65.919 E16.3817
G1 X164.335 Y65.648 E16.392
G1 X164.066 Y65.435 E16.40227
G1 X163.837 Y65.299 E16.41024
G1 X163.522 Y65.176 E16.42037
G1 X163.153 Y65.119 E16.43154
G1 X141.961 Y65.119 E17.06591
G1 X141.595 Y65.174 E17.07699
G1 X141.285 Y65.293 E17.08693
G1 X141.052 Y65.426 E17.09496
G1 X140.835 Y65.597 E17.10323
G1 X140.645 Y65.798 E17.11151
G1 X140.496 Y66.018 E17.11946
G1 X140.377 Y66.265 E17.12767
G1 X140.279 Y66.586 E17.13771
G1 X140.253 Y66.911 E17.14747
G1 X140.254 Y79.016 E17.50983
G1 X140.298 Y79.313 E17.51881
G1 X140.376 Y79.571 E17.52688
G1 X140.494 Y79.816 E17.53502
G1 X140.68 Y80.09 E17.54494
G1 X140.93 Y80.324 E17.55519
G1 X141.15 Y80.475 E17.56317
G1 X141.386 Y80.592 E17.57106
G1 X141.661 Y80.674 E17.57965
G1 F2700 E16.82965
G0 F6000 X141.747 Y80.177
G0 X144.668 Y80.494
G0 X144.791 Y79.282
G0 X144.816 Y79.109
;TYPE:WALL-INNER
G1 F2700 E17.57965
G1 F1200 X144.445 Y79.037 E17.59096
G1 X144.011 Y78.871 E17.60487
G1 X143.619 Y78.592 E17.61927
G1 X143.393 Y78.362 E17.62893
G1 X143.157 Y78.049 E17.64066
G1 X142.94 Y77.583 E17.65605
G1 X142.859 Y77.117 E17.67021
G1 X142.859 Y76.738 E17.68155
G1 X142.936 Y76.27 E17.69575
G1 X143.135 Y75.835 E17.71007
G1 X143.346 Y75.524 E17.72132
G1 X143.61 Y75.256 E17.73258
G1 X143.99 Y74.977 E17.74669
G1 X144.531 Y74.768 E17.76405
G1 X145.004 Y74.717 E17.77829
G1 X145.329 Y74.738 E17.78804
G1 X145.435 Y74.754 E17.79125
G1 X145.744 Y74.83 E17.80077
G1 X146.092 Y74.976 E17.81207
G1 X146.412 Y75.184 E17.8235
G1 X146.69 Y75.446 E17.83493
G1 X146.926 Y75.765 E17.84681
G1 X147.096 Y76.102 E17.85811
G1 X147.203 Y76.439 E17.86869
G1 X147.267 Y76.915 E17.88307
G1 X147.207 Y77.383 E17.89719
G1 X147.095 Y77.744 E17.90851
G1 X146.922 Y78.084 E17.91993
G1 X146.64 Y78.464 E17.93409
G1 X146.195 Y78.814 E17.95104
G1 X145.675 Y79.045 E17.96807
G1 X145.204 Y79.117 E17.98233
G1 X144.816 Y79.109 E17.99395
G0 F6000 X145.19 Y78.714
;TYPE:WALL-OUTER
G1 F1200 X144.85 Y78.707 E18.00413
G1 X144.544 Y78.647 E18.01346
G1 X144.201 Y78.515 E18.02447
G1 X143.869 Y78.275 E18.03673
G1 X143.678 Y78.081 E18.04488
G1 X143.48 Y77.795 E18.05529
G1 X143.325 Y77.462 E18.06629
G1 X143.261 Y77.094 E18.07747
G1 X143.261 Y76.755 E18.08762
G1 X143.322 Y76.387 E18.09878
G1 X143.494 Y76.019 E18.11094
G1 X143.67 Y75.766 E18.12017
G1 X143.887 Y75.549 E18.12935
G1 X144.184 Y75.331 E18.14038
G1 X144.626 Y75.16 E18.15457
G1 X145.029 Y75.12 E18.16669
G1 X145.305 Y75.137 E18.17497
G1 X145.602 Y75.206 E18.18409
G1 X145.888 Y75.324 E18.19336
G1 X146.149 Y75.49 E18.20262
G1 X146.399 Y75.724 E18.21287
G1 X146.565 Y75.942 E18.22107
G1 X146.713 Y76.224 E18.2306
G1 X146.814 Y76.546 E18.2407
G1 X146.864 Y76.914 E18.25182
G1 X146.81 Y77.314 E18.2639
G1 X146.728 Y77.578 E18.27218
G1 X146.59 Y77.855 E18.28144
G1 X146.351 Y78.182 E18.29357
G1 X145.985 Y78.469 E18.30749
G1 X145.54 Y78.661 E18.322
G1 X145.19 Y78.714 E18.33259
G1 F2700 E17.58259
