;FLAVOR:Marlin
;TIME:2652
;Filament used: 1.35552m
;Layer height: 0.2
;MINX:110.13
;MINY:127.068
;MINZ:0.2
;MAXX:189.301
;MAXY:172.919
;MAXZ:17.8
;Generated with Cura_SteamEngine 5.2.1
M140 S60
M105
M190 S60
M104 S210
M105
M109 S210
M82 ;absolute extrusion mode
M201 X500.00 Y500.00 Z100.00 E5000.00 ;Setup machine max acceleration
M203 X500.00 Y500.00 Z10.00 E50.00 ;Setup machine max feedrate
M204 P500.00 R1000.00 T500.00 ;Setup Print/Retract/Travel acceleration
M205 X8.00 Y8.00 Z0.40 E5.00 ;Setup Jerk
M220 S100 ;Reset Feedrate
M221 S100 ;Reset Flowrate

G28 ;Home
G29 ;Auto bed Level

G92 E0 ;Reset Extruder
G1 Z2.0 F3000 ;Move Z Axis up
G1 X10.1 Y20 Z0.28 F5000.0 ;Move to start position
G1 X10.1 Y200.0 Z0.28 F1500.0 E15 ;Draw the first line
G1 X10.4 Y200.0 Z0.28 F5000.0 ;Move to side a little
G1 X10.4 Y20 Z0.28 F1500.0 E30 ;Draw the second line
G92 E0 ;Reset Extruder
G1 Z2.0 F3000 ;Move Z Axis up

G92 E0
G92 E0
G1 F2700 E-0.75
;LAYER_COUNT:89
;LAYER:0
M107
G0 F6000 X113.988 Y129.733 Z0.2
;TYPE:SKIRT
G1 F2700 E0
G1 F1200 X114.726 Y129.154 E0.02808
G1 X115.51 Y128.64 E0.05614
G1 X116.336 Y128.195 E0.08423
G1 X117.196 Y127.822 E0.11229
G1 X118.085 Y127.523 E0.14036
G1 X118.997 Y127.302 E0.16845
G1 X119.923 Y127.158 E0.19651
G1 X120.83 Y127.095 E0.22372
G1 X121.459 Y127.082 E0.24255
G1 X173.761 Y127.081 E1.80817
G1 X176.496 Y127.068 E1.89004
G1 X177.601 Y127.071 E1.92312
G1 X178.465 Y127.085 E1.94898
G1 X179.402 Y127.14 E1.97708
G1 X180.33 Y127.276 E2.00515
G1 X181.243 Y127.49 E2.03323
G1 X182.134 Y127.781 E2.06128
G1 X182.998 Y128.147 E2.08937
G1 X183.827 Y128.585 E2.11744
G1 X184.616 Y129.092 E2.14551
G1 X185.359 Y129.664 E2.17358
G1 X186.05 Y130.298 E2.20165
G1 X186.685 Y130.988 E2.22972
G1 X187.259 Y131.73 E2.2578
G1 X187.768 Y132.518 E2.28588
G1 X188.207 Y133.347 E2.31396
G1 X188.575 Y134.21 E2.34205
G1 X188.867 Y135.101 E2.37011
G1 X189.083 Y136.014 E2.3982
G1 X189.22 Y136.941 E2.42625
G1 X189.276 Y137.839 E2.45318
G1 X189.3 Y139.063 E2.48983
G1 X189.29 Y142.35 E2.58822
G1 X189.288 Y147.249 E2.73487
G1 X189.301 Y149.776 E2.81051
G1 X189.299 Y151.24 E2.85434
G1 X189.28 Y152.403 E2.88916
G1 X189.294 Y156.975 E3.02602
G1 X189.269 Y158 E3.05671
G1 X189.222 Y158.774 E3.07992
G1 X189.108 Y159.738 E3.10898
G1 X189.024 Y160.252 E3.12457
G1 X188.722 Y161.577 E3.16525
G1 X188.569 Y162.098 E3.1815
G1 X188.108 Y163.372 E3.22206
G1 X187.897 Y163.859 E3.23794
G1 X187.303 Y165.034 E3.27736
G1 X187.032 Y165.498 E3.29344
G1 X186.29 Y166.606 E3.33336
G1 X185.97 Y167.027 E3.34919
G1 X185.119 Y168.019 E3.38831
G1 X184.764 Y168.386 E3.4036
G1 X183.773 Y169.293 E3.44381
G1 X183.314 Y169.664 E3.46148
G1 X182.227 Y170.438 E3.50142
G1 X181.838 Y170.681 E3.51515
G1 X180.711 Y171.297 E3.5536
G1 X180.197 Y171.54 E3.57062
G1 X178.937 Y172.043 E3.61123
G1 X178.43 Y172.21 E3.62721
G1 X177.104 Y172.557 E3.66823
G1 X176.563 Y172.663 E3.68474
G1 X175.311 Y172.834 E3.72256
G1 X174.866 Y172.869 E3.73592
G1 X174.186 Y172.901 E3.7563
G1 X173.041 Y172.919 E3.79058
G1 X159.411 Y172.917 E4.19858
G1 X158.802 Y172.908 E4.21681
G1 X157.876 Y172.869 E4.24456
G1 X156.612 Y172.733 E4.28261
G1 X156.07 Y172.643 E4.29906
G1 X154.759 Y172.342 E4.33932
G1 X154.271 Y172.198 E4.35455
G1 X153.061 Y171.763 E4.39304
G1 X152.579 Y171.557 E4.40874
G1 X151.361 Y170.944 E4.44955
G1 X150.85 Y170.646 E4.46726
G1 X150.06 Y170.14 E4.49534
G1 X149.673 Y169.854 E4.50975
G1 X149.227 Y169.51 E4.52661
G1 X148.445 Y168.847 E4.5573
G1 X147.273 Y167.755 E4.60525
G1 X145.379 Y166.076 E4.68101
G1 X143.471 Y164.479 E4.75549
G1 X141.46 Y162.891 E4.8322
G1 X139.458 Y161.399 E4.90694
G1 X137.401 Y159.956 E4.98215
G1 X135.299 Y158.569 E5.05754
G1 X133.143 Y157.23 E5.13351
G1 X131.011 Y155.99 E5.20734
G1 X128.769 Y154.767 E5.28378
G1 X126.531 Y153.629 E5.35894
G1 X124.243 Y152.546 E5.43472
G1 X121.939 Y151.534 E5.51004
G1 X119.602 Y150.585 E5.58555
G1 X117.327 Y149.729 E5.65831
G1 X116.462 Y149.367 E5.68638
G1 X115.631 Y148.933 E5.71444
G1 X114.84 Y148.429 E5.74252
G1 X114.095 Y147.86 E5.77058
G1 X113.401 Y147.229 E5.79866
G1 X112.763 Y146.541 E5.82674
G1 X112.186 Y145.802 E5.85481
G1 X111.674 Y145.016 E5.88289
G1 X111.231 Y144.189 E5.91097
G1 X110.86 Y143.328 E5.93904
G1 X110.564 Y142.438 E5.96711
G1 X110.344 Y141.526 E5.99519
G1 X110.203 Y140.599 E6.02326
G1 X110.144 Y139.735 E6.04919
G1 X110.13 Y138.96 E6.07239
G1 X110.14 Y137.979 E6.10176
G1 X110.189 Y137.042 E6.12984
G1 X110.318 Y136.113 E6.15792
G1 X110.526 Y135.199 E6.18598
G1 X110.811 Y134.305 E6.21406
G1 X111.171 Y133.439 E6.24214
G1 X111.603 Y132.607 E6.2702
G1 X112.105 Y131.815 E6.29827
G1 X112.673 Y131.068 E6.32636
G1 X113.302 Y130.372 E6.35444
G1 X113.988 Y129.733 E6.38251
G0 F6000 X114.377 Y129.928
G1 F1200 X115.111 Y129.372 E6.41007
G1 X115.89 Y128.882 E6.43762
G1 X116.709 Y128.461 E6.46518
G1 X117.561 Y128.113 E6.49273
G1 X118.441 Y127.84 E6.52031
G1 X119.34 Y127.645 E6.54785
G1 X120.254 Y127.528 E6.57543
G1 X120.841 Y127.495 E6.59303
G1 X121.459 Y127.482 E6.61153
G1 X173.763 Y127.481 E8.17721
G1 X176.495 Y127.468 E8.25899
G1 X177.6 Y127.471 E8.29207
G1 X178.459 Y127.485 E8.31778
G1 X179.378 Y127.54 E8.34534
G1 X180.288 Y127.675 E8.37288
G1 X181.184 Y127.889 E8.40046
G1 X182.057 Y128.179 E8.42799
G1 X182.903 Y128.545 E8.45559
G1 X183.713 Y128.982 E8.48314
G1 X184.482 Y129.488 E8.51069
G1 X185.204 Y130.058 E8.53823
G1 X185.875 Y130.689 E8.5658
G1 X186.488 Y131.376 E8.59336
G1 X187.039 Y132.114 E8.62093
G1 X187.523 Y132.897 E8.64848
G1 X187.939 Y133.718 E8.67604
G1 X188.281 Y134.573 E8.7036
G1 X188.548 Y135.454 E8.73116
G1 X188.737 Y136.355 E8.75871
G1 X188.848 Y137.269 E8.78628
G1 X188.876 Y137.848 E8.80363
G1 X188.9 Y139.062 E8.83997
G1 X188.89 Y142.349 E8.93837
G1 X188.888 Y147.249 E9.08505
G1 X188.901 Y149.775 E9.16066
G1 X188.899 Y151.239 E9.20448
G1 X188.88 Y152.397 E9.23915
G1 X188.894 Y156.976 E9.37622
G1 X188.869 Y157.988 E9.40652
G1 X188.823 Y158.744 E9.4292
G1 X188.713 Y159.674 E9.45723
G1 X188.629 Y160.188 E9.47282
G1 X188.339 Y161.465 E9.51202
G1 X188.186 Y161.986 E9.52827
G1 X187.741 Y163.213 E9.56734
G1 X187.53 Y163.7 E9.58323
G1 X186.957 Y164.832 E9.62121
G1 X186.686 Y165.296 E9.63729
G1 X185.972 Y166.364 E9.67575
G1 X185.652 Y166.785 E9.69158
G1 X184.832 Y167.741 E9.72928
G1 X184.477 Y168.108 E9.74457
G1 X183.521 Y168.982 E9.78334
G1 X183.062 Y169.353 E9.80101
G1 X182.015 Y170.099 E9.83949
G1 X181.626 Y170.342 E9.85322
G1 X180.541 Y170.935 E9.89023
G1 X180.027 Y171.178 E9.90725
G1 X178.812 Y171.663 E9.94641
G1 X178.305 Y171.83 E9.96239
G1 X177.027 Y172.164 E10.00193
G1 X176.486 Y172.27 E10.01843
G1 X175.279 Y172.435 E10.0549
G1 X174.834 Y172.47 E10.06826
G1 X174.179 Y172.502 E10.08789
G1 X173.218 Y172.518 E10.11666
G1 X159.417 Y172.517 E10.52978
G1 X158.808 Y172.508 E10.54801
G1 X157.895 Y172.469 E10.57537
G1 X156.678 Y172.339 E10.61201
G1 X156.136 Y172.249 E10.62845
G1 X154.872 Y171.959 E10.66727
G1 X154.384 Y171.815 E10.6825
G1 X153.218 Y171.395 E10.7196
G1 X152.736 Y171.189 E10.73529
G1 X151.562 Y170.599 E10.77462
G1 X151.051 Y170.301 E10.79233
G1 X149.917 Y169.537 E10.83326
G1 X149.471 Y169.193 E10.85012
G1 X148.718 Y168.554 E10.87968
G1 X147.548 Y167.464 E10.92755
G1 X145.655 Y165.786 E11.00327
G1 X143.712 Y164.16 E11.07911
G1 X141.723 Y162.589 E11.15499
G1 X139.681 Y161.068 E11.2312
G1 X137.619 Y159.62 E11.30663
G1 X135.509 Y158.228 E11.38229
G1 X133.374 Y156.902 E11.45753
G1 X131.181 Y155.627 E11.53346
G1 X128.937 Y154.403 E11.60998
G1 X126.719 Y153.276 E11.68445
G1 X124.425 Y152.189 E11.76044
G1 X122.114 Y151.175 E11.83598
G1 X119.717 Y150.2 E11.91344
G1 X117.466 Y149.354 E11.98543
G1 X116.617 Y148.998 E12.01298
G1 X115.802 Y148.569 E12.04055
G1 X115.028 Y148.072 E12.06809
G1 X114.299 Y147.509 E12.09566
G1 X113.622 Y146.885 E12.12322
G1 X113.002 Y146.204 E12.15079
G1 X112.443 Y145.473 E12.17833
G1 X111.95 Y144.695 E12.20591
G1 X111.526 Y143.878 E12.23346
G1 X111.175 Y143.027 E12.26101
G1 X110.899 Y142.149 E12.28856
G1 X110.7 Y141.25 E12.31613
G1 X110.58 Y140.337 E12.34369
G1 X110.544 Y139.724 E12.36207
G1 X110.53 Y138.964 E12.38483
G1 X110.54 Y137.983 E12.41419
G1 X110.589 Y137.064 E12.44174
G1 X110.718 Y136.152 E12.46931
G1 X110.925 Y135.255 E12.49687
G1 X111.21 Y134.38 E12.52442
G1 X111.57 Y133.532 E12.55199
G1 X112.001 Y132.719 E12.57954
G1 X112.502 Y131.946 E12.60711
G1 X113.068 Y131.22 E12.63467
G1 X113.694 Y130.545 E12.66223
G1 X114.377 Y129.928 E12.68978
G0 F6000 X114.766 Y130.127
G1 F1200 X115.495 Y129.595 E12.71679
G1 X116.269 Y129.129 E12.74384
G1 X117.081 Y128.733 E12.77088
G1 X117.924 Y128.411 E12.79789
G1 X118.793 Y128.164 E12.82494
G1 X119.68 Y127.996 E12.85196
G1 X120.852 Y127.895 E12.88717
G1 X121.459 Y127.882 E12.90535
G1 X173.765 Y127.881 E14.47108
G1 X176.494 Y127.868 E14.55277
G1 X177.744 Y127.872 E14.59019
G1 X178.452 Y127.884 E14.61139
G1 X179.353 Y127.94 E14.63841
G1 X180.246 Y128.075 E14.66544
G1 X181.124 Y128.288 E14.69249
G1 X181.979 Y128.578 E14.71951
G1 X182.805 Y128.942 E14.74653
G1 X183.596 Y129.379 E14.77359
G1 X184.345 Y129.883 E14.80061
G1 X185.047 Y130.452 E14.82766
G1 X185.695 Y131.08 E14.85467
G1 X186.286 Y131.764 E14.88173
G1 X186.813 Y132.497 E14.90875
G1 X187.274 Y133.273 E14.93577
G1 X187.664 Y134.088 E14.96282
G1 X187.981 Y134.934 E14.98986
G1 X188.221 Y135.804 E15.01688
G1 X188.384 Y136.693 E15.04393
G1 X188.476 Y137.857 E15.07888
G1 X188.5 Y139.061 E15.11493
G1 X188.49 Y142.348 E15.21333
G1 X188.488 Y147.249 E15.36003
G1 X188.501 Y149.775 E15.43565
G1 X188.498 Y151.397 E15.4842
G1 X188.48 Y152.442 E15.51549
G1 X188.494 Y156.977 E15.65124
G1 X188.469 Y157.976 E15.68115
G1 X188.424 Y158.715 E15.70331
G1 X188.318 Y159.609 E15.73026
G1 X188.234 Y160.123 E15.74585
G1 X187.955 Y161.352 E15.78358
G1 X187.802 Y161.873 E15.79983
G1 X187.374 Y163.054 E15.83743
G1 X187.163 Y163.541 E15.85332
G1 X186.612 Y164.63 E15.88986
G1 X186.341 Y165.094 E15.90594
G1 X185.653 Y166.122 E15.94297
G1 X185.333 Y166.543 E15.9588
G1 X184.544 Y167.463 E15.99508
G1 X184.189 Y167.83 E16.01036
G1 X183.27 Y168.671 E16.04765
G1 X182.811 Y169.042 E16.06532
G1 X181.803 Y169.76 E16.10236
G1 X181.414 Y170.003 E16.11609
G1 X180.37 Y170.573 E16.1517
G1 X179.856 Y170.816 E16.16872
G1 X178.687 Y171.283 E16.2064
G1 X178.18 Y171.45 E16.22238
G1 X176.95 Y171.772 E16.26044
G1 X176.409 Y171.878 E16.27694
G1 X175.248 Y172.037 E16.31202
G1 X174.803 Y172.072 E16.32538
G1 X174.173 Y172.102 E16.34426
G1 X173.212 Y172.118 E16.37303
G1 X159.423 Y172.117 E16.78579
G1 X158.466 Y172.097 E16.81445
G1 X157.915 Y172.07 E16.83096
G1 X156.743 Y171.944 E16.86625
G1 X156.201 Y171.854 E16.88269
G1 X154.985 Y171.575 E16.92004
G1 X154.497 Y171.431 E16.93527
G1 X153.375 Y171.027 E16.97096
G1 X152.893 Y170.821 E16.98666
G1 X151.764 Y170.253 E17.02449
G1 X151.253 Y169.955 E17.04219
G1 X150.161 Y169.221 E17.08158
G1 X149.715 Y168.877 E17.09844
G1 X148.99 Y168.261 E17.12692
G1 X147.825 Y167.175 E17.17459
G1 X145.913 Y165.481 E17.25106
G1 X143.95 Y163.838 E17.32769
G1 X141.965 Y162.27 E17.40341
G1 X139.928 Y160.752 E17.47945
G1 X137.827 Y159.277 E17.5563
G1 X135.735 Y157.898 E17.6313
G1 X133.58 Y156.559 E17.70725
G1 X131.367 Y155.273 E17.78386
G1 X129.157 Y154.067 E17.85923
G1 X126.863 Y152.901 E17.93626
G1 X124.607 Y151.833 E18.01097
G1 X122.246 Y150.796 E18.08816
G1 X119.883 Y149.835 E18.16452
G1 X117.605 Y148.979 E18.23737
G1 X116.772 Y148.629 E18.26442
G1 X115.974 Y148.207 E18.29144
G1 X115.216 Y147.715 E18.31849
G1 X114.505 Y147.159 E18.34551
G1 X113.845 Y146.542 E18.37255
G1 X113.243 Y145.868 E18.3996
G1 X112.703 Y145.145 E18.42662
G1 X112.229 Y144.376 E18.45366
G1 X111.825 Y143.569 E18.48067
G1 X111.494 Y142.728 E18.50773
G1 X111.238 Y141.862 E18.53476
G1 X111.06 Y140.977 E18.56178
G1 X110.943 Y139.712 E18.59981
G1 X110.93 Y138.968 E18.62208
G1 X110.94 Y137.987 E18.65145
G1 X110.989 Y137.085 E18.67849
G1 X111.117 Y136.191 E18.70552
G1 X111.325 Y135.312 E18.73256
G1 X111.609 Y134.455 E18.75959
G1 X111.968 Y133.626 E18.78663
G1 X112.399 Y132.833 E18.81365
G1 X112.898 Y132.08 E18.84069
G1 X113.462 Y131.375 E18.86771
G1 X114.086 Y130.722 E18.89475
G1 X114.766 Y130.127 E18.9218
G1 F2700 E18.1718
;MESH:CR10SProV2_ADXL345.stl
G0 F6000 X121.543 Y137.417
G0 X155.042 Y151.328
;TYPE:WALL-INNER
G1 F2700 E18.9218
G1 F1200 X156.305 Y151.332 E18.95961
G1 X158.76 Y151.318 E19.0331
G1 X177.698 Y151.326 E19.59999
G1 X177.702 Y150.075 E19.63744
G1 X177.688 Y147.504 E19.7144
G1 X177.696 Y138.672 E19.97878
G1 X176.063 Y138.669 E20.02766
G1 X173.621 Y138.683 E20.10076
G1 X149.978 Y138.683 E20.80849
G1 X149.335 Y138.793 E20.83339
G1 X149.249 Y138.822 E20.83731
G1 X149.925 Y139.118 E20.8631
G1 X150.646 Y139.377 E20.88604
G1 X151.282 Y139.68 E20.90713
G1 X151.884 Y140.045 E20.9282
G1 X152.404 Y140.43 E20.94757
G1 X152.928 Y140.901 E20.96866
G1 X153.441 Y141.466 E20.9915
G1 X153.842 Y142.01 E21.01173
G1 X154.219 Y142.641 E21.03373
G1 X154.52 Y143.29 E21.05515
G1 X154.734 Y143.888 E21.07416
G1 X154.908 Y144.57 E21.09523
G1 X155.02 Y145.324 E21.11805
G1 X155.054 Y146.001 E21.13834
G1 X155.052 Y149.255 E21.23575
G1 X155.042 Y151.328 E21.2978
G0 F6000 X154.644 Y151.727
;TYPE:WALL-OUTER
G1 F1200 X156.307 Y151.732 E21.34758
G1 X158.762 Y151.718 E21.42107
G1 X178.097 Y151.726 E21.99985
G1 X178.102 Y150.076 E22.04924
G1 X178.088 Y147.502 E22.12629
G1 X178.096 Y138.273 E22.40255
G1 X176.061 Y138.269 E22.46347
G1 X173.621 Y138.283 E22.53651
G1 X121.329 Y138.282 E24.10182
G1 X121.329 Y139.218 E24.12984
G1 X147.882 Y139.219 E24.92468
G1 X148.524 Y139.25 E24.94392
G1 X149.185 Y139.346 E24.96392
G1 X149.828 Y139.506 E24.98375
G1 X150.476 Y139.739 E25.00436
G1 X151.058 Y140.013 E25.02362
G1 X151.63 Y140.356 E25.04358
G1 X152.181 Y140.764 E25.06411
G1 X152.673 Y141.211 E25.08401
G1 X153.107 Y141.689 E25.10333
G1 X153.514 Y142.239 E25.12381
G1 X153.857 Y142.811 E25.14378
G1 X154.139 Y143.413 E25.16368
G1 X154.358 Y144.023 E25.18308
G1 X154.52 Y144.667 E25.20296
G1 X154.62 Y145.344 E25.22344
G1 X154.654 Y146.001 E25.24314
G1 X154.652 Y149.252 E25.34045
G1 X154.64 Y150.799 E25.38676
G1 X154.644 Y151.727 E25.41454
G1 F2700 E24.66454
G0 F6000 X154.913 Y151.458
G0 X155.253 Y147.989
G0 X157.618 Y144.501
G0 X158.329 Y144.618
;TYPE:WALL-INNER
G1 F2700 E25.41454
G1 F1200 X157.949 Y144.476 E25.42668
G1 X157.708 Y144.345 E25.43489
G1 X157.416 Y144.124 E25.44586
G1 X157.148 Y143.845 E25.45744
G1 X156.946 Y143.534 E25.46854
G1 X156.802 Y143.192 E25.47965
G1 X156.729 Y142.911 E25.48834
G1 X156.685 Y142.501 E25.50068
G1 X156.72 Y142.128 E25.51189
G1 X156.814 Y141.773 E25.52289
G1 X156.943 Y141.478 E25.53252
G1 X157.142 Y141.163 E25.54368
G1 X157.39 Y140.895 E25.55461
G1 X157.677 Y140.671 E25.56551
G1 X157.99 Y140.502 E25.57615
G1 X158.333 Y140.382 E25.58703
G1 X158.688 Y140.324 E25.5978
G1 X159.053 Y140.324 E25.60873
G1 X159.408 Y140.382 E25.61949
G1 X159.751 Y140.502 E25.63037
G1 X160.064 Y140.671 E25.64102
G1 X160.351 Y140.895 E25.65192
G1 X160.596 Y141.16 E25.66272
G1 X160.791 Y141.459 E25.67341
G1 X160.936 Y141.791 E25.68425
G1 X161.023 Y142.134 E25.69484
G1 X161.055 Y142.503 E25.70593
G1 X161.025 Y142.865 E25.7168
G1 X160.923 Y143.238 E25.72838
G1 X160.793 Y143.537 E25.73814
G1 X160.595 Y143.841 E25.749
G1 X160.348 Y144.106 E25.75984
G1 X160.058 Y144.334 E25.77088
G1 X159.704 Y144.514 E25.78277
G1 X159.409 Y144.618 E25.79214
G1 X159.096 Y144.669 E25.80163
G1 X158.85 Y144.676 E25.809
G1 X158.688 Y144.674 E25.81384
G1 X158.329 Y144.618 E25.82472
G0 F6000 X158.139 Y144.124
;TYPE:WALL-OUTER
G1 F1200 X157.908 Y143.999 E25.83258
G1 X157.653 Y143.799 E25.84228
G1 X157.453 Y143.58 E25.85116
G1 X157.296 Y143.333 E25.85992
G1 X157.181 Y143.062 E25.86874
G1 X157.117 Y142.812 E25.87646
G1 X157.089 Y142.519 E25.88527
G1 X157.111 Y142.221 E25.89422
G1 X157.191 Y141.908 E25.90389
G1 X157.301 Y141.657 E25.91209
G1 X157.474 Y141.393 E25.92154
G1 X157.653 Y141.201 E25.9294
G1 X157.884 Y141.017 E25.93824
G1 X158.14 Y140.876 E25.94698
G1 X158.448 Y140.769 E25.95674
G1 X158.71 Y140.726 E25.96469
G1 X159.031 Y140.726 E25.9743
G1 X159.293 Y140.769 E25.98225
G1 X159.601 Y140.876 E25.99201
G1 X159.857 Y141.017 E26.00076
G1 X160.088 Y141.201 E26.0096
G1 X160.267 Y141.393 E26.01746
