;FLAVOR:Marlin
;TIME:6488
;Filament used: 4.07948m
;Layer height: 0.2
;MINX:115
;MINY:101
;MINZ:0.2
;MAXX:185
;MAXY:199
;MAXZ:20
;Generated with Cura_SteamEngine main
M140 S60
M105
M190 S60
M104 S210
M105
M109 S210
M82 ;absolute extrusion mode
M201 X500.00 Y500.00 Z100.00 E5000.00 ;Setup machine max acceleration
M203 X500.00 Y500.00 Z10.00 E50.00 ;Setup machine max feedrate
M204 P500.00 R1000.00 T500.00 ;Setup Print/Retract/Travel acceleration
M205 X8.00 Y8.00 Z0.40 E5.00 ;Setup Jerk
M220 S100 ;Reset Feedrate
M221 S100 ;Reset Flowrate

G28 ;Home
G29 ;Auto bed Level

G92 E0 ;Reset Extruder
G1 Z2.0 F3000 ;Move Z Axis up
G1 X10.1 Y20 Z0.28 F5000.0 ;Move to start position
G1 X10.1 Y200.0 Z0.28 F1500.0 E15 ;Draw the first line
G1 X10.4 Y200.0 Z0.28 F5000.0 ;Move to side a little
G1 X10.4 Y20 Z0.28 F1500.0 E30 ;Draw the second line
G92 E0 ;Reset Extruder
G1 Z2.0 F3000 ;Move Z Axis up

G92 E0
G92 E0
G1 F2700 E-5
;LAYER_COUNT:100
;LAYER:0
M107
G0 F6000 X117.566 Y104.958 Z0.2
G0 X115.001 Y112.525
;TYPE:SKIRT
G1 F2700 E0
G1 F1200 X115.01 Y111.86 E0.01991
G1 X115.063 Y110.924 E0.04797
G1 X115.195 Y109.995 E0.07606
G1 X115.406 Y109.081 E0.10414
G1 X115.694 Y108.189 E0.1322
G1 X116.057 Y107.324 E0.16028
G1 X116.492 Y106.493 E0.18836
G1 X116.996 Y105.703 E0.21641
G1 X117.566 Y104.958 E0.24449
G1 X118.198 Y104.264 E0.27258
G1 X118.886 Y103.627 E0.30065
G1 X119.626 Y103.051 E0.32872
G1 X120.412 Y102.539 E0.3568
G1 X121.239 Y102.097 E0.38487
G1 X122.101 Y101.727 E0.41295
G1 X122.991 Y101.431 E0.44103
G1 X123.903 Y101.213 E0.46909
G1 X124.83 Y101.072 E0.49716
G1 X125.701 Y101.013 E0.52329
G1 X126.33 Y101 E0.54213
G1 X173.451 Y101.001 E1.95265
G1 X174.149 Y101.011 E1.97355
G1 X175.085 Y101.065 E2.00161
G1 X176.013 Y101.197 E2.02967
G1 X176.927 Y101.409 E2.05776
G1 X177.819 Y101.698 E2.08583
G1 X178.684 Y102.061 E2.11391
G1 X179.514 Y102.497 E2.14197
G1 X180.305 Y103.002 E2.17006
G1 X181.049 Y103.573 E2.19814
G1 X181.742 Y104.205 E2.22621
G1 X182.379 Y104.893 E2.25428
G1 X182.954 Y105.634 E2.28236
G1 X183.465 Y106.42 E2.31042
G1 X183.907 Y107.248 E2.33851
G1 X184.276 Y108.11 E2.36658
G1 X184.571 Y109 E2.39465
G1 X184.789 Y109.912 E2.42272
G1 X184.929 Y110.84 E2.45081
G1 X184.987 Y111.701 E2.47664
G1 X185 Y112.33 E2.49548
G1 X184.999 Y187.4 E4.74263
G1 X184.99 Y188.127 E4.76439
G1 X184.939 Y189.064 E4.79248
G1 X184.807 Y189.992 E4.82054
G1 X184.598 Y190.906 E4.84861
G1 X184.311 Y191.799 E4.87669
G1 X183.949 Y192.665 E4.90478
G1 X183.515 Y193.496 E4.93285
G1 X183.011 Y194.287 E4.96092
G1 X182.442 Y195.032 E4.98898
G1 X181.811 Y195.727 E5.01708
G1 X181.124 Y196.365 E5.04515
G1 X180.385 Y196.942 E5.07321
G1 X179.599 Y197.454 E5.10129
G1 X178.773 Y197.897 E5.12935
G1 X177.911 Y198.269 E5.15745
G1 X177.022 Y198.565 E5.1855
G1 X176.11 Y198.785 E5.21358
G1 X175.183 Y198.926 E5.24165
G1 X174.299 Y198.987 E5.26818
G1 X173.67 Y199 E5.28701
G1 X126.565 Y198.999 E6.69706
G1 X125.867 Y198.99 E6.71795
G1 X124.931 Y198.938 E6.74601
G1 X124.002 Y198.806 E6.7741
G1 X123.088 Y198.596 E6.80217
G1 X122.195 Y198.309 E6.83025
G1 X121.33 Y197.946 E6.85833
G1 X120.499 Y197.512 E6.8864
G1 X119.708 Y197.008 E6.91447
G1 X118.963 Y196.438 E6.94255
G1 X118.269 Y195.807 E6.97063
G1 X117.632 Y195.12 E6.99867
G1 X117.055 Y194.38 E7.02676
G1 X116.543 Y193.594 E7.05484
G1 X116.1 Y192.767 E7.08293
G1 X115.729 Y191.906 E7.11099
G1 X115.433 Y191.016 E7.13907
G1 X115.214 Y190.104 E7.16714
G1 X115.073 Y189.177 E7.19521
G1 X115.013 Y188.288 E7.22188
G1 X115 Y187.658 E7.24075
G1 X115.001 Y112.525 E9.48979
G0 F6000 X115.401 Y112.531
G1 F1200 X115.41 Y111.866 E9.50969
G1 X115.462 Y110.946 E9.53728
G1 X115.594 Y110.035 E9.56483
G1 X115.805 Y109.139 E9.59239
G1 X116.092 Y108.264 E9.61995
G1 X116.455 Y107.418 E9.64751
G1 X116.889 Y106.606 E9.67507
G1 X117.392 Y105.835 E9.70263
G1 X117.961 Y105.111 E9.73019
G1 X118.589 Y104.439 E9.75772
G1 X119.274 Y103.823 E9.7853
G1 X120.01 Y103.27 E9.81286
G1 X120.791 Y102.782 E9.84042
G1 X121.611 Y102.364 E9.86797
G1 X122.465 Y102.019 E9.89555
G1 X123.345 Y101.749 E9.9231
G1 X124.245 Y101.557 E9.95065
G1 X125.159 Y101.443 E9.97822
G1 X125.712 Y101.413 E9.9948
G1 X126.33 Y101.4 E10.0133
G1 X173.293 Y101.4 E11.4191
G1 X174.143 Y101.411 E11.44454
G1 X175.062 Y101.464 E11.4721
G1 X175.973 Y101.597 E11.49966
G1 X176.869 Y101.808 E11.52721
G1 X177.743 Y102.096 E11.55476
G1 X178.59 Y102.459 E11.58234
G1 X179.401 Y102.894 E11.60989
G1 X180.171 Y103.398 E11.63744
G1 X180.895 Y103.967 E11.665
G1 X181.567 Y104.597 E11.69258
G1 X182.182 Y105.282 E11.72013
G1 X182.735 Y106.018 E11.74769
G1 X183.222 Y106.799 E11.77524
G1 X183.639 Y107.62 E11.8028
G1 X183.984 Y108.474 E11.83038
G1 X184.253 Y109.354 E11.85792
G1 X184.445 Y110.255 E11.8855
G1 X184.558 Y111.168 E11.91304
G1 X184.587 Y111.712 E11.92934
G1 X184.6 Y112.33 E11.94785
G1 X184.599 Y187.395 E14.19485
G1 X184.59 Y188.122 E14.21661
G1 X184.539 Y189.041 E14.24417
G1 X184.408 Y189.953 E14.27175
G1 X184.198 Y190.849 E14.29929
G1 X183.912 Y191.724 E14.32685
G1 X183.551 Y192.571 E14.35441
G1 X183.117 Y193.383 E14.38197
G1 X182.615 Y194.155 E14.40954
G1 X182.047 Y194.88 E14.43711
G1 X181.419 Y195.553 E14.46466
G1 X180.735 Y196.169 E14.49222
G1 X180 Y196.723 E14.51977
G1 X179.22 Y197.212 E14.54732
G1 X178.4 Y197.631 E14.57489
G1 X177.547 Y197.977 E14.60244
G1 X176.667 Y198.248 E14.63001
G1 X175.767 Y198.441 E14.65756
G1 X174.853 Y198.556 E14.68514
G1 X174.288 Y198.587 E14.70207
G1 X173.67 Y198.6 E14.72058
G1 X126.57 Y198.599 E16.13047
G1 X125.872 Y198.59 E16.15137
G1 X124.953 Y198.538 E16.17892
G1 X124.042 Y198.407 E16.20647
G1 X123.146 Y198.197 E16.23402
G1 X122.271 Y197.91 E16.26159
G1 X121.424 Y197.548 E16.28916
G1 X120.612 Y197.114 E16.31672
G1 X119.841 Y196.612 E16.34426
G1 X119.116 Y196.044 E16.37183
G1 X118.443 Y195.415 E16.3994
G1 X117.828 Y194.731 E16.42694
G1 X117.274 Y193.996 E16.45449
G1 X116.786 Y193.215 E16.48206
G1 X116.367 Y192.395 E16.50962
G1 X116.021 Y191.542 E16.53718
G1 X115.751 Y190.662 E16.56473
G1 X115.558 Y189.761 E16.59231
G1 X115.444 Y188.848 E16.61985
G1 X115.413 Y188.277 E16.63697
G1 X115.4 Y187.658 E16.65551
G1 X115.401 Y112.531 E18.90437
G0 F6000 X115.801 Y112.536
G1 F1200 X115.81 Y111.871 E18.92427
G1 X115.862 Y110.969 E18.95132
G1 X115.994 Y110.076 E18.97834
G1 X116.204 Y109.198 E19.00536
G1 X116.491 Y108.341 E19.03242
G1 X116.853 Y107.514 E19.05944
G1 X117.286 Y106.722 E19.08646
G1 X117.788 Y105.971 E19.1135
G1 X118.355 Y105.267 E19.14056
G1 X118.981 Y104.617 E19.16757
G1 X119.662 Y104.024 E19.1946
G1 X120.394 Y103.494 E19.22166
G1 X121.169 Y103.031 E19.24868
G1 X121.982 Y102.638 E19.27571
G1 X122.827 Y102.318 E19.30276
G1 X123.696 Y102.075 E19.32977
G1 X124.584 Y101.909 E19.35681
G1 X125.723 Y101.813 E19.39103
G1 X126.33 Y101.8 E19.4092
G1 X173.293 Y101.8 E20.815
G1 X174.137 Y101.811 E20.84026
G1 X175.039 Y101.864 E20.86731
G1 X175.932 Y101.996 E20.89433
G1 X176.81 Y102.207 E20.92136
G1 X177.666 Y102.495 E20.9484
G1 X178.493 Y102.857 E20.97542
G1 X179.285 Y103.292 E21.00247
G1 X180.036 Y103.794 E21.02951
G1 X180.739 Y104.361 E21.05655
G1 X181.389 Y104.988 E21.08358
G1 X181.981 Y105.67 E21.11061
G1 X182.511 Y106.401 E21.13764
G1 X182.973 Y107.177 E21.16467
G1 X183.366 Y107.99 E21.19171
G1 X183.684 Y108.835 E21.21873
G1 X183.927 Y109.705 E21.24577
G1 X184.092 Y110.593 E21.27281
G1 X184.187 Y111.723 E21.30675
G1 X184.2 Y112.33 E21.32493
G1 X184.199 Y187.39 E23.57178
G1 X184.19 Y188.117 E23.59355
G1 X184.139 Y189.019 E23.62059
G1 X184.008 Y189.913 E23.64764
G1 X183.799 Y190.791 E23.67465
G1 X183.513 Y191.648 E23.7017
G1 X183.152 Y192.476 E23.72874
G1 X182.72 Y193.268 E23.75574
G1 X182.219 Y194.02 E23.78279
G1 X181.653 Y194.724 E23.80983
G1 X181.028 Y195.375 E23.83684
G1 X180.347 Y195.969 E23.86389
G1 X179.616 Y196.5 E23.89094
G1 X178.842 Y196.964 E23.91795
G1 X178.029 Y197.358 E23.945
G1 X177.185 Y197.678 E23.97202
G1 X176.315 Y197.923 E23.99907
G1 X175.428 Y198.089 E24.02608
G1 X174.277 Y198.187 E24.06066
G1 X173.67 Y198.2 E24.07884
G1 X126.575 Y198.199 E25.48858
G1 X125.877 Y198.19 E25.50948
G1 X124.976 Y198.139 E25.53649
G1 X124.082 Y198.007 E25.56355
G1 X123.204 Y197.798 E25.59056
G1 X122.347 Y197.511 E25.61762
G1 X121.52 Y197.15 E25.64463
G1 X120.727 Y196.717 E25.67167
G1 X119.976 Y196.216 E25.6987
G1 X119.272 Y195.65 E25.72574
G1 X118.621 Y195.024 E25.75277
G1 X118.028 Y194.343 E25.7798
G1 X117.498 Y193.612 E25.80683
G1 X117.034 Y192.837 E25.83387
G1 X116.64 Y192.024 E25.86091
G1 X116.32 Y191.18 E25.88793
G1 X116.076 Y190.31 E25.91498
G1 X115.91 Y189.422 E25.94202
G1 X115.813 Y188.267 E25.97672
G1 X115.8 Y187.658 E25.99495
G1 X115.801 Y112.536 E28.24366
G1 F2700 E23.24366
;MESH:kiosks_and_pavillions.stl
G0 F6000 X136.09 Y126.479
G0 X146.684 Y131.961
;TYPE:WALL-INNER
G1 F2700 E28.24366
G1 F1179.4 X146.502 Y131.7 E28.25335
G1 F1375.4 X143.501 Y126.503 E28.41009
G1 F1283.4 X143.409 Y126.101 E28.42163
G1 F1200 X143.479 Y125.914 E28.42761
G1 X146.507 Y120.674 E28.60877
G1 X146.644 Y120.536 E28.61459
G1 X146.928 Y120.419 E28.62379
G1 X153.072 Y120.419 E28.8077
G1 X153.356 Y120.536 E28.8169
G1 X153.493 Y120.674 E28.82272
G1 X156.521 Y125.915 E29.0039
G1 X156.591 Y126.101 E29.00985
G1 F1283.4 X156.5 Y126.503 E29.02139
G1 F1375.4 X155.491 Y128.249 E29.07406
G1 F1371.4 X154.482 Y129.996 E29.1269
G1 F1367.5 X153.472 Y131.743 E29.1799
G1 F1173.6 X153.316 Y131.961 E29.18811
G1 F1176.5 X152.999 Y131.987 E29.19782
G1 F1371.4 X149.975 Y131.987 E29.27703
G1 F1367.5 X146.951 Y131.987 E29.35646
G1 F1173.6 X146.684 Y131.961 E29.36467
G0 F6000 X143.017 Y137.907
G1 F1176.5 X142.7 Y137.933 E29.37438
G1 F1371.4 X139.676 Y137.933 E29.45359
G1 F1367.5 X136.652 Y137.933 E29.53302
G1 F1276.6 X136.309 Y137.813 E29.54324
G1 F1200 X136.182 Y137.659 E29.54922
G1 X133.18 Y132.463 E29.72885
G1 X133.108 Y132.266 E29.73513
G1 X133.108 Y132.058 E29.74135
G1 X133.18 Y131.861 E29.74763
G1 X136.214 Y126.608 E29.92922
G1 X136.35 Y126.478 E29.93485
G1 X136.643 Y126.367 E29.94423
G1 X139.247 Y126.365 E30.02218
G1 X142.7 Y126.364 E30.12554
G1 X142.896 Y126.397 E30.13149
G1 F1283.4 X143.199 Y126.677 E30.14304
G1 F1375.4 X143.454 Y127.118 E30.15634
G1 F1371.4 X143.709 Y127.56 E30.16971
G1 F1363.6 X143.964 Y128.002 E30.18315
G1 F1359.8 X144.219 Y128.443 E30.19661
G1 F1355.9 X144.474 Y128.885 E30.21013
G1 F1352.1 X144.729 Y129.327 E30.22368
G1 F1344.5 X144.984 Y129.768 E30.23729
G1 F1340.8 X145.239 Y130.21 E30.25096
G1 F1337 X145.494 Y130.652 E30.26467
G1 F1333.3 X145.749 Y131.093 E30.2784
G1 F1326 X146.004 Y131.535 E30.29222
G1 F1322.3 X146.26 Y131.977 E30.3061
G1 F1156.6 X146.335 Y132.162 E30.3123
G1 F1179.4 X146.201 Y132.45 E30.32197
G1 F1375.4 X145.192 Y134.196 E30.37464
G1 F1371.4 X144.183 Y135.942 E30.42746
G1 F1367.5 X143.173 Y137.689 E30.48046
G1 F1173.6 X143.017 Y137.907 E30.48867
G0 F6000 X146.684 Y143.853
G1 F1179.4 X146.502 Y143.592 E30.49836
G1 F1375.4 X143.501 Y138.396 E30.65507
G1 F1179.4 X143.366 Y138.108 E30.66476
G1 F1173.6 X143.476 Y137.863 E30.67298
G1 F1367.5 X144.485 Y136.117 E30.72595
G1 F1371.4 X145.494 Y134.37 E30.77879
G1 F1375.4 X146.503 Y132.624 E30.83146
G1 F1179.4 X146.684 Y132.363 E30.84114
G1 F1173.6 X146.951 Y132.337 E30.84935
G1 F1367.5 X149.975 Y132.337 E30.92878
G1 F1371.4 X152.999 Y132.337 E31.00798
G1 F1176.5 X153.316 Y132.363 E31.0177
G1 F1179.4 X153.498 Y132.624 E31.02739
G1 F1375.4 X153.752 Y133.064 E31.04066
G1 F1371.4 X154.007 Y133.505 E31.054
G1 F1363.6 X154.261 Y133.946 E31.0674
G1 F1359.8 X154.516 Y134.387 E31.08086
G1 F1355.9 X154.771 Y134.828 E31.09436
G1 F1352.1 X155.025 Y135.268 E31.10785
G1 F1344.5 X155.28 Y135.709 E31.12146
G1 F1340.8 X155.534 Y136.15 E31.1351
G1 F1337 X155.789 Y136.591 E31.14878
G1 F1333.3 X156.044 Y137.032 E31.16251
G1 F1326 X156.298 Y137.472 E31.17627
G1 F1322.3 X156.553 Y137.913 E31.19011
G1 F1156.6 X156.634 Y138.108 E31.19667
G1 F1134.8 X156.575 Y138.25 E31.20154
G1 F1318.7 X156.5 Y138.396 E31.20601
G1 F1375.4 X155.491 Y140.142 E31.25867
G1 F1371.4 X154.482 Y141.888 E31.31149
G1 F1367.5 X153.472 Y143.635 E31.3645
G1 F1173.6 X153.316 Y143.853 E31.3727
G1 F1176.5 X152.999 Y143.879 E31.38242
G1 F1371.4 X149.975 Y143.879 E31.46162
G1 F1367.5 X146.951 Y143.879 E31.54105
G1 F1173.6 X146.684 Y143.853 E31.54926
G0 F6000 X143.017 Y149.799
G1 F1176.5 X142.7 Y149.825 E31.55898
G1 F1371.4 X139.676 Y149.825 E31.63818
G1 F1367.5 X136.652 Y149.825 E31.71761
G1 F1276.6 X136.309 Y149.705 E31.72784
G1 F1200 X136.182 Y149.551 E31.73381
G1 X133.18 Y144.355 E31.91344
G1 X133.108 Y144.158 E31.91972
G1 X133.108 Y143.95 E31.92595
G1 X133.18 Y143.753 E31.93223
G1 X135.121 Y140.393 E32.04838
G1 X136.182 Y138.557 E32.11186
G1 X136.309 Y138.403 E32.11783
G1 F1276.6 X136.652 Y138.283 E32.12806
G1 F1367.5 X139.676 Y138.283 E32.20749
G1 F1371.4 X142.7 Y138.283 E32.2867
G1 F1176.5 X143.017 Y138.309 E32.29641
G1 F1179.4 X143.199 Y138.57 E32.3061
G1 F1375.4 X143.453 Y139.01 E32.31937
G1 F1371.4 X143.708 Y139.451 E32.33271
G1 F1363.6 X143.962 Y139.892 E32.34612
G1 F1359.8 X144.217 Y140.333 E32.35957
G1 F1355.9 X144.472 Y140.774 E32.37307
G1 F1352.1 X144.726 Y141.214 E32.38657
G1 F1344.5 X144.981 Y141.655 E32.40018
G1 F1340.8 X145.235 Y142.096 E32.41381
G1 F1337 X145.49 Y142.537 E32.4275
G1 F1333.3 X145.745 Y142.978 E32.44122
G1 F1326 X145.999 Y143.418 E32.45498
G1 F1322.3 X146.254 Y143.859 E32.46882
G1 F1156.6 X146.335 Y144.054 E32.47538
G1 F1179.4 X146.201 Y144.342 E32.48506
G1 F1375.4 X145.192 Y146.088 E32.53772
G1 F1371.4 X144.183 Y147.834 E32.59054
G1 F1367.5 X143.173 Y149.581 E32.64355
G1 F1173.6 X143.017 Y149.799 E32.65175
G0 F6000 X146.684 Y155.745
G1 F1179.4 X146.502 Y155.484 E32.66144
G1 F1375.4 X143.501 Y150.288 E32.81816
G1 F1179.4 X143.366 Y150 E32.82785
G1 F1173.6 X143.476 Y149.755 E32.83607
G1 F1367.5 X144.485 Y148.009 E32.88904
G1 F1371.4 X145.494 Y146.262 E32.94188
G1 F1375.4 X146.503 Y144.516 E32.99455
G1 F1179.4 X146.684 Y144.255 E33.00422
G1 F1176.5 X147.001 Y144.229 E33.01393
G1 F1371.4 X152.999 Y144.229 E33.17103
G1 F1176.5 X153.316 Y144.255 E33.18075
G1 F1179.4 X153.498 Y144.516 E33.19044
G1 F1375.4 X153.752 Y144.956 E33.20371
G1 F1371.4 X154.007 Y145.397 E33.21705
G1 F1363.6 X154.261 Y145.838 E33.23045
G1 F1359.8 X154.516 Y146.279 E33.24391
G1 F1355.9 X154.771 Y146.72 E33.25741
G1 F1352.1 X155.025 Y147.16 E33.2709
G1 F1344.5 X155.28 Y147.601 E33.28451
G1 F1340.8 X155.534 Y148.042 E33.29815
G1 F1337 X155.789 Y148.483 E33.31183
G1 F1333.3 X156.044 Y148.924 E33.32556
G1 F1326 X156.298 Y149.364 E33.33932
G1 F1322.3 X156.553 Y149.805 E33.35316
G1 F1156.6 X156.634 Y150 E33.35972
G1 F1179.4 X156.5 Y150.288 E33.36939
G1 F1375.4 X155.491 Y152.034 E33.42206
G1 F1371.4 X154.482 Y153.78 E33.47488
G1 F1367.5 X153.472 Y155.527 E33.52789
G1 F1173.6 X153.316 Y155.745 E33.53609
G1 F1176.5 X152.999 Y155.771 E33.5458
G1 F1371.4 X149.975 Y155.771 E33.62501
G1 F1367.5 X146.951 Y155.771 E33.70444
G1 F1173.6 X146.684 Y155.745 E33.71265
G0 F6000 X143.017 Y161.691
G1 F1176.5 X142.7 Y161.717 E33.72236
G1 F1371.4 X139.676 Y161.717 E33.80157
G1 F1367.5 X136.652 Y161.717 E33.881
G1 F1276.6 X136.309 Y161.597 E33.89122
G1 F1200 X136.182 Y161.443 E33.8972
G1 X133.18 Y156.247 E34.07683
G1 X133.108 Y156.05 E34.08311
G1 X133.108 Y155.842 E34.08934
G1 X133.18 Y155.645 E34.09561
G1 X136.182 Y150.449 E34.27524
G1 X136.309 Y150.295 E34.28122
G1 F1276.6 X136.652 Y150.175 E34.29144
G1 F1367.5 X139.676 Y150.175 E34.37088
G1 F1371.4 X142.7 Y150.175 E34.45008
G1 F1176.5 X143.017 Y150.201 E34.45979
G1 F1179.4 X143.199 Y150.462 E34.46948
G1 F1375.4 X143.453 Y150.902 E34.48275
G1 F1371.4 X143.708 Y151.343 E34.4961
G1 F1363.6 X143.962 Y151.784 E34.5095
G1 F1359.8 X144.217 Y152.225 E34.52296
G1 F1355.9 X144.472 Y152.666 E34.53646
G1 F1352.1 X144.726 Y153.106 E34.54995
G1 F1344.5 X144.981 Y153.547 E34.56356
G1 F1340.8 X145.235 Y153.988 E34.5772
G1 F1337 X145.49 Y154.429 E34.59088
G1 F1333.3 X145.745 Y154.87 E34.60461
G1 F1326 X145.999 Y155.31 E34.61837
G1 F1322.3 X146.254 Y155.751 E34.63221
G1 F1156.6 X146.335 Y155.946 E34.63877
G1 F1179.4 X146.201 Y156.234 E34.64844
G1 F1375.4 X145.192 Y157.98 E34.70111
G1 F1371.4 X144.183 Y159.726 E34.75393
G1 F1367.5 X143.173 Y161.473 E34.80693
