; G-Code generated by Simplify3D(R) Version 4.1.2
; Oct 2, 2022 at 10:41:25 AM
; Settings Summary
;   processName,Organizer
;   applyToModels,player_pieces
;   profileName,Creality CR-10S Pro (modified)
;   profileVersion,2021-05-02 22:29:37
;   baseProfile,
;   printMaterial,PLA
;   printQuality,Medium
;   printExtruders,
;   extruderName,Primary Extruder
;   extruderToolheadNumber,0
;   extruderDiameter,0.4
;   extruderAutoWidth,0
;   extruderWidth,0.4
;   extrusionMultiplier,0.9
;   extruderUseRetract,1
;   extruderRetractionDistance,5
;   extruderExtraRestartDistance,0
;   extruderRetractionZLift,0
;   extruderRetractionSpeed,1800
;   extruderUseCoasting,0
;   extruderCoastingDistance,0.2
;   extruderUseWipe,0
;   extruderWipeDistance,5
;   primaryExtruder,0
;   layerHeight,0.2
;   topSolidLayers,4
;   bottomSolidLayers,4
;   perimeterOutlines,2
;   printPerimetersInsideOut,1
;   startPointOption,2
;   startPointOriginX,0
;   startPointOriginY,0
;   sequentialIslands,0
;   spiralVaseMode,0
;   firstLayerHeightPercentage,150
;   firstLayerWidthPercentage,100
;   firstLayerUnderspeed,0.5
;   useRaft,0
;   raftExtruder,0
;   raftTopLayers,3
;   raftBaseLayers,2
;   raftOffset,3
;   raftSeparationDistance,0.14
;   raftTopInfill,100
;   aboveRaftSpeedMultiplier,0.3
;   useSkirt,1
;   skirtExtruder,0
;   skirtLayers,1
;   skirtOutlines,2
;   skirtOffset,4
;   usePrimePillar,0
;   primePillarExtruder,999
;   primePillarWidth,12
;   primePillarLocation,7
;   primePillarSpeedMultiplier,1
;   useOozeShield,0
;   oozeShieldExtruder,999
;   oozeShieldOffset,2
;   oozeShieldOutlines,1
;   oozeShieldSidewallShape,1
;   oozeShieldSidewallAngle,30
;   oozeShieldSpeedMultiplier,1
;   infillExtruder,0
;   internalInfillPattern,Fast Honeycomb
;   externalInfillPattern,Rectilinear
;   infillPercentage,20
;   outlineOverlapPercentage,15
;   infillExtrusionWidthPercentage,100
;   minInfillLength,2
;   infillLayerInterval,1
;   internalInfillAngles,0
;   overlapInternalInfillAngles,0
;   externalInfillAngles,45,-45
;   generateSupport,0
;   supportExtruder,0
;   supportInfillPercentage,30
;   supportExtraInflation,0
;   supportBaseLayers,0
;   denseSupportExtruder,0
;   denseSupportLayers,0
;   denseSupportInfillPercentage,70
;   supportLayerInterval,1
;   supportHorizontalPartOffset,0.2
;   supportUpperSeparationLayers,1
;   supportLowerSeparationLayers,1
;   supportType,0
;   supportGridSpacing,3
;   maxOverhangAngle,45
;   supportAngles,0
;   temperatureName,Primary Extruder,Heated Bed
;   temperatureNumber,0,0
;   temperatureSetpointCount,1,1
;   temperatureSetpointLayers,1,1
;   temperatureSetpointTemperatures,210,60
;   temperatureStabilizeAtStartup,1,1
;   temperatureHeatedBed,0,1
;   fanLayers,1,2
;   fanSpeeds,60,100
;   blipFanToFullPower,0
;   adjustSpeedForCooling,1
;   minSpeedLayerTime,15
;   minCoolingSpeedSlowdown,20
;   increaseFanForCooling,0
;   minFanLayerTime,45
;   maxCoolingFanSpeed,100
;   increaseFanForBridging,0
;   bridgingFanSpeed,100
;   use5D,1
;   relativeEdistances,0
;   allowEaxisZeroing,1
;   independentExtruderAxes,0
;   includeM10123,0
;   stickySupport,1
;   applyToolheadOffsets,0
;   gcodeXoffset,0
;   gcodeYoffset,0
;   gcodeZoffset,0
;   overrideMachineDefinition,1
;   machineTypeOverride,0
;   strokeXoverride,300
;   strokeYoverride,300
;   strokeZoverride,400
;   originOffsetXoverride,0
;   originOffsetYoverride,0
;   originOffsetZoverride,0
;   homeXdirOverride,-1
;   homeYdirOverride,-1
;   homeZdirOverride,-1
;   flipXoverride,1
;   flipYoverride,-1
;   flipZoverride,1
;   toolheadOffsets,0,0|0,0|0,0|0,0|0,0|0,0
;   overrideFirmwareConfiguration,1
;   firmwareTypeOverride,RepRap (Marlin/Repetier/Sprinter)
;   GPXconfigOverride,r2
;   baudRateOverride,115200
;   overridePrinterModels,1
;   printerModelsOverride
;   startingGcode,G28 ; home all axes,G29 ; auto-bed level,G1 Z5 F3000 ; lift,G1 X5 Y10 F1500 ; move to prime,G1 Z0.2 F3000 ; get ready to prime,G92 E0 ; reset extrusion distance,G1 Y80 E10 F600 ; prime nozzle,G1 Y100 F5000 ; quick wipe
;   layerChangeGcode,;G90; Absolute positioning,;G1 F9000 Y100 Z100; Move to photo position;,;M240; Make a photo,
;   retractionGcode,
;   toolChangeGcode,
;   endingGcode,G28 X0 ; home X axis,M106 S0 ; turn off cooling fan,M104 S0 ; turn off extruder,M140 S0 ; turn off bed,M84 ; disable motors
;   exportFileFormat,gcode
;   celebration,0
;   celebrationSong,Random Song
;   postProcessing,
;   defaultSpeed,3600
;   outlineUnderspeed,0.5
;   solidInfillUnderspeed,0.8
;   supportUnderspeed,0.8
;   rapidXYspeed,4800
;   rapidZspeed,1002
;   minBridgingArea,50
;   bridgingExtraInflation,0
;   bridgingExtrusionMultiplier,1
;   bridgingSpeedMultiplier,1
;   useFixedBridgingAngle,0
;   fixedBridgingAngle,0
;   applyBridgingToPerimeters,0
;   filamentDiameters,1.75|1.75|1.75|1.75|1.75|1.75
;   filamentPricesPerKg,46|46|46|46|46|46
;   filamentDensities,1.25|1.25|1.25|1.25|1.25|1.25
;   useMinPrintHeight,0
;   minPrintHeight,26.3
;   useMaxPrintHeight,0
;   maxPrintHeight,0
;   useDiaphragm,0
;   diaphragmLayerInterval,20
;   robustSlicing,1
;   mergeAllIntoSolid,0
;   onlyRetractWhenCrossingOutline,1
;   retractBetweenLayers,1
;   useRetractionMinTravel,0
;   retractionMinTravel,3
;   retractWhileWiping,0
;   onlyWipeOutlines,1
;   avoidCrossingOutline,0
;   maxMovementDetourFactor,3
;   toolChangeRetractionDistance,12
;   toolChangeExtraRestartDistance,-0.5
;   toolChangeRetractionSpeed,600
;   externalThinWallType,0
;   internalThinWallType,2
;   thinWallAllowedOverlapPercentage,10
;   singleExtrusionMinLength,1
;   singleExtrusionMinPrintingWidthPercentage,50
;   singleExtrusionMaxPrintingWidthPercentage,200
;   singleExtrusionEndpointExtension,0.2
;   horizontalSizeCompensation,0
G90
M82
M106 S153
M140 S60
M190 S60
M104 S210 T0
M109 S210 T0
G28 ; home all axes
G29 ; auto-bed level
G1 Z5 F3000 ; lift
G1 X5 Y10 F1500 ; move to prime
G1 Z0.2 F3000 ; get ready to prime
G92 E0 ; reset extrusion distance
G1 Y80 E10 F600 ; prime nozzle
G1 Y100 F5000 ; quick wipe
; process Organizer
; layer 1, Z = 0.300
T0
G92 E0.0000
G1 E-5.0000 F1800
;G90; Absolute positioning
;G1 F9000 Y100 Z100; Move to photo position;
;M240; Make a photo
; feature skirt
; tool H0.300 W0.400
G1 Z0.300 F1002
G1 X113.600 Y102.095 F4800
G1 E0.0000 F1800
G92 E0.0000
G1 X116.295 Y99.400 E0.1711 F1800
G1 X183.705 Y99.400 E3.1979
G1 X186.400 Y102.095 E3.3690
G1 X186.400 Y124.915 E4.3937
G1 X185.700 Y126.606 E4.4759
G1 X184.400 Y127.905 E4.5584
G1 X184.400 Y129.096 E4.6118
G1 X184.438 Y129.171 E4.6156
G1 X184.438 Y131.339 E4.7130
G1 X184.400 Y131.414 E4.7168
G1 X184.400 Y197.905 E7.7023
G1 X181.705 Y200.600 E7.8734
G1 X118.295 Y200.600 E10.7206
G1 X115.600 Y197.905 E10.8917
G1 X115.600 Y131.414 E13.8772
G1 X115.563 Y131.339 E13.8810
G1 X115.563 Y129.171 E13.9784
G1 X115.600 Y129.096 E13.9821
G1 X115.600 Y127.905 E14.0356
G1 X114.300 Y126.606 E14.1181
G1 X113.600 Y124.915 E14.2003
G1 X113.600 Y102.095 E15.2249
G92 E0.0000
G1 E-5.0000 F1800
G1 X114.000 Y102.260 F4800
G1 E0.0000 F1800
G92 E0.0000
G1 X116.460 Y99.800 E0.1562 F1800
G1 X183.540 Y99.800 E3.1682
G1 X186.000 Y102.260 E3.3244
G1 X186.000 Y124.835 E4.3381
G1 X185.361 Y126.379 E4.4131
G1 X184.000 Y127.740 E4.4995
G1 X184.000 Y129.190 E4.5646
G1 X184.037 Y129.265 E4.5684
G1 X184.037 Y131.245 E4.6573
G1 X184.000 Y131.320 E4.6610
G1 X184.000 Y197.740 E7.6433
G1 X181.540 Y200.200 E7.7996
G1 X118.460 Y200.200 E10.6319
G1 X116.000 Y197.740 E10.7881
G1 X116.000 Y131.320 E13.7705
G1 X115.963 Y131.245 E13.7742
G1 X115.963 Y129.265 E13.8631
G1 X116.000 Y129.190 E13.8669
G1 X116.000 Y127.740 E13.9320
G1 X114.639 Y126.379 E14.0184
G1 X114.000 Y124.835 E14.0934
G1 X114.000 Y102.260 E15.1071
G92 E0.0000
G1 E-5.0000 F1800
; feature inner perimeter
G1 X118.800 Y104.600 F4800
G1 E0.0000 F1800
G92 E0.0000
G1 X181.200 Y104.600 E2.8018 F1350
G1 X181.200 Y123.751 E3.6618
G1 X179.200 Y125.751 E3.7888
G1 X179.200 Y195.400 E6.9161
G1 X120.800 Y195.400 E9.5383
G1 X120.800 Y125.751 E12.6656
G1 X118.800 Y123.751 E12.7926
G1 X118.800 Y104.600 E13.6525
; feature outer perimeter
G1 X118.400 Y104.200 F4800
G92 E0.0000
G1 X181.600 Y104.200 E2.8378 F900
G1 X181.600 Y123.917 E3.7231
G1 X179.600 Y125.917 E3.8501
G1 X179.600 Y130.227 E4.0436
G1 X179.614 Y130.255 E4.0450
G1 X179.600 Y130.283 E4.0464
G1 X179.600 Y195.800 E6.9882
G1 X120.400 Y195.800 E9.6463
G1 X120.400 Y130.283 E12.5881
G1 X120.386 Y130.255 E12.5895
G1 X120.400 Y130.227 E12.5909
G1 X120.400 Y125.917 E12.7845
G1 X118.400 Y123.917 E12.9115
G1 X118.400 Y104.200 E13.7968
; feature solid layer
G1 X180.742 Y104.940 F4800
G92 E0.0000
G1 X180.860 Y105.058 E0.0075 F1440
G1 X180.860 Y105.624 E0.0329
G1 X180.176 Y104.940 E0.0763
G1 X179.610 Y104.940 E0.1017
G1 X180.860 Y106.190 E0.1811
G1 X180.860 Y106.755 E0.2065
G1 X179.045 Y104.940 E0.3217
G1 X178.479 Y104.940 E0.3471
G1 X180.860 Y107.321 E0.4983
G1 X180.860 Y107.887 E0.5237
G1 X177.913 Y104.940 E0.7108
G1 X177.348 Y104.940 E0.7362
G1 X180.860 Y108.452 E0.9593
G1 X180.860 Y109.018 E0.9847
G1 X176.782 Y104.940 E1.2436
G1 X176.216 Y104.940 E1.2690
G1 X180.860 Y109.584 E1.5639
G1 X180.860 Y110.149 E1.5893
G1 X175.651 Y104.940 E1.9201
G1 X175.085 Y104.940 E1.9455
G1 X180.860 Y110.715 E2.3122
G1 X180.860 Y111.281 E2.3376
G1 X174.519 Y104.940 E2.7402
G1 X173.954 Y104.940 E2.7656
G1 X180.860 Y111.846 E3.2042
G1 X180.860 Y112.412 E3.2296
G1 X173.388 Y104.940 E3.7040
G1 X172.822 Y104.940 E3.7294
G1 X180.860 Y112.978 E4.2398
G1 X180.860 Y113.543 E4.2652
G1 X172.257 Y104.940 E4.8115
G1 X171.691 Y104.940 E4.8369
G1 X180.860 Y114.109 E5.4192
G1 X180.860 Y114.675 E5.4446
G1 X171.125 Y104.940 E6.0627
G1 X170.560 Y104.940 E6.0881
G1 X180.860 Y115.240 E6.7422
G1 X180.860 Y115.806 E6.7676
G1 X169.994 Y104.940 E7.4576
G1 X169.428 Y104.940 E7.4830
G1 X180.860 Y116.372 E8.2089
G1 X180.860 Y116.938 E8.2343
G1 X168.862 Y104.940 E8.9962
G1 X168.297 Y104.940 E9.0216
G1 X180.860 Y117.503 E9.8193
G1 X180.860 Y118.069 E9.8447
G1 X167.731 Y104.940 E10.6784
G1 X167.165 Y104.940 E10.7038
G1 X180.860 Y118.635 E11.5734
G1 X180.860 Y119.200 E11.5988
G1 X166.600 Y104.940 E12.5044
G1 X166.034 Y104.940 E12.5298
G1 X180.860 Y119.766 E13.4712
G1 X180.860 Y120.332 E13.4966
G1 X165.468 Y104.940 E14.4740
G1 X164.903 Y104.940 E14.4994
G1 X180.860 Y120.897 E15.5127
G1 X180.860 Y121.463 E15.5381
G1 X164.337 Y104.940 E16.5873
G1 X163.771 Y104.940 E16.6127
G1 X180.860 Y122.029 E17.6978
G1 X180.860 Y122.594 E17.7232
G1 X163.206 Y104.940 E18.8442
G1 X162.640 Y104.940 E18.8696
G1 X180.860 Y123.160 E20.0266
G1 X180.860 Y123.611 E20.0469
G1 X180.802 Y123.668 E20.0505
G1 X162.074 Y104.940 E21.2397
G1 X161.509 Y104.940 E21.2651
G1 X180.520 Y123.951 E22.4723
G1 X180.237 Y124.234 E22.4903
G1 X160.943 Y104.940 E23.7155
G1 X160.377 Y104.940 E23.7409
G1 X179.954 Y124.517 E24.9840
G1 X179.671 Y124.800 E25.0019
G1 X159.811 Y104.940 E26.2630
G1 X159.246 Y104.940 E26.2884
G1 X179.388 Y125.082 E27.5675
G1 X179.105 Y125.365 E27.5854
G1 X158.680 Y104.940 E28.8824
G1 X158.114 Y104.940 E28.9078
G1 X178.860 Y125.686 E30.2252
G1 X178.860 Y126.251 E30.2506
G1 X157.549 Y104.940 E31.6038
G1 X156.983 Y104.940 E31.6292
G1 X178.860 Y126.817 E33.0184
G1 X178.860 Y127.383 E33.0438
G1 X156.417 Y104.940 E34.4689
G1 X155.852 Y104.940 E34.4943
G1 X178.860 Y127.948 E35.9553
G1 X178.860 Y128.514 E35.9807
G1 X155.286 Y104.940 E37.4777
G1 X154.720 Y104.940 E37.5031
G1 X178.860 Y129.080 E39.0359
G1 X178.860 Y129.645 E39.0613
G1 X154.155 Y104.940 E40.6301
G1 X153.589 Y104.940 E40.6555
G1 X178.860 Y130.211 E42.2602
G1 X178.860 Y130.777 E42.2856
G1 X153.023 Y104.940 E43.9263
G1 X152.458 Y104.940 E43.9517
G1 X178.860 Y131.342 E45.6282
G1 X178.860 Y131.908 E45.6536
G1 X151.892 Y104.940 E47.3661
G1 X151.326 Y104.940 E47.3915
G1 X178.860 Y132.474 E49.1399
G1 X178.860 Y133.039 E49.1653
G1 X150.761 Y104.940 E50.9496
G1 X150.195 Y104.940 E50.9750
G1 X178.860 Y133.605 E52.7952
G1 X178.860 Y134.171 E52.8206
G1 X149.629 Y104.940 E54.6768
G1 X149.063 Y104.940 E54.7022
G1 X178.860 Y134.737 E56.5943
G1 X178.860 Y135.302 E56.6197
G1 X148.498 Y104.940 E58.5477
G1 X147.932 Y104.940 E58.5731
G1 X178.860 Y135.868 E60.5370
G1 X178.860 Y136.434 E60.5624
G1 X147.366 Y104.940 E62.5622
G1 X146.801 Y104.940 E62.5876
G1 X178.860 Y136.999 E64.6234
G1 X178.860 Y137.565 E64.6488
G1 X146.235 Y104.940 E66.7204
G1 X145.669 Y104.940 E66.7458
G1 X178.860 Y138.131 E68.8534
G1 X178.860 Y138.696 E68.8788
G1 X145.104 Y104.940 E71.0224
G1 X144.538 Y104.940 E71.0478
G1 X178.860 Y139.262 E73.2272
G1 X178.860 Y139.828 E73.2526
G1 X143.972 Y104.940 E75.4680
G1 X143.407 Y104.940 E75.4934
G1 X178.860 Y140.393 E77.7447
G1 X178.860 Y140.959 E77.7701
G1 X142.841 Y104.940 E80.0573
G1 X142.275 Y104.940 E80.0827
G1 X178.860 Y141.525 E82.4058
G1 X178.860 Y142.090 E82.4312
G1 X141.710 Y104.940 E84.7902
G1 X141.144 Y104.940 E84.8156
G1 X178.860 Y142.656 E87.2106
G1 X178.860 Y143.222 E87.2360
G1 X140.578 Y104.940 E89.6669
G1 X140.013 Y104.940 E89.6923
G1 X178.860 Y143.787 E92.1591
G1 X178.860 Y144.353 E92.1845
G1 X139.447 Y104.940 E94.6872
G1 X138.881 Y104.940 E94.7126
G1 X178.860 Y144.919 E97.2513
G1 X178.860 Y145.485 E97.2767
G1 X138.315 Y104.940 E99.8513
G1 X137.750 Y104.940 E99.8767
G1 X178.860 Y146.050 E102.4872
G1 X178.860 Y146.616 E102.5126
G1 X137.184 Y104.940 E105.1590
G1 X136.618 Y104.940 E105.1844
G1 X178.860 Y147.182 E107.8667
G1 X178.860 Y147.747 E107.8921
G1 X136.053 Y104.940 E110.6104
G1 X135.487 Y104.940 E110.6358
G1 X178.860 Y148.313 E113.3899
G1 X178.860 Y148.879 E113.4153
G1 X134.921 Y104.940 E116.2054
G1 X134.356 Y104.940 E116.2308
G1 X178.860 Y149.444 E119.0569
G1 X178.860 Y150.010 E119.0823
G1 X133.790 Y104.940 E121.9442
G1 X133.224 Y104.940 E121.9696
G1 X178.860 Y150.576 E124.8675
G1 X178.860 Y151.141 E124.8929
G1 X132.659 Y104.940 E127.8266
G1 X132.093 Y104.940 E127.8520
G1 X178.860 Y151.707 E130.8218
G1 X178.860 Y152.273 E130.8472
G1 X131.527 Y104.940 E133.8528
G1 X130.962 Y104.940 E133.8782
G1 X178.860 Y152.838 E136.9197
G1 X178.860 Y153.404 E136.9451
G1 X130.396 Y104.940 E140.0226
G1 X129.830 Y104.940 E140.0480
G1 X178.860 Y153.970 E143.1614
G1 X178.860 Y154.536 E143.1868
G1 X129.264 Y104.940 E146.3361
G1 X128.699 Y104.940 E146.3615
G1 X178.860 Y155.101 E149.5467
G1 X178.860 Y155.667 E149.5721
G1 X128.133 Y104.940 E152.7933
G1 X127.567 Y104.940 E152.8187
G1 X178.860 Y156.233 E156.0757
G1 X178.860 Y156.798 E156.1011
G1 X127.002 Y104.940 E159.3941
G1 X126.436 Y104.940 E159.4195
G1 X178.860 Y157.364 E162.7484
G1 X178.860 Y157.930 E162.7738
G1 X125.870 Y104.940 E166.1387
G1 X125.305 Y104.940 E166.1641
G1 X178.860 Y158.495 E169.5648
G1 X178.860 Y159.061 E169.5902
G1 X124.739 Y104.940 E173.0269
G1 X124.173 Y104.940 E173.0523
G1 X178.860 Y159.627 E176.5249
G1 X178.860 Y160.192 E176.5503
G1 X123.608 Y104.940 E180.0588
G1 X123.042 Y104.940 E180.0842
G1 X178.860 Y160.758 E183.6287
G1 X178.860 Y161.324 E183.6541
G1 X122.476 Y104.940 E187.2344
G1 X121.911 Y104.940 E187.2598
G1 X178.860 Y161.889 E190.8761
G1 X178.860 Y162.455 E190.9015
G1 X121.345 Y104.940 E194.5537
G1 X120.779 Y104.940 E194.5791
G1 X178.860 Y163.021 E198.2672
G1 X178.860 Y163.586 E198.2926
G1 X120.214 Y104.940 E202.0167
G1 X119.648 Y104.940 E202.0421
G1 X178.860 Y164.152 E205.8020
G1 X178.860 Y164.718 E205.8274
G1 X119.140 Y104.998 E209.6196
G1 X119.140 Y105.564 E209.6450
G1 X178.860 Y165.284 E213.4373
G1 X178.860 Y165.849 E213.4627
G1 X119.140 Y106.129 E217.2549
G1 X119.140 Y106.695 E217.2803
G1 X178.860 Y166.415 E221.0725
G1 X178.860 Y166.981 E221.0979
G1 X119.140 Y107.261 E224.8901
G1 X119.140 Y107.826 E224.9155
G1 X178.860 Y167.546 E228.7077
G1 X178.860 Y168.112 E228.7331
G1 X119.140 Y108.392 E232.5253
G1 X119.140 Y108.958 E232.5507
G1 X178.860 Y168.678 E236.3429
G1 X178.860 Y169.243 E236.3683
G1 X119.140 Y109.523 E240.1605
G1 X119.140 Y110.089 E240.1859
G1 X178.860 Y169.809 E243.9781
G1 X178.860 Y170.375 E244.0035
G1 X119.140 Y110.655 E247.7958
G1 X119.140 Y111.220 E247.8212
G1 X178.860 Y170.940 E251.6134
G1 X178.860 Y171.506 E251.6388
G1 X119.140 Y111.786 E255.4310
G1 X119.140 Y112.352 E255.4564
