; G-Code generated by Simplify3D(R) Version 4.1.2
; Oct 2, 2022 at 10:38:23 AM
; Settings Summary
;   processName,Organizer
;   applyToModels,player_cover2_fixed_smaller
;   profileName,Creality CR-10S Pro (modified)
;   profileVersion,2021-05-02 22:29:37
;   baseProfile,
;   printMaterial,PLA
;   printQuality,Medium
;   printExtruders,
;   extruderName,Primary Extruder
;   extruderToolheadNumber,0
;   extruderDiameter,0.4
;   extruderAutoWidth,0
;   extruderWidth,0.4
;   extrusionMultiplier,0.9
;   extruderUseRetract,1
;   extruderRetractionDistance,5
;   extruderExtraRestartDistance,0
;   extruderRetractionZLift,0
;   extruderRetractionSpeed,1800
;   extruderUseCoasting,0
;   extruderCoastingDistance,0.2
;   extruderUseWipe,0
;   extruderWipeDistance,5
;   primaryExtruder,0
;   layerHeight,0.2
;   topSolidLayers,4
;   bottomSolidLayers,4
;   perimeterOutlines,2
;   printPerimetersInsideOut,1
;   startPointOption,2
;   startPointOriginX,0
;   startPointOriginY,0
;   sequentialIslands,0
;   spiralVaseMode,0
;   firstLayerHeightPercentage,150
;   firstLayerWidthPercentage,100
;   firstLayerUnderspeed,0.5
;   useRaft,0
;   raftExtruder,0
;   raftTopLayers,3
;   raftBaseLayers,2
;   raftOffset,3
;   raftSeparationDistance,0.14
;   raftTopInfill,100
;   aboveRaftSpeedMultiplier,0.3
;   useSkirt,1
;   skirtExtruder,0
;   skirtLayers,1
;   skirtOutlines,2
;   skirtOffset,4
;   usePrimePillar,0
;   primePillarExtruder,999
;   primePillarWidth,12
;   primePillarLocation,7
;   primePillarSpeedMultiplier,1
;   useOozeShield,0
;   oozeShieldExtruder,999
;   oozeShieldOffset,2
;   oozeShieldOutlines,1
;   oozeShieldSidewallShape,1
;   oozeShieldSidewallAngle,30
;   oozeShieldSpeedMultiplier,1
;   infillExtruder,0
;   internalInfillPattern,Fast Honeycomb
;   externalInfillPattern,Rectilinear
;   infillPercentage,20
;   outlineOverlapPercentage,15
;   infillExtrusionWidthPercentage,100
;   minInfillLength,2
;   infillLayerInterval,1
;   internalInfillAngles,0
;   overlapInternalInfillAngles,0
;   externalInfillAngles,45,-45
;   generateSupport,0
;   supportExtruder,0
;   supportInfillPercentage,30
;   supportExtraInflation,0
;   supportBaseLayers,0
;   denseSupportExtruder,0
;   denseSupportLayers,0
;   denseSupportInfillPercentage,70
;   supportLayerInterval,1
;   supportHorizontalPartOffset,0.2
;   supportUpperSeparationLayers,1
;   supportLowerSeparationLayers,1
;   supportType,0
;   supportGridSpacing,3
;   maxOverhangAngle,45
;   supportAngles,0
;   temperatureName,Primary Extruder,Heated Bed
;   temperatureNumber,0,0
;   temperatureSetpointCount,1,1
;   temperatureSetpointLayers,1,1
;   temperatureSetpointTemperatures,210,60
;   temperatureStabilizeAtStartup,1,1
;   temperatureHeatedBed,0,1
;   fanLayers,1,2
;   fanSpeeds,60,100
;   blipFanToFullPower,0
;   adjustSpeedForCooling,1
;   minSpeedLayerTime,15
;   minCoolingSpeedSlowdown,20
;   increaseFanForCooling,0
;   minFanLayerTime,45
;   maxCoolingFanSpeed,100
;   increaseFanForBridging,0
;   bridgingFanSpeed,100
;   use5D,1
;   relativeEdistances,0
;   allowEaxisZeroing,1
;   independentExtruderAxes,0
;   includeM10123,0
;   stickySupport,1
;   applyToolheadOffsets,0
;   gcodeXoffset,0
;   gcodeYoffset,0
;   gcodeZoffset,0
;   overrideMachineDefinition,1
;   machineTypeOverride,0
;   strokeXoverride,300
;   strokeYoverride,300
;   strokeZoverride,400
;   originOffsetXoverride,0
;   originOffsetYoverride,0
;   originOffsetZoverride,0
;   homeXdirOverride,-1
;   homeYdirOverride,-1
;   homeZdirOverride,-1
;   flipXoverride,1
;   flipYoverride,-1
;   flipZoverride,1
;   toolheadOffsets,0,0|0,0|0,0|0,0|0,0|0,0
;   overrideFirmwareConfiguration,1
;   firmwareTypeOverride,RepRap (Marlin/Repetier/Sprinter)
;   GPXconfigOverride,r2
;   baudRateOverride,115200
;   overridePrinterModels,1
;   printerModelsOverride
;   startingGcode,G28 ; home all axes,G29 ; auto-bed level,G1 Z5 F3000 ; lift,G1 X5 Y10 F1500 ; move to prime,G1 Z0.2 F3000 ; get ready to prime,G92 E0 ; reset extrusion distance,G1 Y80 E10 F600 ; prime nozzle,G1 Y100 F5000 ; quick wipe
;   layerChangeGcode,;G90; Absolute positioning,;G1 F9000 Y100 Z100; Move to photo position;,;M240; Make a photo,
;   retractionGcode,
;   toolChangeGcode,
;   endingGcode,G28 X0 ; home X axis,M106 S0 ; turn off cooling fan,M104 S0 ; turn off extruder,M140 S0 ; turn off bed,M84 ; disable motors
;   exportFileFormat,gcode
;   celebration,0
;   celebrationSong,Random Song
;   postProcessing,
;   defaultSpeed,3600
;   outlineUnderspeed,0.5
;   solidInfillUnderspeed,0.8
;   supportUnderspeed,0.8
;   rapidXYspeed,4800
;   rapidZspeed,1002
;   minBridgingArea,50
;   bridgingExtraInflation,0
;   bridgingExtrusionMultiplier,1
;   bridgingSpeedMultiplier,1
;   useFixedBridgingAngle,0
;   fixedBridgingAngle,0
;   applyBridgingToPerimeters,0
;   filamentDiameters,1.75|1.75|1.75|1.75|1.75|1.75
;   filamentPricesPerKg,46|46|46|46|46|46
;   filamentDensities,1.25|1.25|1.25|1.25|1.25|1.25
;   useMinPrintHeight,0
;   minPrintHeight,26.3
;   useMaxPrintHeight,0
;   maxPrintHeight,0
;   useDiaphragm,0
;   diaphragmLayerInterval,20
;   robustSlicing,1
;   mergeAllIntoSolid,0
;   onlyRetractWhenCrossingOutline,1
;   retractBetweenLayers,1
;   useRetractionMinTravel,0
;   retractionMinTravel,3
;   retractWhileWiping,0
;   onlyWipeOutlines,1
;   avoidCrossingOutline,0
;   maxMovementDetourFactor,3
;   toolChangeRetractionDistance,12
;   toolChangeExtraRestartDistance,-0.5
;   toolChangeRetractionSpeed,600
;   externalThinWallType,0
;   internalThinWallType,2
;   thinWallAllowedOverlapPercentage,10
;   singleExtrusionMinLength,1
;   singleExtrusionMinPrintingWidthPercentage,50
;   singleExtrusionMaxPrintingWidthPercentage,200
;   singleExtrusionEndpointExtension,0.2
;   horizontalSizeCompensation,0
G90
M82
M106 S153
M140 S60
M190 S60
M104 S210 T0
M109 S210 T0
G28 ; home all axes
G29 ; auto-bed level
G1 Z5 F3000 ; lift
G1 X5 Y10 F1500 ; move to prime
G1 Z0.2 F3000 ; get ready to prime
G92 E0 ; reset extrusion distance
G1 Y80 E10 F600 ; prime nozzle
G1 Y100 F5000 ; quick wipe
; process Organizer
; layer 1, Z = 0.300
T0
G92 E0.0000
G1 E-5.0000 F1800
;G90; Absolute positioning
;G1 F9000 Y100 Z100; Move to photo position;
;M240; Make a photo
; feature skirt
; tool H0.300 W0.400
G1 Z0.300 F1002
G1 X109.400 Y100.096 F4800
G1 E0.0000 F1800
G92 E0.0000
G1 X112.095 Y97.402 E0.1711 F1800
G1 X187.905 Y97.402 E3.5751
G1 X190.600 Y100.096 E3.7462
G1 X190.600 Y199.905 E8.2277
G1 X187.905 Y202.600 E8.3988
G1 X112.095 Y202.600 E11.8028
G1 X109.400 Y199.905 E11.9739
G1 X109.400 Y100.096 E16.4555
G92 E0.0000
G1 E-5.0000 F1800
G1 X109.800 Y100.262 F4800
G1 E0.0000 F1800
G92 E0.0000
G1 X112.260 Y97.802 E0.1562 F1800
G1 X187.740 Y97.802 E3.5453
G1 X190.200 Y100.262 E3.7016
G1 X190.200 Y199.740 E8.1682
G1 X187.740 Y202.200 E8.3245
G1 X112.260 Y202.200 E11.7136
G1 X109.800 Y199.740 E11.8698
G1 X109.800 Y100.262 E16.3364
G92 E0.0000
G1 E-5.0000 F1800
; feature inner perimeter
G1 X114.600 Y102.602 F4800
G1 E0.0000 F1800
G92 E0.0000
G1 X185.400 Y102.602 E3.1790 F1350
G1 X185.400 Y197.400 E7.4355
G1 X114.600 Y197.400 E10.6146
G1 X114.600 Y102.602 E14.8711
; feature outer perimeter
G1 X114.200 Y102.202 F4800
G92 E0.0000
G1 X185.800 Y102.202 E3.2149 F900
G1 X185.800 Y197.800 E7.5074
G1 X114.200 Y197.800 E10.7223
G1 X114.200 Y102.202 E15.0148
; feature inner perimeter
G1 X127.398 Y110.047 F4800
G92 E0.0000
G1 X127.398 Y121.665 E0.5217 F1350
G1 X117.400 Y127.475 E1.0409
G1 X117.400 Y136.395 E1.4414
G1 X124.998 Y140.862 E1.8372
G1 X132.598 Y136.395 E2.2330
G1 X132.598 Y124.776 E2.7547
G1 X144.997 Y117.619 E3.3975
G1 X155.002 Y123.431 E3.9170
G1 X162.598 Y118.963 E4.3127
G1 X162.598 Y110.047 E4.7131
G1 X155.002 Y105.579 E5.1088
G1 X144.998 Y111.390 E5.6283
G1 X134.998 Y105.579 E6.1476
G1 X127.398 Y110.047 E6.5434
; feature outer perimeter
G1 X127.798 Y110.275 F4800
G92 E0.0000
G1 X127.798 Y121.895 E0.5217 F900
G1 X117.800 Y127.705 E1.0409
G1 X117.800 Y136.166 E1.4209
G1 X124.998 Y140.398 E1.7958
G1 X132.198 Y136.166 E2.1708
G1 X132.198 Y124.545 E2.6926
G1 X144.998 Y117.157 E3.3562
G1 X155.001 Y122.968 E3.8756
G1 X162.198 Y118.734 E4.2505
G1 X162.198 Y110.275 E4.6303
G1 X155.001 Y106.042 E5.0052
G1 X144.998 Y111.853 E5.5246
G1 X134.999 Y106.042 E6.0439
G1 X127.798 Y110.275 E6.4190
G92 E0.0000
G1 E-5.0000 F1800
; feature inner perimeter
G1 X137.400 Y127.477 F4800
G1 E0.0000 F1800
G92 E0.0000
G1 X137.400 Y136.397 E0.4005 F1350
G1 X147.398 Y142.205 E0.9197
G1 X147.398 Y153.825 E1.4415
G1 X154.998 Y158.291 E1.8373
G1 X164.998 Y152.482 E2.3565
G1 X175.002 Y158.291 E2.8760
G1 X182.598 Y153.825 E3.2716
G1 X182.598 Y144.907 E3.6721
G1 X172.598 Y139.095 E4.1914
G1 X172.598 Y124.775 E4.8344
G1 X182.598 Y118.965 E5.3537
G1 X182.598 Y110.047 E5.7541
G1 X175.000 Y105.578 E6.1499
G1 X167.398 Y110.047 E6.5458
G1 X167.398 Y121.663 E7.0675
G1 X155.001 Y128.822 E7.7103
G1 X144.996 Y123.009 E8.2298
G1 X137.400 Y127.477 E8.6255
; feature outer perimeter
G1 X137.800 Y127.705 F4800
G92 E0.0000
G1 X137.800 Y136.167 E0.3799 F900
G1 X147.798 Y141.975 E0.8991
G1 X147.798 Y153.596 E1.4209
G1 X154.999 Y157.827 E1.7960
G1 X164.998 Y152.019 E2.3152
G1 X175.001 Y157.828 E2.8345
G1 X182.198 Y153.596 E3.2094
G1 X182.198 Y145.137 E3.5892
G1 X172.198 Y139.325 E4.1086
G1 X172.198 Y124.545 E4.7722
G1 X182.198 Y118.735 E5.2915
G1 X182.198 Y110.275 E5.6713
G1 X175.000 Y106.042 E6.0463
G1 X167.798 Y110.275 E6.4214
G1 X167.798 Y121.894 E6.9431
G1 X155.000 Y129.285 E7.6067
G1 X144.997 Y123.472 E8.1261
G1 X137.800 Y127.705 E8.5011
; feature inner perimeter
G1 X135.000 Y140.440 F4800
G92 E0.0000
G1 X127.398 Y144.909 E0.3959 F1350
G1 X127.398 Y156.527 E0.9176
G1 X117.400 Y162.337 E1.4368
G1 X117.400 Y171.255 E1.8373
G1 X124.996 Y175.725 E2.2330
G1 X135.001 Y169.911 E2.7526
G1 X147.398 Y177.070 E3.3954
G1 X147.398 Y188.687 E3.9170
G1 X155.000 Y193.156 E4.3129
G1 X162.598 Y188.687 E4.7087
G1 X162.598 Y177.069 E5.2304
G1 X172.598 Y171.257 E5.7497
G1 X172.598 Y162.339 E6.1502
G1 X165.000 Y157.871 E6.5460
G1 X154.999 Y163.684 E7.0654
G1 X142.600 Y156.525 E7.7082
G1 X142.600 Y144.909 E8.2298
G1 X135.000 Y140.440 E8.6257
; feature outer perimeter
G1 X135.000 Y140.904 F4800
G92 E0.0000
G1 X127.798 Y145.137 E0.3751 F900
G1 X127.798 Y156.757 E0.8968
G1 X117.800 Y162.567 E1.4161
G1 X117.800 Y171.026 E1.7959
G1 X124.997 Y175.262 E2.1709
G1 X135.000 Y169.449 E2.6903
G1 X147.798 Y176.839 E3.3539
G1 X147.798 Y188.458 E3.8756
G1 X155.000 Y192.692 E4.2507
G1 X162.198 Y188.458 E4.6257
G1 X162.198 Y176.839 E5.1474
G1 X172.198 Y171.027 E5.6667
G1 X172.198 Y162.567 E6.0466
G1 X164.999 Y158.334 E6.4216
G1 X155.000 Y164.147 E6.9409
G1 X142.200 Y156.756 E7.6045
G1 X142.200 Y145.137 E8.1262
G1 X135.000 Y140.904 E8.5013
; feature solid layer
G1 X146.744 Y142.219 F4800
G92 E0.0000
G1 X147.058 Y142.532 E0.0199 F1440
G1 X147.058 Y143.098 E0.0453
G1 X145.394 Y141.434 E0.1510
G1 X144.044 Y140.650 E0.2211
G1 X147.058 Y143.664 E0.4124
G1 X147.058 Y144.230 E0.4378
G1 X142.695 Y139.866 E0.7149
G1 X141.345 Y139.082 E0.7850
G1 X147.058 Y144.795 E1.1478
G1 X147.058 Y145.361 E1.1732
G1 X139.995 Y138.298 E1.6217
G1 X138.645 Y137.514 E1.6918
G1 X147.058 Y145.927 E2.2260
G1 X147.058 Y149.886 F4800
G92 E0.0000
G1 X142.940 Y145.768 E0.2615 F1440
G1 X142.940 Y146.334 E0.2869
G1 X147.058 Y150.452 E0.5484
G1 X147.058 Y151.018 E0.5738
G1 X142.940 Y146.900 E0.8353
G1 X142.940 Y147.465 E0.8607
G1 X147.058 Y151.583 E1.1222
G1 X147.058 Y152.149 E1.1476
G1 X142.940 Y148.031 E1.4091
G1 X142.940 Y148.597 E1.4345
G1 X147.058 Y152.715 E1.6960
G1 X147.058 Y153.281 E1.7214
G1 X142.940 Y149.163 E1.9828
G1 X142.940 Y149.728 E2.0082
G1 X147.058 Y153.846 E2.2697
G1 X147.058 Y154.020 E2.2775
G1 X147.479 Y154.267 E2.2994
G1 X155.950 Y162.738 E2.8374
G1 X156.308 Y162.530 E2.8559
G1 X148.850 Y155.073 E3.3295
G1 X150.222 Y155.879 E3.4009
G1 X156.666 Y162.322 E3.8101
G1 X157.023 Y162.114 E3.8287
G1 X151.593 Y156.685 E4.1735
G1 X152.965 Y157.490 E4.2449
G1 X157.381 Y161.906 E4.5253
G1 X157.739 Y161.699 E4.5439
G1 X154.336 Y158.296 E4.7599
G1 X154.997 Y158.685 E4.7943
G1 X155.183 Y158.577 E4.8040
G1 X158.096 Y161.491 E4.9890
G1 X158.454 Y161.283 E5.0076
G1 X155.541 Y158.369 E5.1926
G1 X155.898 Y158.161 E5.2112
G1 X158.812 Y161.075 E5.3962
G1 X159.170 Y160.867 E5.4147
G1 X156.256 Y157.953 E5.5998
G1 X156.614 Y157.745 E5.6183
G1 X159.527 Y160.659 E5.8033
G1 X159.885 Y160.451 E5.8219
G1 X156.972 Y157.538 E6.0069
G1 X157.330 Y157.330 E6.0255
G1 X160.243 Y160.243 E6.2105
G1 X160.601 Y160.035 E6.2291
G1 X157.687 Y157.122 E6.4140
G1 X158.045 Y156.914 E6.4326
G1 X160.958 Y159.827 E6.6176
G1 X161.316 Y159.619 E6.6362
G1 X158.403 Y156.706 E6.8211
G1 X158.761 Y156.498 E6.8397
G1 X161.674 Y159.411 E7.0247
G1 X162.031 Y159.203 E7.0433
G1 X159.119 Y156.290 E7.2282
G1 X159.477 Y156.082 E7.2468
G1 X162.389 Y158.995 E7.4318
G1 X162.747 Y158.787 E7.4503
G1 X159.834 Y155.875 E7.6353
G1 X160.192 Y155.667 E7.6539
G1 X163.105 Y158.579 E7.8388
G1 X163.462 Y158.371 E7.8574
G1 X160.550 Y155.459 E8.0423
G1 X160.908 Y155.251 E8.0609
G1 X163.820 Y158.163 E8.2458
G1 X164.178 Y157.955 E8.2644
G1 X161.266 Y155.043 E8.4493
G1 X161.624 Y154.835 E8.4679
G1 X164.536 Y157.747 E8.6528
G1 X164.893 Y157.539 E8.6714
G1 X161.981 Y154.627 E8.8563
G1 X162.339 Y154.420 E8.8749
G1 X165.962 Y158.042 E9.1049
G1 X167.335 Y158.849 E9.1765
G1 X162.697 Y154.212 E9.4709
G1 X163.055 Y154.004 E9.4895
G1 X168.708 Y159.657 E9.8485
G1 X170.081 Y160.464 E9.9200
G1 X163.413 Y153.796 E10.3434
G1 X163.770 Y153.588 E10.3620
G1 X171.454 Y161.271 E10.8499
G1 X172.827 Y162.079 E10.9214
G1 X164.128 Y153.380 E11.4738
G1 X164.486 Y153.172 E11.4923
G1 X185.060 Y173.746 E12.7988
G1 X185.060 Y173.181 E12.8242
G1 X164.844 Y152.964 E14.1079
G1 X164.998 Y152.875 E14.1159
G1 X165.766 Y153.321 E14.1558
G1 X185.060 Y172.615 E15.3810
G1 X185.060 Y172.049 E15.4064
G1 X167.115 Y154.104 E16.5459
G1 X168.464 Y154.887 E16.6159
G1 X185.060 Y171.484 E17.6698
G1 X185.060 Y170.918 E17.6952
G1 X169.813 Y155.671 E18.6634
G1 X171.162 Y156.454 E18.7334
G1 X185.060 Y170.352 E19.6159
G1 X185.060 Y169.786 E19.6413
G1 X172.511 Y157.238 E20.4382
G1 X173.860 Y158.021 E20.5082
G1 X185.060 Y169.221 E21.2194
G1 X185.060 Y168.655 E21.2448
G1 X175.057 Y158.653 E21.8800
G1 X175.414 Y158.443 E21.8985
G1 X185.060 Y168.089 E22.5111
G1 X185.060 Y167.524 E22.5365
G1 X175.770 Y158.234 E23.1264
G1 X176.126 Y158.024 E23.1449
G1 X185.060 Y166.958 E23.7122
G1 X185.060 Y166.392 E23.7376
G1 X176.482 Y157.815 E24.2823
G1 X176.839 Y157.605 E24.3009
G1 X185.060 Y165.827 E24.8229
G1 X185.060 Y165.261 E24.8483
G1 X177.195 Y157.396 E25.3477
G1 X177.551 Y157.186 E25.3663
G1 X185.060 Y164.695 E25.8431
G1 X185.060 Y164.130 E25.8685
G1 X177.907 Y156.977 E26.3227
G1 X178.264 Y156.768 E26.3413
G1 X185.060 Y163.564 E26.7728
G1 X185.060 Y162.998 E26.7982
G1 X178.620 Y156.558 E27.2072
G1 X178.976 Y156.349 E27.2257
G1 X185.060 Y162.433 E27.6120
G1 X185.060 Y161.867 E27.6374
G1 X179.332 Y156.139 E28.0011
G1 X179.689 Y155.930 E28.0197
G1 X185.060 Y161.301 E28.3608
G1 X185.060 Y160.736 E28.3862
G1 X180.045 Y155.720 E28.7046
G1 X180.401 Y155.511 E28.7232
G1 X185.060 Y160.170 E29.0190
G1 X185.060 Y159.604 E29.0444
G1 X180.757 Y155.302 E29.3176
G1 X181.114 Y155.092 E29.3362
G1 X185.060 Y159.038 E29.5868
G1 X185.060 Y158.473 E29.6122
G1 X181.470 Y154.883 E29.8401
G1 X181.826 Y154.673 E29.8587
G1 X185.060 Y157.907 E30.0641
G1 X185.060 Y157.341 E30.0894
G1 X182.182 Y154.464 E30.2722
G1 X182.539 Y154.254 E30.2907
G1 X185.060 Y156.776 E30.4508
G1 X185.060 Y156.210 E30.4762
G1 X182.895 Y154.045 E30.6137
G1 X182.938 Y154.020 E30.6160
G1 X182.938 Y153.522 E30.6383
G1 X185.060 Y155.644 E30.7730
G1 X185.060 Y155.079 E30.7984
G1 X182.938 Y152.957 E30.9332
G1 X182.938 Y152.391 E30.9586
G1 X185.060 Y154.513 E31.0933
G1 X185.060 Y153.947 E31.1187
G1 X182.938 Y151.825 E31.2535
G1 X182.938 Y151.260 E31.2789
G1 X185.060 Y153.382 E31.4136
G1 X185.060 Y152.816 E31.4390
G1 X182.938 Y150.694 E31.5738
G1 X182.938 Y150.128 E31.5992
G1 X185.060 Y152.250 E31.7339
G1 X185.060 Y151.685 E31.7593
G1 X182.938 Y149.563 E31.8941
