;FLAVOR:Marlin
;TIME:10718
;Filament used: 6.41387m
;Layer height: 0.2
;MINX:116.622
;MINY:121.402
;MINZ:0.2
;MAXX:183.378
;MAXY:178.598
;MAXZ:50.8
;Generated with Cura_SteamEngine main
M140 S60
M105
M190 S60
M104 S210
M105
M109 S210
M82 ;absolute extrusion mode
M201 X500.00 Y500.00 Z100.00 E5000.00 ;Setup machine max acceleration
M203 X500.00 Y500.00 Z10.00 E50.00 ;Setup machine max feedrate
M204 P500.00 R1000.00 T500.00 ;Setup Print/Retract/Travel acceleration
M205 X8.00 Y8.00 Z0.40 E5.00 ;Setup Jerk
M220 S100 ;Reset Feedrate
M221 S100 ;Reset Flowrate

G28 ;Home
G29 ;Auto bed Level

G92 E0 ;Reset Extruder
G1 Z2.0 F3000 ;Move Z Axis up
G1 X10.1 Y20 Z0.28 F5000.0 ;Move to start position
G1 X10.1 Y200.0 Z0.28 F1500.0 E15 ;Draw the first line
G1 X10.4 Y200.0 Z0.28 F5000.0 ;Move to side a little
G1 X10.4 Y20 Z0.28 F1500.0 E30 ;Draw the second line
G92 E0 ;Reset Extruder
G1 Z2.0 F3000 ;Move Z Axis up

G92 E0
G92 E0
G1 F2700 E-5
;LAYER_COUNT:254
;LAYER:0
M107
G0 F6000 X119.837 Y124.771 Z0.2
G0 X116.623 Y133.143
;TYPE:SKIRT
G1 F2700 E0
G1 F1200 X116.635 Y132.361 E0.02341
G1 X116.69 Y131.425 E0.05148
G1 X116.824 Y130.497 E0.07954
G1 X117.036 Y129.583 E0.10763
G1 X117.326 Y128.691 E0.13571
G1 X117.69 Y127.827 E0.16377
G1 X118.127 Y126.997 E0.19185
G1 X118.633 Y126.207 E0.21993
G1 X119.204 Y125.463 E0.24801
G1 X119.837 Y124.771 E0.27608
G1 X120.526 Y124.135 E0.30415
G1 X121.267 Y123.56 E0.33223
G1 X122.054 Y123.05 E0.3603
G1 X122.882 Y122.609 E0.38838
G1 X123.914 Y122.178 E0.42186
G1 X124.209 Y122.072 E0.43124
G1 X125.105 Y121.793 E0.45933
G1 X126.021 Y121.591 E0.48741
G1 X126.95 Y121.468 E0.51546
G1 X127.7 Y121.426 E0.53795
G1 X128.803 Y121.403 E0.57097
G1 X171.536 Y121.402 E1.85015
G1 X172.244 Y121.413 E1.87134
G1 X173.18 Y121.468 E1.89941
G1 X174.108 Y121.602 E1.92748
G1 X175.022 Y121.815 E1.95557
G1 X176.241 Y122.232 E1.99414
G1 X176.473 Y122.327 E2.00164
G1 X177.325 Y122.719 E2.02971
G1 X178.141 Y123.183 E2.05781
G1 X178.914 Y123.714 E2.08589
G1 X179.639 Y124.309 E2.11396
G1 X180.311 Y124.963 E2.14203
G1 X180.924 Y125.673 E2.17011
G1 X181.475 Y126.432 E2.19818
G1 X181.959 Y127.235 E2.22625
G1 X182.268 Y127.841 E2.24661
G1 X182.641 Y128.702 E2.2747
G1 X182.94 Y129.591 E2.30278
G1 X183.162 Y130.502 E2.33084
G1 X183.306 Y131.429 E2.35893
G1 X183.374 Y132.648 E2.39547
G1 X183.378 Y166.629 E3.41266
G1 X183.366 Y167.613 E3.44212
G1 X183.314 Y168.55 E3.47021
G1 X183.182 Y169.478 E3.49827
G1 X182.971 Y170.392 E3.52635
G1 X182.684 Y171.285 E3.55443
G1 X182.321 Y172.15 E3.58251
G1 X181.886 Y172.981 E3.61059
G1 X181.382 Y173.772 E3.63866
G1 X180.813 Y174.517 E3.66672
G1 X180.182 Y175.21 E3.69478
G1 X179.494 Y175.848 E3.72287
G1 X178.754 Y176.425 E3.75095
G1 X177.968 Y176.936 E3.77902
G1 X177.141 Y177.379 E3.8071
G1 X176.107 Y177.814 E3.84068
G1 X175.811 Y177.921 E3.8501
G1 X174.916 Y178.202 E3.87818
G1 X174 Y178.405 E3.90627
G1 X173.071 Y178.53 E3.93433
G1 X172.3 Y178.574 E3.95744
G1 X171.197 Y178.597 E3.99047
G1 X128.477 Y178.598 E5.26925
G1 X127.779 Y178.588 E5.29015
G1 X126.843 Y178.534 E5.31822
G1 X125.915 Y178.402 E5.34627
G1 X125.001 Y178.19 E5.37436
G1 X123.869 Y177.809 E5.41011
G1 X123.565 Y177.688 E5.41991
G1 X122.709 Y177.305 E5.44798
G1 X121.889 Y176.849 E5.47606
G1 X121.111 Y176.326 E5.50413
G1 X120.38 Y175.738 E5.53221
G1 X119.702 Y175.09 E5.56028
G1 X119.082 Y174.387 E5.58834
G1 X118.523 Y173.633 E5.61644
G1 X118.031 Y172.835 E5.6445
G1 X117.609 Y171.998 E5.67256
G1 X117.259 Y171.127 E5.70066
G1 X116.985 Y170.23 E5.72873
G1 X116.789 Y169.313 E5.7568
G1 X116.671 Y168.383 E5.78487
G1 X116.635 Y167.656 E5.80665
G1 X116.622 Y166.824 E5.83156
G1 X116.623 Y133.143 E6.83977
G0 F6000 X117.023 Y133.149
G1 F1200 X117.035 Y132.367 E6.86319
G1 X117.089 Y131.448 E6.89074
G1 X117.223 Y130.537 E6.91831
G1 X117.435 Y129.642 E6.94584
G1 X117.724 Y128.767 E6.97342
G1 X118.088 Y127.922 E7.00096
G1 X118.524 Y127.111 E7.02853
G1 X119.029 Y126.341 E7.05609
G1 X119.598 Y125.617 E7.08365
G1 X120.228 Y124.946 E7.11121
G1 X120.914 Y124.332 E7.13876
G1 X121.651 Y123.78 E7.16633
G1 X122.433 Y123.294 E7.19389
G1 X123.254 Y122.877 E7.22145
G1 X124.05 Y122.554 E7.24717
G1 X124.345 Y122.448 E7.25655
G1 X125.224 Y122.175 E7.2841
G1 X126.123 Y121.979 E7.31165
G1 X127.036 Y121.862 E7.3392
G1 X127.708 Y121.826 E7.35934
G1 X128.811 Y121.803 E7.39237
G1 X171.53 Y121.802 E8.67112
G1 X172.238 Y121.813 E8.69232
G1 X173.157 Y121.868 E8.71988
G1 X174.068 Y122.001 E8.74744
G1 X174.963 Y122.214 E8.77498
G1 X176.09 Y122.603 E8.81067
G1 X176.322 Y122.698 E8.81817
G1 X177.158 Y123.083 E8.84572
G1 X177.957 Y123.54 E8.87327
G1 X178.714 Y124.064 E8.90083
G1 X179.422 Y124.652 E8.92838
G1 X180.077 Y125.299 E8.95594
G1 X180.673 Y126.001 E8.98351
G1 X181.206 Y126.751 E9.01105
G1 X181.871 Y127.931 E9.0516
G1 X182.274 Y128.861 E9.08194
G1 X182.565 Y129.734 E9.10948
G1 X182.78 Y130.63 E9.13706
G1 X182.916 Y131.54 E9.16461
G1 X182.974 Y132.648 E9.19782
G1 X182.978 Y166.629 E10.21501
G1 X182.966 Y167.608 E10.24432
G1 X182.914 Y168.527 E10.27187
G1 X182.782 Y169.438 E10.29943
G1 X182.572 Y170.335 E10.327
G1 X182.285 Y171.209 E10.35454
G1 X181.923 Y172.056 E10.38211
G1 X181.489 Y172.868 E10.40967
G1 X180.986 Y173.639 E10.43723
G1 X180.418 Y174.364 E10.4648
G1 X179.79 Y175.036 E10.49233
G1 X179.105 Y175.652 E10.51991
G1 X178.37 Y176.206 E10.54746
G1 X177.589 Y176.694 E10.57503
G1 X176.769 Y177.112 E10.60258
G1 X175.971 Y177.438 E10.62838
G1 X175.675 Y177.545 E10.6378
G1 X174.796 Y177.82 E10.66537
G1 X173.897 Y178.018 E10.69293
G1 X172.984 Y178.137 E10.72049
G1 X172.292 Y178.174 E10.74123
G1 X171.189 Y178.197 E10.77426
G1 X128.483 Y178.198 E12.05263
G1 X127.785 Y178.188 E12.07352
G1 X126.866 Y178.135 E12.10108
G1 X125.955 Y178.002 E12.12864
G1 X125.059 Y177.791 E12.15619
G1 X124.017 Y177.438 E12.18912
G1 X123.713 Y177.317 E12.19892
G1 X122.873 Y176.939 E12.22649
G1 X122.069 Y176.491 E12.25404
G1 X121.307 Y175.974 E12.28161
G1 X120.593 Y175.393 E12.30916
G1 X119.932 Y174.752 E12.33672
G1 X119.329 Y174.056 E12.36429
G1 X118.789 Y173.311 E12.39183
G1 X118.315 Y172.521 E12.41941
G1 X117.912 Y171.694 E12.44695
G1 X117.582 Y170.834 E12.47452
G1 X117.328 Y169.95 E12.50205
G1 X117.151 Y169.046 E12.52963
G1 X117.054 Y168.13 E12.5572
G1 X117.035 Y167.649 E12.57161
G1 X117.022 Y166.824 E12.59631
G1 X117.023 Y133.149 E13.60434
G0 F6000 X117.423 Y133.155
G1 F1200 X117.435 Y132.373 E13.62775
G1 X117.489 Y131.472 E13.65477
G1 X117.622 Y130.579 E13.6818
G1 X117.834 Y129.701 E13.70884
G1 X118.123 Y128.845 E13.73588
G1 X118.486 Y128.018 E13.76292
G1 X118.921 Y127.227 E13.78994
G1 X119.424 Y126.477 E13.81697
G1 X119.992 Y125.774 E13.84402
G1 X120.619 Y125.125 E13.87104
G1 X121.302 Y124.534 E13.89807
G1 X122.034 Y124.005 E13.92511
G1 X122.81 Y123.543 E13.95214
G1 X123.624 Y123.151 E13.97919
G1 X124.185 Y122.931 E13.99722
G1 X124.48 Y122.825 E14.00661
G1 X125.342 Y122.557 E14.03363
G1 X126.225 Y122.367 E14.06067
G1 X127.122 Y122.256 E14.08772
G1 X127.716 Y122.226 E14.10553
G1 X128.819 Y122.203 E14.13855
G1 X171.523 Y122.202 E15.41686
G1 X172.231 Y122.213 E15.43805
G1 X173.133 Y122.267 E15.4651
G1 X174.026 Y122.401 E15.49213
G1 X174.904 Y122.613 E15.51917
G1 X175.938 Y122.973 E15.55194
G1 X176.17 Y123.068 E15.55945
G1 X176.99 Y123.447 E15.58649
G1 X177.773 Y123.897 E15.61352
G1 X178.513 Y124.414 E15.64054
G1 X179.205 Y124.995 E15.66759
G1 X179.842 Y125.635 E15.69462
G1 X180.421 Y126.328 E15.72165
G1 X180.935 Y127.07 E15.74867
G1 X181.513 Y128.11 E15.78429
G1 X181.907 Y129.02 E15.81397
G1 X182.19 Y129.877 E15.84099
G1 X182.397 Y130.757 E15.86805
G1 X182.525 Y131.651 E15.89508
G1 X182.574 Y132.648 E15.92496
G1 X182.578 Y166.629 E16.94216
G1 X182.566 Y167.603 E16.97131
G1 X182.514 Y168.504 E16.99833
G1 X182.383 Y169.398 E17.02538
G1 X182.173 Y170.276 E17.0524
G1 X181.886 Y171.133 E17.07945
G1 X181.525 Y171.96 E17.10647
G1 X181.092 Y172.753 E17.13351
G1 X180.59 Y173.504 E17.16055
G1 X180.024 Y174.207 E17.18757
G1 X179.398 Y174.858 E17.2146
G1 X178.717 Y175.451 E17.24163
G1 X177.986 Y175.982 E17.26868
G1 X177.211 Y176.445 E17.2957
G1 X176.398 Y176.839 E17.32275
G1 X175.835 Y177.061 E17.34086
G1 X175.539 Y177.168 E17.35028
G1 X174.676 Y177.438 E17.37735
G1 X173.794 Y177.629 E17.40437
G1 X172.898 Y177.742 E17.4314
G1 X172.284 Y177.774 E17.4498
G1 X171.181 Y177.797 E17.48283
G1 X128.489 Y177.798 E18.76078
G1 X127.791 Y177.788 E18.78167
G1 X126.889 Y177.735 E18.80872
G1 X125.996 Y177.603 E18.83574
G1 X125.118 Y177.392 E18.86277
G1 X124.165 Y177.066 E18.89292
G1 X123.861 Y176.945 E18.90272
G1 X123.037 Y176.574 E18.92977
G1 X122.25 Y176.132 E18.95679
G1 X121.505 Y175.622 E18.98381
G1 X120.808 Y175.048 E19.01084
G1 X120.164 Y174.414 E19.03789
G1 X119.579 Y173.726 E19.06492
G1 X119.057 Y172.99 E19.09193
G1 X118.602 Y172.209 E19.11899
G1 X118.218 Y171.392 E19.14601
G1 X117.908 Y170.544 E19.17304
G1 X117.674 Y169.671 E19.2001
G1 X117.518 Y168.782 E19.22711
G1 X117.434 Y167.642 E19.26133
G1 X117.423 Y166.998 E19.28061
G1 X117.423 Y133.155 E20.29367
G1 F2700 E15.29367
;MESH:zamo_holder.stl
G0 F6000 X126.957 Y133.155
G0 X128.222 Y166.999
;TYPE:WALL-INNER
G1 F2700 E20.29367
G1 F1200 X171.778 Y166.999 E21.59748
G1 X171.778 Y133.001 E22.61518
G1 X128.222 Y133.001 E23.91899
G1 X128.222 Y166.999 E24.93669
G0 F6000 X127.822 Y167.339
;TYPE:WALL-OUTER
G1 F1200 X127.967 Y167.399 E24.94139
G1 X171.98 Y167.399 E26.25888
G1 X172.178 Y167.354 E26.26496
G1 X172.178 Y132.69 E27.3026
G1 X172.033 Y132.601 E27.30769
G1 X128.02 Y132.601 E28.62518
G1 X127.822 Y132.646 E28.63126
G1 X127.822 Y167.339 E29.66976
G0 F6000 X128.092 Y167.129
G0 X128.322 Y166.639
G0 X128.582 Y166.639
;TYPE:SKIN
G1 F1200 X171.418 Y166.639 E30.95202
G1 X171.418 Y150 E31.45009
G1 X171.418 Y133.361 E31.94817
G1 X128.582 Y133.361 E33.23043
G1 X128.582 Y166.639 E34.22657
G0 F6000 X129.102 Y166.438
G1 F1200 X128.781 Y166.117 E34.24016
G0 F6000 X128.781 Y165.551
G1 F1200 X129.668 Y166.438 E34.27771
G0 F6000 X130.234 Y166.438
G1 F1200 X128.781 Y164.985 E34.33922
G0 F6000 X128.781 Y164.42
G1 F1200 X130.799 Y166.438 E34.42465
G0 F6000 X131.365 Y166.438
G1 F1200 X128.781 Y163.854 E34.53404
G0 F6000 X128.781 Y163.288
G1 F1200 X131.931 Y166.438 E34.66739
G0 F6000 X132.496 Y166.438
G1 F1200 X128.781 Y162.722 E34.82468
G0 F6000 X128.781 Y162.157
G1 F1200 X133.062 Y166.438 E35.00591
G0 F6000 X133.628 Y166.438
G1 F1200 X128.781 Y161.591 E35.2111
G0 F6000 X128.781 Y161.025
G1 F1200 X134.194 Y166.438 E35.44025
G0 F6000 X134.759 Y166.438
G1 F1200 X128.781 Y160.46 E35.69331
G0 F6000 X128.781 Y159.894
G1 F1200 X135.325 Y166.438 E35.97034
G0 F6000 X135.891 Y166.438
G1 F1200 X128.781 Y159.328 E36.27133
G0 F6000 X128.781 Y158.763
G1 F1200 X136.456 Y166.438 E36.59624
G0 F6000 X137.022 Y166.438
G1 F1200 X128.781 Y158.197 E36.94511
G0 F6000 X128.781 Y157.631
G1 F1200 X137.588 Y166.438 E37.31794
G0 F6000 X138.153 Y166.438
G1 F1200 X128.781 Y157.066 E37.71468
G0 F6000 X128.781 Y156.5
G1 F1200 X138.719 Y166.438 E38.13539
G0 F6000 X139.285 Y166.438
G1 F1200 X128.781 Y155.934 E38.58006
G0 F6000 X128.781 Y155.369
G1 F1200 X139.85 Y166.438 E39.04865
G0 F6000 X140.416 Y166.438
G1 F1200 X128.781 Y154.803 E39.54119
G0 F6000 X128.781 Y154.237
G1 F1200 X140.982 Y166.438 E40.0577
G0 F6000 X141.547 Y166.438
G1 F1200 X128.781 Y153.671 E40.59815
G0 F6000 X128.781 Y153.106
G1 F1200 X142.113 Y166.438 E41.16254
G0 F6000 X142.679 Y166.438
G1 F1200 X128.781 Y152.54 E41.75088
G0 F6000 X128.781 Y151.974
G1 F1200 X143.244 Y166.438 E42.36317
G0 F6000 X143.81 Y166.438
G1 F1200 X128.781 Y151.409 E42.9994
G0 F6000 X128.781 Y150.843
G1 F1200 X144.376 Y166.438 E43.65958
G0 F6000 X144.942 Y166.438
G1 F1200 X128.781 Y150.277 E44.34373
G0 F6000 X128.781 Y149.712
G1 F1200 X145.507 Y166.438 E45.0518
G0 F6000 X146.073 Y166.438
G1 F1200 X128.781 Y149.146 E45.78382
G0 F6000 X128.781 Y148.58
G1 F1200 X146.639 Y166.438 E46.53981
G0 F6000 X147.204 Y166.438
G1 F1200 X128.781 Y148.015 E47.31972
G0 F6000 X128.781 Y147.449
G1 F1200 X147.77 Y166.438 E48.12358
G0 F6000 X148.336 Y166.438
G1 F1200 X128.781 Y146.883 E48.95141
G0 F6000 X128.781 Y146.318
G1 F1200 X148.901 Y166.438 E49.80315
G0 F6000 X149.467 Y166.438
G1 F1200 X128.781 Y145.752 E50.67886
G0 F6000 X128.781 Y145.186
G1 F1200 X150.033 Y166.438 E51.57852
G0 F6000 X150.598 Y166.438
G1 F1200 X128.781 Y144.621 E52.50211
G0 F6000 X128.781 Y144.055
G1 F1200 X151.164 Y166.438 E53.44965
G0 F6000 X151.73 Y166.438
G1 F1200 X128.781 Y143.489 E54.42116
G0 F6000 X128.781 Y142.923
G1 F1200 X152.295 Y166.438 E55.4166
G0 F6000 X152.861 Y166.438
G1 F1200 X128.781 Y142.358 E56.43599
G0 F6000 X128.781 Y141.792
G1 F1200 X153.427 Y166.438 E57.47933
G0 F6000 X153.993 Y166.438
G1 F1200 X128.781 Y141.226 E58.54664
G0 F6000 X128.781 Y140.661
G1 F1200 X154.558 Y166.438 E59.63786
G0 F6000 X155.124 Y166.438
G1 F1200 X128.781 Y140.095 E60.75305
G0 F6000 X128.781 Y139.529
G1 F1200 X155.69 Y166.438 E61.89219
G0 F6000 X156.255 Y166.438
G1 F1200 X128.781 Y138.964 E63.05526
G0 F6000 X128.781 Y138.398
G1 F1200 X156.821 Y166.438 E64.24228
G0 F6000 X157.387 Y166.438
G1 F1200 X128.781 Y137.832 E65.45327
G0 F6000 X128.781 Y137.267
G1 F1200 X157.952 Y166.438 E66.68817
G0 F6000 X158.518 Y166.438
G1 F1200 X128.781 Y136.701 E67.94703
G0 F6000 X128.781 Y136.135
G1 F1200 X159.084 Y166.438 E69.22986
G0 F6000 X159.649 Y166.438
G1 F1200 X128.781 Y135.57 E70.5366
G0 F6000 X128.781 Y135.004
G1 F1200 X160.215 Y166.438 E71.8673
G0 F6000 X160.781 Y166.438
G1 F1200 X128.781 Y134.438 E73.22197
G0 F6000 X128.781 Y133.872
G1 F1200 X161.346 Y166.438 E74.60057
G0 F6000 X161.912 Y166.438
G1 F1200 X129.035 Y133.561 E75.99236
G0 F6000 X129.601 Y133.561
G1 F1200 X162.478 Y166.438 E77.38415
G0 F6000 X163.043 Y166.438
G1 F1200 X130.167 Y133.561 E78.77592
G0 F6000 X130.732 Y133.561
G1 F1200 X163.609 Y166.438 E80.16771
G0 F6000 X164.175 Y166.438
G1 F1200 X131.298 Y133.561 E81.5595
G0 F6000 X131.864 Y133.561
G1 F1200 X164.741 Y166.438 E82.95129
G0 F6000 X165.306 Y166.438
G1 F1200 X132.429 Y133.561 E84.34308
G0 F6000 X132.995 Y133.561
G1 F1200 X165.872 Y166.438 E85.73487
G0 F6000 X166.438 Y166.438
G1 F1200 X133.561 Y133.561 E87.12666
G0 F6000 X134.126 Y133.561
G1 F1200 X167.003 Y166.438 E88.51845
G0 F6000 X167.569 Y166.438
G1 F1200 X134.692 Y133.561 E89.91024
G0 F6000 X135.258 Y133.561
G1 F1200 X168.135 Y166.438 E91.30203
G0 F6000 X168.7 Y166.438
G1 F1200 X135.823 Y133.561 E92.69382
G0 F6000 X136.389 Y133.561
G1 F1200 X169.266 Y166.438 E94.08561
G0 F6000 X169.832 Y166.438
G1 F1200 X136.955 Y133.561 E95.4774
G0 F6000 X137.52 Y133.561
G1 F1200 X170.397 Y166.438 E96.86919
G0 F6000 X170.963 Y166.438
G1 F1200 X138.086 Y133.561 E98.26098
G0 F6000 X138.652 Y133.561
G1 F1200 X171.217 Y166.126 E99.63956
G0 F6000 X171.217 Y165.56
G1 F1200 X139.218 Y133.561 E100.99418
G0 F6000 X139.783 Y133.561
G1 F1200 X171.217 Y164.994 E102.32486
G0 F6000 X171.217 Y164.429
G1 F1200 X140.349 Y133.561 E103.6316
G0 F6000 X140.915 Y133.561
G1 F1200 X171.217 Y163.863 E104.91439
G0 F6000 X171.217 Y163.297
G1 F1200 X141.48 Y133.561 E106.17323
G0 F6000 X142.046 Y133.561
G1 F1200 X171.217 Y162.732 E107.40813
G0 F6000 X171.217 Y162.166
G1 F1200 X142.612 Y133.561 E108.61907
G0 F6000 X143.177 Y133.561
G1 F1200 X171.217 Y161.6 E109.80608
G0 F6000 X171.217 Y161.035
G1 F1200 X143.743 Y133.561 E110.96914
G0 F6000 X144.309 Y133.561
G1 F1200 X171.217 Y160.469 E112.10824
G0 F6000 X171.217 Y159.903
G1 F1200 X144.874 Y133.561 E113.22341
G0 F6000 X145.44 Y133.561
G1 F1200 X171.217 Y159.338 E114.31463
G0 F6000 X171.217 Y158.772
G1 F1200 X146.006 Y133.561 E115.38189
G0 F6000 X146.571 Y133.561
G1 F1200 X171.217 Y158.206 E116.42522
G0 F6000 X171.217 Y157.64
G1 F1200 X147.137 Y133.561 E117.44458
G0 F6000 X147.703 Y133.561
G1 F1200 X171.217 Y157.075 E118.44
G0 F6000 X171.217 Y156.509
G1 F1200 X148.268 Y133.561 E119.41149
G0 F6000 X148.834 Y133.561
G1 F1200 X171.217 Y155.943 E120.35901
G0 F6000 X171.217 Y155.378
G1 F1200 X149.4 Y133.561 E121.2826
G0 F6000 X149.966 Y133.561
G1 F1200 X171.217 Y154.812 E122.18222
G0 F6000 X171.217 Y154.246
G1 F1200 X150.531 Y133.561 E123.05791
G0 F6000 X151.097 Y133.561
G1 F1200 X171.217 Y153.681 E123.90965
G0 F6000 X171.217 Y153.115
