;FLAVOR:Marlin
;TIME:13777
;Filament used: 7.83446m
;Layer height: 0.2
;MINX:32.138
;MINY:61.452
;MINZ:0.2
;MAXX:267.834
;MAXY:238.589
;MAXZ:15
;Generated with Cura_SteamEngine 5.2.1
M140 S60
M105
M190 S60
M104 S210
M105
M109 S210
M82 ;absolute extrusion mode
M201 X500.00 Y500.00 Z100.00 E5000.00 ;Setup machine max acceleration
M203 X500.00 Y500.00 Z10.00 E50.00 ;Setup machine max feedrate
M204 P500.00 R1000.00 T500.00 ;Setup Print/Retract/Travel acceleration
M205 X8.00 Y8.00 Z0.40 E5.00 ;Setup Jerk
M220 S100 ;Reset Feedrate
M221 S100 ;Reset Flowrate

G28 ;Home
G29 ;Auto bed Level

G92 E0 ;Reset Extruder
G1 Z2.0 F3000 ;Move Z Axis up
G1 X10.1 Y20 Z0.28 F5000.0 ;Move to start position
G1 X10.1 Y200.0 Z0.28 F1500.0 E15 ;Draw the first line
G1 X10.4 Y200.0 Z0.28 F5000.0 ;Move to side a little
G1 X10.4 Y20 Z0.28 F1500.0 E30 ;Draw the second line
G92 E0 ;Reset Extruder
G1 Z2.0 F3000 ;Move Z Axis up

G92 E0
G92 E0
G1 F2700 E-7
;LAYER_COUNT:75
;LAYER:0
M107
G0 F6000 X37.551 Y62.979 Z0.2
;TYPE:SKIRT
G1 F2700 E0
G1 F1200 X38.378 Y62.536 E0.0312
G1 X39.24 Y62.166 E0.0624
G1 X40.13 Y61.871 E0.09359
G1 X41.042 Y61.652 E0.12478
G1 X41.97 Y61.512 E0.156
G1 X42.905 Y61.452 E0.18716
G1 X43.843 Y61.471 E0.21837
G1 X44.776 Y61.57 E0.24957
G1 X45.697 Y61.749 E0.28078
G1 X46.599 Y62.005 E0.31196
G1 X47.476 Y62.337 E0.34315
G1 X48.322 Y62.742 E0.37435
G1 X49.13 Y63.218 E0.40554
G1 X49.894 Y63.761 E0.43671
G1 X50.61 Y64.368 E0.46793
G1 X51.271 Y65.033 E0.49912
G1 X51.873 Y65.752 E0.53031
G1 X52.412 Y66.519 E0.56149
G1 X52.879 Y67.322 E0.59239
G1 X53.952 Y69.36 E0.66899
G1 X55.184 Y71.557 E0.75277
G1 X56.492 Y73.74 E0.83741
G1 X57.826 Y75.835 E0.92002
G1 X59.247 Y77.93 E1.00421
G1 X60.713 Y79.965 E1.08763
G1 X62.27 Y82.001 E1.17288
G1 X63.433 Y83.448 E1.23463
G1 X63.989 Y84.203 E1.26581
G1 X64.421 Y84.892 E1.29286
G1 X64.874 Y85.713 E1.32405
G1 X65.132 Y86.271 E1.3445
G1 X65.286 Y86.63 E1.35749
G1 X65.73 Y87.863 E1.40108
G1 X66.18 Y89.394 E1.45415
G1 X66.938 Y91.839 E1.53929
G1 X67.758 Y94.246 E1.62387
G1 X68.628 Y96.58 E1.70671
G1 X69.573 Y98.914 E1.79046
G1 X70.594 Y101.241 E1.87498
G1 X71.667 Y103.509 E1.95843
G1 X72.792 Y105.725 E2.04109
G1 X74.011 Y107.969 E2.12603
G1 X75.263 Y110.119 E2.20878
G1 X76.612 Y112.297 E2.29399
G1 X77.746 Y114.026 E2.36276
G1 X78.43 Y115.043 E2.40353
G1 X78.919 Y115.843 E2.43471
G1 X79.146 Y116.273 E2.45088
G1 X79.336 Y116.654 E2.46504
G1 X79.686 Y117.408 E2.49269
G1 X80.16 Y118.64 E2.5366
G1 X80.531 Y119.83 E2.57805
G1 X80.876 Y121.064 E2.62067
G1 X81.606 Y123.543 E2.70662
G1 X82.399 Y125.983 E2.79196
G1 X83.227 Y128.302 E2.87386
G1 X84.151 Y130.676 E2.95859
G1 X85.13 Y132.994 E3.04228
G1 X86.171 Y135.276 E3.1257
G1 X87.269 Y137.516 E3.20867
G1 X88.449 Y139.758 E3.29294
G1 X89.693 Y141.969 E3.37732
G1 X90.981 Y144.112 E3.46048
G1 X92.341 Y146.238 E3.54442
G1 X93.755 Y148.317 E3.62804
G1 X95.23 Y150.357 E3.71177
G1 X96.76 Y152.353 E3.79542
G1 X98.348 Y154.308 E3.87919
G1 X99.981 Y156.206 E3.96247
G1 X101.685 Y158.075 E4.04659
G1 X103.446 Y159.901 E4.13097
G1 X105.231 Y161.651 E4.21411
G1 X107.065 Y163.349 E4.29724
G1 X108.998 Y165.039 E4.38263
G1 X110.913 Y166.622 E4.46527
G1 X112.881 Y168.157 E4.54828
G1 X114.928 Y169.662 E4.63279
G1 X116.995 Y171.092 E4.71639
G1 X119.101 Y172.465 E4.8
G1 X121.251 Y173.779 E4.88381
G1 X123.449 Y175.04 E4.96809
G1 X125.655 Y176.224 E5.05136
G1 X127.898 Y177.347 E5.13479
G1 X130.189 Y178.414 E5.21885
G1 X132.483 Y179.405 E5.30197
G1 X134.879 Y180.359 E5.38774
G1 X137.179 Y181.202 E5.46922
G1 X139.59 Y182.007 E5.55376
G1 X142.003 Y182.74 E5.63764
G1 X144.408 Y183.395 E5.72054
G1 X146.9 Y184 E5.80583
G1 X149.351 Y184.52 E5.88917
G1 X151.794 Y184.968 E5.97178
G1 X154.316 Y185.358 E6.05666
G1 X156.776 Y185.666 E6.13912
G1 X159.31 Y185.911 E6.22379
G1 X161.808 Y186.082 E6.30707
G1 X164.327 Y186.183 E6.39092
G1 X166.851 Y186.212 E6.47487
G1 X169.338 Y186.171 E6.5576
G1 X171.893 Y186.056 E6.64267
G1 X174.376 Y185.874 E6.72547
G1 X176.865 Y185.62 E6.80869
G1 X179.594 Y185.262 E6.90023
G1 X181.982 Y184.915 E6.98049
G1 X187.222 Y184.26 E7.15613
G1 X187.929 Y184.182 E7.17979
G1 X189.208 Y184.116 E7.22238
G1 X190.111 Y184.122 E7.25242
G1 X192.986 Y184.188 E7.34807
G1 X193.817 Y184.22 E7.37573
G1 X195.022 Y184.335 E7.41599
G1 X195.703 Y184.443 E7.43892
G1 X197.164 Y184.71 E7.48832
G1 X198.015 Y184.876 E7.51716
G1 X199.206 Y185.179 E7.55803
G1 X199.828 Y185.382 E7.57979
G1 X201.135 Y185.843 E7.62589
G1 X201.69 Y186.049 E7.64558
G1 X202.589 Y186.429 E7.67804
G1 X203.169 Y186.705 E7.6994
G1 X204.348 Y187.358 E7.74423
G1 X205.091 Y187.834 E7.77358
G1 X207.216 Y189.25 E7.85851
G1 X209.328 Y190.571 E7.94137
G1 X211.538 Y191.869 E8.02661
G1 X213.742 Y193.081 E8.11027
G1 X215.948 Y194.214 E8.19275
G1 X218.244 Y195.312 E8.2774
G1 X220.56 Y196.34 E8.36168
G1 X222.867 Y197.288 E8.44464
G1 X225.212 Y198.174 E8.52801
G1 X227.598 Y199 E8.61199
G1 X230 Y199.756 E8.69575
G1 X232.406 Y200.438 E8.77892
G1 X234.905 Y201.07 E8.86466
G1 X237.295 Y201.605 E8.94612
G1 X240.281 Y202.177 E9.04724
G1 X243.663 Y202.768 E9.16143
G1 X244.536 Y202.933 E9.19098
G1 X245.746 Y203.236 E9.23246
G1 X246.65 Y203.519 E9.26397
G1 X248.751 Y204.211 E9.33754
G1 X249.384 Y204.43 E9.35982
G1 X250.518 Y204.894 E9.40057
G1 X251.078 Y205.167 E9.42129
G1 X252.237 Y205.764 E9.46466
G1 X253.039 Y206.194 E9.49492
G1 X253.845 Y206.673 E9.52611
G1 X254.286 Y206.977 E9.54392
G1 X255.067 Y207.544 E9.57602
G1 X255.841 Y208.132 E9.60835
G1 X256.562 Y208.732 E9.63955
G1 X256.976 Y209.129 E9.65863
G1 X257.859 Y210.024 E9.70044
G1 X258.354 Y210.55 E9.72447
G1 X259.113 Y211.449 E9.7636
G1 X259.49 Y211.958 E9.78467
G1 X259.958 Y212.624 E9.81174
G1 X260.561 Y213.518 E9.84761
G1 X261.037 Y214.263 E9.87701
G1 X261.548 Y215.088 E9.90929
G1 X262.913 Y217.162 E9.99187
G1 X265.092 Y220.235 E10.11716
G1 X265.689 Y221.043 E10.15058
G1 X266.214 Y221.821 E10.1818
G1 X266.67 Y222.64 E10.21297
G1 X267.055 Y223.495 E10.24416
G1 X267.366 Y224.38 E10.27536
G1 X267.601 Y225.288 E10.30656
G1 X267.757 Y226.213 E10.33776
G1 X267.834 Y227.148 E10.36896
G1 X267.83 Y228.086 E10.40016
G1 X267.747 Y229.02 E10.43135
G1 X267.585 Y229.943 E10.46251
G1 X267.345 Y230.85 E10.49372
G1 X267.028 Y231.733 E10.52492
G1 X266.637 Y232.585 E10.5561
G1 X266.175 Y233.402 E10.58732
G1 X265.645 Y234.175 E10.61849
G1 X265.052 Y234.901 E10.64967
G1 X264.398 Y235.574 E10.68088
G1 X263.69 Y236.189 E10.71207
G1 X262.931 Y236.741 E10.74329
G1 X262.129 Y237.226 E10.77446
G1 X261.288 Y237.641 E10.80565
G1 X260.415 Y237.984 E10.83685
G1 X259.516 Y238.25 E10.86803
G1 X258.597 Y238.439 E10.89924
G1 X257.666 Y238.549 E10.93042
G1 X257.194 Y238.574 E10.94614
G1 X256.561 Y238.589 E10.9672
G1 X43.703 Y238.589 E18.04689
G1 X43.005 Y238.58 E18.0701
G1 X42.069 Y238.528 E18.10128
G1 X41.14 Y238.396 E18.13249
G1 X40.226 Y238.186 E18.16368
G1 X39.333 Y237.899 E18.19488
G1 X38.468 Y237.536 E18.22608
G1 X37.637 Y237.102 E18.25726
G1 X36.846 Y236.598 E18.28846
G1 X36.101 Y236.028 E18.31966
G1 X35.407 Y235.397 E18.35085
G1 X34.77 Y234.71 E18.38202
G1 X34.193 Y233.97 E18.41323
G1 X33.681 Y233.184 E18.44443
G1 X33.238 Y232.357 E18.47563
G1 X32.867 Y231.496 E18.50681
G1 X32.571 Y230.606 E18.53801
G1 X32.352 Y229.694 E18.5692
G1 X32.211 Y228.767 E18.60039
G1 X32.151 Y227.878 E18.63003
G1 X32.138 Y227.248 E18.65098
G1 X32.139 Y72.957 E23.78272
G1 X32.148 Y72.299 E23.80461
G1 X32.201 Y71.362 E23.83582
G1 X32.333 Y70.434 E23.867
G1 X32.544 Y69.52 E23.8982
G1 X32.832 Y68.627 E23.92941
G1 X33.195 Y67.763 E23.96058
G1 X33.631 Y66.932 E23.99179
G1 X34.135 Y66.141 E24.02299
G1 X34.705 Y65.397 E24.05416
G1 X35.337 Y64.703 E24.08538
G1 X36.025 Y64.066 E24.11656
G1 X36.765 Y63.49 E24.14775
G1 X37.551 Y62.979 E24.17893
G0 F6000 X37.93 Y63.222
G1 F1200 X38.751 Y62.804 E24.20958
G1 X39.604 Y62.459 E24.24018
G1 X40.484 Y62.189 E24.2708
G1 X41.385 Y61.997 E24.30144
G1 X42.298 Y61.883 E24.33204
G1 X43.218 Y61.849 E24.36266
G1 X44.138 Y61.895 E24.3933
G1 X45.05 Y62.021 E24.42392
G1 X45.948 Y62.226 E24.45455
G1 X46.824 Y62.507 E24.48515
G1 X47.673 Y62.864 E24.51578
G1 X48.488 Y63.293 E24.54642
G1 X49.262 Y63.791 E24.57703
G1 X49.99 Y64.354 E24.60764
G1 X50.667 Y64.978 E24.63826
G1 X51.287 Y65.659 E24.66889
G1 X51.845 Y66.391 E24.69951
G1 X52.525 Y67.509 E24.74303
G1 X53.599 Y69.548 E24.81968
G1 X54.835 Y71.753 E24.90375
G1 X56.144 Y73.939 E24.9885
G1 X57.491 Y76.053 E25.07187
G1 X58.919 Y78.158 E25.15647
G1 X60.403 Y80.219 E25.24094
G1 X61.944 Y82.235 E25.32534
G1 X63.121 Y83.698 E25.38779
G1 X63.666 Y84.44 E25.41841
G1 X64.079 Y85.1 E25.44431
G1 X64.523 Y85.906 E25.47492
G1 X64.765 Y86.429 E25.49408
G1 X64.919 Y86.788 E25.50708
G1 X65.346 Y87.976 E25.54906
G1 X65.788 Y89.479 E25.60117
G1 X66.563 Y91.981 E25.68829
G1 X67.366 Y94.335 E25.77101
G1 X68.264 Y96.745 E25.85655
G1 X69.208 Y99.076 E25.9402
G1 X70.225 Y101.394 E26.02439
G1 X71.307 Y103.682 E26.10857
G1 X72.457 Y105.947 E26.19306
G1 X73.657 Y108.155 E26.27664
G1 X74.926 Y110.335 E26.36054
G1 X76.263 Y112.495 E26.44503
G1 X77.414 Y114.249 E26.51481
G1 X78.098 Y115.266 E26.55557
G1 X78.788 Y116.451 E26.60118
G1 X78.978 Y116.832 E26.61534
G1 X79.322 Y117.573 E26.64251
G1 X79.779 Y118.761 E26.68485
G1 X80.146 Y119.938 E26.72585
G1 X80.499 Y121.203 E26.76953
G1 X81.227 Y123.675 E26.85524
G1 X82.004 Y126.062 E26.93874
G1 X82.866 Y128.476 E27.02399
G1 X83.774 Y130.81 E27.10729
G1 X84.769 Y133.167 E27.19238
G1 X85.806 Y135.439 E27.27545
G1 X86.914 Y137.7 E27.35919
G1 X88.104 Y139.962 E27.4442
G1 X89.345 Y142.165 E27.5283
G1 X90.634 Y144.312 E27.61159
G1 X92.001 Y146.448 E27.69594
G1 X93.445 Y148.571 E27.78134
G1 X94.892 Y150.573 E27.86349
G1 X96.465 Y152.625 E27.94949
G1 X98.032 Y154.555 E28.03218
G1 X99.699 Y156.491 E28.11715
G1 X101.384 Y158.34 E28.20035
G1 X103.161 Y160.182 E28.28548
G1 X104.944 Y161.929 E28.3685
G1 X106.812 Y163.66 E28.45321
G1 X108.725 Y165.332 E28.53771
G1 X110.657 Y166.93 E28.6211
G1 X112.65 Y168.484 E28.70516
G1 X114.703 Y169.993 E28.7899
G1 X116.754 Y171.412 E28.87286
G1 X118.92 Y172.824 E28.95885
G1 X121.022 Y174.109 E29.04079
G1 X123.24 Y175.381 E29.12584
G1 X125.466 Y176.576 E29.20987
G1 X127.758 Y177.723 E29.29511
G1 X129.998 Y178.766 E29.3773
G1 X132.355 Y179.785 E29.4627
G1 X134.71 Y180.722 E29.547
G1 X137.082 Y181.592 E29.63103
G1 X139.452 Y182.384 E29.71415
G1 X141.887 Y183.123 E29.79878
G1 X144.322 Y183.786 E29.88272
G1 X146.787 Y184.384 E29.96708
G1 X149.268 Y184.911 E30.05144
G1 X151.732 Y185.363 E30.13476
G1 X154.242 Y185.751 E30.21924
G1 X156.759 Y186.067 E30.30361
G1 X159.28 Y186.31 E30.38785
G1 X161.761 Y186.48 E30.47056
G1 X164.342 Y186.583 E30.55647
G1 X166.818 Y186.612 E30.63883
G1 X169.398 Y186.569 E30.72465
G1 X171.872 Y186.458 E30.80702
G1 X174.445 Y186.269 E30.89283
G1 X176.921 Y186.017 E30.97561
G1 X179.638 Y185.66 E31.06675
G1 X182.032 Y185.312 E31.14721
G1 X187.111 Y184.676 E31.31746
G1 X187.973 Y184.58 E31.34631
G1 X189.205 Y184.516 E31.38734
G1 X190.108 Y184.522 E31.41738
G1 X192.976 Y184.588 E31.51279
G1 X193.801 Y184.62 E31.54025
G1 X194.962 Y184.73 E31.57904
G1 X195.631 Y184.837 E31.60157
G1 X197.223 Y185.129 E31.65541
G1 X197.938 Y185.269 E31.67964
G1 X199.086 Y185.561 E31.71904
G1 X199.695 Y185.759 E31.74034
G1 X200.996 Y186.218 E31.78622
G1 X201.551 Y186.424 E31.80591
G1 X202.417 Y186.79 E31.83718
G1 X202.997 Y187.066 E31.85855
G1 X204.133 Y187.695 E31.90173
G1 X204.869 Y188.166 E31.9308
G1 X207.013 Y189.594 E32.01648
G1 X209.134 Y190.922 E32.09971
G1 X211.334 Y192.213 E32.18455
G1 X213.546 Y193.43 E32.26852
G1 X215.786 Y194.58 E32.35227
G1 X218.079 Y195.677 E32.43681
G1 X220.395 Y196.704 E32.52108
G1 X222.711 Y197.656 E32.60436
G1 X225.077 Y198.55 E32.68848
G1 X227.495 Y199.387 E32.77359
G1 X229.877 Y200.137 E32.85665
G1 X232.313 Y200.827 E32.94086
G1 X234.783 Y201.453 E33.02561
G1 X237.229 Y202 E33.10897
G1 X240.204 Y202.569 E33.20971
G1 X243.594 Y203.162 E33.32418
G1 X244.461 Y203.326 E33.35353
G1 X245.627 Y203.618 E33.3935
G1 X246.526 Y203.899 E33.42483
G1 X248.466 Y204.537 E33.49276
G1 X249.253 Y204.808 E33.52044
G1 X250.346 Y205.255 E33.55972
G1 X250.895 Y205.523 E33.58004
G1 X252.225 Y206.21 E33.62982
G1 X252.849 Y206.546 E33.6534
G1 X253.64 Y207.017 E33.68402
G1 X254.051 Y207.301 E33.70063
G1 X255.039 Y208.022 E33.74131
G1 X255.598 Y208.449 E33.76471
G1 X256.305 Y209.039 E33.79534
G1 X256.692 Y209.41 E33.81317
G1 X257.376 Y210.1 E33.84548
G1 X258.062 Y210.825 E33.87868
G1 X258.794 Y211.69 E33.91637
G1 X259.163 Y212.188 E33.93698
G1 X259.52 Y212.694 E33.95758
G1 X260.059 Y213.485 E33.98942
G1 X260.782 Y214.61 E34.03389
G1 X261.207 Y215.297 E34.06076
G1 X262.585 Y217.392 E34.14417
G1 X264.776 Y220.482 E34.27015
G1 X265.367 Y221.281 E34.30321
G1 X265.882 Y222.045 E34.33385
G1 X266.328 Y222.85 E34.36446
G1 X266.703 Y223.691 E34.39509
G1 X267.003 Y224.561 E34.4257
G1 X267.227 Y225.454 E34.45632
G1 X267.372 Y226.363 E34.48693
G1 X267.438 Y227.282 E34.51758
G1 X267.424 Y228.202 E34.54818
G1 X267.33 Y229.118 E34.57881
G1 X267.157 Y230.022 E34.60942
G1 X266.906 Y230.908 E34.64005
G1 X266.579 Y231.769 E34.67068
G1 X266.179 Y232.598 E34.7013
G1 X265.708 Y233.389 E34.73192
G1 X265.171 Y234.137 E34.76254
G1 X264.571 Y234.835 E34.79316
G1 X263.912 Y235.478 E34.82378
G1 X263.2 Y236.062 E34.85441
G1 X262.44 Y236.581 E34.88502
G1 X261.638 Y237.033 E34.91564
G1 X260.799 Y237.414 E34.94628
G1 X259.931 Y237.72 E34.97689
G1 X259.04 Y237.95 E35.0075
G1 X258.132 Y238.101 E35.03812
G1 X257.181 Y238.175 E35.06984
G1 X256.561 Y238.189 E35.09047
G1 X43.708 Y238.189 E42.16999
G1 X43.01 Y238.18 E42.19321
G1 X42.091 Y238.128 E42.22382
G1 X41.18 Y237.997 E42.25443
G1 X40.284 Y237.787 E42.28504
G1 X39.409 Y237.5 E42.31567
G1 X38.562 Y237.138 E42.34631
G1 X37.75 Y236.704 E42.37693
G1 X36.979 Y236.202 E42.40753
G1 X36.254 Y235.634 E42.43816
G1 X35.581 Y235.005 E42.4688
G1 X34.966 Y234.321 E42.49939
G1 X34.412 Y233.586 E42.53001
G1 X33.924 Y232.805 E42.56064
G1 X33.505 Y231.985 E42.59126
G1 X33.159 Y231.132 E42.62188
G1 X32.889 Y230.252 E42.6525
G1 X32.696 Y229.351 E42.68314
G1 X32.582 Y228.438 E42.71374
G1 X32.551 Y227.867 E42.73276
G1 X32.538 Y227.248 E42.75336
G1 X32.539 Y72.962 E47.88493
G1 X32.548 Y72.304 E47.90682
G1 X32.601 Y71.385 E47.93743
G1 X32.733 Y70.474 E47.96805
G1 X32.943 Y69.578 E47.99866
G1 X33.231 Y68.703 E48.0293
G1 X33.593 Y67.857 E48.0599
G1 X34.028 Y67.045 E48.09054
G1 X34.531 Y66.274 E48.12116
G1 X35.1 Y65.55 E48.15179
G1 X35.729 Y64.878 E48.1824
G1 X36.414 Y64.262 E48.21304
G1 X37.149 Y63.709 E48.24363
G1 X37.93 Y63.222 E48.27425
G0 F6000 X38.308 Y63.47
G1 F1200 X39.121 Y63.077 E48.30428
G1 X39.966 Y62.758 E48.33432
G1 X40.836 Y62.514 E48.36437
G1 X41.723 Y62.349 E48.39438
G1 X42.622 Y62.262 E48.42442
G1 X43.526 Y62.256 E48.45449
G1 X44.426 Y62.329 E48.48452
G1 X45.316 Y62.482 E48.51456
G1 X46.189 Y62.713 E48.54459
G1 X47.038 Y63.02 E48.57462
G1 X47.857 Y63.401 E48.60467
G1 X48.639 Y63.854 E48.63472
G1 X49.377 Y64.373 E48.66473
G1 X50.067 Y64.956 E48.69478
G1 X50.703 Y65.597 E48.72481
G1 X51.279 Y66.292 E48.75483
G1 X51.792 Y67.036 E48.78489
G1 X52.171 Y67.695 E48.81017
G1 X53.246 Y69.735 E48.88687
G1 X54.486 Y71.948 E48.97124
G1 X55.807 Y74.153 E49.05673
G1 X57.166 Y76.287 E49.14088
G1 X58.596 Y78.395 E49.2256
G1 X60.076 Y80.45 E49.30983
G1 X61.635 Y82.488 E49.39518
G1 X62.809 Y83.949 E49.45751
G1 X63.575 Y85.04 E49.50185
G1 X63.738 Y85.308 E49.51229
G1 X64.172 Y86.099 E49.54229
G1 X64.397 Y86.587 E49.56017
G1 X64.551 Y86.946 E49.57316
G1 X64.963 Y88.089 E49.61357
G1 X65.421 Y89.646 E49.66755
G1 X66.175 Y92.081 E49.75233
G1 X66.999 Y94.499 E49.8373
G1 X67.889 Y96.887 E49.92206
G1 X68.847 Y99.251 E50.0069
G1 X69.854 Y101.547 E50.09028
G1 X70.946 Y103.855 E50.17521
G1 X72.092 Y106.112 E50.2594
G1 X73.303 Y108.341 E50.34377
G1 X74.599 Y110.568 E50.42947
G1 X75.927 Y112.713 E50.51338
G1 X77.109 Y114.513 E50.585
G1 X77.766 Y115.49 E50.62416
G1 X78.43 Y116.63 E50.66804
G1 X78.62 Y117.011 E50.6822
G1 X78.958 Y117.739 E50.7089
G1 X79.398 Y118.882 E50.74963
G1 X79.76 Y120.045 E50.79014
G1 X80.109 Y121.295 E50.83331
G1 X80.839 Y123.774 E50.91926
G1 X81.633 Y126.215 E51.00464
G1 X82.488 Y128.608 E51.08916
