;FLAVOR:Marlin
;TIME:5161
;Filament used: 3.24392m
;Layer height: 0.2
;MINX:119
;MINY:102.454
;MINZ:0.2
;MAXX:181
;MAXY:197.546
;MAXZ:22
;Generated with Cura_SteamEngine 5.2.1
M140 S60
M105
M190 S60
M104 S200
M105
M109 S200
M82 ;absolute extrusion mode
M201 X500.00 Y500.00 Z100.00 E5000.00 ;Setup machine max acceleration
M203 X500.00 Y500.00 Z10.00 E50.00 ;Setup machine max feedrate
M204 P500.00 R1000.00 T500.00 ;Setup Print/Retract/Travel acceleration
M205 X8.00 Y8.00 Z0.40 E5.00 ;Setup Jerk
M220 S100 ;Reset Feedrate
M221 S100 ;Reset Flowrate

G28 ;Home
G29 ;Auto bed Level

G92 E0 ;Reset Extruder
G1 Z2.0 F3000 ;Move Z Axis up
G1 X10.1 Y20 Z0.28 F5000.0 ;Move to start position
G1 X10.1 Y200.0 Z0.28 F1500.0 E15 ;Draw the first line
G1 X10.4 Y200.0 Z0.28 F5000.0 ;Move to side a little
G1 X10.4 Y20 Z0.28 F1500.0 E30 ;Draw the second line
G92 E0 ;Reset Extruder
G1 Z2.0 F3000 ;Move Z Axis up

G92 E0
G92 E0
G1 F2700 E-7
;LAYER_COUNT:110
;LAYER:0
M107
G0 F6000 X121.566 Y106.412 Z0.2
;TYPE:SKIRT
G1 F2700 E0
G1 F1200 X122.198 Y105.718 E0.03122
G1 X122.886 Y105.081 E0.0624
G1 X123.626 Y104.505 E0.09359
G1 X124.412 Y103.993 E0.12479
G1 X125.239 Y103.551 E0.15598
G1 X126.101 Y103.181 E0.18718
G1 X126.991 Y102.885 E0.21838
G1 X127.903 Y102.667 E0.24957
G1 X128.83 Y102.526 E0.28075
G1 X129.701 Y102.467 E0.30979
G1 X130.33 Y102.454 E0.33071
G1 X135.042 Y102.455 E0.48744
G1 X135.742 Y102.465 E0.51072
G1 X136.678 Y102.518 E0.5419
G1 X137.607 Y102.651 E0.57311
G1 X138.521 Y102.863 E0.60432
G1 X139.413 Y103.152 E0.63551
G1 X140.277 Y103.515 E0.66668
G1 X141.108 Y103.951 E0.69789
G1 X141.898 Y104.456 E0.72908
G1 X142.643 Y105.027 E0.7603
G1 X143.336 Y105.658 E0.79147
G1 X143.972 Y106.347 E0.82265
G1 X144.548 Y107.087 E0.85384
G1 X145.059 Y107.874 E0.88505
G1 X145.5 Y108.701 E0.91623
G1 X145.727 Y109.204 E0.93458
G1 X145.977 Y109.802 E0.95614
G1 X146.601 Y111.35 E1.01165
G1 X147.603 Y113.647 E1.095
G1 X148.663 Y115.9 E1.17782
G1 X149.805 Y118.16 E1.26204
G1 X151.011 Y120.39 E1.34636
G1 X152.263 Y122.552 E1.42945
G1 X153.582 Y124.691 E1.51304
G1 X154.976 Y126.814 E1.59751
G1 X156.408 Y128.863 E1.68065
G1 X157.899 Y130.879 E1.76405
G1 X160.633 Y134.327 E1.91041
G1 X161.08 Y134.943 E1.93572
G1 X161.459 Y135.505 E1.95827
G1 X161.843 Y136.112 E1.98216
G1 X162.23 Y136.788 E2.00806
G1 X162.667 Y137.665 E2.04065
G1 X162.808 Y137.983 E2.05222
G1 X163.095 Y138.697 E2.07782
G1 X163.767 Y140.553 E2.14347
G1 X164.685 Y142.935 E2.22838
G1 X165.663 Y145.267 E2.31248
G1 X166.701 Y147.56 E2.3962
G1 X167.801 Y149.821 E2.47983
G1 X168.961 Y152.041 E2.56314
G1 X170.203 Y154.26 E2.64772
G1 X171.494 Y156.423 E2.7315
G1 X172.843 Y158.545 E2.81513
G1 X174.228 Y160.594 E2.89739
G1 X176.338 Y163.498 E3.01678
G1 X176.531 Y163.753 E3.02742
G1 X177.063 Y164.522 E3.05852
G1 X177.572 Y165.341 E3.09059
G1 X177.979 Y166.041 E3.11752
G1 X178.372 Y166.75 E3.14448
G1 X179.083 Y168.094 E3.19505
G1 X179.553 Y169.035 E3.23004
G1 X179.953 Y169.89 E3.26143
G1 X180.313 Y170.755 E3.2926
G1 X180.599 Y171.649 E3.32382
G1 X180.808 Y172.563 E3.355
G1 X180.938 Y173.492 E3.3862
G1 X180.982 Y174.172 E3.40886
G1 X180.998 Y174.81 E3.43009
G1 X181 Y185.808 E3.79589
G1 X180.99 Y186.673 E3.82466
G1 X180.939 Y187.61 E3.85587
G1 X180.807 Y188.538 E3.88705
G1 X180.598 Y189.452 E3.91823
G1 X180.311 Y190.345 E3.94943
G1 X179.949 Y191.211 E3.98065
G1 X179.515 Y192.042 E4.01183
G1 X179.011 Y192.833 E4.04302
G1 X178.442 Y193.578 E4.0742
G1 X177.811 Y194.273 E4.10542
G1 X177.124 Y194.911 E4.13661
G1 X176.385 Y195.488 E4.16779
G1 X175.599 Y196 E4.19899
G1 X174.773 Y196.443 E4.23017
G1 X173.911 Y196.815 E4.26139
G1 X173.022 Y197.111 E4.29256
G1 X172.11 Y197.331 E4.32376
G1 X171.183 Y197.472 E4.35495
G1 X170.299 Y197.533 E4.38442
G1 X169.67 Y197.546 E4.40534
G1 X130.565 Y197.545 E5.70598
G1 X129.867 Y197.536 E5.7292
G1 X128.931 Y197.484 E5.76038
G1 X128.002 Y197.352 E5.79159
G1 X127.088 Y197.142 E5.82278
G1 X126.195 Y196.855 E5.85398
G1 X125.33 Y196.492 E5.88518
G1 X124.499 Y196.058 E5.91636
G1 X123.708 Y195.554 E5.94755
G1 X122.963 Y194.984 E5.97875
G1 X122.269 Y194.353 E6.00995
G1 X121.632 Y193.666 E6.04111
G1 X121.055 Y192.926 E6.07232
G1 X120.543 Y192.14 E6.10352
G1 X120.1 Y191.313 E6.13472
G1 X119.729 Y190.452 E6.16591
G1 X119.433 Y189.562 E6.1971
G1 X119.214 Y188.65 E6.2283
G1 X119.073 Y187.723 E6.25948
G1 X119.013 Y186.834 E6.28912
G1 X119 Y186.204 E6.31008
G1 X119.001 Y113.979 E8.71229
G1 X119.01 Y113.314 E8.73441
G1 X119.063 Y112.378 E8.76559
G1 X119.195 Y111.449 E8.7968
G1 X119.406 Y110.535 E8.828
G1 X119.694 Y109.643 E8.85918
G1 X120.057 Y108.778 E8.89038
G1 X120.492 Y107.947 E8.92157
G1 X120.996 Y107.157 E8.95274
G1 X121.566 Y106.412 E8.98394
G0 F6000 X121.961 Y106.565
G1 F1200 X122.589 Y105.893 E9.01453
G1 X123.274 Y105.277 E9.04517
G1 X124.01 Y104.724 E9.07579
G1 X124.791 Y104.236 E9.10642
G1 X125.611 Y103.818 E9.13704
G1 X126.465 Y103.473 E9.16767
G1 X127.345 Y103.203 E9.19829
G1 X128.245 Y103.011 E9.22889
G1 X129.159 Y102.897 E9.25953
G1 X129.712 Y102.867 E9.27795
G1 X130.33 Y102.854 E9.29851
G1 X134.885 Y102.854 E9.45001
G1 X135.736 Y102.865 E9.47831
G1 X136.656 Y102.918 E9.50896
G1 X137.567 Y103.051 E9.53959
G1 X138.463 Y103.262 E9.5702
G1 X139.337 Y103.55 E9.60081
G1 X140.183 Y103.913 E9.63143
G1 X140.995 Y104.348 E9.66207
G1 X141.765 Y104.852 E9.69268
G1 X142.489 Y105.421 E9.7233
G1 X143.161 Y106.05 E9.75392
G1 X143.776 Y106.736 E9.78456
G1 X144.329 Y107.472 E9.81518
G1 X144.816 Y108.253 E9.84579
G1 X145.358 Y109.359 E9.88676
G1 X145.606 Y109.952 E9.90814
G1 X146.225 Y111.489 E9.96325
G1 X147.232 Y113.798 E10.04703
G1 X148.302 Y116.071 E10.13059
G1 X149.462 Y118.367 E10.21615
G1 X150.656 Y120.575 E10.29963
G1 X151.925 Y122.767 E10.38388
G1 X153.25 Y124.915 E10.46782
G1 X154.63 Y127.017 E10.55145
G1 X156.091 Y129.108 E10.63629
G1 X157.573 Y131.111 E10.71917
G1 X159.67 Y133.758 E10.83148
G1 X159.974 Y134.132 E10.84751
G1 X160.318 Y134.573 E10.86612
G1 X160.748 Y135.166 E10.89048
G1 X161.127 Y135.728 E10.91303
G1 X161.502 Y136.321 E10.93636
G1 X161.88 Y136.982 E10.96169
G1 X162.301 Y137.827 E10.99309
G1 X162.442 Y138.145 E11.00466
G1 X162.719 Y138.833 E11.02932
G1 X163.408 Y140.735 E11.09661
G1 X164.307 Y143.067 E11.17973
G1 X165.289 Y145.408 E11.26417
G1 X166.349 Y147.75 E11.34967
G1 X167.444 Y150.002 E11.43296
G1 X168.608 Y152.23 E11.51657
G1 X169.86 Y154.466 E11.6018
G1 X171.13 Y156.595 E11.68425
G1 X172.518 Y158.778 E11.77029
G1 X173.897 Y160.818 E11.85219
G1 X176.028 Y163.751 E11.97277
G1 X176.212 Y163.994 E11.98291
G1 X176.724 Y164.735 E12.01287
G1 X177.227 Y165.543 E12.04452
G1 X177.629 Y166.235 E12.07114
G1 X178.119 Y167.123 E12.10488
G1 X178.631 Y168.09 E12.14127
G1 X179.052 Y168.92 E12.17222
G1 X179.59 Y170.059 E12.21412
G1 X179.944 Y170.909 E12.24474
G1 X180.222 Y171.787 E12.27538
G1 X180.423 Y172.685 E12.30598
G1 X180.546 Y173.598 E12.33662
G1 X180.583 Y174.186 E12.35622
G1 X180.598 Y174.81 E12.37698
G1 X180.6 Y185.808 E12.74277
G1 X180.59 Y186.668 E12.77138
G1 X180.539 Y187.587 E12.80199
G1 X180.408 Y188.499 E12.83264
G1 X180.198 Y189.395 E12.86325
G1 X179.912 Y190.27 E12.89386
G1 X179.551 Y191.117 E12.92449
G1 X179.117 Y191.929 E12.95511
G1 X178.615 Y192.701 E12.98574
G1 X178.047 Y193.426 E13.01637
G1 X177.419 Y194.099 E13.04699
G1 X176.735 Y194.715 E13.0776
G1 X176 Y195.269 E13.10821
G1 X175.22 Y195.758 E13.13883
G1 X174.4 Y196.177 E13.16946
G1 X173.547 Y196.523 E13.20008
G1 X172.667 Y196.794 E13.2307
G1 X171.767 Y196.987 E13.26132
G1 X170.853 Y197.102 E13.29196
G1 X170.288 Y197.133 E13.31078
G1 X169.67 Y197.146 E13.33134
G1 X130.57 Y197.145 E14.63181
G1 X129.872 Y197.136 E14.65503
G1 X128.953 Y197.084 E14.68564
G1 X128.042 Y196.953 E14.71625
G1 X127.146 Y196.743 E14.74686
G1 X126.271 Y196.456 E14.77749
G1 X125.424 Y196.094 E14.80813
G1 X124.612 Y195.66 E14.83875
G1 X123.841 Y195.158 E14.86935
G1 X123.116 Y194.59 E14.89998
G1 X122.443 Y193.961 E14.93062
G1 X121.828 Y193.277 E14.96121
G1 X121.274 Y192.542 E14.99183
G1 X120.786 Y191.761 E15.02246
G1 X120.367 Y190.941 E15.05308
G1 X120.021 Y190.088 E15.0837
G1 X119.751 Y189.208 E15.11432
G1 X119.558 Y188.307 E15.14496
G1 X119.444 Y187.394 E15.17556
G1 X119.413 Y186.823 E15.19458
G1 X119.4 Y186.204 E15.21518
G1 X119.401 Y113.985 E17.61719
G1 X119.41 Y113.32 E17.63931
G1 X119.462 Y112.4 E17.66996
G1 X119.594 Y111.489 E17.70057
G1 X119.805 Y110.593 E17.73119
G1 X120.092 Y109.718 E17.76182
G1 X120.455 Y108.872 E17.79244
G1 X120.889 Y108.06 E17.82306
G1 X121.392 Y107.289 E17.85368
G1 X121.961 Y106.565 E17.88431
G0 F6000 X122.355 Y106.721
G1 F1200 X122.981 Y106.071 E17.91432
G1 X123.662 Y105.478 E17.94436
G1 X124.394 Y104.948 E17.97441
G1 X125.169 Y104.485 E18.00444
G1 X125.982 Y104.092 E18.03447
G1 X126.827 Y103.772 E18.06453
G1 X127.696 Y103.529 E18.09454
G1 X128.584 Y103.363 E18.12458
G1 X129.723 Y103.267 E18.1626
G1 X130.33 Y103.254 E18.1828
G1 X134.885 Y103.254 E18.3343
G1 X135.731 Y103.265 E18.36244
G1 X136.632 Y103.318 E18.39246
G1 X137.526 Y103.45 E18.42251
G1 X138.404 Y103.661 E18.45255
G1 X139.26 Y103.949 E18.48259
G1 X140.087 Y104.311 E18.51261
G1 X140.879 Y104.745 E18.54265
G1 X141.629 Y105.248 E18.57268
G1 X142.332 Y105.815 E18.60272
G1 X142.983 Y106.441 E18.63276
G1 X143.575 Y107.123 E18.6628
G1 X144.104 Y107.855 E18.69284
G1 X144.567 Y108.63 E18.72286
G1 X144.989 Y109.514 E18.75544
G1 X145.235 Y110.101 E18.77661
G1 X145.861 Y111.654 E18.83231
G1 X146.88 Y113.99 E18.91707
G1 X147.94 Y116.244 E18.99992
G1 X149.103 Y118.544 E19.08564
G1 X150.29 Y120.74 E19.16866
G1 X151.582 Y122.972 E19.25444
G1 X152.918 Y125.14 E19.33914
G1 X154.301 Y127.244 E19.42288
G1 X155.757 Y129.329 E19.50747
G1 X157.265 Y131.367 E19.59179
G1 X159.35 Y133.998 E19.70344
G1 X159.659 Y134.378 E19.71973
G1 X160.003 Y134.819 E19.73834
G1 X160.417 Y135.39 E19.76179
G1 X160.796 Y135.952 E19.78434
G1 X161.036 Y136.326 E19.79912
G1 X161.384 Y136.911 E19.82176
G1 X161.531 Y137.176 E19.83184
G1 X161.936 Y137.99 E19.86208
G1 X162.077 Y138.308 E19.87365
G1 X162.343 Y138.97 E19.89738
G1 X163.027 Y140.859 E19.9642
G1 X163.936 Y143.217 E20.04825
G1 X164.932 Y145.592 E20.13391
G1 X165.969 Y147.882 E20.21752
G1 X167.096 Y150.198 E20.30319
G1 X168.255 Y152.417 E20.38645
G1 X169.51 Y154.66 E20.47194
G1 X170.808 Y156.835 E20.55618
G1 X172.166 Y158.97 E20.64034
G1 X173.589 Y161.076 E20.72488
G1 X175.674 Y163.945 E20.84284
G1 X175.893 Y164.235 E20.85492
G1 X176.386 Y164.949 E20.88378
G1 X176.882 Y165.746 E20.915
G1 X177.279 Y166.429 E20.94128
G1 X177.765 Y167.31 E20.97475
G1 X178.369 Y168.455 E21.0178
G1 X178.828 Y169.374 E21.05197
G1 X179.228 Y170.229 E21.08336
G1 X179.574 Y171.063 E21.1134
G1 X179.845 Y171.924 E21.14342
G1 X180.039 Y172.806 E21.17345
G1 X180.154 Y173.702 E21.2035
G1 X180.183 Y174.199 E21.22006
G1 X180.198 Y174.81 E21.24039
G1 X180.2 Y185.808 E21.60618
G1 X180.19 Y186.663 E21.63462
G1 X180.139 Y187.565 E21.66467
G1 X180.008 Y188.459 E21.69472
G1 X179.799 Y189.337 E21.72474
G1 X179.513 Y190.194 E21.75479
G1 X179.152 Y191.022 E21.78483
G1 X178.72 Y191.814 E21.81484
G1 X178.219 Y192.566 E21.84489
G1 X177.653 Y193.27 E21.87494
G1 X177.028 Y193.921 E21.90495
G1 X176.347 Y194.515 E21.93501
G1 X175.616 Y195.046 E21.96506
G1 X174.842 Y195.51 E21.99507
G1 X174.029 Y195.904 E22.02512
G1 X173.185 Y196.224 E22.05514
G1 X172.315 Y196.469 E22.0852
G1 X171.428 Y196.635 E22.11522
G1 X170.277 Y196.733 E22.15364
G1 X169.67 Y196.746 E22.17383
G1 X130.575 Y196.745 E23.47414
G1 X129.877 Y196.736 E23.49736
G1 X128.976 Y196.685 E23.52737
G1 X128.082 Y196.553 E23.55743
G1 X127.204 Y196.344 E23.58745
G1 X126.347 Y196.057 E23.61751
G1 X125.52 Y195.696 E23.64752
G1 X124.727 Y195.263 E23.67757
G1 X123.976 Y194.762 E23.7076
G1 X123.272 Y194.196 E23.73764
G1 X122.621 Y193.57 E23.76768
G1 X122.028 Y192.889 E23.79771
G1 X121.498 Y192.158 E23.82774
G1 X121.034 Y191.383 E23.85779
G1 X120.64 Y190.57 E23.88784
G1 X120.32 Y189.726 E23.91786
G1 X120.076 Y188.856 E23.94791
G1 X119.91 Y187.968 E23.97796
G1 X119.813 Y186.813 E24.01651
G1 X119.8 Y186.204 E24.03677
G1 X119.801 Y113.99 E26.43862
G1 X119.81 Y113.325 E26.46074
G1 X119.862 Y112.423 E26.49079
G1 X119.994 Y111.53 E26.52081
G1 X120.204 Y110.652 E26.55084
G1 X120.491 Y109.795 E26.5809
G1 X120.853 Y108.968 E26.61092
G1 X121.286 Y108.176 E26.64094
G1 X121.788 Y107.425 E26.67099
G1 X122.355 Y106.721 E26.70105
G1 F2700 E19.70105
;MESH:Incarna_tray.stl
G0 F6000 X129.335 Y113.874
G0 X130.6 Y185.946
;TYPE:WALL-INNER
G1 F2700 E26.70105
G1 F1200 X169.4 Y185.946 E27.99155
G1 X169.4 Y175.18 E28.34963
G1 X169.4 Y174.688 E28.36599
G1 X169.172 Y174.207 E28.38369
G1 X168.866 Y173.591 E28.40657
G1 X168.537 Y172.952 E28.43048
G1 X167.947 Y171.859 E28.47179
G1 X167.604 Y171.258 E28.4948
G1 X167.42 Y170.955 E28.50659
G1 X167.236 Y170.674 E28.51776
G1 X167.07 Y170.445 E28.52717
G1 X166.787 Y170.13 E28.54126
G1 X166.556 Y169.957 E28.55085
G1 X166.126 Y169.845 E28.56563
G1 X165.617 Y169.884 E28.58261
G1 X164.666 Y169.989 E28.61444
G1 X164.125 Y169.969 E28.63244
G1 X163.691 Y169.893 E28.6471
G1 X163.177 Y169.699 E28.66537
G1 X162.661 Y169.459 E28.6843
G1 X162.23 Y169.222 E28.70066
G1 X161.811 Y168.968 E28.71695
G1 X161.354 Y168.671 E28.73508
G1 X160.605 Y168.146 E28.7655
G1 X160.04 Y167.73 E28.78884
G1 X159.16 Y167.039 E28.82605
G1 X158.397 Y166.402 E28.85911
G1 X158.057 Y166.097 E28.8743
G1 X157.735 Y165.793 E28.88903
G1 X157.205 Y165.248 E28.91432
G1 X156.938 Y164.939 E28.9279
G1 X156.721 Y164.662 E28.9396
G1 X156.524 Y164.388 E28.95083
G1 X156.343 Y164.106 E28.96197
G1 X156.193 Y163.834 E28.9723
G1 X156.08 Y163.599 E28.98098
G1 X155.945 Y163.263 E28.99302
G1 X155.825 Y162.888 E29.00612
G1 X155.74 Y162.348 E29.0243
G1 X155.835 Y161.952 E29.03784
G1 X155.989 Y161.589 E29.05096
G1 X156.336 Y161.087 E29.07125
G1 X156.662 Y160.633 E29.08984
G1 X156.833 Y160.343 E29.10104
G1 X156.972 Y159.976 E29.11409
G1 X157.021 Y159.323 E29.13587
G1 X157.032 Y158.918 E29.14935
G1 X156.989 Y158.404 E29.1665
G1 X156.839 Y157.921 E29.18333
G1 X156.733 Y157.396 E29.20114
G1 X156.593 Y157.015 E29.21464
G1 X156.418 Y156.651 E29.22807
G1 X156.177 Y156.203 E29.24499
G1 X155.698 Y155.382 E29.27661
G1 X154.45 Y153.335 E29.35635
G1 X153.125 Y151.228 E29.43913
G1 X152.092 Y149.646 E29.50197
G1 X151.894 Y149.286 E29.51564
G1 X151.69 Y148.845 E29.5318
G1 X151.541 Y148.461 E29.5455
G1 X151.392 Y147.984 E29.56212
G1 X151.287 Y147.53 E29.57762
G1 X151.213 Y147.088 E29.59252
G1 X151.164 Y146.655 E29.60702
G1 X151.146 Y146.324 E29.61804
G1 X151.155 Y145.969 E29.62985
G1 X151.212 Y145.573 E29.64316
G1 X151.366 Y145.122 E29.65901
G1 X151.592 Y144.686 E29.67535
G1 X151.795 Y144.354 E29.68829
G1 X152.193 Y143.748 E29.7124
G1 X152.306 Y143.506 E29.72129
G1 X152.344 Y143.234 E29.73042
G1 X152.304 Y142.978 E29.73904
G1 X152.197 Y142.643 E29.75073
G1 X152.079 Y142.382 E29.76026
G1 X151.902 Y142.075 E29.77205
G1 X151.653 Y141.683 E29.78749
G1 X151.4 Y141.336 E29.80178
G1 X150.99 Y140.823 E29.82362
G1 X150.7 Y140.48 E29.83856
G1 X150.451 Y140.203 E29.85095
G1 X150.191 Y139.932 E29.86344
G1 X149.625 Y139.384 E29.88964
G1 X149.019 Y138.853 E29.91644
G1 X148.713 Y138.603 E29.92958
G1 X148.072 Y138.117 E29.95634
G1 X147.427 Y137.674 E29.98236
G1 X147.108 Y137.473 E29.9949
G1 X146.791 Y137.285 E30.00716
G1 X146.479 Y137.112 E30.01903
G1 X146.176 Y136.956 E30.03036
G1 X145.882 Y136.819 E30.04115
G1 X145.027 Y136.448 E30.07215
G1 X144.351 Y136.58 E30.09506
G1 X143.956 Y136.643 E30.10836
G1 X143.589 Y136.677 E30.12062
G1 X143.245 Y136.677 E30.13206
G1 X142.743 Y136.625 E30.14885
G1 X142.087 Y136.304 E30.17314
G1 X141.723 Y136.03 E30.18829
G1 X141.37 Y135.604 E30.20669
G1 X141.2 Y135.362 E30.21653
G1 X140.935 Y134.945 E30.23296
G1 X140.572 Y134.314 E30.25717
G1 X140.169 Y133.54 E30.2862
G1 X139.965 Y133.125 E30.30158
G1 X139.556 Y132.25 E30.3337
G1 X139.348 Y131.781 E30.35077
G1 X138.942 Y130.817 E30.38556
G1 X138.453 Y129.574 E30.42998
G1 X137.971 Y128.385 E30.47266
G1 X137.814 Y128.019 E30.4859
G1 X137.628 Y127.903 E30.49319
G1 X137.477 Y127.707 E30.50142
G1 X137.26 Y126.902 E30.52915
G1 X137.136 Y126.307 E30.54937
G1 X137.089 Y125.884 E30.56352
G1 X137.115 Y125.517 E30.57576
