;FLAVOR:Marlin
;TIME:16361
;Filament used: 9.49545m
;Layer height: 0.2
;MINX:125
;MINY:92
;MINZ:0.2
;MAXX:175
;MAXY:208
;MAXZ:70.6
;Generated with Cura_SteamEngine 5.2.1
M140 S60
M105
M190 S60
M104 S200
M105
M109 S200
M82 ;absolute extrusion mode
M201 X500.00 Y500.00 Z100.00 E5000.00 ;Setup machine max acceleration
M203 X500.00 Y500.00 Z10.00 E50.00 ;Setup machine max feedrate
M204 P500.00 R1000.00 T500.00 ;Setup Print/Retract/Travel acceleration
M205 X8.00 Y8.00 Z0.40 E5.00 ;Setup Jerk
M220 S100 ;Reset Feedrate
M221 S100 ;Reset Flowrate

G28 ;Home
G29 ;Auto bed Level

G92 E0 ;Reset Extruder
G1 Z2.0 F3000 ;Move Z Axis up
G1 X10.1 Y20 Z0.28 F5000.0 ;Move to start position
G1 X10.1 Y200.0 Z0.28 F1500.0 E15 ;Draw the first line
G1 X10.4 Y200.0 Z0.28 F5000.0 ;Move to side a little
G1 X10.4 Y20 Z0.28 F1500.0 E30 ;Draw the second line
G92 E0 ;Reset Extruder
G1 Z2.0 F3000 ;Move Z Axis up

G92 E0
G92 E0
G1 F2700 E-7
;LAYER_COUNT:353
;LAYER:0
M107
G0 F6000 X126.996 Y96.703 Z0.2
;TYPE:SKIRT
G1 F2700 E0
G1 F1200 X127.566 Y95.958 E0.0312
G1 X128.198 Y95.264 E0.06242
G1 X128.886 Y94.627 E0.0936
G1 X129.626 Y94.051 E0.12479
G1 X130.412 Y93.539 E0.15599
G1 X131.239 Y93.097 E0.18718
G1 X132.101 Y92.727 E0.21838
G1 X132.991 Y92.431 E0.24958
G1 X133.903 Y92.213 E0.28077
G1 X134.83 Y92.072 E0.31195
G1 X135.701 Y92.013 E0.34099
G1 X136.33 Y92 E0.36191
G1 X163.451 Y92.001 E1.26396
G1 X164.149 Y92.011 E1.28718
G1 X165.085 Y92.065 E1.31836
G1 X166.013 Y92.197 E1.34954
G1 X166.927 Y92.409 E1.38075
G1 X167.819 Y92.698 E1.41193
G1 X168.684 Y93.061 E1.44313
G1 X169.514 Y93.497 E1.47432
G1 X170.305 Y94.002 E1.50553
G1 X171.049 Y94.573 E1.53672
G1 X171.742 Y95.205 E1.56792
G1 X172.379 Y95.893 E1.5991
G1 X172.954 Y96.634 E1.6303
G1 X173.465 Y97.42 E1.66148
G1 X173.907 Y98.248 E1.6927
G1 X174.276 Y99.11 E1.72388
G1 X174.571 Y100 E1.75507
G1 X174.789 Y100.912 E1.78626
G1 X174.929 Y101.84 E1.81747
G1 X174.987 Y102.701 E1.84617
G1 X175 Y103.33 E1.8671
G1 X174.999 Y196.4 E4.96262
G1 X174.99 Y197.127 E4.9868
G1 X174.939 Y198.064 E5.01801
G1 X174.807 Y198.992 E5.04919
G1 X174.598 Y199.906 E5.08037
G1 X174.311 Y200.799 E5.11157
G1 X173.949 Y201.665 E5.14279
G1 X173.515 Y202.496 E5.17397
G1 X173.011 Y203.287 E5.20516
G1 X172.442 Y204.032 E5.23634
G1 X171.811 Y204.727 E5.26757
G1 X171.124 Y205.365 E5.29875
G1 X170.385 Y205.942 E5.32993
G1 X169.599 Y206.454 E5.36113
G1 X168.773 Y206.897 E5.39231
G1 X167.911 Y207.269 E5.42353
G1 X167.022 Y207.565 E5.4547
G1 X166.11 Y207.785 E5.4859
G1 X165.183 Y207.926 E5.51709
G1 X164.299 Y207.987 E5.54656
G1 X163.67 Y208 E5.56748
G1 X136.565 Y207.999 E6.469
G1 X135.867 Y207.99 E6.49222
G1 X134.931 Y207.938 E6.5234
G1 X134.002 Y207.806 E6.55461
G1 X133.088 Y207.596 E6.5858
G1 X132.195 Y207.309 E6.617
G1 X131.33 Y206.946 E6.6482
G1 X130.499 Y206.512 E6.67938
G1 X129.708 Y206.008 E6.71057
G1 X128.963 Y205.438 E6.74177
G1 X128.269 Y204.807 E6.77297
G1 X127.632 Y204.12 E6.80413
G1 X127.055 Y203.38 E6.83534
G1 X126.543 Y202.594 E6.86654
G1 X126.1 Y201.767 E6.89774
G1 X125.729 Y200.906 E6.92893
G1 X125.433 Y200.016 E6.96012
G1 X125.214 Y199.104 E6.99132
G1 X125.073 Y198.177 E7.02251
G1 X125.013 Y197.288 E7.05214
G1 X125 Y196.658 E7.0731
G1 X125.001 Y103.525 E10.17072
G1 X125.01 Y102.86 E10.19284
G1 X125.063 Y101.924 E10.22402
G1 X125.195 Y100.995 E10.25523
G1 X125.406 Y100.081 E10.28642
G1 X125.694 Y99.189 E10.3176
G1 X126.057 Y98.324 E10.3488
G1 X126.492 Y97.493 E10.38
G1 X126.996 Y96.703 E10.41117
G0 F6000 X127.392 Y96.835
G1 F1200 X127.961 Y96.111 E10.44179
G1 X128.589 Y95.439 E10.47238
G1 X129.274 Y94.823 E10.50303
G1 X130.01 Y94.27 E10.53364
G1 X130.791 Y93.782 E10.56427
G1 X131.611 Y93.364 E10.59489
G1 X132.465 Y93.019 E10.62552
G1 X133.345 Y92.749 E10.65614
G1 X134.245 Y92.557 E10.68674
G1 X135.159 Y92.443 E10.71738
G1 X135.712 Y92.413 E10.7358
G1 X136.33 Y92.4 E10.75636
G1 X163.293 Y92.4 E11.65315
G1 X164.143 Y92.411 E11.68143
G1 X165.062 Y92.464 E11.71204
G1 X165.973 Y92.597 E11.74266
G1 X166.869 Y92.808 E11.77328
G1 X167.743 Y93.096 E11.80389
G1 X168.59 Y93.459 E11.83454
G1 X169.401 Y93.894 E11.86515
G1 X170.171 Y94.398 E11.89575
G1 X170.895 Y94.967 E11.92638
G1 X171.567 Y95.597 E11.95702
G1 X172.182 Y96.282 E11.98764
G1 X172.735 Y97.018 E12.01826
G1 X173.222 Y97.799 E12.04887
G1 X173.639 Y98.62 E12.0795
G1 X173.984 Y99.474 E12.11013
G1 X174.253 Y100.354 E12.14074
G1 X174.445 Y101.255 E12.17138
G1 X174.558 Y102.168 E12.20197
G1 X174.587 Y102.712 E12.22009
G1 X174.6 Y103.33 E12.24065
G1 X174.599 Y196.395 E15.33601
G1 X174.59 Y197.122 E15.36019
G1 X174.539 Y198.041 E15.3908
G1 X174.408 Y198.953 E15.42145
G1 X174.198 Y199.849 E15.45206
G1 X173.912 Y200.724 E15.48267
G1 X173.551 Y201.571 E15.5133
G1 X173.117 Y202.383 E15.54392
G1 X172.615 Y203.155 E15.57455
G1 X172.047 Y203.88 E15.60518
G1 X171.419 Y204.553 E15.6358
G1 X170.735 Y205.169 E15.66641
G1 X170 Y205.723 E15.69702
G1 X169.22 Y206.212 E15.72764
G1 X168.4 Y206.631 E15.75827
G1 X167.547 Y206.977 E15.78889
G1 X166.667 Y207.248 E15.81951
G1 X165.767 Y207.441 E15.85013
G1 X164.853 Y207.556 E15.88077
G1 X164.288 Y207.587 E15.89959
G1 X163.67 Y207.6 E15.92015
G1 X136.57 Y207.599 E16.8215
G1 X135.872 Y207.59 E16.84471
G1 X134.953 Y207.538 E16.87533
G1 X134.042 Y207.407 E16.90594
G1 X133.146 Y207.197 E16.93655
G1 X132.271 Y206.91 E16.96718
G1 X131.424 Y206.548 E16.99781
G1 X130.612 Y206.114 E17.02844
G1 X129.841 Y205.612 E17.05904
G1 X129.116 Y205.044 E17.08967
G1 X128.443 Y204.415 E17.12031
G1 X127.828 Y203.731 E17.1509
G1 X127.274 Y202.996 E17.18151
G1 X126.786 Y202.215 E17.21214
G1 X126.367 Y201.395 E17.24277
G1 X126.021 Y200.542 E17.27339
G1 X125.751 Y199.662 E17.304
G1 X125.558 Y198.761 E17.33465
G1 X125.444 Y197.848 E17.36525
G1 X125.413 Y197.277 E17.38427
G1 X125.4 Y196.658 E17.40486
G1 X125.401 Y103.531 E20.50228
G1 X125.41 Y102.866 E20.5244
G1 X125.462 Y101.946 E20.55505
G1 X125.594 Y101.035 E20.58567
G1 X125.805 Y100.139 E20.61628
G1 X126.092 Y99.264 E20.64691
G1 X126.455 Y98.418 E20.67753
G1 X126.889 Y97.606 E20.70815
G1 X127.392 Y96.835 E20.73877
G0 F6000 X127.788 Y96.971
G1 F1200 X128.355 Y96.267 E20.76884
G1 X128.981 Y95.617 E20.79885
G1 X129.662 Y95.024 E20.82888
G1 X130.394 Y94.494 E20.85894
G1 X131.169 Y94.031 E20.88897
G1 X131.982 Y93.638 E20.919
G1 X132.827 Y93.318 E20.94906
G1 X133.696 Y93.075 E20.97907
G1 X134.584 Y92.909 E21.00911
G1 X135.723 Y92.813 E21.04713
G1 X136.33 Y92.8 E21.06732
G1 X163.293 Y92.8 E21.96412
G1 X164.137 Y92.811 E21.99219
G1 X165.039 Y92.864 E22.02224
G1 X165.932 Y92.996 E22.05227
G1 X166.81 Y93.207 E22.0823
G1 X167.666 Y93.495 E22.11234
G1 X168.493 Y93.857 E22.14237
G1 X169.285 Y94.292 E22.17242
G1 X170.036 Y94.794 E22.20247
G1 X170.739 Y95.361 E22.2325
G1 X171.389 Y95.988 E22.26254
G1 X171.981 Y96.67 E22.29258
G1 X172.511 Y97.401 E22.32261
G1 X172.973 Y98.177 E22.35265
G1 X173.366 Y98.99 E22.38268
G1 X173.684 Y99.835 E22.41271
G1 X173.927 Y100.705 E22.44276
G1 X174.092 Y101.593 E22.4728
G1 X174.187 Y102.723 E22.51051
G1 X174.2 Y103.33 E22.53071
G1 X174.199 Y196.39 E25.62589
G1 X174.19 Y197.117 E25.65008
G1 X174.139 Y198.019 E25.68013
G1 X174.008 Y198.913 E25.71018
G1 X173.799 Y199.791 E25.7402
G1 X173.513 Y200.648 E25.77024
G1 X173.152 Y201.476 E25.80029
G1 X172.72 Y202.268 E25.83029
G1 X172.219 Y203.02 E25.86035
G1 X171.653 Y203.724 E25.89039
G1 X171.028 Y204.375 E25.92041
G1 X170.347 Y204.969 E25.95046
G1 X169.616 Y205.5 E25.98051
G1 X168.842 Y205.964 E26.01053
G1 X168.029 Y206.358 E26.04058
G1 X167.185 Y206.678 E26.0706
G1 X166.315 Y206.923 E26.10066
G1 X165.428 Y207.089 E26.13068
G1 X164.277 Y207.187 E26.1691
G1 X163.67 Y207.2 E26.18929
G1 X136.575 Y207.199 E27.09047
G1 X135.877 Y207.19 E27.11369
G1 X134.976 Y207.139 E27.14371
G1 X134.082 Y207.007 E27.17376
G1 X133.204 Y206.798 E27.20378
G1 X132.347 Y206.511 E27.23384
G1 X131.52 Y206.15 E27.26385
G1 X130.727 Y205.717 E27.2939
G1 X129.976 Y205.216 E27.32393
G1 X129.272 Y204.65 E27.35398
G1 X128.621 Y204.024 E27.38401
G1 X128.028 Y203.343 E27.41405
G1 X127.498 Y202.612 E27.44408
G1 X127.034 Y201.837 E27.47412
G1 X126.64 Y201.024 E27.50417
G1 X126.32 Y200.18 E27.53419
G1 X126.076 Y199.31 E27.56425
G1 X125.91 Y198.422 E27.59429
G1 X125.813 Y197.267 E27.63284
G1 X125.8 Y196.658 E27.6531
G1 X125.801 Y103.536 E30.75035
G1 X125.81 Y102.871 E30.77247
G1 X125.862 Y101.969 E30.80252
G1 X125.994 Y101.076 E30.83255
G1 X126.204 Y100.198 E30.86257
G1 X126.491 Y99.341 E30.89263
G1 X126.853 Y98.514 E30.92266
G1 X127.286 Y97.722 E30.95268
G1 X127.788 Y96.971 E30.98273
G1 F2700 E23.98273
;MESH:5Card_tray_medium.stl
G0 F6000 X135.335 Y103.42
G0 X136.6 Y196.4
;TYPE:WALL-INNER
G1 F2700 E30.98273
G1 F1200 X163.4 Y196.4 E31.8741
G1 X163.4 Y117 E34.51495
G1 X163.4 Y103.6 E34.96064
G1 X136.6 Y103.6 E35.85201
G1 X136.6 Y196.4 E38.93855
G0 F6000 X136.2 Y196.8
;TYPE:WALL-OUTER
G1 F1200 X163.8 Y196.8 E39.85653
G1 X163.8 Y117 E42.51069
G1 X163.8 Y103.2 E42.96968
G1 X136.2 Y103.2 E43.88766
G1 X136.2 Y196.8 E47.00081
G0 F6000 X136.47 Y196.53
G0 X136.7 Y196.04
G0 X136.96 Y196.04
;TYPE:SKIN
G1 F1200 X163.04 Y196.04 E47.86823
G1 X163.04 Y117 E50.49711
G1 X163.04 Y103.96 E50.93082
G1 X136.96 Y103.96 E51.79825
G1 X136.96 Y196.04 E54.86084
G0 F6000 X137.573 Y195.839
G1 F1200 X137.159 Y195.425 E54.88032
G0 F6000 X137.159 Y194.859
G1 F1200 X138.139 Y195.839 E54.92641
G0 F6000 X138.705 Y195.839
G1 F1200 X137.159 Y194.293 E54.99913
G0 F6000 X137.159 Y193.728
G1 F1200 X139.271 Y195.839 E55.09845
G0 F6000 X139.836 Y195.839
G1 F1200 X137.159 Y193.162 E55.22437
G0 F6000 X137.159 Y192.596
G1 F1200 X140.402 Y195.839 E55.37691
G0 F6000 X140.968 Y195.839
G1 F1200 X137.159 Y192.031 E55.55605
G0 F6000 X137.159 Y191.465
G1 F1200 X141.533 Y195.839 E55.76179
G0 F6000 X142.099 Y195.839
G1 F1200 X137.159 Y190.899 E55.99415
G0 F6000 X137.159 Y190.334
G1 F1200 X142.665 Y195.839 E56.25311
G0 F6000 X143.23 Y195.839
G1 F1200 X137.159 Y189.768 E56.53867
G0 F6000 X137.159 Y189.202
G1 F1200 X143.796 Y195.839 E56.85086
G0 F6000 X144.362 Y195.839
G1 F1200 X137.159 Y188.636 E57.18966
G0 F6000 X137.159 Y188.071
G1 F1200 X144.927 Y195.839 E57.55505
G0 F6000 X145.493 Y195.839
G1 F1200 X137.159 Y187.505 E57.94705
G0 F6000 X137.159 Y186.939
G1 F1200 X146.059 Y195.839 E58.36568
G0 F6000 X146.624 Y195.839
G1 F1200 X137.159 Y186.374 E58.81089
G0 F6000 X137.159 Y185.808
G1 F1200 X147.19 Y195.839 E59.28271
G0 F6000 X147.756 Y195.839
G1 F1200 X137.159 Y185.242 E59.78116
G0 F6000 X137.159 Y184.677
G1 F1200 X148.322 Y195.839 E60.30621
G0 F6000 X148.887 Y195.839
G1 F1200 X137.159 Y184.111 E60.85786
G0 F6000 X137.159 Y183.545
G1 F1200 X149.453 Y195.839 E61.43613
G0 F6000 X150.019 Y195.839
G1 F1200 X137.159 Y182.98 E62.04101
G0 F6000 X137.159 Y182.414
G1 F1200 X150.584 Y195.839 E62.67248
G0 F6000 X151.15 Y195.839
G1 F1200 X137.159 Y181.848 E63.33057
G0 F6000 X137.159 Y181.283
G1 F1200 X151.716 Y195.839 E64.01526
G0 F6000 X152.281 Y195.839
G1 F1200 X137.159 Y180.717 E64.72656
G0 F6000 X137.159 Y180.151
G1 F1200 X152.847 Y195.839 E65.46447
G0 F6000 X153.413 Y195.839
G1 F1200 X137.159 Y179.586 E66.22899
G0 F6000 X137.159 Y179.02
G1 F1200 X153.978 Y195.839 E67.0201
G0 F6000 X154.544 Y195.839
G1 F1200 X137.159 Y178.454 E67.83784
G0 F6000 X137.159 Y177.888
G1 F1200 X155.11 Y195.839 E68.6822
G0 F6000 X155.675 Y195.839
G1 F1200 X137.159 Y177.323 E69.55313
G0 F6000 X137.159 Y176.757
G1 F1200 X156.241 Y195.839 E70.45069
G0 F6000 X156.807 Y195.839
G1 F1200 X137.159 Y176.191 E71.37487
G0 F6000 X137.159 Y175.626
G1 F1200 X157.372 Y195.839 E72.32563
G0 F6000 X157.938 Y195.839
G1 F1200 X137.159 Y175.06 E73.30301
G0 F6000 X137.159 Y174.494
G1 F1200 X158.504 Y195.839 E74.30702
G0 F6000 X159.07 Y195.839
G1 F1200 X137.159 Y173.929 E75.33762
G0 F6000 X137.159 Y173.363
G1 F1200 X159.635 Y195.839 E76.39482
G0 F6000 X160.201 Y195.839
G1 F1200 X137.159 Y172.797 E77.47865
G0 F6000 X137.159 Y172.232
G1 F1200 X160.767 Y195.839 E78.58907
G0 F6000 X161.332 Y195.839
G1 F1200 X137.159 Y171.666 E79.72609
G0 F6000 X137.159 Y171.1
G1 F1200 X161.898 Y195.839 E80.88974
G0 F6000 X162.464 Y195.839
G1 F1200 X137.159 Y170.535 E82.07999
G0 F6000 X137.159 Y169.969
G1 F1200 X162.84 Y195.65 E83.28794
G0 F6000 X162.84 Y195.084
G1 F1200 X137.159 Y169.403 E84.4959
G0 F6000 X137.159 Y168.838
G1 F1200 X162.84 Y194.518 E85.70383
G0 F6000 X162.84 Y193.953
G1 F1200 X137.159 Y168.272 E86.91179
G0 F6000 X137.159 Y167.706
G1 F1200 X162.84 Y193.387 E88.11974
G0 F6000 X162.84 Y192.821
G1 F1200 X137.159 Y167.14 E89.3277
G0 F6000 X137.159 Y166.575
G1 F1200 X162.84 Y192.255 E90.53563
G0 F6000 X162.84 Y191.69
G1 F1200 X137.159 Y166.009 E91.74358
G0 F6000 X137.159 Y165.443
G1 F1200 X162.84 Y191.124 E92.95154
G0 F6000 X162.84 Y190.558
G1 F1200 X137.159 Y164.878 E94.15947
G0 F6000 X137.159 Y164.312
G1 F1200 X162.84 Y189.993 E95.36743
G0 F6000 X162.84 Y189.427
G1 F1200 X137.159 Y163.746 E96.57538
G0 F6000 X137.159 Y163.181
G1 F1200 X162.84 Y188.861 E97.78331
G0 F6000 X162.84 Y188.296
G1 F1200 X137.159 Y162.615 E98.99127
G0 F6000 X137.159 Y162.049
G1 F1200 X162.84 Y187.73 E100.19923
G0 F6000 X162.84 Y187.164
G1 F1200 X137.159 Y161.484 E101.40716
G0 F6000 X137.159 Y160.918
G1 F1200 X162.84 Y186.599 E102.61511
G0 F6000 X162.84 Y186.033
G1 F1200 X137.159 Y160.352 E103.82307
G0 F6000 X137.159 Y159.787
G1 F1200 X162.84 Y185.467 E105.031
G0 F6000 X162.84 Y184.902
G1 F1200 X137.159 Y159.221 E106.23896
G0 F6000 X137.159 Y158.655
G1 F1200 X162.84 Y184.336 E107.44691
G0 F6000 X162.84 Y183.77
G1 F1200 X137.159 Y158.089 E108.65487
G0 F6000 X137.159 Y157.524
G1 F1200 X162.84 Y183.205 E109.86282
G0 F6000 X162.84 Y182.639
G1 F1200 X137.159 Y156.958 E111.07078
G0 F6000 X137.159 Y156.392
G1 F1200 X162.84 Y182.073 E112.27873
G0 F6000 X162.84 Y181.507
G1 F1200 X137.159 Y155.827 E113.48667
G0 F6000 X137.159 Y155.261
G1 F1200 X162.84 Y180.942 E114.69462
G0 F6000 X162.84 Y180.376
G1 F1200 X137.159 Y154.695 E115.90258
G0 F6000 X137.159 Y154.13
G1 F1200 X162.84 Y179.81 E117.11051
G0 F6000 X162.84 Y179.245
G1 F1200 X137.159 Y153.564 E118.31846
G0 F6000 X137.159 Y152.998
G1 F1200 X162.84 Y178.679 E119.52642
G0 F6000 X162.84 Y178.113
G1 F1200 X137.159 Y152.433 E120.73435
G0 F6000 X137.159 Y151.867
G1 F1200 X162.84 Y177.548 E121.94231
G0 F6000 X162.84 Y176.982
G1 F1200 X137.159 Y151.301 E123.15026
G0 F6000 X137.159 Y150.736
G1 F1200 X162.84 Y176.416 E124.35819
G0 F6000 X162.84 Y175.851
G1 F1200 X137.159 Y150.17 E125.56615
G0 F6000 X137.159 Y149.604
G1 F1200 X162.84 Y175.285 E126.77411
G0 F6000 X162.84 Y174.719
G1 F1200 X137.159 Y149.039 E127.98204
G0 F6000 X137.159 Y148.473
G1 F1200 X162.84 Y174.154 E129.18999
G0 F6000 X162.84 Y173.588
G1 F1200 X137.159 Y147.907 E130.39795
G0 F6000 X137.159 Y147.341
G1 F1200 X162.84 Y173.022 E131.6059
G0 F6000 X162.84 Y172.456
G1 F1200 X137.159 Y146.776 E132.81384
G0 F6000 X137.159 Y146.21
G1 F1200 X162.84 Y171.891 E134.02179
G0 F6000 X162.84 Y171.325
G1 F1200 X137.159 Y145.644 E135.22975
G0 F6000 X137.159 Y145.079
G1 F1200 X162.84 Y170.759 E136.43768
G0 F6000 X162.84 Y170.194
G1 F1200 X137.159 Y144.513 E137.64563
G0 F6000 X137.159 Y143.947
G1 F1200 X162.84 Y169.628 E138.85359
G0 F6000 X162.84 Y169.062
G1 F1200 X137.159 Y143.382 E140.06152
G0 F6000 X137.159 Y142.816
G1 F1200 X162.84 Y168.497 E141.26948
G0 F6000 X162.84 Y167.931
G1 F1200 X137.159 Y142.25 E142.47743
G0 F6000 X137.159 Y141.685
G1 F1200 X162.84 Y167.365 E143.68536
G0 F6000 X162.84 Y166.8
G1 F1200 X137.159 Y141.119 E144.89332
G0 F6000 X137.159 Y140.553
G1 F1200 X162.84 Y166.234 E146.10128
G0 F6000 X162.84 Y165.668
G1 F1200 X137.159 Y139.988 E147.30921
G0 F6000 X137.159 Y139.422
G1 F1200 X162.84 Y165.103 E148.51716
G0 F6000 X162.84 Y164.537
G1 F1200 X137.159 Y138.856 E149.72512
G0 F6000 X137.159 Y138.29
G1 F1200 X162.84 Y163.971 E150.93307
G0 F6000 X162.84 Y163.406
G1 F1200 X137.159 Y137.725 E152.14103
G0 F6000 X137.159 Y137.159
G1 F1200 X162.84 Y162.84 E153.34899
G0 F6000 X162.84 Y162.274
G1 F1200 X137.159 Y136.593 E154.55694
G0 F6000 X137.159 Y136.028
G1 F1200 X162.84 Y161.708 E155.76487
G0 F6000 X162.84 Y161.143
G1 F1200 X137.159 Y135.462 E156.97283
G0 F6000 X137.159 Y134.896
G1 F1200 X162.84 Y160.577 E158.18078
