;FLAVOR:Marlin
;TIME:17493
;Filament used: 9.629m
;Layer height: 0.2
;MINX:33.849
;MINY:40.642
;MINZ:0.2
;MAXX:266.181
;MAXY:259.318
;MAXZ:15
;Generated with Cura_SteamEngine 5.2.1
M140 S60
M105
M190 S60
M104 S210
M105
M109 S210
M82 ;absolute extrusion mode
M201 X500.00 Y500.00 Z100.00 E5000.00 ;Setup machine max acceleration
M203 X500.00 Y500.00 Z10.00 E50.00 ;Setup machine max feedrate
M204 P500.00 R1000.00 T500.00 ;Setup Print/Retract/Travel acceleration
M205 X8.00 Y8.00 Z0.40 E5.00 ;Setup Jerk
M220 S100 ;Reset Feedrate
M221 S100 ;Reset Flowrate

G28 ;Home
G29 ;Auto bed Level

G92 E0 ;Reset Extruder
G1 Z2.0 F3000 ;Move Z Axis up
G1 X10.1 Y20 Z0.28 F5000.0 ;Move to start position
G1 X10.1 Y200.0 Z0.28 F1500.0 E15 ;Draw the first line
G1 X10.4 Y200.0 Z0.28 F5000.0 ;Move to side a little
G1 X10.4 Y20 Z0.28 F1500.0 E30 ;Draw the second line
G92 E0 ;Reset Extruder
G1 Z2.0 F3000 ;Move Z Axis up

G92 E0
G92 E0
G1 F2700 E-7
;LAYER_COUNT:75
;LAYER:0
M107
G0 F6000 X37.783 Y43.229 Z0.2
;TYPE:SKIRT
G1 F2700 E0
G1 F1200 X38.527 Y42.658 E0.03119
G1 X39.317 Y42.152 E0.0624
G1 X40.147 Y41.715 E0.09359
G1 X41.012 Y41.351 E0.12481
G1 X41.904 Y41.062 E0.15599
G1 X42.817 Y40.85 E0.18717
G1 X43.746 Y40.716 E0.21839
G1 X44.62 Y40.663 E0.24751
G1 X45.591 Y40.643 E0.27981
G1 X254.632 Y40.642 E7.23254
G1 X255.33 Y40.652 E7.25576
G1 X256.266 Y40.706 E7.28695
G1 X257.194 Y40.838 E7.31812
G1 X258.108 Y41.05 E7.34933
G1 X259 Y41.339 E7.38052
G1 X259.865 Y41.702 E7.41172
G1 X260.695 Y42.138 E7.4429
G1 X261.486 Y42.643 E7.47411
G1 X262.23 Y43.214 E7.50531
G1 X262.923 Y43.846 E7.5365
G1 X263.56 Y44.534 E7.56769
G1 X264.135 Y45.275 E7.59888
G1 X264.646 Y46.061 E7.63006
G1 X265.088 Y46.889 E7.66128
G1 X265.457 Y47.751 E7.69247
G1 X265.752 Y48.641 E7.72365
G1 X265.97 Y49.553 E7.75484
G1 X266.11 Y50.481 E7.78605
G1 X266.168 Y51.339 E7.81466
G1 X266.181 Y51.968 E7.83558
G1 X266.18 Y247.765 E14.34782
G1 X266.171 Y248.463 E14.37103
G1 X266.119 Y249.399 E14.40221
G1 X265.987 Y250.328 E14.43342
G1 X265.777 Y251.242 E14.46461
G1 X265.49 Y252.135 E14.49581
G1 X265.127 Y253 E14.52701
G1 X264.693 Y253.831 E14.55819
G1 X264.189 Y254.622 E14.58939
G1 X263.619 Y255.367 E14.62059
G1 X262.988 Y256.061 E14.65179
G1 X262.301 Y256.698 E14.68295
G1 X261.561 Y257.275 E14.71416
G1 X260.775 Y257.787 E14.74536
G1 X259.948 Y258.23 E14.77656
G1 X259.087 Y258.601 E14.80774
G1 X258.197 Y258.897 E14.83894
G1 X257.285 Y259.116 E14.87013
G1 X256.358 Y259.257 E14.90132
G1 X255.422 Y259.318 E14.93252
G1 X254.484 Y259.299 E14.96372
G1 X253.552 Y259.201 E14.99489
G1 X252.631 Y259.023 E15.02609
G1 X251.728 Y258.768 E15.0573
G1 X250.851 Y258.437 E15.08848
G1 X250.005 Y258.032 E15.11967
G1 X249.197 Y257.557 E15.15085
G1 X248.432 Y257.014 E15.18205
G1 X247.716 Y256.408 E15.21325
G1 X247.054 Y255.744 E15.24443
G1 X246.451 Y255.025 E15.27565
G1 X245.912 Y254.258 E15.30682
G1 X245.513 Y253.584 E15.33288
G1 X245.254 Y253.108 E15.3509
G1 X243.992 Y250.86 E15.43664
G1 X242.69 Y248.686 E15.52093
G1 X241.344 Y246.575 E15.6042
G1 X239.928 Y244.49 E15.68803
G1 X238.456 Y242.445 E15.77183
G1 X236.915 Y240.432 E15.85615
G1 X235.342 Y238.489 E15.9393
G1 X233.71 Y236.588 E16.02263
G1 X232.001 Y234.709 E16.10711
G1 X230.273 Y232.911 E16.19005
G1 X228.464 Y231.134 E16.27439
G1 X226.626 Y229.426 E16.35784
G1 X224.72 Y227.756 E16.44213
G1 X222.788 Y226.156 E16.52556
G1 X220.622 Y224.451 E16.61724
G1 X219.908 Y223.843 E16.64844
G1 X219.407 Y223.348 E16.67186
G1 X215.022 Y218.723 E16.88384
G1 X214.449 Y218.102 E16.91194
G1 X213.658 Y217.138 E16.95342
G1 X213.18 Y216.483 E16.98039
G1 X209.246 Y210.898 E17.2076
G1 X208.809 Y210.257 E17.2334
G1 X208.328 Y209.484 E17.26368
G1 X207.952 Y208.819 E17.28909
G1 X206.849 Y206.81 E17.36532
G1 X206.525 Y206.201 E17.38826
G1 X205.993 Y205.043 E17.43065
G1 X205.742 Y204.39 E17.45392
G1 X205.418 Y203.481 E17.48601
G1 X205.213 Y202.879 E17.50717
G1 X204.871 Y201.641 E17.54988
G1 X204.683 Y200.765 E17.57968
G1 X204.532 Y199.957 E17.60702
G1 X204.385 Y198.724 E17.64832
G1 X204.357 Y198.275 E17.66329
G1 X204.326 Y197.432 E17.69134
G1 X204.355 Y196.227 E17.73143
G1 X204.555 Y193.245 E17.83084
G1 X204.646 Y190.784 E17.91275
G1 X204.669 Y188.23 E17.9977
G1 X204.619 Y185.7 E18.08186
G1 X204.5 Y183.216 E18.16457
G1 X204.309 Y180.706 E18.2483
G1 X204.043 Y178.175 E18.33294
G1 X203.715 Y175.716 E18.41545
G1 X203.31 Y173.217 E18.49966
G1 X202.834 Y170.734 E18.58375
G1 X202.29 Y168.277 E18.66744
G1 X201.692 Y165.886 E18.74942
G1 X200.993 Y163.403 E18.83521
G1 X200.253 Y161.034 E18.91776
G1 X199.656 Y159.329 E18.97785
G1 X199.54 Y158.948 E18.99109
G1 X199.11 Y157.709 E19.03471
G1 X198.527 Y155.976 E19.09553
G1 X197.643 Y153.47 E19.18391
G1 X196.759 Y151.167 E19.26596
G1 X195.773 Y148.811 E19.3509
G1 X194.74 Y146.52 E19.43449
G1 X193.646 Y144.269 E19.51773
G1 X192.467 Y142.006 E19.6026
G1 X191.255 Y139.835 E19.6853
G1 X189.969 Y137.675 E19.76891
G1 X188.61 Y135.534 E19.85326
G1 X187.201 Y133.445 E19.93706
G1 X185.741 Y131.409 E20.02039
G1 X184.213 Y129.401 E20.10432
G1 X182.646 Y127.456 E20.18739
G1 X180.999 Y125.527 E20.27175
G1 X179.301 Y123.649 E20.35596
G1 X177.578 Y121.849 E20.43884
G1 X175.777 Y120.07 E20.52304
G1 X173.954 Y118.368 E20.60599
G1 X172.047 Y116.687 E20.69054
G1 X170.097 Y115.064 E20.77492
G1 X168.161 Y113.542 E20.85683
G1 X166.104 Y112.018 E20.94198
G1 X164.045 Y110.58 E21.02551
G1 X161.965 Y109.215 E21.10825
G1 X159.814 Y107.887 E21.19233
G1 X157.621 Y106.619 E21.27659
G1 X155.409 Y105.421 E21.36026
G1 X153.15 Y104.279 E21.44445
G1 X150.914 Y103.227 E21.52664
G1 X148.564 Y102.202 E21.61191
G1 X146.242 Y101.266 E21.69518
G1 X143.89 Y100.394 E21.77861
G1 X141.525 Y99.594 E21.86165
G1 X139.081 Y98.841 E21.94671
G1 X136.676 Y98.176 E22.0297
G1 X134.197 Y97.566 E22.11461
G1 X131.779 Y97.042 E22.1969
G1 X129.291 Y96.575 E22.2811
G1 X126.8 Y96.181 E22.36498
G1 X124.318 Y95.86 E22.44822
G1 X121.783 Y95.605 E22.53296
G1 X119.322 Y95.427 E22.61502
G1 X116.778 Y95.317 E22.69972
G1 X113.867 Y95.276 E22.79655
G1 X110.025 Y95.254 E22.92433
G1 X109.302 Y95.239 E22.94839
G1 X108.366 Y95.179 E22.97958
G1 X107.878 Y95.116 E22.99595
G1 X107.153 Y95.004 E23.02035
G1 X105.06 Y94.643 E23.09099
G1 X104.335 Y94.509 E23.11551
G1 X103.373 Y94.285 E23.14836
G1 X102.179 Y93.945 E23.18965
G1 X101.545 Y93.746 E23.21175
G1 X100.937 Y93.536 E23.23315
G1 X100.247 Y93.263 E23.25783
G1 X99.597 Y92.984 E23.28136
G1 X98.752 Y92.578 E23.31254
G1 X98.045 Y92.166 E23.33975
G1 X97.408 Y91.758 E23.36491
G1 X96.882 Y91.405 E23.38598
G1 X94.744 Y90.014 E23.47082
G1 X92.615 Y88.712 E23.55382
G1 X90.432 Y87.461 E23.6375
G1 X88.183 Y86.256 E23.72237
G1 X85.929 Y85.129 E23.80618
G1 X83.684 Y84.084 E23.88855
G1 X81.343 Y83.074 E23.97335
G1 X78.997 Y82.141 E24.05732
G1 X76.656 Y81.284 E24.14023
G1 X74.255 Y80.483 E24.22442
G1 X71.87 Y79.76 E24.30731
G1 X69.406 Y79.089 E24.39224
G1 X66.981 Y78.502 E24.47523
G1 X64.506 Y77.977 E24.55938
G1 X61.987 Y77.516 E24.64455
G1 X60.664 Y77.301 E24.68913
G1 X59.649 Y77.113 E24.72347
G1 X58.735 Y76.9 E24.75468
G1 X58.159 Y76.723 E24.77472
G1 X57.477 Y76.492 E24.79867
G1 X55.988 Y75.965 E24.85121
G1 X55.175 Y75.665 E24.88003
G1 X54.295 Y75.295 E24.91178
G1 X53.375 Y74.859 E24.94564
G1 X49.811 Y73.104 E25.07777
G1 X49.153 Y72.768 E25.10235
G1 X48.337 Y72.306 E25.13354
G1 X47.777 Y71.933 E25.15592
G1 X46.573 Y71.076 E25.20507
G1 X45.848 Y70.543 E25.235
G1 X44.775 Y69.641 E25.28162
G1 X44.067 Y68.958 E25.31434
G1 X43.538 Y68.421 E25.33941
G1 X42.909 Y67.725 E25.37061
G1 X42.563 Y67.286 E25.3892
G1 X42.075 Y66.624 E25.41656
G1 X41.554 Y65.872 E25.44699
G1 X41.205 Y65.342 E25.46809
G1 X39.755 Y63.207 E25.55393
G1 X38.26 Y61.137 E25.63886
G1 X37.034 Y59.532 E25.70603
G1 X36.168 Y58.42 E25.75291
G1 X35.624 Y57.656 E25.78411
G1 X35.147 Y56.848 E25.81531
G1 X34.74 Y56.003 E25.84651
G1 X34.407 Y55.127 E25.87768
G1 X34.15 Y54.225 E25.90887
G1 X33.97 Y53.304 E25.94009
G1 X33.87 Y52.372 E25.97126
G1 X33.849 Y51.434 E26.00247
G1 X33.909 Y50.498 E26.03366
G1 X34.047 Y49.571 E26.06484
G1 X34.265 Y48.658 E26.09606
G1 X34.559 Y47.768 E26.12723
G1 X34.928 Y46.905 E26.15845
G1 X35.369 Y46.078 E26.18962
G1 X35.879 Y45.291 E26.22081
G1 X36.454 Y44.55 E26.25201
G1 X37.091 Y43.861 E26.28322
G1 X37.783 Y43.229 E26.31439
G0 F6000 X38.276 Y43.343
G1 F1200 X39.023 Y42.804 E26.34502
G1 X39.813 Y42.333 E26.37562
G1 X40.642 Y41.931 E26.40626
G1 X41.502 Y41.603 E26.43687
G1 X42.387 Y41.35 E26.46749
G1 X43.291 Y41.176 E26.49811
G1 X44.629 Y41.063 E26.54277
G1 X45.6 Y41.043 E26.57507
G1 X254.626 Y41.042 E33.5273
G1 X255.324 Y41.052 E33.55052
G1 X256.243 Y41.105 E33.58114
G1 X257.154 Y41.238 E33.61176
G1 X258.05 Y41.449 E33.64237
G1 X258.924 Y41.737 E33.67298
G1 X259.771 Y42.1 E33.70363
G1 X260.582 Y42.535 E33.73424
G1 X261.352 Y43.039 E33.76485
G1 X262.076 Y43.608 E33.79548
G1 X262.748 Y44.238 E33.82611
G1 X263.363 Y44.923 E33.85673
G1 X263.916 Y45.659 E33.88735
G1 X264.403 Y46.44 E33.91796
G1 X264.82 Y47.261 E33.94859
G1 X265.165 Y48.115 E33.97922
G1 X265.434 Y48.995 E34.00983
G1 X265.626 Y49.896 E34.04047
G1 X265.739 Y50.809 E34.07107
G1 X265.768 Y51.35 E34.08909
G1 X265.781 Y51.968 E34.10965
G1 X265.78 Y247.76 E40.62172
G1 X265.771 Y248.458 E40.64493
G1 X265.719 Y249.377 E40.67555
G1 X265.588 Y250.288 E40.70616
G1 X265.378 Y251.184 E40.73677
G1 X265.091 Y252.059 E40.7674
G1 X264.729 Y252.906 E40.79803
G1 X264.295 Y253.718 E40.82866
G1 X263.793 Y254.489 E40.85926
G1 X263.225 Y255.214 E40.88989
G1 X262.596 Y255.887 E40.92053
G1 X261.912 Y256.502 E40.95112
G1 X261.177 Y257.056 E40.98173
G1 X260.396 Y257.544 E41.01236
G1 X259.576 Y257.963 E41.04299
G1 X258.723 Y258.309 E41.07361
G1 X257.843 Y258.579 E41.10422
G1 X256.942 Y258.772 E41.13487
G1 X256.029 Y258.886 E41.16547
G1 X255.109 Y258.921 E41.19609
G1 X254.189 Y258.875 E41.22673
G1 X253.277 Y258.75 E41.25735
G1 X252.379 Y258.547 E41.28797
G1 X251.503 Y258.266 E41.31857
G1 X250.654 Y257.91 E41.34919
G1 X249.839 Y257.481 E41.37982
G1 X249.064 Y256.984 E41.41044
G1 X248.335 Y256.421 E41.44108
G1 X247.658 Y255.798 E41.47168
G1 X247.038 Y255.117 E41.50231
G1 X246.479 Y254.386 E41.53292
G1 X245.864 Y253.393 E41.57176
G1 X245.611 Y252.929 E41.58934
G1 X244.326 Y250.638 E41.67671
G1 X243.037 Y248.487 E41.76011
G1 X241.669 Y246.342 E41.84473
G1 X240.251 Y244.253 E41.92871
G1 X238.782 Y242.214 E42.01229
G1 X237.228 Y240.182 E42.09737
G1 X235.657 Y238.243 E42.18038
G1 X234.009 Y236.321 E42.26458
G1 X232.303 Y234.446 E42.3489
G1 X230.541 Y232.614 E42.43344
G1 X228.751 Y230.855 E42.51691
G1 X226.879 Y229.116 E42.60189
G1 X224.994 Y227.464 E42.68526
G1 X223.008 Y225.819 E42.77103
G1 X221.98 Y225.004 E42.81466
G1 X220.868 Y224.136 E42.86158
G1 X220.167 Y223.538 E42.89223
G1 X219.698 Y223.073 E42.91419
G1 X215.313 Y218.448 E43.12617
G1 X214.744 Y217.831 E43.15409
G1 X213.982 Y216.903 E43.19402
G1 X213.4 Y216.103 E43.22693
G1 X209.669 Y210.806 E43.44242
G1 X209.14 Y210.032 E43.4736
G1 X208.676 Y209.287 E43.5028
G1 X208.302 Y208.626 E43.52806
G1 X207.27 Y206.748 E43.59933
G1 X206.878 Y206.013 E43.62703
G1 X206.365 Y204.898 E43.66786
G1 X206.119 Y204.255 E43.69075
G1 X205.797 Y203.352 E43.72264
G1 X205.592 Y202.75 E43.74379
G1 X205.262 Y201.557 E43.78496
G1 X205.074 Y200.681 E43.81476
G1 X204.926 Y199.887 E43.84162
G1 X204.785 Y198.699 E43.88141
G1 X204.741 Y197.912 E43.90763
G1 X204.726 Y197.419 E43.92404
G1 X204.754 Y196.258 E43.96266
G1 X204.953 Y193.286 E44.06173
G1 X205.046 Y190.767 E44.14557
G1 X205.069 Y188.225 E44.23012
G1 X205.019 Y185.709 E44.31382
G1 X204.897 Y183.168 E44.39843
G1 X204.707 Y180.667 E44.48186
G1 X204.443 Y178.152 E44.56597
G1 X204.107 Y175.635 E44.65042
G1 X203.704 Y173.15 E44.73416
G1 X203.229 Y170.67 E44.81814
G1 X202.675 Y168.164 E44.9035
G1 X202.079 Y165.785 E44.98507
G1 X201.377 Y163.29 E45.07128
G1 X200.636 Y160.918 E45.15393
G1 X200.033 Y159.196 E45.21462
G1 X199.919 Y158.818 E45.22775
G1 X199.489 Y157.581 E45.27131
G1 X198.89 Y155.801 E45.33377
G1 X198.034 Y153.374 E45.41937
G1 X197.12 Y150.994 E45.50416
G1 X196.141 Y148.655 E45.5885
G1 X195.1 Y146.347 E45.67271
G1 X194.003 Y144.088 E45.75623
G1 X192.828 Y141.833 E45.84081
G1 X191.605 Y139.641 E45.92429
G1 X190.291 Y137.436 E46.00967
G1 X188.947 Y135.317 E46.09313
G1 X187.541 Y133.234 E46.17671
G1 X186.069 Y131.18 E46.26076
G1 X184.524 Y129.149 E46.34564
G1 X182.928 Y127.169 E46.43022
G1 X181.317 Y125.282 E46.51274
G1 X179.604 Y123.388 E46.59768
G1 X177.848 Y121.553 E46.68216
G1 X176.067 Y119.793 E46.76544
G1 X174.209 Y118.059 E46.84997
G1 X172.322 Y116.396 E46.93362
G1 X170.355 Y114.758 E47.01876
G1 X168.378 Y113.204 E47.1024
G1 X166.348 Y111.701 E47.18641
G1 X164.287 Y110.262 E47.27001
G1 X162.147 Y108.857 E47.35516
G1 X160.018 Y107.543 E47.43837
G1 X157.817 Y106.27 E47.52294
G1 X155.616 Y105.077 E47.6062
G1 X153.321 Y103.918 E47.69172
G1 X151.065 Y102.856 E47.77465
G1 X148.725 Y101.836 E47.85955
G1 X146.394 Y100.896 E47.94315
G1 X144.02 Y100.016 E48.02736
G1 X141.623 Y99.204 E48.11153
G1 X139.209 Y98.462 E48.19553
G1 X136.797 Y97.794 E48.27877
G1 X134.272 Y97.173 E48.36526
G1 X131.872 Y96.653 E48.44693
G1 X129.349 Y96.18 E48.53231
G1 X126.843 Y95.783 E48.6167
G1 X124.377 Y95.464 E48.6994
G1 X121.816 Y95.207 E48.78501
G1 X119.333 Y95.027 E48.86781
G1 X116.801 Y94.917 E48.95211
G1 X113.875 Y94.876 E49.04944
G1 X110.033 Y94.854 E49.17722
G1 X109.31 Y94.839 E49.20128
G1 X107.938 Y94.721 E49.24708
G1 X107.221 Y94.61 E49.27121
G1 X104.995 Y94.225 E49.34634
G1 X104.408 Y94.116 E49.3662
G1 X103.481 Y93.9 E49.39786
G1 X102.299 Y93.564 E49.43873
G1 X101.665 Y93.365 E49.46083
G1 X101.078 Y93.162 E49.48149
G1 X100.405 Y92.896 E49.50556
G1 X99.755 Y92.617 E49.52909
G1 X98.926 Y92.217 E49.5597
G1 X98.26 Y91.828 E49.58535
G1 X97.631 Y91.425 E49.6102
G1 X97.166 Y91.113 E49.62882
G1 X94.949 Y89.671 E49.71679
G1 X92.817 Y88.367 E49.79991
G1 X90.614 Y87.104 E49.88437
G1 X88.378 Y85.906 E49.96874
G1 X86.127 Y84.78 E50.05245
G1 X83.833 Y83.712 E50.13662
G1 X81.525 Y82.717 E50.22021
G1 X79.102 Y81.753 E50.30694
G1 X76.814 Y80.916 E50.38798
G1 X74.349 Y80.093 E50.47441
G1 X71.985 Y79.377 E50.55656
G1 X69.533 Y78.709 E50.64109
G1 X67.052 Y78.109 E50.72599
G1 X64.589 Y77.586 E50.80973
G1 X62.066 Y77.124 E50.89504
G1 X60.729 Y76.907 E50.9401
G1 X59.723 Y76.72 E50.97413
G1 X58.826 Y76.51 E51.00477
G1 X58.287 Y76.344 E51.02353
G1 X57.605 Y76.113 E51.04748
G1 X55.983 Y75.538 E51.10471
G1 X55.313 Y75.29 E51.12848
G1 X54.466 Y74.933 E51.15905
G1 X53.552 Y74.5 E51.19269
G1 X49.993 Y72.747 E51.32464
G1 X49.335 Y72.411 E51.34921
G1 X48.534 Y71.958 E51.37982
G1 X48.009 Y71.607 E51.40082
G1 X46.663 Y70.647 E51.45581
G1 X46.085 Y70.221 E51.47969
G1 X45.051 Y69.352 E51.52462
G1 X44.58 Y68.902 E51.54628
G1 X43.823 Y68.14 E51.58201
G1 X43.206 Y67.457 E51.61262
G1 X42.883 Y67.047 E51.62998
G1 X42.402 Y66.395 E51.65693
G1 X42.057 Y65.902 E51.67694
G1 X41.548 Y65.136 E51.70753
G1 X40.082 Y62.978 E51.7943
G1 X38.582 Y60.901 E51.87952
G1 X37.35 Y59.286 E51.94708
G1 X36.484 Y58.174 E51.99395
G1 X35.95 Y57.424 E52.02458
G1 X35.484 Y56.63 E52.0552
G1 X35.088 Y55.799 E52.08581
G1 X34.766 Y54.936 E52.11645
G1 X34.52 Y54.049 E52.14707
G1 X34.351 Y53.144 E52.17769
G1 X34.262 Y52.228 E52.2083
G1 X34.253 Y51.307 E52.23893
G1 X34.324 Y50.389 E52.26955
G1 X34.474 Y49.481 E52.30016
G1 X34.702 Y48.589 E52.33079
G1 X35.007 Y47.72 E52.36142
G1 X35.386 Y46.881 E52.39204
G1 X35.836 Y46.078 E52.42265
G1 X36.355 Y45.318 E52.45326
G1 X36.937 Y44.605 E52.48387
G1 X37.579 Y43.945 E52.5145
G1 X38.276 Y43.343 E52.54513
G0 F6000 X38.77 Y43.469
G1 F1200 X39.519 Y42.963 E52.57519
G1 X40.309 Y42.526 E52.60522
G1 X41.135 Y42.161 E52.63526
G1 X41.989 Y41.869 E52.66528
G1 X42.867 Y41.655 E52.69533
G1 X43.76 Y41.519 E52.72538
G1 X44.637 Y41.463 E52.75461
G1 X45.818 Y41.441 E52.79389
G1 X254.62 Y41.442 E59.73868
G1 X255.318 Y41.452 E59.76189
G1 X256.22 Y41.505 E59.79195
G1 X257.113 Y41.637 E59.82197
G1 X257.991 Y41.848 E59.852
G1 X258.847 Y42.136 E59.88204
G1 X259.674 Y42.498 E59.91207
G1 X260.466 Y42.933 E59.94212
G1 X261.217 Y43.435 E59.97217
G1 X261.92 Y44.002 E60.00221
G1 X262.57 Y44.629 E60.03224
G1 X263.162 Y45.311 E60.06228
