;FLAVOR:Marlin
;TIME:8848
;Filament used: 5.49502m
;Layer height: 0.2
;MINX:119.743
;MINY:89.9
;MINZ:0.2
;MAXX:180.257
;MAXY:210.115
;MAXZ:22
;Generated with Cura_SteamEngine 5.2.1
M140 S60
M105
M190 S60
M104 S210
M105
M109 S210
M82 ;absolute extrusion mode
M201 X500.00 Y500.00 Z100.00 E5000.00 ;Setup machine max acceleration
M203 X500.00 Y500.00 Z10.00 E50.00 ;Setup machine max feedrate
M204 P500.00 R1000.00 T500.00 ;Setup Print/Retract/Travel acceleration
M205 X8.00 Y8.00 Z0.40 E5.00 ;Setup Jerk
M220 S100 ;Reset Feedrate
M221 S100 ;Reset Flowrate

G28 ;Home
G29 ;Auto bed Level

G92 E0 ;Reset Extruder
G1 Z2.0 F3000 ;Move Z Axis up
G1 X10.1 Y20 Z0.28 F5000.0 ;Move to start position
G1 X10.1 Y200.0 Z0.28 F1500.0 E15 ;Draw the first line
G1 X10.4 Y200.0 Z0.28 F5000.0 ;Move to side a little
G1 X10.4 Y20 Z0.28 F1500.0 E30 ;Draw the second line
G92 E0 ;Reset Extruder
G1 Z2.0 F3000 ;Move Z Axis up

G92 E0
G92 E0
G1 F2700 E-7
;LAYER_COUNT:110
;LAYER:0
M107
G0 F6000 X138.47 Y107.374 Z0.2
;TYPE:SKIRT
G1 F2700 E0
G1 F1200 X138.684 Y107.101 E0.01154
G1 X139.238 Y106.447 E0.04004
G1 X139.44 Y106.227 E0.04998
G1 X139.973 Y105.686 E0.07524
G1 X141.588 Y104.154 E0.14928
G1 X143.37 Y102.374 E0.23305
G1 X145.092 Y100.553 E0.31641
G1 X146.776 Y98.669 E0.40045
G1 X148.617 Y96.482 E0.49553
G1 X149.194 Y95.78 E0.52576
G1 X149.768 Y95.134 E0.5545
G1 X150.356 Y94.545 E0.58218
G1 X151.312 Y93.65 E0.62574
G1 X152.024 Y93.039 E0.65694
G1 X152.784 Y92.49 E0.68813
G1 X153.283 Y92.181 E0.70765
G1 X153.67 Y91.955 E0.72255
G1 X154.181 Y91.675 E0.74193
G1 X154.715 Y91.4 E0.76191
G1 X155.309 Y91.111 E0.78388
G1 X156.173 Y90.746 E0.81508
G1 X157.133 Y90.437 E0.84862
G1 X157.688 Y90.286 E0.86775
G1 X158.603 Y90.078 E0.89896
G1 X159.532 Y89.95 E0.93015
G1 X160.602 Y89.9 E0.96578
G1 X161.027 Y89.901 E0.97991
G1 X161.904 Y89.938 E1.00911
G1 X162.414 Y89.98 E1.02613
G1 X162.927 Y90.035 E1.04329
G1 X163.795 Y90.157 E1.07244
G1 X164.397 Y90.265 E1.09279
G1 X164.908 Y90.368 E1.11012
G1 X165.499 Y90.504 E1.13029
G1 X166.196 Y90.685 E1.15424
G1 X166.86 Y90.88 E1.17726
G1 X167.494 Y91.088 E1.19945
G1 X168.098 Y91.306 E1.22081
G1 X168.74 Y91.559 E1.24376
G1 X169.343 Y91.818 E1.26559
G1 X169.967 Y92.108 E1.28848
G1 X170.537 Y92.393 E1.30967
G1 X171.127 Y92.71 E1.33195
G1 X171.794 Y93.099 E1.35763
G1 X172.532 Y93.565 E1.38666
G1 X173.155 Y93.989 E1.41173
G1 X173.729 Y94.409 E1.43538
G1 X174.21 Y94.782 E1.45563
G1 X174.622 Y95.12 E1.47335
G1 X175.048 Y95.488 E1.49208
G1 X175.547 Y95.942 E1.51451
G1 X175.872 Y96.249 E1.52938
G1 X176.312 Y96.695 E1.55022
G1 X176.755 Y97.166 E1.57173
G1 X177.132 Y97.588 E1.59055
G1 X177.461 Y97.976 E1.60747
G1 X177.841 Y98.445 E1.62754
G1 X178.394 Y99.203 E1.65875
G1 X178.881 Y100.005 E1.68996
G1 X179.297 Y100.845 E1.72114
G1 X179.64 Y101.718 E1.75233
G1 X179.907 Y102.617 E1.78352
G1 X180.097 Y103.535 E1.8147
G1 X180.208 Y104.467 E1.84592
G1 X180.238 Y105.102 E1.86707
G1 X180.257 Y106.235 E1.90475
G1 X180.256 Y198.53 E4.9745
G1 X180.246 Y199.257 E4.99868
G1 X180.193 Y200.194 E5.0299
G1 X180.061 Y201.122 E5.06107
G1 X179.85 Y202.036 E5.09227
G1 X179.561 Y202.928 E5.12346
G1 X179.198 Y203.793 E5.15466
G1 X178.763 Y204.624 E5.18586
G1 X178.258 Y205.414 E5.21704
G1 X177.688 Y206.159 E5.24824
G1 X177.057 Y206.853 E5.27944
G1 X176.368 Y207.49 E5.31065
G1 X175.628 Y208.066 E5.34184
G1 X174.842 Y208.577 E5.37302
G1 X174.015 Y209.019 E5.40421
G1 X173.153 Y209.389 E5.43541
G1 X172.263 Y209.684 E5.46659
G1 X171.351 Y209.903 E5.49779
G1 X170.424 Y210.043 E5.52897
G1 X169.556 Y210.102 E5.5579
G1 X168.927 Y210.115 E5.57883
G1 X131.308 Y210.114 E6.83004
G1 X130.61 Y210.105 E6.85326
G1 X129.674 Y210.053 E6.88444
G1 X128.745 Y209.921 E6.91565
G1 X127.831 Y209.711 E6.94684
G1 X126.938 Y209.424 E6.97804
G1 X126.073 Y209.061 E7.00924
G1 X125.242 Y208.627 E7.04042
G1 X124.451 Y208.123 E7.07162
G1 X123.706 Y207.553 E7.10282
G1 X123.012 Y206.922 E7.13401
G1 X122.375 Y206.235 E7.16517
G1 X121.798 Y205.495 E7.19638
G1 X121.286 Y204.709 E7.22758
G1 X120.843 Y203.882 E7.25879
G1 X120.472 Y203.021 E7.28997
G1 X120.176 Y202.131 E7.32117
G1 X119.957 Y201.219 E7.35236
G1 X119.816 Y200.292 E7.38355
G1 X119.756 Y199.403 E7.41318
G1 X119.743 Y198.773 E7.43414
G1 X119.744 Y143.882 E9.25982
G1 X119.754 Y143.177 E9.28327
G1 X119.807 Y142.241 E9.31446
G1 X119.94 Y141.312 E9.34567
G1 X120.152 Y140.398 E9.37688
G1 X120.44 Y139.506 E9.40805
G1 X120.804 Y138.642 E9.43923
G1 X121.239 Y137.811 E9.47043
G1 X121.744 Y137.021 E9.50162
G1 X122.097 Y136.545 E9.52133
G1 X122.578 Y135.931 E9.54727
G1 X124.14 Y133.879 E9.63304
G1 X125.613 Y131.825 E9.71711
G1 X127.011 Y129.753 E9.80024
G1 X128.381 Y127.595 E9.88526
G1 X129.657 Y125.452 E9.96822
G1 X130.887 Y123.247 E10.05219
G1 X132.04 Y121.037 E10.1351
G1 X133.149 Y118.754 E10.21952
G1 X134.179 Y116.474 E10.30273
G1 X135.167 Y114.105 E10.3881
G1 X136.026 Y111.886 E10.46724
G1 X136.306 Y111.194 E10.49207
G1 X136.623 Y110.478 E10.51812
G1 X136.858 Y109.997 E10.53592
G1 X137.144 Y109.446 E10.55657
G1 X137.564 Y108.708 E10.58481
G1 X137.784 Y108.354 E10.59867
G1 X138.47 Y107.374 E10.63846
G0 F6000 X138.785 Y107.621
G1 F1200 X138.999 Y107.348 E10.65
G1 X139.533 Y106.718 E10.67747
G1 X139.735 Y106.498 E10.6874
G1 X140.248 Y105.976 E10.71174
G1 X141.863 Y104.444 E10.78578
G1 X143.678 Y102.631 E10.87111
G1 X145.383 Y100.829 E10.95362
G1 X147.065 Y98.946 E11.03759
G1 X148.95 Y96.707 E11.13494
G1 X149.503 Y96.034 E11.16391
G1 X150.057 Y95.411 E11.19164
G1 X150.63 Y94.837 E11.21862
G1 X151.586 Y93.942 E11.26217
G1 X152.284 Y93.342 E11.29279
G1 X153.033 Y92.806 E11.32342
G1 X153.485 Y92.527 E11.34109
G1 X153.872 Y92.301 E11.35599
G1 X154.364 Y92.03 E11.37468
G1 X154.898 Y91.755 E11.39465
G1 X155.48 Y91.473 E11.41616
G1 X156.328 Y91.115 E11.44678
G1 X157.238 Y90.823 E11.47857
G1 X157.793 Y90.672 E11.4977
G1 X158.691 Y90.469 E11.52832
G1 X159.603 Y90.345 E11.55893
G1 X160.601 Y90.3 E11.59216
G1 X161.026 Y90.301 E11.60629
G1 X161.871 Y90.337 E11.63442
G1 X162.381 Y90.379 E11.65144
G1 X162.876 Y90.431 E11.668
G1 X163.727 Y90.551 E11.69658
G1 X164.317 Y90.657 E11.71652
G1 X164.828 Y90.76 E11.73386
G1 X165.398 Y90.891 E11.75331
G1 X166.095 Y91.072 E11.77726
G1 X166.735 Y91.26 E11.79945
G1 X167.369 Y91.468 E11.82164
G1 X167.951 Y91.678 E11.84222
G1 X168.593 Y91.931 E11.86517
G1 X169.174 Y92.18 E11.88619
G1 X169.798 Y92.47 E11.90908
G1 X170.348 Y92.745 E11.92953
G1 X170.938 Y93.062 E11.95181
G1 X171.58 Y93.437 E11.97654
G1 X172.318 Y93.903 E12.00557
G1 X172.918 Y94.311 E12.0297
G1 X173.492 Y94.731 E12.05336
G1 X173.956 Y95.091 E12.07289
G1 X174.368 Y95.429 E12.09061
G1 X174.778 Y95.783 E12.10863
G1 X175.277 Y96.237 E12.13107
G1 X175.591 Y96.534 E12.14544
G1 X176.02 Y96.969 E12.16576
G1 X176.463 Y97.44 E12.18727
G1 X176.827 Y97.847 E12.20543
G1 X177.156 Y98.235 E12.22235
G1 X177.529 Y98.695 E12.24205
G1 X178.071 Y99.439 E12.27266
G1 X178.546 Y100.227 E12.30327
G1 X178.951 Y101.054 E12.33389
G1 X179.283 Y101.912 E12.36449
G1 X179.54 Y102.797 E12.39514
G1 X179.718 Y103.7 E12.42576
G1 X179.818 Y104.615 E12.45637
G1 X179.838 Y105.109 E12.47281
G1 X179.857 Y106.235 E12.51027
G1 X179.856 Y198.525 E15.57985
G1 X179.846 Y199.252 E15.60403
G1 X179.793 Y200.171 E15.63465
G1 X179.661 Y201.082 E15.66526
G1 X179.45 Y201.978 E15.69588
G1 X179.163 Y202.853 E15.72651
G1 X178.8 Y203.699 E15.75713
G1 X178.366 Y204.511 E15.78775
G1 X177.862 Y205.282 E15.81839
G1 X177.294 Y206.006 E15.84899
G1 X176.665 Y206.678 E15.87961
G1 X175.98 Y207.293 E15.91023
G1 X175.244 Y207.846 E15.94084
G1 X174.463 Y208.334 E15.97147
G1 X173.643 Y208.752 E16.00209
G1 X172.789 Y209.097 E16.03272
G1 X171.909 Y209.366 E16.06333
G1 X171.008 Y209.559 E16.09397
G1 X170.095 Y209.672 E16.12457
G1 X169.545 Y209.702 E16.14289
G1 X168.927 Y209.715 E16.16345
G1 X131.313 Y209.714 E17.4145
G1 X130.615 Y209.705 E17.43772
G1 X129.696 Y209.653 E17.46833
G1 X128.785 Y209.522 E17.49894
G1 X127.889 Y209.312 E17.52955
G1 X127.014 Y209.025 E17.56018
G1 X126.167 Y208.663 E17.59082
G1 X125.355 Y208.229 E17.62144
G1 X124.584 Y207.727 E17.65204
G1 X123.859 Y207.159 E17.68267
G1 X123.186 Y206.53 E17.71331
G1 X122.571 Y205.846 E17.7439
G1 X122.017 Y205.111 E17.77452
G1 X121.529 Y204.33 E17.80515
G1 X121.11 Y203.51 E17.83577
G1 X120.764 Y202.657 E17.86639
G1 X120.494 Y201.777 E17.89701
G1 X120.301 Y200.876 E17.92765
G1 X120.187 Y199.963 E17.95826
G1 X120.156 Y199.392 E17.97728
G1 X120.143 Y198.773 E17.99787
G1 X120.144 Y143.888 E19.82335
G1 X120.154 Y143.183 E19.8468
G1 X120.207 Y142.264 E19.87742
G1 X120.34 Y141.352 E19.90807
G1 X120.551 Y140.456 E19.93869
G1 X120.839 Y139.582 E19.9693
G1 X121.202 Y138.736 E19.99991
G1 X121.637 Y137.924 E20.03055
G1 X122.412 Y136.792 E20.07618
G1 X122.9 Y136.17 E20.10248
G1 X124.463 Y134.115 E20.18835
G1 X125.942 Y132.053 E20.27275
G1 X127.348 Y129.97 E20.35634
G1 X128.703 Y127.834 E20.44047
G1 X130.007 Y125.646 E20.52519
G1 X131.233 Y123.448 E20.60889
G1 X132.411 Y121.19 E20.6936
G1 X133.502 Y118.944 E20.77665
G1 X134.548 Y116.627 E20.8612
G1 X135.538 Y114.254 E20.94672
G1 X136.467 Y111.858 E21.0322
G1 X136.676 Y111.345 E21.05062
G1 X136.987 Y110.645 E21.0761
G1 X137.213 Y110.182 E21.09323
G1 X137.499 Y109.631 E21.11388
G1 X137.904 Y108.919 E21.14112
G1 X138.124 Y108.565 E21.15499
G1 X138.785 Y107.621 E21.19332
G0 F6000 X139.099 Y107.867
G1 F1200 X139.313 Y107.594 E21.20485
G1 X139.828 Y106.988 E21.2313
G1 X140.03 Y106.768 E21.24124
G1 X140.523 Y106.267 E21.26462
G1 X142.138 Y104.735 E21.33865
G1 X143.934 Y102.941 E21.42309
G1 X145.704 Y101.07 E21.50875
G1 X147.371 Y99.205 E21.59195
G1 X149.256 Y96.965 E21.68932
G1 X149.812 Y96.288 E21.71846
G1 X150.345 Y95.689 E21.74513
G1 X150.903 Y95.129 E21.77142
G1 X151.859 Y94.234 E21.81498
G1 X152.545 Y93.646 E21.84503
G1 X153.28 Y93.122 E21.87505
G1 X153.686 Y92.872 E21.89091
G1 X154.073 Y92.646 E21.90581
G1 X154.547 Y92.386 E21.92379
G1 X155.081 Y92.111 E21.94377
G1 X155.652 Y91.834 E21.96488
G1 X156.484 Y91.484 E21.9949
G1 X157.343 Y91.209 E22.0249
G1 X157.898 Y91.058 E22.04403
G1 X158.779 Y90.859 E22.07407
G1 X159.674 Y90.74 E22.1041
G1 X160.6 Y90.7 E22.13493
G1 X161.025 Y90.701 E22.14906
G1 X161.838 Y90.735 E22.17613
G1 X162.348 Y90.777 E22.19315
G1 X162.824 Y90.828 E22.20907
G1 X163.659 Y90.945 E22.23711
G1 X164.238 Y91.049 E22.25668
G1 X164.749 Y91.152 E22.27402
G1 X165.298 Y91.278 E22.29275
G1 X165.995 Y91.459 E22.3167
G1 X166.611 Y91.64 E22.33806
G1 X167.245 Y91.848 E22.36025
G1 X167.805 Y92.05 E22.38005
G1 X168.447 Y92.303 E22.403
G1 X169.006 Y92.543 E22.42324
G1 X169.63 Y92.833 E22.44612
G1 X170.159 Y93.098 E22.4658
G1 X170.749 Y93.415 E22.48808
G1 X171.367 Y93.775 E22.51187
G1 X172.105 Y94.241 E22.5409
G1 X172.682 Y94.634 E22.56412
G1 X173.256 Y95.054 E22.58777
G1 X173.702 Y95.4 E22.60655
G1 X174.114 Y95.738 E22.62427
G1 X174.509 Y96.079 E22.64163
G1 X175.008 Y96.533 E22.66406
G1 X175.31 Y96.819 E22.6779
G1 X175.729 Y97.243 E22.69772
G1 X176.172 Y97.714 E22.71923
G1 X176.522 Y98.105 E22.73668
G1 X176.851 Y98.493 E22.7536
G1 X177.216 Y98.944 E22.7729
G1 X177.747 Y99.674 E22.80293
G1 X178.211 Y100.449 E22.83297
G1 X178.606 Y101.261 E22.863
G1 X178.926 Y102.106 E22.89305
G1 X179.171 Y102.975 E22.92308
G1 X179.338 Y103.862 E22.9531
G1 X179.438 Y105.116 E22.99495
G1 X179.457 Y106.235 E23.03217
G1 X179.456 Y198.519 E26.10155
G1 X179.446 Y199.246 E26.12573
G1 X179.394 Y200.148 E26.15578
G1 X179.262 Y201.041 E26.1858
G1 X179.051 Y201.92 E26.21587
G1 X178.764 Y202.776 E26.2459
G1 X178.402 Y203.603 E26.27592
G1 X177.968 Y204.395 E26.30596
G1 X177.466 Y205.146 E26.33601
G1 X176.9 Y205.849 E26.36603
G1 X176.273 Y206.5 E26.39609
G1 X175.592 Y207.092 E26.4261
G1 X174.861 Y207.622 E26.45613
G1 X174.085 Y208.085 E26.48619
G1 X173.272 Y208.478 E26.51622
G1 X172.427 Y208.798 E26.54627
G1 X171.558 Y209.041 E26.57628
G1 X170.67 Y209.206 E26.60632
G1 X169.534 Y209.302 E26.64424
G1 X168.927 Y209.315 E26.66444
G1 X131.318 Y209.314 E27.91532
G1 X130.62 Y209.305 E27.93853
G1 X129.719 Y209.254 E27.96855
G1 X128.825 Y209.122 E27.99861
G1 X127.947 Y208.913 E28.02862
G1 X127.09 Y208.626 E28.05868
G1 X126.263 Y208.265 E28.0887
G1 X125.47 Y207.832 E28.11875
G1 X124.719 Y207.331 E28.14877
G1 X124.015 Y206.765 E28.17882
G1 X123.364 Y206.139 E28.20886
G1 X122.771 Y205.458 E28.23889
G1 X122.241 Y204.727 E28.26892
G1 X121.777 Y203.952 E28.29897
G1 X121.383 Y203.139 E28.32901
G1 X121.063 Y202.295 E28.35904
G1 X120.819 Y201.425 E28.38909
G1 X120.653 Y200.537 E28.41914
G1 X120.556 Y199.382 E28.45769
G1 X120.543 Y198.773 E28.47795
G1 X120.544 Y143.893 E30.30326
G1 X120.554 Y143.188 E30.32671
G1 X120.607 Y142.287 E30.35673
G1 X120.739 Y141.393 E30.38679
G1 X120.95 Y140.515 E30.41682
G1 X121.238 Y139.659 E30.44686
G1 X121.6 Y138.832 E30.47689
G1 X122.034 Y138.04 E30.50693
G1 X122.727 Y137.039 E30.54742
G1 X123.188 Y136.452 E30.57224
G1 X124.791 Y134.345 E30.6603
G1 X126.266 Y132.288 E30.74449
G1 X127.69 Y130.177 E30.82918
G1 X129.042 Y128.047 E30.91309
G1 X130.35 Y125.85 E30.99813
G1 X131.594 Y123.622 E31.083
G1 X132.768 Y121.371 E31.16744
G1 X133.869 Y119.105 E31.25124
G1 X134.905 Y116.809 E31.33502
G1 X135.914 Y114.391 E31.42216
G1 X136.772 Y112.175 E31.5012
G1 X137.047 Y111.496 E31.52556
G1 X137.35 Y110.812 E31.55044
G1 X137.568 Y110.366 E31.56696
G1 X137.854 Y109.815 E31.5876
G1 X138.244 Y109.13 E31.61382
G1 X138.464 Y108.776 E31.62768
G1 X139.099 Y107.867 E31.66456
G1 F2700 E24.66456
;MESH:Deeps_tray.stl
G0 F6000 X136.683 Y136.873
G0 X131.343 Y198.515
;TYPE:WALL-INNER
G1 F2700 E31.66456
G1 F1200 X168.657 Y198.515 E32.90563
G1 X168.657 Y105.943 E35.98459
G1 X168.657 Y105.52 E35.99866
G1 X168.365 Y105.166 E36.01392
G1 X167.921 Y104.687 E36.03564
G1 X167.447 Y104.234 E36.05745
G1 X166.945 Y103.81 E36.07931
G1 X166.419 Y103.417 E36.10114
G1 X165.87 Y103.058 E36.12296
G1 X165.298 Y102.732 E36.14486
G1 X164.707 Y102.439 E36.1668
G1 X164.103 Y102.182 E36.18863
G1 X163.487 Y101.967 E36.21033
G1 X162.852 Y101.787 E36.23228
G1 X162.209 Y101.644 E36.25419
G1 X161.56 Y101.543 E36.27604
G1 X161.065 Y101.493 E36.29259
G1 X160.653 Y101.49 E36.30629
G1 X160.274 Y101.586 E36.31929
G1 X159.563 Y101.935 E36.34564
G1 X159.158 Y102.181 E36.3614
G1 X158.803 Y102.504 E36.37736
G1 X158.604 Y102.72 E36.38713
G1 X158.292 Y102.991 E36.40087
G1 X158.068 Y103.232 E36.41182
G1 X157.858 Y103.517 E36.42359
G1 X157.6 Y103.913 E36.43931
G1 X157.393 Y104.263 E36.45284
G1 X156.625 Y105.631 E36.50502
G1 X156.109 Y106.577 E36.54086
G1 X154.805 Y109.033 E36.63334
G1 X153.857 Y110.905 E36.70313
G1 X153.623 Y111.295 E36.71826
G1 X153.341 Y111.699 E36.73465
G1 X153.058 Y112.046 E36.74954
G1 X152.779 Y112.348 E36.76322
G1 X152.419 Y112.687 E36.77966
G1 X152.092 Y112.962 E36.79387
G1 X151.682 Y113.263 E36.81079
G1 X151.413 Y113.439 E36.82148
G1 X151.12 Y113.596 E36.83254
G1 X150.836 Y113.709 E36.84271
G1 X150.511 Y113.796 E36.8539
G1 X150.183 Y113.842 E36.86491
G1 X149.83 Y113.858 E36.87666
G1 X149.399 Y113.849 E36.891
G1 X148.678 Y113.807 E36.91502
G1 X148.416 Y113.83 E36.92377
G1 X148.159 Y113.933 E36.93298
G1 X147.944 Y114.107 E36.94218
G1 X147.718 Y114.357 E36.95339
G1 X147.55 Y114.589 E36.96292
G1 X147.377 Y114.889 E36.97443
G1 X147.16 Y115.307 E36.9901
G1 X146.988 Y115.696 E37.00424
G1 X146.747 Y116.312 E37.02625
G1 X146.597 Y116.728 E37.04095
G1 X146.372 Y117.458 E37.06636
G1 X146.273 Y117.832 E37.07923
G1 X146.184 Y118.21 E37.09214
G1 X146.027 Y119.001 E37.11897
G1 X145.905 Y119.803 E37.14595
G1 X145.825 Y120.59 E37.17226
G1 X145.8 Y120.966 E37.18479
G1 X145.781 Y121.722 E37.20994
G1 X145.787 Y122.074 E37.22165
G1 X145.804 Y122.413 E37.23294
G1 X145.841 Y122.813 E37.2463
G1 X145.938 Y123.665 E37.27482
G1 X146.523 Y124.339 E37.30451
G1 X146.806 Y124.711 E37.32005
G1 X147.007 Y125.049 E37.33313
G1 X147.217 Y125.515 E37.35013
G1 X147.285 Y126.031 E37.36744
G1 X147.249 Y126.592 E37.38614
G1 X147.156 Y126.961 E37.3988
G1 X146.978 Y127.38 E37.41394
G1 X146.844 Y127.656 E37.42414
G1 X146.682 Y127.959 E37.43557
G1 X146.305 Y128.607 E37.46051
G1 X145.848 Y129.327 E37.48887
G1 X145.325 Y130.097 E37.51983
G1 X145.037 Y130.502 E37.53636
G1 X144.426 Y131.327 E37.57051
