;FLAVOR:Marlin
;TIME:17124
;Filament used: 11.7275m
;Layer height: 0.2
;MINX:112.5
;MINY:78.305
;MINZ:0.2
;MAXX:187.5
;MAXY:221.695
;MAXZ:33
;Generated with Cura_SteamEngine 5.2.1
M140 S60
M105
M190 S60
M104 S210
M105
M109 S210
M82 ;absolute extrusion mode
M201 X500.00 Y500.00 Z100.00 E5000.00 ;Setup machine max acceleration
M203 X500.00 Y500.00 Z10.00 E50.00 ;Setup machine max feedrate
M204 P500.00 R1000.00 T500.00 ;Setup Print/Retract/Travel acceleration
M205 X8.00 Y8.00 Z0.40 E5.00 ;Setup Jerk
M220 S100 ;Reset Feedrate
M221 S100 ;Reset Flowrate

G28 ;Home
G29 ;Auto bed Level

G92 E0 ;Reset Extruder
G1 Z2.0 F3000 ;Move Z Axis up
G1 X10.1 Y20 Z0.28 F5000.0 ;Move to start position
G1 X10.1 Y200.0 Z0.28 F1500.0 E15 ;Draw the first line
G1 X10.4 Y200.0 Z0.28 F5000.0 ;Move to side a little
G1 X10.4 Y20 Z0.28 F1500.0 E30 ;Draw the second line
G92 E0 ;Reset Extruder
G1 Z2.0 F3000 ;Move Z Axis up

G92 E0
G92 E0
G1 F2700 E-7
;LAYER_COUNT:165
;LAYER:0
M107
G0 F6000 X114.496 Y83.008 Z0.2
;TYPE:SKIRT
G1 F2700 E0
G1 F1200 X115.066 Y82.263 E0.0312
G1 X115.698 Y81.569 E0.06242
G1 X116.386 Y80.932 E0.0936
G1 X117.126 Y80.356 E0.12479
G1 X117.912 Y79.844 E0.15599
G1 X118.739 Y79.402 E0.18718
G1 X119.601 Y79.032 E0.21838
G1 X120.491 Y78.736 E0.24958
G1 X121.403 Y78.518 E0.28077
G1 X122.33 Y78.377 E0.31195
G1 X123.201 Y78.318 E0.34099
G1 X123.83 Y78.305 E0.36191
G1 X175.951 Y78.306 E2.09546
G1 X176.649 Y78.316 E2.11868
G1 X177.585 Y78.37 E2.14987
G1 X178.513 Y78.502 E2.18104
G1 X179.427 Y78.714 E2.21225
G1 X180.319 Y79.003 E2.24343
G1 X181.184 Y79.366 E2.27464
G1 X182.014 Y79.802 E2.30582
G1 X182.805 Y80.307 E2.33703
G1 X183.549 Y80.878 E2.36822
G1 X184.242 Y81.51 E2.39942
G1 X184.879 Y82.198 E2.4306
G1 X185.454 Y82.939 E2.4618
G1 X185.965 Y83.725 E2.49298
G1 X186.407 Y84.553 E2.5242
G1 X186.776 Y85.415 E2.55539
G1 X187.071 Y86.305 E2.58657
G1 X187.289 Y87.217 E2.61776
G1 X187.429 Y88.145 E2.64897
G1 X187.487 Y89.006 E2.67768
G1 X187.5 Y89.635 E2.6986
G1 X187.499 Y210.095 E6.70512
G1 X187.49 Y210.822 E6.7293
G1 X187.439 Y211.759 E6.76051
G1 X187.307 Y212.687 E6.79169
G1 X187.098 Y213.601 E6.82287
G1 X186.811 Y214.494 E6.85407
G1 X186.449 Y215.36 E6.88529
G1 X186.015 Y216.191 E6.91647
G1 X185.511 Y216.982 E6.94766
G1 X184.942 Y217.727 E6.97884
G1 X184.311 Y218.422 E7.01006
G1 X183.624 Y219.06 E7.04125
G1 X182.885 Y219.637 E7.07243
G1 X182.099 Y220.149 E7.10363
G1 X181.273 Y220.592 E7.13481
G1 X180.411 Y220.964 E7.16603
G1 X179.522 Y221.26 E7.1972
G1 X178.61 Y221.48 E7.2284
G1 X177.683 Y221.621 E7.25959
G1 X176.799 Y221.682 E7.28906
G1 X176.17 Y221.695 E7.30998
G1 X124.065 Y221.694 E9.043
G1 X123.367 Y221.685 E9.06622
G1 X122.431 Y221.633 E9.0974
G1 X121.502 Y221.501 E9.12861
G1 X120.588 Y221.291 E9.1598
G1 X119.695 Y221.004 E9.191
G1 X118.83 Y220.641 E9.2222
G1 X117.999 Y220.207 E9.25338
G1 X117.208 Y219.703 E9.28458
G1 X116.463 Y219.133 E9.31577
G1 X115.769 Y218.502 E9.34697
G1 X115.132 Y217.815 E9.37813
G1 X114.555 Y217.075 E9.40934
G1 X114.043 Y216.289 E9.44054
G1 X113.6 Y215.462 E9.47175
G1 X113.229 Y214.601 E9.50293
G1 X112.933 Y213.711 E9.53412
G1 X112.714 Y212.799 E9.56532
G1 X112.573 Y211.872 E9.59651
G1 X112.513 Y210.983 E9.62614
G1 X112.5 Y210.353 E9.6471
G1 X112.501 Y89.83 E13.65571
G1 X112.51 Y89.165 E13.67783
G1 X112.563 Y88.229 E13.70901
G1 X112.695 Y87.3 E13.74022
G1 X112.906 Y86.386 E13.77142
G1 X113.194 Y85.494 E13.8026
G1 X113.557 Y84.629 E13.8338
G1 X113.992 Y83.798 E13.865
G1 X114.496 Y83.008 E13.89616
G0 F6000 X114.892 Y83.14
G1 F1200 X115.461 Y82.416 E13.92679
G1 X116.089 Y81.744 E13.95738
G1 X116.774 Y81.128 E13.98802
G1 X117.51 Y80.575 E14.01864
G1 X118.291 Y80.087 E14.04927
G1 X119.111 Y79.669 E14.07988
G1 X119.965 Y79.324 E14.11052
G1 X120.845 Y79.054 E14.14113
G1 X121.745 Y78.862 E14.17174
G1 X122.659 Y78.748 E14.20238
G1 X123.212 Y78.718 E14.2208
G1 X123.83 Y78.705 E14.24136
G1 X175.793 Y78.705 E15.96965
G1 X176.643 Y78.716 E15.99793
G1 X177.562 Y78.769 E16.02854
G1 X178.473 Y78.902 E16.05916
G1 X179.369 Y79.113 E16.08978
G1 X180.243 Y79.401 E16.12039
G1 X181.09 Y79.764 E16.15104
G1 X181.901 Y80.199 E16.18165
G1 X182.671 Y80.703 E16.21225
G1 X183.395 Y81.272 E16.24288
G1 X184.067 Y81.902 E16.27352
G1 X184.682 Y82.587 E16.30414
G1 X185.235 Y83.323 E16.33476
G1 X185.722 Y84.104 E16.36537
G1 X186.139 Y84.925 E16.396
G1 X186.484 Y85.779 E16.42663
G1 X186.753 Y86.659 E16.45724
G1 X186.945 Y87.56 E16.48788
G1 X187.058 Y88.473 E16.51847
G1 X187.087 Y89.017 E16.53659
G1 X187.1 Y89.635 E16.55715
G1 X187.099 Y210.09 E20.5635
G1 X187.09 Y210.817 E20.58768
G1 X187.039 Y211.736 E20.6183
G1 X186.908 Y212.648 E20.64894
G1 X186.698 Y213.544 E20.67955
G1 X186.412 Y214.419 E20.71017
G1 X186.051 Y215.266 E20.74079
G1 X185.617 Y216.078 E20.77141
G1 X185.115 Y216.85 E20.80204
G1 X184.547 Y217.575 E20.83268
G1 X183.919 Y218.248 E20.86329
G1 X183.235 Y218.864 E20.89391
G1 X182.5 Y219.418 E20.92452
G1 X181.72 Y219.907 E20.95514
G1 X180.9 Y220.326 E20.98577
G1 X180.047 Y220.672 E21.01638
G1 X179.167 Y220.943 E21.04701
G1 X178.267 Y221.136 E21.07762
G1 X177.353 Y221.251 E21.10826
G1 X176.788 Y221.282 E21.12708
G1 X176.17 Y221.295 E21.14764
G1 X124.07 Y221.294 E22.88049
G1 X123.372 Y221.285 E22.90371
G1 X122.453 Y221.233 E22.93433
G1 X121.542 Y221.102 E22.96494
G1 X120.646 Y220.892 E22.99555
G1 X119.771 Y220.605 E23.02618
G1 X118.924 Y220.243 E23.05681
G1 X118.112 Y219.809 E23.08743
G1 X117.341 Y219.307 E23.11804
G1 X116.616 Y218.739 E23.14867
G1 X115.943 Y218.11 E23.17931
G1 X115.328 Y217.426 E23.2099
G1 X114.774 Y216.691 E23.24051
G1 X114.286 Y215.91 E23.27114
G1 X113.867 Y215.09 E23.30177
G1 X113.521 Y214.237 E23.33239
G1 X113.251 Y213.357 E23.363
G1 X113.058 Y212.456 E23.39365
G1 X112.944 Y211.543 E23.42425
G1 X112.913 Y210.972 E23.44327
G1 X112.9 Y210.353 E23.46386
G1 X112.901 Y89.836 E27.47228
G1 X112.91 Y89.171 E27.4944
G1 X112.962 Y88.251 E27.52504
G1 X113.094 Y87.34 E27.55566
G1 X113.305 Y86.444 E27.58628
G1 X113.592 Y85.569 E27.6169
G1 X113.955 Y84.723 E27.64752
G1 X114.389 Y83.911 E27.67815
G1 X114.892 Y83.14 E27.70876
G0 F6000 X115.288 Y83.276
G1 F1200 X115.855 Y82.572 E27.73883
G1 X116.481 Y81.922 E27.76884
G1 X117.162 Y81.329 E27.79888
G1 X117.894 Y80.799 E27.82894
G1 X118.669 Y80.336 E27.85896
G1 X119.482 Y79.943 E27.889
G1 X120.327 Y79.623 E27.91905
G1 X121.196 Y79.38 E27.94906
G1 X122.084 Y79.214 E27.97911
G1 X123.223 Y79.118 E28.01713
G1 X123.83 Y79.105 E28.03732
G1 X175.793 Y79.105 E29.76562
G1 X176.637 Y79.116 E29.79369
G1 X177.539 Y79.169 E29.82374
G1 X178.432 Y79.301 E29.85377
G1 X179.31 Y79.512 E29.8838
G1 X180.166 Y79.8 E29.91384
G1 X180.993 Y80.162 E29.94386
G1 X181.785 Y80.597 E29.97392
G1 X182.536 Y81.099 E30.00396
G1 X183.239 Y81.666 E30.034
G1 X183.889 Y82.293 E30.06404
G1 X184.481 Y82.975 E30.09408
G1 X185.011 Y83.706 E30.12411
G1 X185.473 Y84.482 E30.15415
G1 X185.866 Y85.295 E30.18418
G1 X186.184 Y86.14 E30.21421
G1 X186.427 Y87.01 E30.24425
G1 X186.592 Y87.898 E30.27429
G1 X186.687 Y89.028 E30.31201
G1 X186.7 Y89.635 E30.3322
G1 X186.699 Y210.085 E34.33839
G1 X186.69 Y210.812 E34.36257
G1 X186.639 Y211.714 E34.39262
G1 X186.508 Y212.608 E34.42267
G1 X186.299 Y213.486 E34.45269
G1 X186.013 Y214.343 E34.48274
G1 X185.652 Y215.171 E34.51278
G1 X185.22 Y215.963 E34.54279
G1 X184.719 Y216.715 E34.57284
G1 X184.153 Y217.419 E34.60288
G1 X183.528 Y218.07 E34.6329
G1 X182.847 Y218.664 E34.66296
G1 X182.116 Y219.195 E34.69301
G1 X181.342 Y219.659 E34.72302
G1 X180.529 Y220.053 E34.75307
G1 X179.685 Y220.373 E34.78309
G1 X178.815 Y220.618 E34.81315
G1 X177.928 Y220.784 E34.84317
G1 X176.777 Y220.882 E34.88159
G1 X176.17 Y220.895 E34.90178
G1 X124.075 Y220.894 E36.63447
G1 X123.377 Y220.885 E36.65769
G1 X122.476 Y220.834 E36.6877
G1 X121.582 Y220.702 E36.71776
G1 X120.704 Y220.493 E36.74778
G1 X119.847 Y220.206 E36.77784
G1 X119.02 Y219.845 E36.80785
G1 X118.227 Y219.412 E36.8379
G1 X117.476 Y218.911 E36.86793
G1 X116.772 Y218.345 E36.89797
G1 X116.121 Y217.719 E36.92801
G1 X115.528 Y217.038 E36.95804
G1 X114.998 Y216.307 E36.98807
G1 X114.534 Y215.532 E37.01812
G1 X114.14 Y214.719 E37.04817
G1 X113.82 Y213.875 E37.07819
G1 X113.576 Y213.005 E37.10824
G1 X113.41 Y212.117 E37.13829
G1 X113.313 Y210.962 E37.17684
G1 X113.3 Y210.353 E37.1971
G1 X113.301 Y89.841 E41.20534
G1 X113.31 Y89.176 E41.22746
G1 X113.362 Y88.274 E41.25751
G1 X113.494 Y87.381 E41.28754
G1 X113.704 Y86.503 E41.31756
G1 X113.991 Y85.646 E41.34762
G1 X114.353 Y84.819 E41.37765
G1 X114.786 Y84.027 E41.40767
G1 X115.288 Y83.276 E41.43772
G1 F2700 E34.43772
;MESH:Explorer_Tray.stl
G0 F6000 X122.835 Y89.725
G0 X124.1 Y210.095
;TYPE:WALL-INNER
G1 F2700 E41.43772
G1 F1200 X175.9 Y210.095 E43.16059
G1 X175.9 Y89.905 E47.15813
G1 X124.1 Y89.905 E48.881
G1 X124.1 Y210.095 E52.87854
G0 F6000 X123.7 Y210.495
;TYPE:WALL-OUTER
G1 F1200 X176.3 Y210.495 E54.62802
G1 X176.3 Y89.505 E58.65216
G1 X123.7 Y89.505 E60.40165
G1 X123.7 Y210.495 E64.42579
G0 F6000 X123.97 Y210.225
G0 X124.2 Y209.735
G0 X124.46 Y209.735
;TYPE:SKIN
G1 F1200 X175.54 Y209.735 E66.12472
G1 X175.54 Y115.805 E69.24884
G1 X175.54 Y90.265 E70.09831
G1 X124.46 Y90.265 E71.79724
G1 X124.46 Y209.735 E75.77082
G0 F6000 X125.246 Y209.534
G1 F1200 X124.659 Y208.946 E75.79846
G0 F6000 X124.659 Y208.38
G1 F1200 X125.812 Y209.534 E75.85271
G0 F6000 X126.378 Y209.534
G1 F1200 X124.659 Y207.815 E75.93357
G0 F6000 X124.659 Y207.249
G1 F1200 X126.944 Y209.534 E76.04105
G0 F6000 X127.509 Y209.534
G1 F1200 X124.659 Y206.683 E76.17513
G0 F6000 X124.659 Y206.118
G1 F1200 X128.075 Y209.534 E76.33581
G0 F6000 X128.641 Y209.534
G1 F1200 X124.659 Y205.552 E76.52311
G0 F6000 X124.659 Y204.986
G1 F1200 X129.206 Y209.534 E76.73701
G0 F6000 X129.772 Y209.534
G1 F1200 X124.659 Y204.421 E76.97751
G0 F6000 X124.659 Y203.855
G1 F1200 X130.338 Y209.534 E77.24463
G0 F6000 X130.903 Y209.534
G1 F1200 X124.659 Y203.289 E77.53835
G0 F6000 X124.659 Y202.723
G1 F1200 X131.469 Y209.534 E77.8587
G0 F6000 X132.035 Y209.534
G1 F1200 X124.659 Y202.158 E78.20564
G0 F6000 X124.659 Y201.592
G1 F1200 X132.6 Y209.534 E78.57919
G0 F6000 X133.166 Y209.534
G1 F1200 X124.659 Y201.026 E78.97935
G0 F6000 X124.659 Y200.461
G1 F1200 X133.732 Y209.534 E79.40612
G0 F6000 X134.297 Y209.534
G1 F1200 X124.659 Y199.895 E79.85949
G0 F6000 X124.659 Y199.329
G1 F1200 X134.863 Y209.534 E80.33947
G0 F6000 X135.429 Y209.534
G1 F1200 X124.659 Y198.764 E80.84606
G0 F6000 X124.659 Y198.198
G1 F1200 X135.995 Y209.534 E81.37927
G0 F6000 X136.56 Y209.534
G1 F1200 X124.659 Y197.632 E81.93908
G0 F6000 X124.659 Y197.067
G1 F1200 X137.126 Y209.534 E82.52549
G0 F6000 X137.692 Y209.534
G1 F1200 X124.659 Y196.501 E83.13852
G0 F6000 X124.659 Y195.935
G1 F1200 X138.257 Y209.534 E83.77816
G0 F6000 X138.823 Y209.534
G1 F1200 X124.659 Y195.37 E84.44439
G0 F6000 X124.659 Y194.804
G1 F1200 X139.389 Y209.534 E85.13724
G0 F6000 X139.954 Y209.534
G1 F1200 X124.659 Y194.238 E85.85669
G0 F6000 X124.659 Y193.673
G1 F1200 X140.52 Y209.534 E86.60275
G0 F6000 X141.086 Y209.534
G1 F1200 X124.659 Y193.107 E87.37542
G0 F6000 X124.659 Y192.541
G1 F1200 X141.651 Y209.534 E88.1747
G0 F6000 X142.217 Y209.534
G1 F1200 X124.659 Y191.975 E89.0006
G0 F6000 X124.659 Y191.41
G1 F1200 X142.783 Y209.534 E89.85309
G0 F6000 X143.348 Y209.534
G1 F1200 X124.659 Y190.844 E90.73219
G0 F6000 X124.659 Y190.278
G1 F1200 X143.914 Y209.534 E91.63791
G0 F6000 X144.48 Y209.534
G1 F1200 X124.659 Y189.713 E92.57023
G0 F6000 X124.659 Y189.147
G1 F1200 X145.045 Y209.534 E93.52915
G0 F6000 X145.611 Y209.534
G1 F1200 X124.659 Y188.581 E94.51469
G0 F6000 X124.659 Y188.016
G1 F1200 X146.177 Y209.534 E95.52683
G0 F6000 X146.743 Y209.534
G1 F1200 X124.659 Y187.45 E96.56559
G0 F6000 X124.659 Y186.884
G1 F1200 X147.308 Y209.534 E97.63096
G0 F6000 X147.874 Y209.534
G1 F1200 X124.659 Y186.319 E98.72292
G0 F6000 X124.659 Y185.753
G1 F1200 X148.44 Y209.534 E99.8415
G0 F6000 X149.005 Y209.534
G1 F1200 X124.659 Y185.187 E100.98669
G0 F6000 X124.659 Y184.622
G1 F1200 X149.571 Y209.534 E102.15847
G0 F6000 X150.137 Y209.534
G1 F1200 X124.659 Y184.056 E103.35688
G0 F6000 X124.659 Y183.49
G1 F1200 X150.702 Y209.534 E104.58189
G0 F6000 X151.268 Y209.534
G1 F1200 X124.659 Y182.924 E105.83352
G0 F6000 X124.659 Y182.359
G1 F1200 X151.834 Y209.534 E107.11174
G0 F6000 X152.399 Y209.534
G1 F1200 X124.659 Y181.793 E108.41657
G0 F6000 X124.659 Y181.227
G1 F1200 X152.965 Y209.534 E109.74802
G0 F6000 X153.531 Y209.534
G1 F1200 X124.659 Y180.662 E111.10607
G0 F6000 X124.659 Y180.096
G1 F1200 X154.096 Y209.534 E112.49072
G0 F6000 X154.662 Y209.534
G1 F1200 X124.659 Y179.53 E113.902
G0 F6000 X124.659 Y178.965
G1 F1200 X155.228 Y209.534 E115.33987
G0 F6000 X155.794 Y209.534
G1 F1200 X124.659 Y178.399 E116.80436
G0 F6000 X124.659 Y177.833
G1 F1200 X156.359 Y209.534 E118.29546
G0 F6000 X156.925 Y209.534
G1 F1200 X124.659 Y177.268 E119.81315
G0 F6000 X124.659 Y176.702
G1 F1200 X157.491 Y209.534 E121.35747
G0 F6000 X158.056 Y209.534
G1 F1200 X124.659 Y176.136 E122.92838
G0 F6000 X124.659 Y175.571
G1 F1200 X158.622 Y209.534 E124.5259
G0 F6000 X159.188 Y209.534
G1 F1200 X124.659 Y175.005 E126.15004
G0 F6000 X124.659 Y174.439
G1 F1200 X159.753 Y209.534 E127.80078
G0 F6000 X160.319 Y209.534
G1 F1200 X124.659 Y173.874 E129.47811
G0 F6000 X124.659 Y173.308
G1 F1200 X160.885 Y209.534 E131.18207
G0 F6000 X161.45 Y209.534
G1 F1200 X124.659 Y172.742 E132.91263
G0 F6000 X124.659 Y172.176
G1 F1200 X162.016 Y209.534 E134.66981
G0 F6000 X162.582 Y209.534
G1 F1200 X124.659 Y171.611 E136.4536
G0 F6000 X124.659 Y171.045
G1 F1200 X163.147 Y209.534 E138.26398
G0 F6000 X163.713 Y209.534
G1 F1200 X124.659 Y170.479 E140.10098
G0 F6000 X124.659 Y169.914
G1 F1200 X164.279 Y209.534 E141.96458
G0 F6000 X164.844 Y209.534
G1 F1200 X124.659 Y169.348 E143.85479
G0 F6000 X124.659 Y168.782
G1 F1200 X165.41 Y209.534 E145.77161
G0 F6000 X165.976 Y209.534
G1 F1200 X124.659 Y168.217 E147.71504
G0 F6000 X124.659 Y167.651
G1 F1200 X166.542 Y209.534 E149.68509
G0 F6000 X167.107 Y209.534
G1 F1200 X124.659 Y167.085 E151.68173
G0 F6000 X124.659 Y166.52
G1 F1200 X167.673 Y209.534 E153.70498
G0 F6000 X168.239 Y209.534
G1 F1200 X124.659 Y165.954 E155.75485
G0 F6000 X124.659 Y165.388
G1 F1200 X168.804 Y209.534 E157.83132
G0 F6000 X169.37 Y209.534
G1 F1200 X124.659 Y164.823 E159.93439
G0 F6000 X124.659 Y164.257
G1 F1200 X169.936 Y209.534 E162.06408
G0 F6000 X170.501 Y209.534
G1 F1200 X124.659 Y163.691 E164.22037
G0 F6000 X124.659 Y163.125
G1 F1200 X171.067 Y209.534 E166.40328
G0 F6000 X171.633 Y209.534
G1 F1200 X124.659 Y162.56 E168.61279
G0 F6000 X124.659 Y161.994
G1 F1200 X172.198 Y209.534 E170.84891
G0 F6000 X172.764 Y209.534
G1 F1200 X124.659 Y161.428 E173.11164
G0 F6000 X124.659 Y160.863
G1 F1200 X173.33 Y209.534 E175.40098
G0 F6000 X173.895 Y209.534
G1 F1200 X124.659 Y160.297 E177.71691
G0 F6000 X124.659 Y159.731
G1 F1200 X174.461 Y209.534 E180.05947
G0 F6000 X175.027 Y209.534
G1 F1200 X124.659 Y159.166 E182.42862
G0 F6000 X124.659 Y158.6
G1 F1200 X175.339 Y209.28 E184.81246
G0 F6000 X175.339 Y208.715
G1 F1200 X124.659 Y158.034 E187.19631
G0 F6000 X124.659 Y157.469
G1 F1200 X175.339 Y208.149 E189.58014
G0 F6000 X175.339 Y207.583
G1 F1200 X124.659 Y156.903 E191.96397
G0 F6000 X124.659 Y156.337
G1 F1200 X175.339 Y207.018 E194.34783
G0 F6000 X175.339 Y206.452
G1 F1200 X124.659 Y155.772 E196.73166
G0 F6000 X124.659 Y155.206
G1 F1200 X175.339 Y205.886 E199.11549
G0 F6000 X175.339 Y205.321
G1 F1200 X124.659 Y154.64 E201.49935
G0 F6000 X124.659 Y154.075
G1 F1200 X175.339 Y204.755 E203.88318
G0 F6000 X175.339 Y204.189
G1 F1200 X124.659 Y153.509 E206.26701
G0 F6000 X124.659 Y152.943
G1 F1200 X175.339 Y203.624 E208.65087
G0 F6000 X175.339 Y203.058
G1 F1200 X124.659 Y152.377 E211.03472
G0 F6000 X124.659 Y151.812
G1 F1200 X175.339 Y202.492 E213.41856
G0 F6000 X175.339 Y201.927
G1 F1200 X124.659 Y151.246 E215.80241
G0 F6000 X124.659 Y150.68
G1 F1200 X175.339 Y201.361 E218.18627
G0 F6000 X175.339 Y200.795
G1 F1200 X124.659 Y150.115 E220.5701
G0 F6000 X124.659 Y149.549
G1 F1200 X175.339 Y200.23 E222.95395
G0 F6000 X175.339 Y199.664
G1 F1200 X124.659 Y148.983 E225.33781
