;FLAVOR:Marlin
;TIME:19042
;Filament used: 12.6529m
;Layer height: 0.2
;MINX:67.5
;MINY:109.61
;MINZ:0.2
;MAXX:232.5
;MAXY:190.39
;MAXZ:27
;Generated with Cura_SteamEngine 5.2.1
M140 S60
M105
M190 S60
M104 S210
M105
M109 S210
M82 ;absolute extrusion mode
M201 X500.00 Y500.00 Z100.00 E5000.00 ;Setup machine max acceleration
M203 X500.00 Y500.00 Z10.00 E50.00 ;Setup machine max feedrate
M204 P500.00 R1000.00 T500.00 ;Setup Print/Retract/Travel acceleration
M205 X8.00 Y8.00 Z0.40 E5.00 ;Setup Jerk
M220 S100 ;Reset Feedrate
M221 S100 ;Reset Flowrate

G28 ;Home
G29 ;Auto bed Level

G92 E0 ;Reset Extruder
G1 Z2.0 F3000 ;Move Z Axis up
G1 X10.1 Y20 Z0.28 F5000.0 ;Move to start position
G1 X10.1 Y200.0 Z0.28 F1500.0 E15 ;Draw the first line
G1 X10.4 Y200.0 Z0.28 F5000.0 ;Move to side a little
G1 X10.4 Y20 Z0.28 F1500.0 E30 ;Draw the second line
G92 E0 ;Reset Extruder
G1 Z2.0 F3000 ;Move Z Axis up

G92 E0
G92 E0
G1 F2700 E-7
;LAYER_COUNT:135
;LAYER:0
M107
G0 F6000 X72.912 Y111.149 Z0.2
;TYPE:SKIRT
G1 F2700 E0
G1 F1200 X73.739 Y110.707 E0.03119
G1 X74.601 Y110.337 E0.06239
G1 X75.491 Y110.041 E0.09358
G1 X76.403 Y109.823 E0.12477
G1 X77.33 Y109.682 E0.15596
G1 X78.201 Y109.623 E0.18499
G1 X78.83 Y109.61 E0.20592
G1 X220.951 Y109.611 E4.93288
G1 X221.649 Y109.621 E4.9561
G1 X222.585 Y109.675 E4.98728
G1 X223.513 Y109.807 E5.01846
G1 X224.427 Y110.019 E5.04967
G1 X225.319 Y110.308 E5.08085
G1 X226.184 Y110.671 E5.11205
G1 X227.014 Y111.107 E5.14324
G1 X227.805 Y111.612 E5.17445
G1 X228.549 Y112.183 E5.20564
G1 X229.242 Y112.815 E5.23684
G1 X229.879 Y113.503 E5.26802
G1 X230.454 Y114.244 E5.29922
G1 X230.965 Y115.03 E5.3304
G1 X231.407 Y115.858 E5.36162
G1 X231.776 Y116.72 E5.39281
G1 X232.071 Y117.61 E5.42399
G1 X232.289 Y118.522 E5.45518
G1 X232.429 Y119.45 E5.48639
G1 X232.487 Y120.311 E5.51509
G1 X232.5 Y120.94 E5.53602
G1 X232.499 Y178.79 E7.46012
G1 X232.49 Y179.517 E7.4843
G1 X232.439 Y180.454 E7.51551
G1 X232.307 Y181.382 E7.54669
G1 X232.098 Y182.296 E7.57787
G1 X231.811 Y183.189 E7.60907
G1 X231.449 Y184.055 E7.64029
G1 X231.015 Y184.886 E7.67147
G1 X230.511 Y185.677 E7.70266
G1 X229.942 Y186.422 E7.73384
G1 X229.311 Y187.117 E7.76507
G1 X228.624 Y187.755 E7.79625
G1 X227.885 Y188.332 E7.82743
G1 X227.099 Y188.844 E7.85863
G1 X226.273 Y189.287 E7.88981
G1 X225.411 Y189.659 E7.92103
G1 X224.522 Y189.955 E7.9522
G1 X223.61 Y190.175 E7.9834
G1 X222.683 Y190.316 E8.01459
G1 X221.799 Y190.377 E8.04406
G1 X221.17 Y190.39 E8.06498
G1 X79.065 Y190.389 E12.79142
G1 X78.367 Y190.38 E12.81463
G1 X77.431 Y190.328 E12.84581
G1 X76.502 Y190.196 E12.87702
G1 X75.588 Y189.986 E12.90821
G1 X74.695 Y189.699 E12.93941
G1 X73.83 Y189.336 E12.97061
G1 X72.999 Y188.902 E13.00179
G1 X72.208 Y188.398 E13.03299
G1 X71.463 Y187.828 E13.06419
G1 X70.769 Y187.197 E13.09539
G1 X70.132 Y186.51 E13.12655
G1 X69.555 Y185.77 E13.15776
G1 X69.043 Y184.984 E13.18896
G1 X68.6 Y184.157 E13.22016
G1 X68.229 Y183.296 E13.25134
G1 X67.933 Y182.406 E13.28254
G1 X67.714 Y181.494 E13.31373
G1 X67.573 Y180.567 E13.34492
G1 X67.513 Y179.678 E13.37456
G1 X67.5 Y179.048 E13.39551
G1 X67.501 Y121.135 E15.32171
G1 X67.51 Y120.47 E15.34383
G1 X67.563 Y119.534 E15.37501
G1 X67.695 Y118.605 E15.40622
G1 X67.906 Y117.691 E15.43742
G1 X68.194 Y116.799 E15.46859
G1 X68.557 Y115.934 E15.4998
G1 X68.992 Y115.103 E15.53099
G1 X69.496 Y114.313 E15.56216
G1 X70.066 Y113.568 E15.59336
G1 X70.698 Y112.874 E15.62458
G1 X71.386 Y112.237 E15.65576
G1 X72.126 Y111.661 E15.68695
G1 X72.912 Y111.149 E15.71815
G0 F6000 X73.291 Y111.392
G1 F1200 X74.111 Y110.974 E15.74877
G1 X74.965 Y110.629 E15.7794
G1 X75.845 Y110.359 E15.81002
G1 X76.745 Y110.167 E15.84062
G1 X77.659 Y110.053 E15.87126
G1 X78.212 Y110.023 E15.88968
G1 X78.83 Y110.01 E15.91024
G1 X220.945 Y110.011 E20.637
G1 X221.643 Y110.021 E20.66022
G1 X222.562 Y110.074 E20.69084
G1 X223.473 Y110.207 E20.72146
G1 X224.369 Y110.418 E20.75207
G1 X225.243 Y110.706 E20.78268
G1 X226.09 Y111.069 E20.81333
G1 X226.901 Y111.504 E20.84394
G1 X227.671 Y112.008 E20.87455
G1 X228.395 Y112.577 E20.90518
G1 X229.067 Y113.207 E20.93581
G1 X229.682 Y113.892 E20.96643
G1 X230.235 Y114.628 E20.99705
G1 X230.722 Y115.409 E21.02766
G1 X231.139 Y116.23 E21.05829
G1 X231.484 Y117.084 E21.08892
G1 X231.753 Y117.964 E21.11953
G1 X231.945 Y118.865 E21.15017
G1 X232.058 Y119.778 E21.18077
G1 X232.087 Y120.322 E21.19889
G1 X232.1 Y120.94 E21.21945
G1 X232.099 Y178.785 E23.14338
G1 X232.09 Y179.512 E23.16756
G1 X232.039 Y180.431 E23.19817
G1 X231.908 Y181.343 E23.22882
G1 X231.698 Y182.239 E23.25943
G1 X231.412 Y183.114 E23.29005
G1 X231.051 Y183.961 E23.32067
G1 X230.617 Y184.773 E23.35129
G1 X230.115 Y185.545 E23.38192
G1 X229.547 Y186.27 E23.41255
G1 X228.919 Y186.943 E23.44317
G1 X228.235 Y187.559 E23.47378
G1 X227.5 Y188.113 E23.5044
G1 X226.72 Y188.602 E23.53502
G1 X225.9 Y189.021 E23.56564
G1 X225.047 Y189.367 E23.59626
G1 X224.167 Y189.638 E23.62688
G1 X223.267 Y189.831 E23.6575
G1 X222.353 Y189.946 E23.68814
G1 X221.788 Y189.977 E23.70696
G1 X221.17 Y189.99 E23.72752
G1 X79.07 Y189.989 E28.45378
G1 X78.372 Y189.98 E28.477
G1 X77.453 Y189.928 E28.50762
G1 X76.542 Y189.797 E28.53823
G1 X75.646 Y189.587 E28.56884
G1 X74.771 Y189.3 E28.59946
G1 X73.924 Y188.938 E28.6301
G1 X73.112 Y188.504 E28.66072
G1 X72.341 Y188.002 E28.69132
G1 X71.616 Y187.434 E28.72196
G1 X70.943 Y186.805 E28.7526
G1 X70.328 Y186.121 E28.78319
G1 X69.774 Y185.386 E28.8138
G1 X69.286 Y184.605 E28.84443
G1 X68.867 Y183.785 E28.87506
G1 X68.521 Y182.932 E28.90568
G1 X68.251 Y182.052 E28.93629
G1 X68.058 Y181.151 E28.96694
G1 X67.944 Y180.238 E28.99754
G1 X67.913 Y179.667 E29.01656
G1 X67.9 Y179.048 E29.03715
G1 X67.901 Y121.141 E30.96315
G1 X67.91 Y120.476 E30.98527
G1 X67.962 Y119.556 E31.01592
G1 X68.094 Y118.645 E31.04653
G1 X68.305 Y117.749 E31.07715
G1 X68.592 Y116.874 E31.10778
G1 X68.955 Y116.028 E31.13839
G1 X69.389 Y115.216 E31.16902
G1 X69.892 Y114.445 E31.19964
G1 X70.461 Y113.721 E31.23026
G1 X71.089 Y113.049 E31.26085
G1 X71.774 Y112.433 E31.2915
G1 X72.51 Y111.88 E31.32211
G1 X73.291 Y111.392 E31.35274
G0 F6000 X73.669 Y111.641
G1 F1200 X74.482 Y111.248 E31.38278
G1 X75.327 Y110.928 E31.41283
G1 X76.196 Y110.685 E31.44284
G1 X77.084 Y110.519 E31.47289
G1 X78.223 Y110.423 E31.51091
G1 X78.83 Y110.41 E31.5311
G1 X220.939 Y110.411 E36.25767
G1 X221.637 Y110.421 E36.28088
G1 X222.539 Y110.474 E36.31094
G1 X223.432 Y110.606 E36.34096
G1 X224.31 Y110.817 E36.37099
G1 X225.166 Y111.105 E36.40103
G1 X225.993 Y111.467 E36.43106
G1 X226.785 Y111.902 E36.46111
G1 X227.536 Y112.404 E36.49116
G1 X228.239 Y112.971 E36.5212
G1 X228.889 Y113.598 E36.55123
G1 X229.481 Y114.28 E36.58127
G1 X230.011 Y115.011 E36.6113
G1 X230.473 Y115.787 E36.64134
G1 X230.866 Y116.6 E36.67137
G1 X231.184 Y117.445 E36.7014
G1 X231.427 Y118.315 E36.73145
G1 X231.592 Y119.203 E36.76149
G1 X231.687 Y120.333 E36.7992
G1 X231.7 Y120.94 E36.8194
G1 X231.699 Y178.78 E38.74316
G1 X231.69 Y179.507 E38.76735
G1 X231.639 Y180.409 E38.79739
G1 X231.508 Y181.303 E38.82745
G1 X231.299 Y182.181 E38.85747
G1 X231.013 Y183.038 E38.88751
G1 X230.652 Y183.866 E38.91756
G1 X230.22 Y184.658 E38.94756
G1 X229.719 Y185.41 E38.97762
G1 X229.153 Y186.114 E39.00766
G1 X228.528 Y186.765 E39.03768
G1 X227.847 Y187.359 E39.06773
G1 X227.116 Y187.89 E39.09778
G1 X226.342 Y188.354 E39.1278
G1 X225.529 Y188.748 E39.15785
G1 X224.685 Y189.068 E39.18787
G1 X223.815 Y189.313 E39.21793
G1 X222.928 Y189.479 E39.24794
G1 X221.777 Y189.577 E39.28637
G1 X221.17 Y189.59 E39.30656
G1 X79.075 Y189.589 E44.03266
G1 X78.377 Y189.58 E44.05588
G1 X77.476 Y189.529 E44.08589
G1 X76.582 Y189.397 E44.11595
G1 X75.704 Y189.188 E44.14597
G1 X74.847 Y188.901 E44.17603
G1 X74.02 Y188.54 E44.20604
G1 X73.227 Y188.107 E44.23609
G1 X72.476 Y187.606 E44.26612
G1 X71.772 Y187.04 E44.29616
G1 X71.121 Y186.414 E44.3262
G1 X70.528 Y185.733 E44.35623
G1 X69.998 Y185.002 E44.38626
G1 X69.534 Y184.227 E44.41631
G1 X69.14 Y183.414 E44.44636
G1 X68.82 Y182.57 E44.47638
G1 X68.576 Y181.7 E44.50643
G1 X68.41 Y180.812 E44.53648
G1 X68.313 Y179.657 E44.57503
G1 X68.3 Y179.048 E44.59529
G1 X68.301 Y121.146 E46.52112
G1 X68.31 Y120.481 E46.54324
G1 X68.362 Y119.579 E46.57329
G1 X68.494 Y118.686 E46.60331
G1 X68.704 Y117.808 E46.63334
G1 X68.991 Y116.951 E46.6634
G1 X69.353 Y116.124 E46.69342
G1 X69.786 Y115.332 E46.72344
G1 X70.288 Y114.581 E46.75349
G1 X70.855 Y113.877 E46.78355
G1 X71.481 Y113.227 E46.81357
G1 X72.162 Y112.634 E46.8436
G1 X72.894 Y112.104 E46.87366
G1 X73.669 Y111.641 E46.90369
G1 F2700 E39.90369
;MESH:Fear_Tray.stl
G0 F6000 X78.92 Y119.945
G0 X79.1 Y178.79
;TYPE:WALL-INNER
G1 F2700 E46.90369
G1 F1200 X220.9 Y178.79 E51.61997
G1 X220.9 Y150 E52.57753
G1 X220.9 Y121.21 E53.53509
G1 X79.1 Y121.21 E58.25138
G1 X79.1 Y178.79 E60.1665
G0 F6000 X78.7 Y179.19
;TYPE:WALL-OUTER
G1 F1200 X221.3 Y179.19 E64.90939
G1 X221.3 Y150 E65.88026
G1 X221.3 Y120.81 E66.85112
G1 X78.7 Y120.81 E71.59402
G1 X78.7 Y179.19 E73.53574
G0 F6000 X78.97 Y178.92
G0 X79.2 Y178.43
G0 X79.46 Y178.43
;TYPE:SKIN
G1 F1200 X220.54 Y178.43 E78.22808
G1 X220.54 Y150 E79.17367
G1 X220.54 Y121.57 E80.11925
G1 X79.46 Y121.57 E84.81159
G1 X79.46 Y178.43 E86.70276
G0 F6000 X79.799 Y178.229
G1 F1200 X79.659 Y178.089 E86.70935
G0 F6000 X79.659 Y177.523
G1 F1200 X80.365 Y178.229 E86.74256
G0 F6000 X80.931 Y178.229
G1 F1200 X79.659 Y176.957 E86.80239
G0 F6000 X79.659 Y176.392
G1 F1200 X81.496 Y178.229 E86.8888
G0 F6000 X82.062 Y178.229
G1 F1200 X79.659 Y175.826 E87.00183
G0 F6000 X79.659 Y175.26
G1 F1200 X82.628 Y178.229 E87.14148
G0 F6000 X83.193 Y178.229
G1 F1200 X79.659 Y174.694 E87.30773
G0 F6000 X79.659 Y174.129
G1 F1200 X83.759 Y178.229 E87.50058
G0 F6000 X84.325 Y178.229
G1 F1200 X79.659 Y173.563 E87.72006
G0 F6000 X79.659 Y172.997
G1 F1200 X84.89 Y178.229 E87.96613
G0 F6000 X85.456 Y178.229
G1 F1200 X79.659 Y172.432 E88.2388
G0 F6000 X79.659 Y171.866
G1 F1200 X86.022 Y178.229 E88.5381
G0 F6000 X86.588 Y178.229
G1 F1200 X79.659 Y171.3 E88.86402
G0 F6000 X79.659 Y170.735
G1 F1200 X87.153 Y178.229 E89.21651
G0 F6000 X87.719 Y178.229
G1 F1200 X79.659 Y170.169 E89.59563
G0 F6000 X79.659 Y169.603
G1 F1200 X88.285 Y178.229 E90.00137
G0 F6000 X88.85 Y178.229
G1 F1200 X79.659 Y169.038 E90.43369
G0 F6000 X79.659 Y168.472
G1 F1200 X89.416 Y178.229 E90.89263
G0 F6000 X89.982 Y178.229
G1 F1200 X79.659 Y167.906 E91.37819
G0 F6000 X79.659 Y167.341
G1 F1200 X90.547 Y178.229 E91.89033
G0 F6000 X91.113 Y178.229
G1 F1200 X79.659 Y166.775 E92.42909
G0 F6000 X79.659 Y166.209
G1 F1200 X91.679 Y178.229 E92.99447
G0 F6000 X92.244 Y178.229
G1 F1200 X79.659 Y165.644 E93.58643
G0 F6000 X79.659 Y165.078
G1 F1200 X92.81 Y178.229 E94.20501
G0 F6000 X93.376 Y178.229
G1 F1200 X79.659 Y164.512 E94.85022
G0 F6000 X79.659 Y163.946
G1 F1200 X93.941 Y178.229 E95.52203
G0 F6000 X94.507 Y178.229
G1 F1200 X79.659 Y163.381 E96.22043
G0 F6000 X79.659 Y162.815
G1 F1200 X95.073 Y178.229 E96.94546
G0 F6000 X95.639 Y178.229
G1 F1200 X79.659 Y162.249 E97.69711
G0 F6000 X79.659 Y161.684
G1 F1200 X96.204 Y178.229 E98.47533
G0 F6000 X96.77 Y178.229
G1 F1200 X79.659 Y161.118 E99.28018
G0 F6000 X79.659 Y160.552
G1 F1200 X97.336 Y178.229 E100.11165
G0 F6000 X97.901 Y178.229
G1 F1200 X79.659 Y159.987 E100.9697
G0 F6000 X79.659 Y159.421
G1 F1200 X98.467 Y178.229 E101.85437
G0 F6000 X99.033 Y178.229
G1 F1200 X79.659 Y158.855 E102.76567
G0 F6000 X79.659 Y158.29
G1 F1200 X99.598 Y178.229 E103.70354
G0 F6000 X100.164 Y178.229
G1 F1200 X79.659 Y157.724 E104.66803
G0 F6000 X79.659 Y157.158
G1 F1200 X100.73 Y178.229 E105.65914
G0 F6000 X101.295 Y178.229
G1 F1200 X79.659 Y156.593 E106.67683
G0 F6000 X79.659 Y156.027
G1 F1200 X101.861 Y178.229 E107.72115
G0 F6000 X102.427 Y178.229
G1 F1200 X79.659 Y155.461 E108.79209
G0 F6000 X79.659 Y154.895
G1 F1200 X102.992 Y178.229 E109.88962
G0 F6000 X103.558 Y178.229
G1 F1200 X79.659 Y154.33 E111.01376
G0 F6000 X79.659 Y153.764
G1 F1200 X104.124 Y178.229 E112.16452
G0 F6000 X104.689 Y178.229
G1 F1200 X79.659 Y153.198 E113.34187
G0 F6000 X79.659 Y152.633
G1 F1200 X105.255 Y178.229 E114.54583
G0 F6000 X105.821 Y178.229
G1 F1200 X79.659 Y152.067 E115.77641
G0 F6000 X79.659 Y151.501
G1 F1200 X106.387 Y178.229 E117.03361
G0 F6000 X106.952 Y178.229
G1 F1200 X79.659 Y150.936 E118.31739
G0 F6000 X79.659 Y150.37
G1 F1200 X107.518 Y178.229 E119.6278
G0 F6000 X108.084 Y178.229
G1 F1200 X79.659 Y149.804 E120.96482
G0 F6000 X79.659 Y149.239
G1 F1200 X108.649 Y178.229 E122.32842
G0 F6000 X109.215 Y178.229
G1 F1200 X79.659 Y148.673 E123.71864
G0 F6000 X79.659 Y148.107
G1 F1200 X109.781 Y178.229 E125.13549
G0 F6000 X110.346 Y178.229
G1 F1200 X79.659 Y147.542 E126.57891
G0 F6000 X79.659 Y146.976
G1 F1200 X110.912 Y178.229 E128.04896
G0 F6000 X111.478 Y178.229
G1 F1200 X79.659 Y146.41 E129.54563
G0 F6000 X79.659 Y145.845
G1 F1200 X112.043 Y178.229 E131.06887
G0 F6000 X112.609 Y178.229
G1 F1200 X79.659 Y145.279 E132.61874
G0 F6000 X79.659 Y144.713
G1 F1200 X113.175 Y178.229 E134.19523
G0 F6000 X113.74 Y178.229
G1 F1200 X79.659 Y144.147 E135.79832
G0 F6000 X79.659 Y143.582
G1 F1200 X114.306 Y178.229 E137.42801
G0 F6000 X114.872 Y178.229
G1 F1200 X79.659 Y143.016 E139.08432
G0 F6000 X79.659 Y142.45
G1 F1200 X115.438 Y178.229 E140.76725
G0 F6000 X116.003 Y178.229
G1 F1200 X79.659 Y141.885 E142.47676
G0 F6000 X79.659 Y141.319
G1 F1200 X116.569 Y178.229 E144.2129
G0 F6000 X117.135 Y178.229
G1 F1200 X79.659 Y140.753 E145.97565
G0 F6000 X79.659 Y140.188
G1 F1200 X117.7 Y178.229 E147.76498
G0 F6000 X118.266 Y178.229
G1 F1200 X79.659 Y139.622 E149.58094
G0 F6000 X79.659 Y139.056
G1 F1200 X118.832 Y178.229 E151.42352
G0 F6000 X119.397 Y178.229
G1 F1200 X79.659 Y138.491 E153.29267
G0 F6000 X79.659 Y137.925
G1 F1200 X119.963 Y178.229 E155.18845
G0 F6000 X120.529 Y178.229
G1 F1200 X79.659 Y137.359 E157.11085
G0 F6000 X79.659 Y136.794
G1 F1200 X121.094 Y178.229 E159.05982
G0 F6000 X121.66 Y178.229
G1 F1200 X79.659 Y136.228 E161.03542
G0 F6000 X79.659 Y135.662
G1 F1200 X122.226 Y178.229 E163.03764
G0 F6000 X122.791 Y178.229
G1 F1200 X79.659 Y135.096 E165.06646
G0 F6000 X79.659 Y134.531
G1 F1200 X123.357 Y178.229 E167.12188
G0 F6000 X123.923 Y178.229
G1 F1200 X79.659 Y133.965 E169.20392
G0 F6000 X79.659 Y133.399
G1 F1200 X124.488 Y178.229 E171.31257
G0 F6000 X125.054 Y178.229
G1 F1200 X79.659 Y132.834 E173.44781
G0 F6000 X79.659 Y132.268
G1 F1200 X125.62 Y178.229 E175.60967
G0 F6000 X126.186 Y178.229
G1 F1200 X79.659 Y131.702 E177.79816
G0 F6000 X79.659 Y131.137
G1 F1200 X126.751 Y178.229 E180.01322
G0 F6000 X127.317 Y178.229
G1 F1200 X79.659 Y130.571 E182.25491
G0 F6000 X79.659 Y130.005
G1 F1200 X127.883 Y178.229 E184.52322
G0 F6000 X128.448 Y178.229
G1 F1200 X79.659 Y129.44 E186.8181
G0 F6000 X79.659 Y128.874
G1 F1200 X129.014 Y178.229 E189.13961
G0 F6000 X129.58 Y178.229
G1 F1200 X79.659 Y128.308 E191.48774
G0 F6000 X79.659 Y127.743
G1 F1200 X130.145 Y178.229 E193.86245
G0 F6000 X130.711 Y178.229
G1 F1200 X79.659 Y127.177 E196.26378
G0 F6000 X79.659 Y126.611
G1 F1200 X131.277 Y178.229 E198.69173
G0 F6000 X131.842 Y178.229
G1 F1200 X79.659 Y126.046 E201.14626
G0 F6000 X79.659 Y125.48
G1 F1200 X132.408 Y178.229 E203.62741
G0 F6000 X132.974 Y178.229
G1 F1200 X79.659 Y124.914 E206.13518
G0 F6000 X79.659 Y124.348
G1 F1200 X133.539 Y178.229 E208.66956
G0 F6000 X134.105 Y178.229
G1 F1200 X79.659 Y123.783 E211.23053
G0 F6000 X79.659 Y123.217
G1 F1200 X134.671 Y178.229 E213.81813
G0 F6000 X135.237 Y178.229
G1 F1200 X79.659 Y122.651 E216.43235
G0 F6000 X79.659 Y122.086
G1 F1200 X135.802 Y178.229 E219.07314
G0 F6000 X136.368 Y178.229
G1 F1200 X79.909 Y121.77 E221.7288
G0 F6000 X80.475 Y121.77
G1 F1200 X136.934 Y178.229 E224.38446
G0 F6000 X137.499 Y178.229
G1 F1200 X81.04 Y121.77 E227.04012
G0 F6000 X81.606 Y121.77
G1 F1200 X138.065 Y178.229 E229.69577
G0 F6000 X138.631 Y178.229
G1 F1200 X82.172 Y121.77 E232.35143
G0 F6000 X82.737 Y121.77
G1 F1200 X139.196 Y178.229 E235.00709
G0 F6000 X139.762 Y178.229
G1 F1200 X83.303 Y121.77 E237.66275
G0 F6000 X83.869 Y121.77
G1 F1200 X140.328 Y178.229 E240.31841
G0 F6000 X140.893 Y178.229
