;FLAVOR:Marlin
;TIME:20286
;Filament used: 12.9333m
;Layer height: 0.2
;MINX:112.5
;MINY:60.25
;MINZ:0.2
;MAXX:187.5
;MAXY:239.75
;MAXZ:27
;Generated with Cura_SteamEngine 5.2.1
M140 S60
M105
M190 S60
M104 S210
M105
M109 S210
M82 ;absolute extrusion mode
M201 X500.00 Y500.00 Z100.00 E5000.00 ;Setup machine max acceleration
M203 X500.00 Y500.00 Z10.00 E50.00 ;Setup machine max feedrate
M204 P500.00 R1000.00 T500.00 ;Setup Print/Retract/Travel acceleration
M205 X8.00 Y8.00 Z0.40 E5.00 ;Setup Jerk
M220 S100 ;Reset Feedrate
M221 S100 ;Reset Flowrate

G28 ;Home
G29 ;Auto bed Level

G92 E0 ;Reset Extruder
G1 Z2.0 F3000 ;Move Z Axis up
G1 X10.1 Y20 Z0.28 F5000.0 ;Move to start position
G1 X10.1 Y200.0 Z0.28 F1500.0 E15 ;Draw the first line
G1 X10.4 Y200.0 Z0.28 F5000.0 ;Move to side a little
G1 X10.4 Y20 Z0.28 F1500.0 E30 ;Draw the second line
G92 E0 ;Reset Extruder
G1 Z2.0 F3000 ;Move Z Axis up

G92 E0
G92 E0
G1 F2700 E-7
;LAYER_COUNT:135
;LAYER:0
M107
G0 F6000 X113.992 Y65.743 Z0.2
;TYPE:SKIRT
G1 F2700 E0
G1 F1200 X114.496 Y64.953 E0.03117
G1 X115.066 Y64.208 E0.06237
G1 X115.698 Y63.514 E0.09359
G1 X116.386 Y62.877 E0.12477
G1 X117.126 Y62.301 E0.15596
G1 X117.912 Y61.789 E0.18716
G1 X118.739 Y61.347 E0.21835
G1 X119.601 Y60.977 E0.24955
G1 X120.491 Y60.681 E0.28074
G1 X121.403 Y60.463 E0.31193
G1 X122.33 Y60.322 E0.34312
G1 X123.201 Y60.263 E0.37216
G1 X123.83 Y60.25 E0.39308
G1 X175.951 Y60.251 E2.12663
G1 X176.649 Y60.261 E2.14985
G1 X177.585 Y60.315 E2.18103
G1 X178.513 Y60.447 E2.21221
G1 X179.427 Y60.659 E2.24342
G1 X180.319 Y60.948 E2.2746
G1 X181.184 Y61.311 E2.3058
G1 X182.014 Y61.747 E2.33699
G1 X182.805 Y62.252 E2.3682
G1 X183.549 Y62.823 E2.39939
G1 X184.242 Y63.455 E2.43059
G1 X184.879 Y64.143 E2.46177
G1 X185.454 Y64.884 E2.49297
G1 X185.965 Y65.67 E2.52415
G1 X186.407 Y66.498 E2.55537
G1 X186.776 Y67.36 E2.58655
G1 X187.071 Y68.25 E2.61774
G1 X187.289 Y69.162 E2.64893
G1 X187.429 Y70.09 E2.68014
G1 X187.487 Y70.951 E2.70884
G1 X187.5 Y71.58 E2.72977
G1 X187.499 Y228.15 E7.93731
G1 X187.49 Y228.877 E7.96149
G1 X187.439 Y229.814 E7.9927
G1 X187.307 Y230.742 E8.02388
G1 X187.098 Y231.656 E8.05506
G1 X186.811 Y232.549 E8.08626
G1 X186.449 Y233.415 E8.11748
G1 X186.015 Y234.246 E8.14866
G1 X185.511 Y235.037 E8.17985
G1 X184.942 Y235.782 E8.21103
G1 X184.311 Y236.477 E8.24226
G1 X183.624 Y237.115 E8.27344
G1 X182.885 Y237.692 E8.30462
G1 X182.099 Y238.204 E8.33582
G1 X181.273 Y238.647 E8.367
G1 X180.411 Y239.019 E8.39822
G1 X179.522 Y239.315 E8.42939
G1 X178.61 Y239.535 E8.46059
G1 X177.683 Y239.676 E8.49178
G1 X176.799 Y239.737 E8.52125
G1 X176.17 Y239.75 E8.54217
G1 X124.065 Y239.749 E10.27519
G1 X123.367 Y239.74 E10.29841
G1 X122.431 Y239.688 E10.32959
G1 X121.502 Y239.556 E10.3608
G1 X120.588 Y239.346 E10.39199
G1 X119.695 Y239.059 E10.42319
G1 X118.83 Y238.696 E10.45439
G1 X117.999 Y238.262 E10.48557
G1 X117.208 Y237.758 E10.51677
G1 X116.463 Y237.188 E10.54797
G1 X115.769 Y236.557 E10.57916
G1 X115.132 Y235.87 E10.61032
G1 X114.555 Y235.13 E10.64153
G1 X114.043 Y234.344 E10.67273
G1 X113.6 Y233.517 E10.70394
G1 X113.229 Y232.656 E10.73512
G1 X112.933 Y231.766 E10.76632
G1 X112.714 Y230.854 E10.79751
G1 X112.573 Y229.927 E10.8287
G1 X112.513 Y229.038 E10.85833
G1 X112.5 Y228.408 E10.87929
G1 X112.501 Y71.775 E16.08893
G1 X112.51 Y71.11 E16.11105
G1 X112.563 Y70.174 E16.14223
G1 X112.695 Y69.245 E16.17344
G1 X112.906 Y68.331 E16.20464
G1 X113.194 Y67.439 E16.23581
G1 X113.557 Y66.574 E16.26701
G1 X113.992 Y65.743 E16.29821
G0 F6000 X114.389 Y65.856
G1 F1200 X114.892 Y65.085 E16.32883
G1 X115.461 Y64.361 E16.35946
G1 X116.089 Y63.689 E16.39005
G1 X116.774 Y63.073 E16.42069
G1 X117.51 Y62.52 E16.45131
G1 X118.291 Y62.032 E16.48194
G1 X119.111 Y61.614 E16.51255
G1 X119.965 Y61.269 E16.54318
G1 X120.845 Y60.999 E16.5738
G1 X121.745 Y60.807 E16.60441
G1 X122.659 Y60.693 E16.63504
G1 X123.212 Y60.663 E16.65346
G1 X123.83 Y60.65 E16.67402
G1 X175.793 Y60.65 E18.40232
G1 X176.643 Y60.661 E18.43059
G1 X177.562 Y60.714 E18.46121
G1 X178.473 Y60.847 E18.49183
G1 X179.369 Y61.058 E18.52245
G1 X180.243 Y61.346 E18.55305
G1 X181.09 Y61.709 E18.5837
G1 X181.901 Y62.144 E18.61431
G1 X182.671 Y62.648 E18.64492
G1 X183.395 Y63.217 E18.67555
G1 X184.067 Y63.847 E18.70618
G1 X184.682 Y64.532 E18.7368
G1 X185.235 Y65.268 E18.76742
G1 X185.722 Y66.049 E18.79803
G1 X186.139 Y66.87 E18.82866
G1 X186.484 Y67.724 E18.8593
G1 X186.753 Y68.604 E18.8899
G1 X186.945 Y69.505 E18.92054
G1 X187.058 Y70.418 E18.95114
G1 X187.087 Y70.962 E18.96926
G1 X187.1 Y71.58 E18.98982
G1 X187.099 Y228.145 E24.19719
G1 X187.09 Y228.872 E24.22137
G1 X187.039 Y229.791 E24.25199
G1 X186.908 Y230.703 E24.28263
G1 X186.698 Y231.599 E24.31324
G1 X186.412 Y232.474 E24.34386
G1 X186.051 Y233.321 E24.37448
G1 X185.617 Y234.133 E24.4051
G1 X185.115 Y234.905 E24.43573
G1 X184.547 Y235.63 E24.46636
G1 X183.919 Y236.303 E24.49698
G1 X183.235 Y236.919 E24.5276
G1 X182.5 Y237.473 E24.55821
G1 X181.72 Y237.962 E24.58883
G1 X180.9 Y238.381 E24.61946
G1 X180.047 Y238.727 E24.65007
G1 X179.167 Y238.998 E24.6807
G1 X178.267 Y239.191 E24.71131
G1 X177.353 Y239.306 E24.74195
G1 X176.788 Y239.337 E24.76077
G1 X176.17 Y239.35 E24.78133
G1 X124.07 Y239.349 E26.51418
G1 X123.372 Y239.34 E26.5374
G1 X122.453 Y239.288 E26.56802
G1 X121.542 Y239.157 E26.59863
G1 X120.646 Y238.947 E26.62924
G1 X119.771 Y238.66 E26.65986
G1 X118.924 Y238.298 E26.6905
G1 X118.112 Y237.864 E26.72112
G1 X117.341 Y237.362 E26.75172
G1 X116.616 Y236.794 E26.78236
G1 X115.943 Y236.165 E26.813
G1 X115.328 Y235.481 E26.84359
G1 X114.774 Y234.746 E26.8742
G1 X114.286 Y233.965 E26.90483
G1 X113.867 Y233.145 E26.93546
G1 X113.521 Y232.292 E26.96608
G1 X113.251 Y231.412 E26.99669
G1 X113.058 Y230.511 E27.02734
G1 X112.944 Y229.598 E27.05794
G1 X112.913 Y229.027 E27.07696
G1 X112.9 Y228.408 E27.09755
G1 X112.901 Y71.781 E32.30699
G1 X112.91 Y71.116 E32.32911
G1 X112.962 Y70.196 E32.35976
G1 X113.094 Y69.285 E32.39037
G1 X113.305 Y68.389 E32.42099
G1 X113.592 Y67.514 E32.45162
G1 X113.955 Y66.668 E32.48224
G1 X114.389 Y65.856 E32.51286
G0 F6000 X114.786 Y65.972
G1 F1200 X115.288 Y65.221 E32.5429
G1 X115.855 Y64.517 E32.57297
G1 X116.481 Y63.867 E32.60298
G1 X117.162 Y63.274 E32.63302
G1 X117.894 Y62.744 E32.66307
G1 X118.669 Y62.281 E32.6931
G1 X119.482 Y61.888 E32.72314
G1 X120.327 Y61.568 E32.75319
G1 X121.196 Y61.325 E32.7832
G1 X122.084 Y61.159 E32.81325
G1 X123.223 Y61.063 E32.85126
G1 X123.83 Y61.05 E32.87146
G1 X175.793 Y61.05 E34.59975
G1 X176.637 Y61.061 E34.62783
G1 X177.539 Y61.114 E34.65788
G1 X178.432 Y61.246 E34.6879
G1 X179.31 Y61.457 E34.71794
G1 X180.166 Y61.745 E34.74798
G1 X180.993 Y62.107 E34.778
G1 X181.785 Y62.542 E34.80806
G1 X182.536 Y63.044 E34.8381
G1 X183.239 Y63.611 E34.86814
G1 X183.889 Y64.238 E34.89818
G1 X184.481 Y64.92 E34.92822
G1 X185.011 Y65.651 E34.95825
G1 X185.473 Y66.427 E34.98828
G1 X185.866 Y67.24 E35.01832
G1 X186.184 Y68.085 E35.04835
G1 X186.427 Y68.955 E35.07839
G1 X186.592 Y69.843 E35.10843
G1 X186.687 Y70.973 E35.14615
G1 X186.7 Y71.58 E35.16634
G1 X186.699 Y228.14 E40.37355
G1 X186.69 Y228.867 E40.39773
G1 X186.639 Y229.769 E40.42778
G1 X186.508 Y230.663 E40.45783
G1 X186.299 Y231.541 E40.48785
G1 X186.013 Y232.398 E40.5179
G1 X185.652 Y233.226 E40.54794
G1 X185.22 Y234.018 E40.57795
G1 X184.719 Y234.77 E40.608
G1 X184.153 Y235.474 E40.63805
G1 X183.528 Y236.125 E40.66806
G1 X182.847 Y236.719 E40.69812
G1 X182.116 Y237.25 E40.72817
G1 X181.342 Y237.714 E40.75818
G1 X180.529 Y238.108 E40.78823
G1 X179.685 Y238.428 E40.81825
G1 X178.815 Y238.673 E40.84832
G1 X177.928 Y238.839 E40.87833
G1 X176.777 Y238.937 E40.91675
G1 X176.17 Y238.95 E40.93694
G1 X124.075 Y238.949 E42.66963
G1 X123.377 Y238.94 E42.69285
G1 X122.476 Y238.889 E42.72286
G1 X121.582 Y238.757 E42.75292
G1 X120.704 Y238.548 E42.78294
G1 X119.847 Y238.261 E42.813
G1 X119.02 Y237.9 E42.84301
G1 X118.227 Y237.467 E42.87306
G1 X117.476 Y236.966 E42.90309
G1 X116.772 Y236.4 E42.93313
G1 X116.121 Y235.774 E42.96317
G1 X115.528 Y235.093 E42.99321
G1 X114.998 Y234.362 E43.02324
G1 X114.534 Y233.587 E43.05328
G1 X114.14 Y232.774 E43.08333
G1 X113.82 Y231.93 E43.11335
G1 X113.576 Y231.06 E43.1434
G1 X113.41 Y230.172 E43.17345
G1 X113.313 Y229.017 E43.212
G1 X113.3 Y228.408 E43.23226
G1 X113.301 Y71.786 E48.44153
G1 X113.31 Y71.121 E48.46365
G1 X113.362 Y70.219 E48.4937
G1 X113.494 Y69.326 E48.52372
G1 X113.704 Y68.448 E48.55375
G1 X113.991 Y67.591 E48.58381
G1 X114.353 Y66.764 E48.61384
G1 X114.786 Y65.972 E48.64386
G1 F2700 E41.64386
;MESH:City_Tray.stl
G0 F6000 X122.835 Y72.05
G0 X124.1 Y228.15
;TYPE:WALL-INNER
G1 F2700 E48.64386
G1 F1200 X175.9 Y228.15 E50.36673
G1 X175.9 Y71.85 E55.56529
G1 X124.1 Y71.85 E57.28817
G1 X124.1 Y228.15 E62.48673
G0 F6000 X123.7 Y228.55
;TYPE:WALL-OUTER
G1 F1200 X176.3 Y228.55 E64.23621
G1 X176.3 Y71.45 E69.46138
G1 X123.7 Y71.45 E71.21086
G1 X123.7 Y228.55 E76.43603
G0 F6000 X123.97 Y228.28
G0 X124.2 Y227.79
G0 X124.46 Y227.79
;TYPE:SKIN
G1 F1200 X175.54 Y227.79 E78.13495
G1 X175.54 Y97.75 E82.4601
G1 X175.54 Y72.21 E83.30957
G1 X124.46 Y72.21 E85.00849
G1 X124.46 Y227.79 E90.18311
G0 F6000 X125.2 Y227.589
G1 F1200 X124.659 Y227.048 E90.20855
G0 F6000 X124.659 Y226.482
G1 F1200 X125.766 Y227.589 E90.26062
G0 F6000 X126.331 Y227.589
G1 F1200 X124.659 Y225.917 E90.33927
G0 F6000 X124.659 Y225.351
G1 F1200 X126.897 Y227.589 E90.44454
G0 F6000 X127.463 Y227.589
G1 F1200 X124.659 Y224.785 E90.57643
G0 F6000 X124.659 Y224.22
G1 F1200 X128.028 Y227.589 E90.7349
G0 F6000 X128.594 Y227.589
G1 F1200 X124.659 Y223.654 E90.91999
G0 F6000 X124.659 Y223.088
G1 F1200 X129.16 Y227.589 E91.1317
G0 F6000 X129.725 Y227.589
G1 F1200 X124.659 Y222.522 E91.37001
G0 F6000 X124.659 Y221.957
G1 F1200 X130.291 Y227.589 E91.63492
G0 F6000 X130.857 Y227.589
G1 F1200 X124.659 Y221.391 E91.92646
G0 F6000 X124.659 Y220.825
G1 F1200 X131.422 Y227.589 E92.24459
G0 F6000 X131.988 Y227.589
G1 F1200 X124.659 Y220.26 E92.58933
G0 F6000 X124.659 Y219.694
G1 F1200 X132.554 Y227.589 E92.96068
G0 F6000 X133.119 Y227.589
G1 F1200 X124.659 Y219.128 E93.35864
G0 F6000 X124.659 Y218.563
G1 F1200 X133.685 Y227.589 E93.78319
G0 F6000 X134.251 Y227.589
G1 F1200 X124.659 Y217.997 E94.23437
G0 F6000 X124.659 Y217.431
G1 F1200 X134.816 Y227.589 E94.71215
G0 F6000 X135.382 Y227.589
G1 F1200 X124.659 Y216.866 E95.21653
G0 F6000 X124.659 Y216.3
G1 F1200 X135.948 Y227.589 E95.74753
G0 F6000 X136.514 Y227.589
G1 F1200 X124.659 Y215.734 E96.30515
G0 F6000 X124.659 Y215.169
G1 F1200 X137.079 Y227.589 E96.88935
G0 F6000 X137.645 Y227.589
G1 F1200 X124.659 Y214.603 E97.50017
G0 F6000 X124.659 Y214.037
G1 F1200 X138.211 Y227.589 E98.13762
G0 F6000 X138.776 Y227.589
G1 F1200 X124.659 Y213.472 E98.80164
G0 F6000 X124.659 Y212.906
G1 F1200 X139.342 Y227.589 E99.49228
G0 F6000 X139.908 Y227.589
G1 F1200 X124.659 Y212.34 E100.20955
G0 F6000 X124.659 Y211.774
G1 F1200 X140.473 Y227.589 E100.95341
G0 F6000 X141.039 Y227.589
G1 F1200 X124.659 Y211.209 E101.72388
G0 F6000 X124.659 Y210.643
G1 F1200 X141.605 Y227.589 E102.52096
G0 F6000 X142.17 Y227.589
G1 F1200 X124.659 Y210.077 E103.34465
G0 F6000 X124.659 Y209.512
G1 F1200 X142.736 Y227.589 E104.19494
G0 F6000 X143.302 Y227.589
G1 F1200 X124.659 Y208.946 E105.07185
G0 F6000 X124.659 Y208.38
G1 F1200 X143.867 Y227.589 E105.97536
G0 F6000 X144.433 Y227.589
G1 F1200 X124.659 Y207.815 E106.90546
G0 F6000 X124.659 Y207.249
G1 F1200 X144.999 Y227.589 E107.8622
G0 F6000 X145.565 Y227.589
G1 F1200 X124.659 Y206.683 E108.84555
G0 F6000 X124.659 Y206.118
G1 F1200 X146.13 Y227.589 E109.85548
G0 F6000 X146.696 Y227.589
G1 F1200 X124.659 Y205.552 E110.89203
G0 F6000 X124.659 Y204.986
G1 F1200 X147.262 Y227.589 E111.95521
G0 F6000 X147.827 Y227.589
G1 F1200 X124.659 Y204.421 E113.04496
G0 F6000 X124.659 Y203.855
G1 F1200 X148.393 Y227.589 E114.16133
G0 F6000 X148.959 Y227.589
G1 F1200 X124.659 Y203.289 E115.30433
G0 F6000 X124.659 Y202.723
G1 F1200 X149.524 Y227.589 E116.47393
G0 F6000 X150.09 Y227.589
G1 F1200 X124.659 Y202.158 E117.67013
G0 F6000 X124.659 Y201.592
G1 F1200 X150.656 Y227.589 E118.89294
G0 F6000 X151.221 Y227.589
G1 F1200 X124.659 Y201.026 E120.14236
G0 F6000 X124.659 Y200.461
G1 F1200 X151.787 Y227.589 E121.41838
G0 F6000 X152.353 Y227.589
G1 F1200 X124.659 Y199.895 E122.72102
G0 F6000 X124.659 Y199.329
G1 F1200 X152.918 Y227.589 E124.05026
G0 F6000 X153.484 Y227.589
G1 F1200 X124.659 Y198.764 E125.4061
G0 F6000 X124.659 Y198.198
G1 F1200 X154.05 Y227.589 E126.78856
G0 F6000 X154.615 Y227.589
G1 F1200 X124.659 Y197.632 E128.19763
G0 F6000 X124.659 Y197.067
G1 F1200 X155.181 Y227.589 E129.63329
G0 F6000 X155.747 Y227.589
G1 F1200 X124.659 Y196.501 E131.09557
G0 F6000 X124.659 Y195.935
G1 F1200 X156.313 Y227.589 E132.58448
G0 F6000 X156.878 Y227.589
G1 F1200 X124.659 Y195.37 E134.09996
G0 F6000 X124.659 Y194.804
G1 F1200 X157.444 Y227.589 E135.64207
G0 F6000 X158.01 Y227.589
G1 F1200 X124.659 Y194.238 E137.2108
G0 F6000 X124.659 Y193.673
G1 F1200 X158.575 Y227.589 E138.8061
G0 F6000 X159.141 Y227.589
G1 F1200 X124.659 Y193.107 E140.42803
G0 F6000 X124.659 Y192.541
G1 F1200 X159.707 Y227.589 E142.07658
G0 F6000 X160.272 Y227.589
G1 F1200 X124.659 Y191.975 E143.75173
G0 F6000 X124.659 Y191.41
G1 F1200 X160.838 Y227.589 E145.45348
G0 F6000 X161.404 Y227.589
G1 F1200 X124.659 Y190.844 E147.18185
G0 F6000 X124.659 Y190.278
G1 F1200 X161.969 Y227.589 E148.93682
G0 F6000 X162.535 Y227.589
G1 F1200 X124.659 Y189.713 E150.71839
G0 F6000 X124.659 Y189.147
G1 F1200 X163.101 Y227.589 E152.52659
G0 F6000 X163.666 Y227.589
G1 F1200 X124.659 Y188.581 E154.36138
G0 F6000 X124.659 Y188.016
G1 F1200 X164.232 Y227.589 E156.22277
G0 F6000 X164.798 Y227.589
G1 F1200 X124.659 Y187.45 E158.11079
G0 F6000 X124.659 Y186.884
G1 F1200 X165.363 Y227.589 E160.0254
G0 F6000 X165.929 Y227.589
G1 F1200 X124.659 Y186.319 E161.96662
G0 F6000 X124.659 Y185.753
G1 F1200 X166.495 Y227.589 E163.93445
G0 F6000 X167.061 Y227.589
G1 F1200 X124.659 Y185.187 E165.92891
G0 F6000 X124.659 Y184.622
G1 F1200 X167.626 Y227.589 E167.94995
G0 F6000 X168.192 Y227.589
G1 F1200 X124.659 Y184.056 E169.99761
G0 F6000 X124.659 Y183.49
G1 F1200 X168.758 Y227.589 E172.07189
G0 F6000 X169.323 Y227.589
G1 F1200 X124.659 Y182.924 E174.17277
G0 F6000 X124.659 Y182.359
G1 F1200 X169.889 Y227.589 E176.30025
G0 F6000 X170.455 Y227.589
G1 F1200 X124.659 Y181.793 E178.45436
G0 F6000 X124.659 Y181.227
G1 F1200 X171.02 Y227.589 E180.63506
G0 F6000 X171.586 Y227.589
G1 F1200 X124.659 Y180.662 E182.84236
G0 F6000 X124.659 Y180.096
G1 F1200 X172.152 Y227.589 E185.07629
G0 F6000 X172.717 Y227.589
G1 F1200 X124.659 Y179.53 E187.33681
G0 F6000 X124.659 Y178.965
G1 F1200 X173.283 Y227.589 E189.62393
G0 F6000 X173.849 Y227.589
G1 F1200 X124.659 Y178.399 E191.93768
G0 F6000 X124.659 Y177.833
G1 F1200 X174.414 Y227.589 E194.27803
G0 F6000 X174.98 Y227.589
G1 F1200 X124.659 Y177.268 E196.64497
G0 F6000 X124.659 Y176.702
G1 F1200 X175.339 Y227.382 E199.02881
G0 F6000 X175.339 Y226.817
G1 F1200 X124.659 Y176.136 E201.41266
G0 F6000 X124.659 Y175.571
G1 F1200 X175.339 Y226.251 E203.79649
G0 F6000 X175.339 Y225.685
G1 F1200 X124.659 Y175.005 E206.18032
G0 F6000 X124.659 Y174.439
G1 F1200 X175.339 Y225.12 E208.56418
G0 F6000 X175.339 Y224.554
G1 F1200 X124.659 Y173.874 E210.94801
G0 F6000 X124.659 Y173.308
G1 F1200 X175.339 Y223.988 E213.33184
G0 F6000 X175.339 Y223.423
G1 F1200 X124.659 Y172.742 E215.7157
G0 F6000 X124.659 Y172.176
G1 F1200 X175.339 Y222.857 E218.09955
G0 F6000 X175.339 Y222.291
G1 F1200 X124.659 Y171.611 E220.48339
G0 F6000 X124.659 Y171.045
G1 F1200 X175.339 Y221.726 E222.86724
G0 F6000 X175.339 Y221.16
G1 F1200 X124.659 Y170.479 E225.2511
G0 F6000 X124.659 Y169.914
G1 F1200 X175.339 Y220.594 E227.63493
G0 F6000 X175.339 Y220.029
G1 F1200 X124.659 Y169.348 E230.01878
G0 F6000 X124.659 Y168.782
G1 F1200 X175.339 Y219.463 E232.40264
G0 F6000 X175.339 Y218.897
G1 F1200 X124.659 Y168.217 E234.78647
G0 F6000 X124.659 Y167.651
G1 F1200 X175.339 Y218.331 E237.1703
G0 F6000 X175.339 Y217.766
G1 F1200 X124.659 Y167.085 E239.55416
