;FLAVOR:Marlin
;TIME:36040
;Filament used: 21.8929m
;Layer height: 0.2
;MINX:68.5
;MINY:45
;MINZ:0.2
;MAXX:231.5
;MAXY:255
;MAXZ:28
;Generated with Cura_SteamEngine 5.2.1
M140 S60
M105
M190 S60
M104 S210
M105
M109 S210
M82 ;absolute extrusion mode
M201 X500.00 Y500.00 Z100.00 E5000.00 ;Setup machine max acceleration
M203 X500.00 Y500.00 Z10.00 E50.00 ;Setup machine max feedrate
M204 P500.00 R1000.00 T500.00 ;Setup Print/Retract/Travel acceleration
M205 X8.00 Y8.00 Z0.40 E5.00 ;Setup Jerk
M220 S100 ;Reset Feedrate
M221 S100 ;Reset Flowrate

G28 ;Home
G29 ;Auto bed Level

G92 E0 ;Reset Extruder
G1 Z2.0 F3000 ;Move Z Axis up
G1 X10.1 Y20 Z0.28 F5000.0 ;Move to start position
G1 X10.1 Y200.0 Z0.28 F1500.0 E15 ;Draw the first line
G1 X10.4 Y200.0 Z0.28 F5000.0 ;Move to side a little
G1 X10.4 Y20 Z0.28 F1500.0 E30 ;Draw the second line
G92 E0 ;Reset Extruder
G1 Z2.0 F3000 ;Move Z Axis up

G92 E0
G92 E0
G1 F2700 E-7
;LAYER_COUNT:140
;LAYER:0
M107
G0 F6000 X70.496 Y49.703 Z0.2
;TYPE:SKIRT
G1 F2700 E0
G1 F1200 X71.066 Y48.958 E0.0312
G1 X71.698 Y48.264 E0.06242
G1 X72.386 Y47.627 E0.0936
G1 X73.126 Y47.051 E0.12479
G1 X73.912 Y46.539 E0.15599
G1 X74.739 Y46.097 E0.18718
G1 X75.601 Y45.727 E0.21838
G1 X76.491 Y45.431 E0.24958
G1 X77.403 Y45.213 E0.28077
G1 X78.33 Y45.072 E0.31195
G1 X79.201 Y45.013 E0.34099
G1 X79.83 Y45 E0.36191
G1 X219.951 Y45.001 E5.02236
G1 X220.649 Y45.011 E5.04557
G1 X221.585 Y45.065 E5.07676
G1 X222.513 Y45.197 E5.10793
G1 X223.427 Y45.409 E5.13914
G1 X224.319 Y45.698 E5.17033
G1 X225.184 Y46.061 E5.20153
G1 X226.014 Y46.497 E5.23271
G1 X226.805 Y47.002 E5.26392
G1 X227.549 Y47.573 E5.29512
G1 X228.242 Y48.205 E5.32631
G1 X228.879 Y48.893 E5.3575
G1 X229.454 Y49.634 E5.38869
G1 X229.965 Y50.42 E5.41987
G1 X230.407 Y51.248 E5.45109
G1 X230.776 Y52.11 E5.48228
G1 X231.071 Y53 E5.51346
G1 X231.289 Y53.912 E5.54465
G1 X231.429 Y54.84 E5.57587
G1 X231.487 Y55.701 E5.60457
G1 X231.5 Y56.33 E5.62549
G1 X231.499 Y109.465 E7.39277
G1 X231.489 Y110.167 E7.41612
G1 X231.436 Y111.103 E7.4473
G1 X231.303 Y112.031 E7.47848
G1 X231.179 Y112.607 E7.49808
G1 X231 Y113.34 E7.52318
G1 X230.602 Y114.875 E7.57592
G1 X230.043 Y117.307 E7.65892
G1 X229.54 Y119.825 E7.74432
G1 X229.126 Y122.249 E7.82611
G1 X228.769 Y124.777 E7.91103
G1 X228.489 Y127.252 E7.99387
G1 X228.276 Y129.765 E8.07775
G1 X228.136 Y132.28 E8.16153
G1 X228.066 Y134.803 E8.24548
G1 X228.068 Y137.328 E8.32946
G1 X228.14 Y139.816 E8.41225
G1 X228.285 Y142.348 E8.4966
G1 X228.5 Y144.852 E8.58019
G1 X228.785 Y147.352 E8.66388
G1 X229.143 Y149.85 E8.74781
G1 X229.567 Y152.321 E8.8312
G1 X230.059 Y154.77 E8.91428
G1 X230.63 Y157.237 E8.9985
G1 X230.943 Y158.435 E9.03968
G1 X231.167 Y159.338 E9.07063
G1 X231.353 Y160.258 E9.10185
G1 X231.461 Y161.189 E9.13302
G1 X231.488 Y161.818 E9.15396
G1 X231.499 Y162.563 E9.17874
G1 X231.499 Y243.415 E11.86789
G1 X231.489 Y244.142 E11.89207
G1 X231.436 Y245.079 E11.92329
G1 X231.304 Y246.007 E11.95446
G1 X231.093 Y246.921 E11.98566
G1 X230.804 Y247.813 E12.01685
G1 X230.441 Y248.678 E12.04805
G1 X230.006 Y249.509 E12.07925
G1 X229.501 Y250.299 E12.11043
G1 X228.931 Y251.044 E12.14163
G1 X228.3 Y251.738 E12.17283
G1 X227.611 Y252.375 E12.20404
G1 X226.871 Y252.951 E12.23523
G1 X226.085 Y253.462 E12.26641
G1 X225.258 Y253.904 E12.2976
G1 X224.396 Y254.274 E12.3288
G1 X223.506 Y254.569 E12.35998
G1 X222.594 Y254.788 E12.39118
G1 X221.667 Y254.928 E12.42236
G1 X220.799 Y254.987 E12.4513
G1 X220.17 Y255 E12.47222
G1 X80.065 Y254.999 E17.13213
G1 X79.367 Y254.99 E17.15535
G1 X78.431 Y254.938 E17.18653
G1 X77.502 Y254.806 E17.21774
G1 X76.588 Y254.596 E17.24893
G1 X75.695 Y254.309 E17.28013
G1 X74.83 Y253.946 E17.31133
G1 X73.999 Y253.512 E17.34251
G1 X73.208 Y253.008 E17.3737
G1 X72.463 Y252.438 E17.4049
G1 X71.769 Y251.807 E17.4361
G1 X71.132 Y251.12 E17.46726
G1 X70.555 Y250.38 E17.49847
G1 X70.043 Y249.594 E17.52967
G1 X69.6 Y248.767 E17.56088
G1 X69.229 Y247.906 E17.59206
G1 X68.933 Y247.016 E17.62325
G1 X68.714 Y246.104 E17.65445
G1 X68.573 Y245.177 E17.68564
G1 X68.513 Y244.288 E17.71527
G1 X68.5 Y243.658 E17.73623
G1 X68.501 Y56.525 E23.9603
G1 X68.51 Y55.86 E23.98242
G1 X68.563 Y54.924 E24.0136
G1 X68.695 Y53.995 E24.04481
G1 X68.906 Y53.081 E24.07601
G1 X69.194 Y52.189 E24.10718
G1 X69.557 Y51.324 E24.13839
G1 X69.992 Y50.493 E24.16958
G1 X70.496 Y49.703 E24.20075
G0 F6000 X70.892 Y49.835
G1 F1200 X71.461 Y49.111 E24.23138
G1 X72.089 Y48.439 E24.26197
G1 X72.774 Y47.823 E24.29261
G1 X73.51 Y47.27 E24.32323
G1 X74.291 Y46.782 E24.35386
G1 X75.111 Y46.364 E24.38447
G1 X75.965 Y46.019 E24.41511
G1 X76.845 Y45.749 E24.44572
G1 X77.745 Y45.557 E24.47633
G1 X78.659 Y45.443 E24.50696
G1 X79.212 Y45.413 E24.52538
G1 X79.83 Y45.4 E24.54594
G1 X219.945 Y45.401 E29.20619
G1 X220.643 Y45.411 E29.2294
G1 X221.562 Y45.464 E29.26002
G1 X222.473 Y45.597 E29.29064
G1 X223.369 Y45.808 E29.32126
G1 X224.243 Y46.096 E29.35187
G1 X225.09 Y46.459 E29.38252
G1 X225.901 Y46.894 E29.41312
G1 X226.671 Y47.398 E29.44373
G1 X227.395 Y47.967 E29.47436
G1 X228.067 Y48.597 E29.505
G1 X228.682 Y49.282 E29.53562
G1 X229.235 Y50.018 E29.56623
G1 X229.722 Y50.799 E29.59685
G1 X230.139 Y51.62 E29.62747
G1 X230.484 Y52.474 E29.65811
G1 X230.753 Y53.354 E29.68871
G1 X230.945 Y54.255 E29.71935
G1 X231.058 Y55.168 E29.74995
G1 X231.087 Y55.712 E29.76807
G1 X231.1 Y56.33 E29.78863
G1 X231.099 Y109.459 E31.55571
G1 X231.089 Y110.161 E31.57906
G1 X231.036 Y111.08 E31.60968
G1 X230.903 Y111.991 E31.6403
G1 X230.79 Y112.513 E31.65806
G1 X230.612 Y113.24 E31.68296
G1 X230.218 Y114.758 E31.73512
G1 X229.646 Y117.251 E31.82019
G1 X229.154 Y119.71 E31.9036
G1 X228.73 Y122.197 E31.98751
G1 X228.374 Y124.713 E32.07203
G1 X228.087 Y127.244 E32.15675
G1 X227.876 Y129.742 E32.24013
G1 X227.736 Y132.247 E32.32357
G1 X227.666 Y134.792 E32.40825
G1 X227.668 Y137.305 E32.49183
G1 X227.742 Y139.851 E32.57655
G1 X227.888 Y142.404 E32.6616
G1 X228.098 Y144.86 E32.74359
G1 X228.39 Y147.417 E32.82919
G1 X228.747 Y149.908 E32.91288
G1 X229.175 Y152.396 E32.99685
G1 X229.672 Y154.874 E33.08091
G1 X230.237 Y157.315 E33.16425
G1 X230.59 Y158.67 E33.21082
G1 X230.779 Y159.434 E33.23699
G1 X230.961 Y160.337 E33.26763
G1 X231.064 Y161.252 E33.29826
G1 X231.088 Y161.824 E33.3173
G1 X231.099 Y162.569 E33.34208
G1 X231.099 Y243.41 E36.03086
G1 X231.089 Y244.137 E36.05504
G1 X231.036 Y245.056 E36.08566
G1 X230.904 Y245.967 E36.11628
G1 X230.693 Y246.863 E36.14689
G1 X230.406 Y247.738 E36.17752
G1 X230.043 Y248.584 E36.20814
G1 X229.609 Y249.396 E36.23876
G1 X229.105 Y250.167 E36.2694
G1 X228.537 Y250.891 E36.30001
G1 X227.908 Y251.563 E36.33062
G1 X227.223 Y252.178 E36.36124
G1 X226.487 Y252.731 E36.39186
G1 X225.706 Y253.219 E36.42249
G1 X224.886 Y253.637 E36.4531
G1 X224.032 Y253.982 E36.48374
G1 X223.152 Y254.251 E36.51434
G1 X222.251 Y254.444 E36.54499
G1 X221.338 Y254.557 E36.57559
G1 X220.788 Y254.587 E36.59391
G1 X220.17 Y254.6 E36.61447
G1 X80.07 Y254.599 E41.27421
G1 X79.372 Y254.59 E41.29743
G1 X78.453 Y254.538 E41.32804
G1 X77.542 Y254.407 E41.35866
G1 X76.646 Y254.197 E41.38926
G1 X75.771 Y253.91 E41.41989
G1 X74.924 Y253.548 E41.45053
G1 X74.112 Y253.114 E41.48115
G1 X73.341 Y252.612 E41.51175
G1 X72.616 Y252.044 E41.54238
G1 X71.943 Y251.415 E41.57302
G1 X71.328 Y250.731 E41.60362
G1 X70.774 Y249.996 E41.63423
G1 X70.286 Y249.215 E41.66486
G1 X69.867 Y248.395 E41.69549
G1 X69.521 Y247.542 E41.7261
G1 X69.251 Y246.662 E41.75672
G1 X69.058 Y245.761 E41.78737
G1 X68.944 Y244.848 E41.81797
G1 X68.913 Y244.277 E41.83699
G1 X68.9 Y243.658 E41.85758
G1 X68.901 Y56.531 E48.08145
G1 X68.91 Y55.866 E48.10357
G1 X68.962 Y54.946 E48.13422
G1 X69.094 Y54.035 E48.16483
G1 X69.305 Y53.139 E48.19545
G1 X69.592 Y52.264 E48.22608
G1 X69.955 Y51.418 E48.2567
G1 X70.389 Y50.606 E48.28732
G1 X70.892 Y49.835 E48.31794
G0 F6000 X71.288 Y49.971
G1 F1200 X71.855 Y49.267 E48.348
G1 X72.481 Y48.617 E48.37802
G1 X73.162 Y48.024 E48.40805
G1 X73.894 Y47.494 E48.43811
G1 X74.669 Y47.031 E48.46814
G1 X75.482 Y46.638 E48.49817
G1 X76.327 Y46.318 E48.52822
G1 X77.196 Y46.075 E48.55824
G1 X78.084 Y45.909 E48.58828
G1 X79.223 Y45.813 E48.6263
G1 X79.83 Y45.8 E48.64649
G1 X219.939 Y45.801 E53.30654
G1 X220.637 Y45.811 E53.32976
G1 X221.539 Y45.864 E53.35981
G1 X222.432 Y45.996 E53.38983
G1 X223.31 Y46.207 E53.41987
G1 X224.166 Y46.495 E53.4499
G1 X224.993 Y46.857 E53.47993
G1 X225.785 Y47.292 E53.50998
G1 X226.536 Y47.794 E53.54003
G1 X227.239 Y48.361 E53.57007
G1 X227.889 Y48.988 E53.60011
G1 X228.481 Y49.67 E53.63014
G1 X229.011 Y50.401 E53.66017
G1 X229.473 Y51.177 E53.69021
G1 X229.866 Y51.99 E53.72025
G1 X230.184 Y52.835 E53.75028
G1 X230.427 Y53.705 E53.78032
G1 X230.592 Y54.593 E53.81036
G1 X230.687 Y55.723 E53.84808
G1 X230.7 Y56.33 E53.86827
G1 X230.699 Y109.453 E55.63515
G1 X230.689 Y110.155 E55.6585
G1 X230.636 Y111.057 E55.68855
G1 X230.504 Y111.95 E55.71858
G1 X230.402 Y112.418 E55.73451
G1 X230.264 Y112.986 E55.75395
G1 X229.827 Y114.672 E55.81188
G1 X229.259 Y117.148 E55.89637
G1 X228.76 Y119.642 E55.98096
G1 X228.328 Y122.173 E56.06636
G1 X227.978 Y124.648 E56.1495
G1 X227.693 Y127.167 E56.23382
G1 X227.478 Y129.72 E56.31903
G1 X227.336 Y132.25 E56.40331
G1 X227.266 Y134.781 E56.48752
G1 X227.268 Y137.316 E56.57184
G1 X227.342 Y139.886 E56.65735
G1 X227.486 Y142.39 E56.74077
G1 X227.704 Y144.938 E56.82583
G1 X227.991 Y147.452 E56.90999
G1 X228.35 Y149.955 E56.99409
G1 X228.783 Y152.477 E57.0792
G1 X229.284 Y154.971 E57.16381
G1 X229.846 Y157.401 E57.24676
G1 X230.202 Y158.767 E57.29372
G1 X230.391 Y159.531 E57.31989
G1 X230.568 Y160.416 E57.34991
G1 X230.667 Y161.314 E57.37996
G1 X230.688 Y161.829 E57.3971
G1 X230.699 Y162.574 E57.42188
G1 X230.699 Y243.404 E60.1103
G1 X230.689 Y244.131 E60.13448
G1 X230.637 Y245.033 E60.16453
G1 X230.505 Y245.926 E60.19456
G1 X230.294 Y246.805 E60.22462
G1 X230.007 Y247.661 E60.25465
G1 X229.645 Y248.488 E60.28468
G1 X229.211 Y249.28 E60.31472
G1 X228.709 Y250.031 E60.34476
G1 X228.143 Y250.734 E60.37478
G1 X227.516 Y251.385 E60.40484
G1 X226.835 Y251.977 E60.43485
G1 X226.104 Y252.507 E60.46488
G1 X225.328 Y252.97 E60.49494
G1 X224.515 Y253.363 E60.52497
G1 X223.67 Y253.683 E60.55503
G1 X222.801 Y253.926 E60.58504
G1 X221.913 Y254.091 E60.61508
G1 X220.777 Y254.187 E60.653
G1 X220.17 Y254.2 E60.67319
G1 X80.075 Y254.199 E65.33277
G1 X79.377 Y254.19 E65.35599
G1 X78.476 Y254.139 E65.386
G1 X77.582 Y254.007 E65.41606
G1 X76.704 Y253.798 E65.44608
G1 X75.847 Y253.511 E65.47614
G1 X75.02 Y253.15 E65.50615
G1 X74.227 Y252.717 E65.5362
G1 X73.476 Y252.216 E65.56623
G1 X72.772 Y251.65 E65.59627
G1 X72.121 Y251.024 E65.62631
G1 X71.528 Y250.343 E65.65634
G1 X70.998 Y249.612 E65.68637
G1 X70.534 Y248.837 E65.71642
G1 X70.14 Y248.024 E65.74647
G1 X69.82 Y247.18 E65.77649
G1 X69.576 Y246.31 E65.80654
G1 X69.41 Y245.422 E65.83659
G1 X69.313 Y244.267 E65.87514
G1 X69.3 Y243.658 E65.8954
G1 X69.301 Y56.536 E72.1191
G1 X69.31 Y55.871 E72.14122
G1 X69.362 Y54.969 E72.17127
G1 X69.494 Y54.076 E72.2013
G1 X69.704 Y53.198 E72.23132
G1 X69.991 Y52.341 E72.26138
G1 X70.353 Y51.514 E72.29141
G1 X70.786 Y50.722 E72.32143
G1 X71.288 Y49.971 E72.35147
G1 F2700 E65.35147
;MESH:Adversary_and_Scenario_card_tray.stl
G0 F6000 X125.318 Y92.751
G0 X167.83 Y128.258
;TYPE:WALL-INNER
G1 F2700 E72.35147
G1 F1200 X167.589 Y128.145 E72.36033
G1 X167.008 Y127.645 E72.38582
G1 X166.546 Y127.261 E72.4058
G1 X165.596 Y126.507 E72.44614
G1 X164.612 Y125.778 E72.48687
G1 X163.875 Y125.276 E72.51653
G1 X163.467 Y125.023 E72.5325
G1 X162.959 Y124.724 E72.55211
G1 X162.054 Y124.217 E72.58661
G1 X160.796 Y123.57 E72.63366
G1 X159.983 Y123.222 E72.66307
G1 X159.576 Y123.122 E72.67701
G1 X159.294 Y123.083 E72.68648
G1 X158.99 Y123.08 E72.69659
G1 X158.7 Y123.118 E72.70632
G1 X158.424 Y123.192 E72.71582
G1 X158.143 Y123.303 E72.72587
G1 X157.914 Y123.425 E72.7345
G1 X157.65 Y123.606 E72.74515
G1 X157.433 Y123.787 E72.75455
G1 X156.771 Y124.433 E72.78531
G1 X156.445 Y124.665 E72.79862
G1 X155.839 Y124.774 E72.8191
G1 X155.29 Y124.842 E72.8375
G1 X155.02 Y124.857 E72.84649
G1 X154.673 Y124.863 E72.85803
G1 X154.314 Y124.859 E72.86998
G1 X153.579 Y124.82 E72.89446
G1 X152.765 Y124.734 E72.92168
G1 X151.852 Y124.588 E72.95243
G1 X150.995 Y124.408 E72.98156
G1 X150.208 Y124.2 E73.00863
G1 X149.815 Y124.077 E73.02233
G1 X149.463 Y123.953 E73.03474
G1 X149.106 Y123.803 E73.04762
G1 X148.802 Y123.661 E73.05878
G1 X148.279 Y123.329 E73.07939
G1 X148.142 Y123.179 E73.08614
G1 X148.049 Y122.901 E73.09589
G1 X148.057 Y121.769 E73.13354
G1 X148.048 Y121.484 E73.14303
G1 X148.022 Y121.193 E73.15275
G1 X147.971 Y120.923 E73.16188
G1 X147.892 Y120.641 E73.17162
G1 X147.789 Y120.369 E73.1813
G1 X147.676 Y120.139 E73.18982
G1 X147.502 Y119.859 E73.20079
G1 X147.255 Y119.498 E73.21533
G1 X146.751 Y118.825 E73.2433
G1 X146.483 Y118.514 E73.25695
G1 X146.18 Y118.207 E73.2713
G1 X145.778 Y117.859 E73.28899
G1 X145.319 Y117.517 E73.30802
G1 X144.786 Y117.166 E73.32925
G1 X144.15 Y116.784 E73.35393
G1 X143.549 Y116.439 E73.37697
G1 X142.604 Y115.913 E73.41295
G1 X139.569 Y114.256 E73.52796
G1 X138.691 Y113.767 E73.56138
G1 X137.944 Y113.338 E73.59003
G1 X137.303 Y112.947 E73.61501
G1 X136.578 Y112.46 E73.64405
G1 X136.035 Y111.732 E73.67426
G1 X135.732 Y111.284 E73.69225
G1 X135.675 Y111.04 E73.70058
G1 X135.765 Y109.827 E73.74104
G1 X135.765 Y109.47 E73.75291
G1 X135.732 Y109.097 E73.76537
G1 X135.674 Y108.806 E73.77524
G1 X135.574 Y108.481 E73.78655
G1 X135.447 Y108.189 E73.79714
G1 X135.304 Y107.934 E73.80686
G1 X135.015 Y107.532 E73.82333
G1 X134.741 Y107.247 E73.83648
G1 X134.531 Y107.059 E73.84585
G1 X134.306 Y106.892 E73.85517
G1 X134.058 Y106.738 E73.86488
G1 X133.804 Y106.605 E73.87442
G1 X133.224 Y106.346 E73.89554
G1 X132.178 Y105.934 E73.93294
G1 X131.131 Y105.584 E73.96965
G1 X130.043 Y105.284 E74.00719
G1 X128.94 Y105.05 E74.04469
G1 X127.816 Y104.891 E74.08245
G1 X126.675 Y104.812 E74.12049
G1 X126.105 Y104.807 E74.13945
G1 X125.53 Y104.825 E74.15858
G1 X124.952 Y104.867 E74.17786
G1 X124.373 Y104.935 E74.19725
G1 X123.71 Y105.043 E74.21959
G1 X123.429 Y105.11 E74.2292
G1 X123.12 Y105.206 E74.23996
G1 X122.844 Y105.323 E74.24993
G1 X122.582 Y105.464 E74.25983
G1 X122.337 Y105.62 E74.26949
G1 X122.118 Y105.782 E74.27855
G1 X121.444 Y106.318 E74.30719
G1 X121.19 Y106.367 E74.31579
G1 X120.956 Y106.334 E74.32365
G1 X120.031 Y105.765 E74.35977
G1 X119.525 Y105.441 E74.37976
G1 X118.997 Y105.086 E74.40092
G1 X117.95 Y104.343 E74.44362
G1 X117.381 Y103.916 E74.46728
G1 X117.275 Y103.786 E74.47286
G1 X117.194 Y103.552 E74.4811
G1 X117.247 Y103.218 E74.49234
G1 X117.422 Y102.987 E74.50198
G1 X118.167 Y102.634 E74.5294
G1 X118.886 Y102.279 E74.55607
G1 X119.49 Y101.969 E74.57865
G1 X120.897 Y101.209 E74.63184
G1 X121.515 Y100.851 E74.6556
G1 X122.05 Y100.503 E74.67682
G1 X122.528 Y100.138 E74.69683
G1 X122.808 Y99.883 E74.70942
G1 X123.065 Y99.598 E74.72219
G1 X123.292 Y99.283 E74.7351
G1 X123.475 Y98.939 E74.74806
G1 X123.617 Y98.542 E74.76208
G1 X123.7 Y98.14 E74.77574
G1 X123.732 Y97.763 E74.78832
G1 X123.73 Y97.412 E74.8
G1 X123.702 Y97.069 E74.81144
G1 X123.631 Y96.495 E74.83068
G1 X123.59 Y95.945 E74.84902
G1 X123.762 Y95.509 E74.86461
G1 X123.933 Y95.157 E74.87763
G1 X124.143 Y94.78 E74.89198
G1 X124.393 Y94.373 E74.90787
G1 X124.891 Y93.642 E74.93729
G1 X125.459 Y92.862 E74.96938
G1 X125.88 Y92.323 E74.99213
G1 X126.276 Y91.833 E75.01308
G1 X126.646 Y91.396 E75.03213
G1 X126.995 Y91.005 E75.04956
G1 X127.319 Y90.667 E75.06513
G1 X127.619 Y90.373 E75.0791
G1 X127.891 Y90.128 E75.09128
G1 X128.176 Y89.904 E75.10333
G1 X128.473 Y89.703 E75.11526
G1 X128.755 Y89.55 E75.12593
G1 X129.051 Y89.49 E75.13598
G1 X129.273 Y89.534 E75.1435
G1 X129.878 Y89.965 E75.16821
G1 X130.154 Y90.136 E75.17901
G1 X130.449 Y90.289 E75.19006
G1 X130.771 Y90.419 E75.20161
G1 X131.022 Y90.494 E75.21032
G1 X131.278 Y90.55 E75.21904
G1 X131.86 Y90.615 E75.23852
G1 X132.279 Y90.643 E75.25249
G1 X132.705 Y90.648 E75.26666
G1 X133.146 Y90.621 E75.28135
G1 X133.684 Y90.537 E75.29946
G1 X134.179 Y90.398 E75.31656
