;FLAVOR:Marlin
;TIME:26486
;Filament used: 16.1104m
;Layer height: 0.2
;MINX:103.4
;MINY:92
;MINZ:0.2
;MAXX:196.6
;MAXY:208
;MAXZ:75
;Generated with Cura_SteamEngine 5.2.1
M140 S60
M105
M190 S60
M104 S210
M105
M109 S210
M82 ;absolute extrusion mode
M201 X500.00 Y500.00 Z100.00 E5000.00 ;Setup machine max acceleration
M203 X500.00 Y500.00 Z10.00 E50.00 ;Setup machine max feedrate
M204 P500.00 R1000.00 T500.00 ;Setup Print/Retract/Travel acceleration
M205 X8.00 Y8.00 Z0.40 E5.00 ;Setup Jerk
M220 S100 ;Reset Feedrate
M221 S100 ;Reset Flowrate

G28 ;Home
G29 ;Auto bed Level

G92 E0 ;Reset Extruder
G1 Z2.0 F3000 ;Move Z Axis up
G1 X10.1 Y20 Z0.28 F5000.0 ;Move to start position
G1 X10.1 Y200.0 Z0.28 F1500.0 E15 ;Draw the first line
G1 X10.4 Y200.0 Z0.28 F5000.0 ;Move to side a little
G1 X10.4 Y20 Z0.28 F1500.0 E30 ;Draw the second line
G92 E0 ;Reset Extruder
G1 Z2.0 F3000 ;Move Z Axis up

G92 E0
G92 E0
G1 F2700 E-7
;LAYER_COUNT:375
;LAYER:0
M107
G0 F6000 X105.966 Y95.958 Z0.2
;TYPE:SKIRT
G1 F2700 E0
G1 F1200 X106.598 Y95.264 E0.03122
G1 X107.286 Y94.627 E0.0624
G1 X108.026 Y94.051 E0.09359
G1 X108.812 Y93.539 E0.12479
G1 X109.639 Y93.097 E0.15598
G1 X110.501 Y92.727 E0.18718
G1 X111.391 Y92.431 E0.21838
G1 X112.303 Y92.213 E0.24957
G1 X113.23 Y92.072 E0.28075
G1 X114.101 Y92.013 E0.30979
G1 X114.73 Y92 E0.33071
G1 X185.051 Y92.001 E2.6696
G1 X185.749 Y92.011 E2.69282
G1 X186.685 Y92.065 E2.724
G1 X187.613 Y92.197 E2.75518
G1 X188.527 Y92.409 E2.78638
G1 X189.419 Y92.698 E2.81757
G1 X190.284 Y93.061 E2.84877
G1 X191.114 Y93.497 E2.87995
G1 X191.905 Y94.002 E2.91117
G1 X192.649 Y94.573 E2.94236
G1 X193.342 Y95.205 E2.97355
G1 X193.979 Y95.893 E3.00474
G1 X194.554 Y96.634 E3.03594
G1 X195.065 Y97.42 E3.06712
G1 X195.507 Y98.248 E3.09833
G1 X195.876 Y99.11 E3.12952
G1 X196.171 Y100 E3.16071
G1 X196.389 Y100.912 E3.19189
G1 X196.529 Y101.84 E3.22311
G1 X196.587 Y102.701 E3.25181
G1 X196.6 Y103.33 E3.27274
G1 X196.599 Y196.4 E6.36826
G1 X196.59 Y197.127 E6.39244
G1 X196.539 Y198.064 E6.42365
G1 X196.407 Y198.992 E6.45483
G1 X196.198 Y199.906 E6.48601
G1 X195.911 Y200.799 E6.51721
G1 X195.549 Y201.665 E6.54843
G1 X195.115 Y202.496 E6.57961
G1 X194.611 Y203.287 E6.6108
G1 X194.042 Y204.032 E6.64198
G1 X193.411 Y204.727 E6.6732
G1 X192.724 Y205.365 E6.70439
G1 X191.985 Y205.942 E6.73557
G1 X191.199 Y206.454 E6.76677
G1 X190.373 Y206.897 E6.79795
G1 X189.511 Y207.269 E6.82917
G1 X188.622 Y207.565 E6.86034
G1 X187.71 Y207.785 E6.89154
G1 X186.783 Y207.926 E6.92273
G1 X185.899 Y207.987 E6.9522
G1 X185.27 Y208 E6.97312
G1 X114.965 Y207.999 E9.31148
G1 X114.267 Y207.99 E9.33469
G1 X113.331 Y207.938 E9.36587
G1 X112.402 Y207.806 E9.39708
G1 X111.488 Y207.596 E9.42827
G1 X110.595 Y207.309 E9.45947
G1 X109.73 Y206.946 E9.49067
G1 X108.899 Y206.512 E9.52185
G1 X108.108 Y206.008 E9.55305
G1 X107.363 Y205.438 E9.58425
G1 X106.669 Y204.807 E9.61545
G1 X106.032 Y204.12 E9.64661
G1 X105.455 Y203.38 E9.67782
G1 X104.943 Y202.594 E9.70902
G1 X104.5 Y201.767 E9.74022
G1 X104.129 Y200.906 E9.7714
G1 X103.833 Y200.016 E9.8026
G1 X103.614 Y199.104 E9.83379
G1 X103.473 Y198.177 E9.86498
G1 X103.413 Y197.288 E9.89462
G1 X103.4 Y196.658 E9.91558
G1 X103.401 Y103.525 E13.01319
G1 X103.41 Y102.86 E13.03531
G1 X103.463 Y101.924 E13.06649
G1 X103.595 Y100.995 E13.0977
G1 X103.806 Y100.081 E13.1289
G1 X104.094 Y99.189 E13.16008
G1 X104.457 Y98.324 E13.19128
G1 X104.892 Y97.493 E13.22247
G1 X105.396 Y96.703 E13.25364
G1 X105.966 Y95.958 E13.28484
G0 F6000 X106.361 Y96.111
G1 F1200 X106.989 Y95.439 E13.31543
G1 X107.674 Y94.823 E13.34607
G1 X108.41 Y94.27 E13.37669
G1 X109.191 Y93.782 E13.40732
G1 X110.011 Y93.364 E13.43794
G1 X110.865 Y93.019 E13.46857
G1 X111.745 Y92.749 E13.49919
G1 X112.645 Y92.557 E13.52979
G1 X113.559 Y92.443 E13.56043
G1 X114.112 Y92.413 E13.57885
G1 X114.73 Y92.4 E13.59941
G1 X185.045 Y92.401 E15.93809
G1 X185.743 Y92.411 E15.96131
G1 X186.662 Y92.464 E15.99193
G1 X187.573 Y92.597 E16.02255
G1 X188.469 Y92.808 E16.05317
G1 X189.343 Y93.096 E16.08377
G1 X190.19 Y93.459 E16.11442
G1 X191.001 Y93.894 E16.14503
G1 X191.771 Y94.398 E16.17564
G1 X192.495 Y94.967 E16.20627
G1 X193.167 Y95.597 E16.2369
G1 X193.782 Y96.282 E16.26752
G1 X194.335 Y97.018 E16.29814
G1 X194.822 Y97.799 E16.32875
G1 X195.239 Y98.62 E16.35938
G1 X195.584 Y99.474 E16.39002
G1 X195.853 Y100.354 E16.42062
G1 X196.045 Y101.255 E16.45126
G1 X196.158 Y102.168 E16.48186
G1 X196.187 Y102.712 E16.49998
G1 X196.2 Y103.33 E16.52054
G1 X196.199 Y196.395 E19.61589
G1 X196.19 Y197.122 E19.64008
G1 X196.139 Y198.041 E19.67069
G1 X196.008 Y198.953 E19.70133
G1 X195.798 Y199.849 E19.73194
G1 X195.512 Y200.724 E19.76256
G1 X195.151 Y201.571 E19.79318
G1 X194.717 Y202.383 E19.82381
G1 X194.215 Y203.155 E19.85443
G1 X193.647 Y203.88 E19.88507
G1 X193.019 Y204.553 E19.91568
G1 X192.335 Y205.169 E19.9463
G1 X191.6 Y205.723 E19.97691
G1 X190.82 Y206.212 E20.00753
G1 X190 Y206.631 E20.03816
G1 X189.147 Y206.977 E20.06877
G1 X188.267 Y207.248 E20.0994
G1 X187.367 Y207.441 E20.13001
G1 X186.453 Y207.556 E20.16065
G1 X185.888 Y207.587 E20.17947
G1 X185.27 Y207.6 E20.20003
G1 X114.97 Y207.599 E22.53822
G1 X114.272 Y207.59 E22.56144
G1 X113.353 Y207.538 E22.59205
G1 X112.442 Y207.407 E22.62266
G1 X111.546 Y207.197 E22.65327
G1 X110.671 Y206.91 E22.6839
G1 X109.824 Y206.548 E22.71454
G1 X109.012 Y206.114 E22.74516
G1 X108.241 Y205.612 E22.77576
G1 X107.516 Y205.044 E22.80639
G1 X106.843 Y204.415 E22.83703
G1 X106.228 Y203.731 E22.86763
G1 X105.674 Y202.996 E22.89824
G1 X105.186 Y202.215 E22.92887
G1 X104.767 Y201.395 E22.9595
G1 X104.421 Y200.542 E22.99011
G1 X104.151 Y199.662 E23.02073
G1 X103.958 Y198.761 E23.05137
G1 X103.844 Y197.848 E23.08198
G1 X103.813 Y197.277 E23.101
G1 X103.8 Y196.658 E23.12159
G1 X103.801 Y103.531 E26.21901
G1 X103.81 Y102.866 E26.24113
G1 X103.862 Y101.946 E26.27177
G1 X103.994 Y101.035 E26.30239
G1 X104.205 Y100.139 E26.33301
G1 X104.492 Y99.264 E26.36363
G1 X104.855 Y98.418 E26.39425
G1 X105.289 Y97.606 E26.42488
G1 X105.792 Y96.835 E26.45549
G1 X106.361 Y96.111 E26.48612
G0 F6000 X106.755 Y96.267
G1 F1200 X107.381 Y95.617 E26.51614
G1 X108.062 Y95.024 E26.54617
G1 X108.794 Y94.494 E26.57623
G1 X109.569 Y94.031 E26.60625
G1 X110.382 Y93.638 E26.63629
G1 X111.227 Y93.318 E26.66634
G1 X112.096 Y93.075 E26.69635
G1 X112.984 Y92.909 E26.7264
G1 X114.123 Y92.813 E26.76442
G1 X114.73 Y92.8 E26.78461
G1 X185.039 Y92.801 E29.1231
G1 X185.737 Y92.811 E29.14632
G1 X186.639 Y92.864 E29.17637
G1 X187.532 Y92.996 E29.20639
G1 X188.41 Y93.207 E29.23643
G1 X189.266 Y93.495 E29.26646
G1 X190.093 Y93.857 E29.29649
G1 X190.885 Y94.292 E29.32654
G1 X191.636 Y94.794 E29.35659
G1 X192.339 Y95.361 E29.38663
G1 X192.989 Y95.988 E29.41667
G1 X193.581 Y96.67 E29.4467
G1 X194.111 Y97.401 E29.47674
G1 X194.573 Y98.177 E29.50677
G1 X194.966 Y98.99 E29.53681
G1 X195.284 Y99.835 E29.56684
G1 X195.527 Y100.705 E29.59688
G1 X195.692 Y101.593 E29.62692
G1 X195.787 Y102.723 E29.66464
G1 X195.8 Y103.33 E29.68483
G1 X195.799 Y196.39 E32.78002
G1 X195.79 Y197.117 E32.8042
G1 X195.739 Y198.019 E32.83425
G1 X195.608 Y198.913 E32.8643
G1 X195.399 Y199.791 E32.89432
G1 X195.113 Y200.648 E32.92437
G1 X194.752 Y201.476 E32.95441
G1 X194.32 Y202.268 E32.98442
G1 X193.819 Y203.02 E33.01447
G1 X193.253 Y203.724 E33.04452
G1 X192.628 Y204.375 E33.07453
G1 X191.947 Y204.969 E33.10459
G1 X191.216 Y205.5 E33.13464
G1 X190.442 Y205.964 E33.16465
G1 X189.629 Y206.358 E33.1947
G1 X188.785 Y206.678 E33.22472
G1 X187.915 Y206.923 E33.25479
G1 X187.028 Y207.089 E33.2848
G1 X185.877 Y207.187 E33.32322
G1 X185.27 Y207.2 E33.34341
G1 X114.975 Y207.199 E35.68143
G1 X114.277 Y207.19 E35.70465
G1 X113.376 Y207.139 E35.73467
G1 X112.482 Y207.007 E35.76472
G1 X111.604 Y206.798 E35.79474
G1 X110.747 Y206.511 E35.8248
G1 X109.92 Y206.15 E35.85482
G1 X109.127 Y205.717 E35.88487
G1 X108.376 Y205.216 E35.91489
G1 X107.672 Y204.65 E35.94494
G1 X107.021 Y204.024 E35.97498
G1 X106.428 Y203.343 E36.00501
G1 X105.898 Y202.612 E36.03504
G1 X105.434 Y201.837 E36.06508
G1 X105.04 Y201.024 E36.09513
G1 X104.72 Y200.18 E36.12515
G1 X104.476 Y199.31 E36.15521
G1 X104.31 Y198.422 E36.18525
G1 X104.213 Y197.267 E36.2238
G1 X104.2 Y196.658 E36.24406
G1 X104.201 Y103.536 E39.34131
G1 X104.21 Y102.871 E39.36343
G1 X104.262 Y101.969 E39.39349
G1 X104.394 Y101.076 E39.42351
G1 X104.604 Y100.198 E39.45354
G1 X104.891 Y99.341 E39.4836
G1 X105.253 Y98.514 E39.51362
G1 X105.686 Y97.722 E39.54364
G1 X106.188 Y96.971 E39.57369
G1 X106.755 Y96.267 E39.60375
G1 F2700 E32.60375
;MESH:3Card_tray_large.stl
G0 F6000 X113.735 Y103.42
G0 X115 Y196.4
;TYPE:WALL-INNER
G1 F2700 E39.60375
G1 F1200 X185 Y196.4 E41.93196
G1 X185 Y103.6 E45.0185
G1 X150 Y103.6 E46.18261
G1 X115 Y103.6 E47.34671
G1 X115 Y196.4 E50.43325
G0 F6000 X114.6 Y196.8
;TYPE:WALL-OUTER
G1 F1200 X185.4 Y196.8 E52.78807
G1 X185.4 Y103.2 E55.90122
G1 X150 Y103.2 E57.07863
G1 X114.6 Y103.2 E58.25604
G1 X114.6 Y196.8 E61.36919
G0 F6000 X114.87 Y196.53
G0 X115.1 Y196.04
G0 X115.36 Y196.04
;TYPE:SKIN
G1 F1200 X184.64 Y196.04 E63.67345
G1 X184.64 Y103.96 E66.73604
G1 X115.36 Y103.96 E69.0403
G1 X115.36 Y196.04 E72.1029
G0 F6000 X116.077 Y195.839
G1 F1200 X115.559 Y195.321 E72.12726
G0 F6000 X115.559 Y194.755
G1 F1200 X116.643 Y195.839 E72.17825
G0 F6000 X117.209 Y195.839
G1 F1200 X115.559 Y194.189 E72.25586
G0 F6000 X115.559 Y193.624
G1 F1200 X117.774 Y195.839 E72.36005
G0 F6000 X118.34 Y195.839
G1 F1200 X115.559 Y193.058 E72.49086
G0 F6000 X115.559 Y192.492
G1 F1200 X118.906 Y195.839 E72.64829
G0 F6000 X119.472 Y195.839
G1 F1200 X115.559 Y191.927 E72.83232
G0 F6000 X115.559 Y191.361
G1 F1200 X120.037 Y195.839 E73.04295
G0 F6000 X120.603 Y195.839
G1 F1200 X115.559 Y190.795 E73.28021
G0 F6000 X115.559 Y190.23
G1 F1200 X121.169 Y195.839 E73.54406
G0 F6000 X121.734 Y195.839
G1 F1200 X115.559 Y189.664 E73.83451
G0 F6000 X115.559 Y189.098
G1 F1200 X122.3 Y195.839 E74.15159
G0 F6000 X122.866 Y195.839
G1 F1200 X115.559 Y188.533 E74.49526
G0 F6000 X115.559 Y187.967
G1 F1200 X123.431 Y195.839 E74.86554
G0 F6000 X123.997 Y195.839
G1 F1200 X115.559 Y187.401 E75.26244
G0 F6000 X115.559 Y186.835
G1 F1200 X124.563 Y195.839 E75.68596
G0 F6000 X125.128 Y195.839
G1 F1200 X115.559 Y186.27 E76.13605
G0 F6000 X115.559 Y185.704
G1 F1200 X125.694 Y195.839 E76.61277
G0 F6000 X126.26 Y195.839
G1 F1200 X115.559 Y185.138 E77.11612
G0 F6000 X115.559 Y184.573
G1 F1200 X126.825 Y195.839 E77.64603
G0 F6000 X127.391 Y195.839
G1 F1200 X115.559 Y184.007 E78.20258
G0 F6000 X115.559 Y183.441
G1 F1200 X127.957 Y195.839 E78.78574
G0 F6000 X128.523 Y195.839
G1 F1200 X115.559 Y182.876 E79.3955
G0 F6000 X115.559 Y182.31
G1 F1200 X129.088 Y195.839 E80.03186
G0 F6000 X129.654 Y195.839
G1 F1200 X115.559 Y181.744 E80.69485
G0 F6000 X115.559 Y181.179
G1 F1200 X130.22 Y195.839 E81.38444
G0 F6000 X130.785 Y195.839
G1 F1200 X115.559 Y180.613 E82.10062
G0 F6000 X115.559 Y180.047
G1 F1200 X131.351 Y195.839 E82.84343
G0 F6000 X131.917 Y195.839
G1 F1200 X115.559 Y179.482 E83.61283
G0 F6000 X115.559 Y178.916
G1 F1200 X132.482 Y195.839 E84.40884
G0 F6000 X133.048 Y195.839
G1 F1200 X115.559 Y178.35 E85.23147
G0 F6000 X115.559 Y177.785
G1 F1200 X133.614 Y195.839 E86.0807
G0 F6000 X134.179 Y195.839
G1 F1200 X115.559 Y177.219 E86.95652
G0 F6000 X115.559 Y176.653
G1 F1200 X134.745 Y195.839 E87.85898
G0 F6000 X135.311 Y195.839
G1 F1200 X115.559 Y176.087 E88.78805
G0 F6000 X115.559 Y175.522
G1 F1200 X135.876 Y195.839 E89.7437
G0 F6000 X136.442 Y195.839
G1 F1200 X115.559 Y174.956 E90.72597
G0 F6000 X115.559 Y174.39
G1 F1200 X137.008 Y195.839 E91.73487
G0 F6000 X137.573 Y195.839
G1 F1200 X115.559 Y173.825 E92.77034
G0 F6000 X115.559 Y173.259
G1 F1200 X138.139 Y195.839 E93.83243
G0 F6000 X138.705 Y195.839
G1 F1200 X115.559 Y172.693 E94.92115
G0 F6000 X115.559 Y172.128
G1 F1200 X139.271 Y195.839 E96.03646
G0 F6000 X139.836 Y195.839
G1 F1200 X115.559 Y171.562 E97.17838
G0 F6000 X115.559 Y170.996
G1 F1200 X140.402 Y195.839 E98.34692
G0 F6000 X140.968 Y195.839
G1 F1200 X115.559 Y170.431 E99.54206
G0 F6000 X115.559 Y169.865
G1 F1200 X141.533 Y195.839 E100.76379
G0 F6000 X142.099 Y195.839
G1 F1200 X115.559 Y169.299 E102.01215
G0 F6000 X115.559 Y168.734
G1 F1200 X142.665 Y195.839 E103.28711
G0 F6000 X143.23 Y195.839
G1 F1200 X115.559 Y168.168 E104.58867
G0 F6000 X115.559 Y167.602
G1 F1200 X143.796 Y195.839 E105.91685
G0 F6000 X144.362 Y195.839
G1 F1200 X115.559 Y167.037 E107.27164
G0 F6000 X115.559 Y166.471
G1 F1200 X144.927 Y195.839 E108.65302
G0 F6000 X145.493 Y195.839
G1 F1200 X115.559 Y165.905 E110.06102
G0 F6000 X115.559 Y165.339
G1 F1200 X146.059 Y195.839 E111.49565
G0 F6000 X146.624 Y195.839
G1 F1200 X115.559 Y164.774 E112.95685
G0 F6000 X115.559 Y164.208
G1 F1200 X147.19 Y195.839 E114.44467
G0 F6000 X147.756 Y195.839
G1 F1200 X115.559 Y163.642 E115.95912
G0 F6000 X115.559 Y163.077
G1 F1200 X148.322 Y195.839 E117.50017
G0 F6000 X148.887 Y195.839
G1 F1200 X115.559 Y162.511 E119.06782
G0 F6000 X115.559 Y161.945
G1 F1200 X149.453 Y195.839 E120.66209
G0 F6000 X150.019 Y195.839
G1 F1200 X115.559 Y161.38 E122.28296
G0 F6000 X115.559 Y160.814
G1 F1200 X150.584 Y195.839 E123.93042
G0 F6000 X151.15 Y195.839
G1 F1200 X115.559 Y160.248 E125.60452
G0 F6000 X115.559 Y159.683
G1 F1200 X151.716 Y195.839 E127.30521
G0 F6000 X152.281 Y195.839
G1 F1200 X115.559 Y159.117 E129.0325
G0 F6000 X115.559 Y158.551
G1 F1200 X152.847 Y195.839 E130.78641
G0 F6000 X153.413 Y195.839
G1 F1200 X115.559 Y157.986 E132.56692
G0 F6000 X115.559 Y157.42
G1 F1200 X153.978 Y195.839 E134.37403
G0 F6000 X154.544 Y195.839
G1 F1200 X115.559 Y156.854 E136.20777
G0 F6000 X115.559 Y156.288
G1 F1200 X155.11 Y195.839 E138.06813
G0 F6000 X155.675 Y195.839
G1 F1200 X115.559 Y155.723 E139.95506
G0 F6000 X115.559 Y155.157
G1 F1200 X156.241 Y195.839 E141.86862
G0 F6000 X156.807 Y195.839
G1 F1200 X115.559 Y154.591 E143.8088
G0 F6000 X115.559 Y154.026
G1 F1200 X157.372 Y195.839 E145.77555
G0 F6000 X157.938 Y195.839
G1 F1200 X115.559 Y153.46 E147.76893
G0 F6000 X115.559 Y152.894
G1 F1200 X158.504 Y195.839 E149.78893
G0 F6000 X159.07 Y195.839
G1 F1200 X115.559 Y152.329 E151.83553
G0 F6000 X115.559 Y151.763
G1 F1200 X159.635 Y195.839 E153.90873
G0 F6000 X160.201 Y195.839
G1 F1200 X115.559 Y151.197 E156.00855
G0 F6000 X115.559 Y150.632
G1 F1200 X160.767 Y195.839 E158.13498
G0 F6000 X161.332 Y195.839
G1 F1200 X115.559 Y150.066 E160.288
G0 F6000 X115.559 Y149.5
G1 F1200 X161.898 Y195.839 E162.46764
G0 F6000 X162.464 Y195.839
G1 F1200 X115.559 Y148.935 E164.67389
G0 F6000 X115.559 Y148.369
G1 F1200 X163.029 Y195.839 E166.90673
G0 F6000 X163.595 Y195.839
G1 F1200 X115.559 Y147.803 E169.1662
G0 F6000 X115.559 Y147.238
G1 F1200 X164.161 Y195.839 E171.45226
G0 F6000 X164.726 Y195.839
G1 F1200 X115.559 Y146.672 E173.76493
G0 F6000 X115.559 Y146.106
G1 F1200 X165.292 Y195.839 E176.10421
G0 F6000 X165.858 Y195.839
G1 F1200 X115.559 Y145.54 E178.47013
G0 F6000 X115.559 Y144.975
G1 F1200 X166.423 Y195.839 E180.86261
G0 F6000 X166.989 Y195.839
G1 F1200 X115.559 Y144.409 E183.28172
G0 F6000 X115.559 Y143.843
G1 F1200 X167.555 Y195.839 E185.72745
G0 F6000 X168.121 Y195.839
G1 F1200 X115.559 Y143.278 E188.19979
G0 F6000 X115.559 Y142.712
G1 F1200 X168.686 Y195.839 E190.69872
G0 F6000 X169.252 Y195.839
G1 F1200 X115.559 Y142.146 E193.22427
G0 F6000 X115.559 Y141.581
G1 F1200 X169.818 Y195.839 E195.77642
G0 F6000 X170.383 Y195.839
G1 F1200 X115.559 Y141.015 E198.35518
G0 F6000 X115.559 Y140.449
G1 F1200 X170.949 Y195.839 E200.96055
G0 F6000 X171.515 Y195.839
G1 F1200 X115.559 Y139.884 E203.59253
G0 F6000 X115.559 Y139.318
G1 F1200 X172.08 Y195.839 E206.2511
G0 F6000 X172.646 Y195.839
G1 F1200 X115.559 Y138.752 E208.9363
G0 F6000 X115.559 Y138.187
G1 F1200 X173.212 Y195.839 E211.6481
G0 F6000 X173.777 Y195.839
G1 F1200 X115.559 Y137.621 E214.38649
G0 F6000 X115.559 Y137.055
G1 F1200 X174.343 Y195.839 E217.15151
G0 F6000 X174.909 Y195.839
G1 F1200 X115.559 Y136.489 E219.94315
G0 F6000 X115.559 Y135.924
G1 F1200 X175.474 Y195.839 E222.76137
G0 F6000 X176.04 Y195.839
G1 F1200 X115.559 Y135.358 E225.60621
