;FLAVOR:Marlin
;TIME:15372
;Filament used: 8.97608m
;Layer height: 0.2
;MINX:127
;MINY:92
;MINZ:0.2
;MAXX:173
;MAXY:208
;MAXZ:70.6
;Generated with Cura_SteamEngine 5.2.1
M140 S60
M105
M190 S60
M104 S210
M105
M109 S210
M82 ;absolute extrusion mode
M201 X500.00 Y500.00 Z100.00 E5000.00 ;Setup machine max acceleration
M203 X500.00 Y500.00 Z10.00 E50.00 ;Setup machine max feedrate
M204 P500.00 R1000.00 T500.00 ;Setup Print/Retract/Travel acceleration
M205 X8.00 Y8.00 Z0.40 E5.00 ;Setup Jerk
M220 S100 ;Reset Feedrate
M221 S100 ;Reset Flowrate

G28 ;Home
G29 ;Auto bed Level

G92 E0 ;Reset Extruder
G1 Z2.0 F3000 ;Move Z Axis up
G1 X10.1 Y20 Z0.28 F5000.0 ;Move to start position
G1 X10.1 Y200.0 Z0.28 F1500.0 E15 ;Draw the first line
G1 X10.4 Y200.0 Z0.28 F5000.0 ;Move to side a little
G1 X10.4 Y20 Z0.28 F1500.0 E30 ;Draw the second line
G92 E0 ;Reset Extruder
G1 Z2.0 F3000 ;Move Z Axis up

G92 E0
G92 E0
G1 F2700 E-7
;LAYER_COUNT:353
;LAYER:0
M107
G0 F6000 X128.996 Y96.703 Z0.2
;TYPE:SKIRT
G1 F2700 E0
G1 F1200 X129.566 Y95.958 E0.0312
G1 X130.198 Y95.264 E0.06242
G1 X130.886 Y94.627 E0.0936
G1 X131.626 Y94.051 E0.12479
G1 X132.412 Y93.539 E0.15599
G1 X133.239 Y93.097 E0.18718
G1 X134.101 Y92.727 E0.21838
G1 X134.991 Y92.431 E0.24958
G1 X135.903 Y92.213 E0.28077
G1 X136.83 Y92.072 E0.31195
G1 X137.701 Y92.013 E0.34099
G1 X138.33 Y92 E0.36191
G1 X161.451 Y92.001 E1.13092
G1 X162.149 Y92.011 E1.15414
G1 X163.085 Y92.065 E1.18532
G1 X164.013 Y92.197 E1.2165
G1 X164.927 Y92.409 E1.2477
G1 X165.819 Y92.698 E1.27889
G1 X166.684 Y93.061 E1.31009
G1 X167.514 Y93.497 E1.34127
G1 X168.305 Y94.002 E1.37249
G1 X169.049 Y94.573 E1.40368
G1 X169.742 Y95.205 E1.43488
G1 X170.379 Y95.893 E1.46606
G1 X170.954 Y96.634 E1.49726
G1 X171.465 Y97.42 E1.52844
G1 X171.907 Y98.248 E1.55966
G1 X172.276 Y99.11 E1.59084
G1 X172.571 Y100 E1.62203
G1 X172.789 Y100.912 E1.65322
G1 X172.929 Y101.84 E1.68443
G1 X172.987 Y102.701 E1.71313
G1 X173 Y103.33 E1.73406
G1 X172.999 Y196.4 E4.82958
G1 X172.99 Y197.127 E4.85376
G1 X172.939 Y198.064 E4.88497
G1 X172.807 Y198.992 E4.91615
G1 X172.598 Y199.906 E4.94733
G1 X172.311 Y200.799 E4.97853
G1 X171.949 Y201.665 E5.00975
G1 X171.515 Y202.496 E5.04093
G1 X171.011 Y203.287 E5.07212
G1 X170.442 Y204.032 E5.1033
G1 X169.811 Y204.727 E5.13453
G1 X169.124 Y205.365 E5.16571
G1 X168.385 Y205.942 E5.19689
G1 X167.599 Y206.454 E5.22809
G1 X166.773 Y206.897 E5.25927
G1 X165.911 Y207.269 E5.29049
G1 X165.022 Y207.565 E5.32166
G1 X164.11 Y207.785 E5.35286
G1 X163.183 Y207.926 E5.38405
G1 X162.299 Y207.987 E5.41352
G1 X161.67 Y208 E5.43444
G1 X138.565 Y207.999 E6.20292
G1 X137.867 Y207.99 E6.22614
G1 X136.931 Y207.938 E6.25732
G1 X136.002 Y207.806 E6.28853
G1 X135.088 Y207.596 E6.31972
G1 X134.195 Y207.309 E6.35091
G1 X133.33 Y206.946 E6.38212
G1 X132.499 Y206.512 E6.4133
G1 X131.708 Y206.008 E6.44449
G1 X130.963 Y205.438 E6.47569
G1 X130.269 Y204.807 E6.50689
G1 X129.632 Y204.12 E6.53805
G1 X129.055 Y203.38 E6.56926
G1 X128.543 Y202.594 E6.60046
G1 X128.1 Y201.767 E6.63166
G1 X127.729 Y200.906 E6.66285
G1 X127.433 Y200.016 E6.69404
G1 X127.214 Y199.104 E6.72524
G1 X127.073 Y198.177 E6.75642
G1 X127.013 Y197.288 E6.78606
G1 X127 Y196.658 E6.80702
G1 X127.001 Y103.525 E9.90463
G1 X127.01 Y102.86 E9.92675
G1 X127.063 Y101.924 E9.95794
G1 X127.195 Y100.995 E9.98914
G1 X127.406 Y100.081 E10.02034
G1 X127.694 Y99.189 E10.05152
G1 X128.057 Y98.324 E10.08272
G1 X128.492 Y97.493 E10.11392
G1 X128.996 Y96.703 E10.14508
G0 F6000 X129.392 Y96.835
G1 F1200 X129.961 Y96.111 E10.17571
G1 X130.589 Y95.439 E10.2063
G1 X131.274 Y94.823 E10.23694
G1 X132.01 Y94.27 E10.26756
G1 X132.791 Y93.782 E10.29819
G1 X133.611 Y93.364 E10.32881
G1 X134.465 Y93.019 E10.35944
G1 X135.345 Y92.749 E10.39006
G1 X136.245 Y92.557 E10.42066
G1 X137.159 Y92.443 E10.4513
G1 X137.712 Y92.413 E10.46972
G1 X138.33 Y92.4 E10.49028
G1 X161.293 Y92.4 E11.25403
G1 X162.143 Y92.411 E11.2823
G1 X163.062 Y92.464 E11.31292
G1 X163.973 Y92.597 E11.34354
G1 X164.869 Y92.808 E11.37416
G1 X165.743 Y93.096 E11.40477
G1 X166.59 Y93.459 E11.43541
G1 X167.401 Y93.894 E11.46602
G1 X168.171 Y94.398 E11.49663
G1 X168.895 Y94.967 E11.52726
G1 X169.567 Y95.597 E11.5579
G1 X170.182 Y96.282 E11.58851
G1 X170.735 Y97.018 E11.61913
G1 X171.222 Y97.799 E11.64975
G1 X171.639 Y98.62 E11.68037
G1 X171.984 Y99.474 E11.71101
G1 X172.253 Y100.354 E11.74161
G1 X172.445 Y101.255 E11.77225
G1 X172.558 Y102.168 E11.80285
G1 X172.587 Y102.712 E11.82097
G1 X172.6 Y103.33 E11.84153
G1 X172.599 Y196.395 E14.93689
G1 X172.59 Y197.122 E14.96107
G1 X172.539 Y198.041 E14.99168
G1 X172.408 Y198.953 E15.02232
G1 X172.198 Y199.849 E15.05293
G1 X171.912 Y200.724 E15.08355
G1 X171.551 Y201.571 E15.11417
G1 X171.117 Y202.383 E15.1448
G1 X170.615 Y203.155 E15.17543
G1 X170.047 Y203.88 E15.20606
G1 X169.419 Y204.553 E15.23667
G1 X168.735 Y205.169 E15.26729
G1 X168 Y205.723 E15.2979
G1 X167.22 Y206.212 E15.32852
G1 X166.4 Y206.631 E15.35915
G1 X165.547 Y206.977 E15.38977
G1 X164.667 Y207.248 E15.42039
G1 X163.767 Y207.441 E15.45101
G1 X162.853 Y207.556 E15.48165
G1 X162.288 Y207.587 E15.50047
G1 X161.67 Y207.6 E15.52102
G1 X138.57 Y207.599 E16.28933
G1 X137.872 Y207.59 E16.31255
G1 X136.953 Y207.538 E16.34317
G1 X136.042 Y207.407 E16.37378
G1 X135.146 Y207.197 E16.40439
G1 X134.271 Y206.91 E16.43501
G1 X133.424 Y206.548 E16.46565
G1 X132.612 Y206.114 E16.49627
G1 X131.841 Y205.612 E16.52687
G1 X131.116 Y205.044 E16.55751
G1 X130.443 Y204.415 E16.58815
G1 X129.828 Y203.731 E16.61874
G1 X129.274 Y202.996 E16.64935
G1 X128.786 Y202.215 E16.67998
G1 X128.367 Y201.395 E16.71061
G1 X128.021 Y200.542 E16.74123
G1 X127.751 Y199.662 E16.77184
G1 X127.558 Y198.761 E16.80249
G1 X127.444 Y197.848 E16.83309
G1 X127.413 Y197.277 E16.85211
G1 X127.4 Y196.658 E16.8727
G1 X127.401 Y103.531 E19.97012
G1 X127.41 Y102.866 E19.99224
G1 X127.462 Y101.946 E20.02289
G1 X127.594 Y101.035 E20.0535
G1 X127.805 Y100.139 E20.08412
G1 X128.092 Y99.264 E20.11475
G1 X128.455 Y98.418 E20.14537
G1 X128.889 Y97.606 E20.17599
G1 X129.392 Y96.835 E20.20661
G0 F6000 X129.788 Y96.971
G1 F1200 X130.355 Y96.267 E20.23667
G1 X130.981 Y95.617 E20.26669
G1 X131.662 Y95.024 E20.29672
G1 X132.394 Y94.494 E20.32678
G1 X133.169 Y94.031 E20.35681
G1 X133.982 Y93.638 E20.38684
G1 X134.827 Y93.318 E20.41689
G1 X135.696 Y93.075 E20.4469
G1 X136.584 Y92.909 E20.47695
G1 X137.723 Y92.813 E20.51497
G1 X138.33 Y92.8 E20.53516
G1 X161.293 Y92.8 E21.29892
G1 X162.137 Y92.811 E21.32699
G1 X163.039 Y92.864 E21.35704
G1 X163.932 Y92.996 E21.38707
G1 X164.81 Y93.207 E21.4171
G1 X165.666 Y93.495 E21.44714
G1 X166.493 Y93.857 E21.47716
G1 X167.285 Y94.292 E21.50722
G1 X168.036 Y94.794 E21.53726
G1 X168.739 Y95.361 E21.5673
G1 X169.389 Y95.988 E21.59734
G1 X169.981 Y96.67 E21.62738
G1 X170.511 Y97.401 E21.65741
G1 X170.973 Y98.177 E21.68745
G1 X171.366 Y98.99 E21.71748
G1 X171.684 Y99.835 E21.74751
G1 X171.927 Y100.705 E21.77755
G1 X172.092 Y101.593 E21.80759
G1 X172.187 Y102.723 E21.84531
G1 X172.2 Y103.33 E21.8655
G1 X172.199 Y196.39 E24.96069
G1 X172.19 Y197.117 E24.98487
G1 X172.139 Y198.019 E25.01492
G1 X172.008 Y198.913 E25.04497
G1 X171.799 Y199.791 E25.07499
G1 X171.513 Y200.648 E25.10504
G1 X171.152 Y201.476 E25.13509
G1 X170.72 Y202.268 E25.16509
G1 X170.219 Y203.02 E25.19515
G1 X169.653 Y203.724 E25.22519
G1 X169.028 Y204.375 E25.25521
G1 X168.347 Y204.969 E25.28526
G1 X167.616 Y205.5 E25.31531
G1 X166.842 Y205.964 E25.34533
G1 X166.029 Y206.358 E25.37538
G1 X165.185 Y206.678 E25.4054
G1 X164.315 Y206.923 E25.43546
G1 X163.428 Y207.089 E25.46547
G1 X162.277 Y207.187 E25.50389
G1 X161.67 Y207.2 E25.52409
G1 X138.575 Y207.199 E26.29223
G1 X137.877 Y207.19 E26.31545
G1 X136.976 Y207.139 E26.34546
G1 X136.082 Y207.007 E26.37552
G1 X135.204 Y206.798 E26.40554
G1 X134.347 Y206.511 E26.4356
G1 X133.52 Y206.15 E26.46561
G1 X132.727 Y205.717 E26.49566
G1 X131.976 Y205.216 E26.52569
G1 X131.272 Y204.65 E26.55573
G1 X130.621 Y204.024 E26.58577
G1 X130.028 Y203.343 E26.6158
G1 X129.498 Y202.612 E26.64584
G1 X129.034 Y201.837 E26.67588
G1 X128.64 Y201.024 E26.70593
G1 X128.32 Y200.18 E26.73595
G1 X128.076 Y199.31 E26.766
G1 X127.91 Y198.422 E26.79605
G1 X127.813 Y197.267 E26.8346
G1 X127.8 Y196.658 E26.85486
G1 X127.801 Y103.536 E29.95211
G1 X127.81 Y102.871 E29.97423
G1 X127.862 Y101.969 E30.00428
G1 X127.994 Y101.076 E30.0343
G1 X128.204 Y100.198 E30.06433
G1 X128.491 Y99.341 E30.09439
G1 X128.853 Y98.514 E30.12442
G1 X129.286 Y97.722 E30.15444
G1 X129.788 Y96.971 E30.18448
G1 F2700 E23.18448
;MESH:2Card_tray_small.stl
G0 F6000 X137.335 Y103.42
G0 X138.6 Y196.4
;TYPE:WALL-INNER
G1 F2700 E30.18448
G1 F1200 X161.4 Y196.4 E30.94281
G1 X161.4 Y115 E33.65019
G1 X161.4 Y103.6 E34.02935
G1 X138.6 Y103.6 E34.78769
G1 X138.6 Y196.4 E37.87423
G0 F6000 X138.2 Y196.8
;TYPE:WALL-OUTER
G1 F1200 X161.8 Y196.8 E38.65916
G1 X161.8 Y115 E41.37984
G1 X161.8 Y103.2 E41.77231
G1 X138.2 Y103.2 E42.55725
G1 X138.2 Y196.8 E45.6704
G0 F6000 X138.47 Y196.53
G0 X138.7 Y196.04
G0 X138.96 Y196.04
;TYPE:SKIN
G1 F1200 X161.04 Y196.04 E46.40479
G1 X161.04 Y115 E49.10019
G1 X161.04 Y103.96 E49.46738
G1 X138.96 Y103.96 E50.20176
G1 X138.96 Y196.04 E53.26436
G0 F6000 X139.27 Y195.838
G1 F1200 X139.159 Y195.727 E53.26958
G0 F6000 X139.159 Y195.162
G1 F1200 X139.836 Y195.838 E53.3014
G0 F6000 X140.401 Y195.838
G1 F1200 X139.159 Y194.596 E53.35982
G0 F6000 X139.159 Y194.03
G1 F1200 X140.967 Y195.838 E53.44486
G0 F6000 X141.533 Y195.838
G1 F1200 X139.159 Y193.465 E53.5565
G0 F6000 X139.159 Y192.899
G1 F1200 X142.098 Y195.838 E53.69474
G0 F6000 X142.664 Y195.838
G1 F1200 X139.159 Y192.333 E53.85961
G0 F6000 X139.159 Y191.768
G1 F1200 X143.23 Y195.838 E54.05107
G0 F6000 X143.795 Y195.838
G1 F1200 X139.159 Y191.202 E54.26913
G0 F6000 X139.159 Y190.636
G1 F1200 X144.361 Y195.838 E54.51382
G0 F6000 X144.927 Y195.838
G1 F1200 X139.159 Y190.071 E54.78511
G0 F6000 X139.159 Y189.505
G1 F1200 X145.492 Y195.838 E55.08299
G0 F6000 X146.058 Y195.838
G1 F1200 X139.159 Y188.939 E55.4075
G0 F6000 X139.159 Y188.373
G1 F1200 X146.624 Y195.838 E55.75863
G0 F6000 X147.189 Y195.838
G1 F1200 X139.159 Y187.808 E56.13634
G0 F6000 X139.159 Y187.242
G1 F1200 X147.755 Y195.838 E56.54067
G0 F6000 X148.321 Y195.838
G1 F1200 X139.159 Y186.676 E56.97162
G0 F6000 X139.159 Y186.111
G1 F1200 X148.886 Y195.838 E57.42915
G0 F6000 X149.452 Y195.838
G1 F1200 X139.159 Y185.545 E57.9133
G0 F6000 X139.159 Y184.979
G1 F1200 X150.018 Y195.838 E58.42407
G0 F6000 X150.584 Y195.838
G1 F1200 X139.159 Y184.414 E58.96145
G0 F6000 X139.159 Y183.848
G1 F1200 X151.149 Y195.838 E59.52542
G0 F6000 X151.715 Y195.838
G1 F1200 X139.159 Y183.282 E60.11601
G0 F6000 X139.159 Y182.717
G1 F1200 X152.281 Y195.838 E60.73321
G0 F6000 X152.846 Y195.838
G1 F1200 X139.159 Y182.151 E61.377
G0 F6000 X139.159 Y181.585
G1 F1200 X153.412 Y195.838 E62.04742
G0 F6000 X153.978 Y195.838
G1 F1200 X139.159 Y181.02 E62.74444
G0 F6000 X139.159 Y180.454
G1 F1200 X154.543 Y195.838 E63.46805
G0 F6000 X155.109 Y195.838
G1 F1200 X139.159 Y179.888 E64.21829
G0 F6000 X139.159 Y179.322
G1 F1200 X155.675 Y195.838 E64.99516
G0 F6000 X156.24 Y195.838
G1 F1200 X139.159 Y178.757 E65.79859
G0 F6000 X139.159 Y178.191
G1 F1200 X156.806 Y195.838 E66.62865
G0 F6000 X157.372 Y195.838
G1 F1200 X139.159 Y177.625 E67.48534
G0 F6000 X139.159 Y177.06
G1 F1200 X157.937 Y195.838 E68.3686
G0 F6000 X158.503 Y195.838
G1 F1200 X139.159 Y176.494 E69.27848
G0 F6000 X139.159 Y175.928
G1 F1200 X159.069 Y195.838 E70.21498
G0 F6000 X159.635 Y195.838
G1 F1200 X139.159 Y175.363 E71.17809
G0 F6000 X139.159 Y174.797
G1 F1200 X160.2 Y195.838 E72.16779
G0 F6000 X160.766 Y195.838
G1 F1200 X139.159 Y174.231 E73.18412
G0 F6000 X139.159 Y173.666
G1 F1200 X160.839 Y195.346 E74.20388
G0 F6000 X160.839 Y194.781
G1 F1200 X139.159 Y173.1 E75.22367
G0 F6000 X139.159 Y172.534
G1 F1200 X160.839 Y194.215 E76.24345
G0 F6000 X160.839 Y193.649
G1 F1200 X139.159 Y171.969 E77.26321
G0 F6000 X139.159 Y171.403
G1 F1200 X160.839 Y193.083 E78.28297
G0 F6000 X160.839 Y192.518
G1 F1200 X139.159 Y170.837 E79.30276
G0 F6000 X139.159 Y170.272
G1 F1200 X160.839 Y191.952 E80.32252
G0 F6000 X160.839 Y191.386
G1 F1200 X139.159 Y169.706 E81.34228
G0 F6000 X139.159 Y169.14
G1 F1200 X160.839 Y190.821 E82.36206
G0 F6000 X160.839 Y190.255
G1 F1200 X139.159 Y168.574 E83.38185
G0 F6000 X139.159 Y168.009
G1 F1200 X160.839 Y189.689 E84.40161
G0 F6000 X160.839 Y189.124
G1 F1200 X139.159 Y167.443 E85.42139
G0 F6000 X139.159 Y166.877
G1 F1200 X160.839 Y188.558 E86.44117
G0 F6000 X160.839 Y187.992
G1 F1200 X139.159 Y166.312 E87.46094
G0 F6000 X139.159 Y165.746
G1 F1200 X160.839 Y187.427 E88.48072
G0 F6000 X160.839 Y186.861
G1 F1200 X139.159 Y165.18 E89.5005
G0 F6000 X139.159 Y164.615
G1 F1200 X160.839 Y186.295 E90.52026
G0 F6000 X160.839 Y185.73
G1 F1200 X139.159 Y164.049 E91.54005
G0 F6000 X139.159 Y163.483
G1 F1200 X160.839 Y185.164 E92.55983
G0 F6000 X160.839 Y184.598
G1 F1200 X139.159 Y162.918 E93.57959
G0 F6000 X139.159 Y162.352
G1 F1200 X160.839 Y184.033 E94.59938
G0 F6000 X160.839 Y183.467
G1 F1200 X139.159 Y161.786 E95.61916
G0 F6000 X139.159 Y161.221
G1 F1200 X160.839 Y182.901 E96.63892
G0 F6000 X160.839 Y182.335
G1 F1200 X139.159 Y160.655 E97.65868
G0 F6000 X139.159 Y160.089
G1 F1200 X160.839 Y181.77 E98.67847
G0 F6000 X160.839 Y181.204
G1 F1200 X139.159 Y159.523 E99.69825
G0 F6000 X139.159 Y158.958
G1 F1200 X160.839 Y180.638 E100.71801
G0 F6000 X160.839 Y180.073
G1 F1200 X139.159 Y158.392 E101.7378
G0 F6000 X139.159 Y157.826
G1 F1200 X160.839 Y179.507 E102.75758
G0 F6000 X160.839 Y178.941
G1 F1200 X139.159 Y157.261 E103.77734
G0 F6000 X139.159 Y156.695
G1 F1200 X160.839 Y178.376 E104.79713
G0 F6000 X160.839 Y177.81
G1 F1200 X139.159 Y156.129 E105.81691
G0 F6000 X139.159 Y155.564
G1 F1200 X160.839 Y177.244 E106.83667
G0 F6000 X160.839 Y176.679
G1 F1200 X139.159 Y154.998 E107.85646
G0 F6000 X139.159 Y154.432
G1 F1200 X160.839 Y176.113 E108.87624
G0 F6000 X160.839 Y175.547
G1 F1200 X139.159 Y153.867 E109.896
G0 F6000 X139.159 Y153.301
G1 F1200 X160.839 Y174.982 E110.91579
G0 F6000 X160.839 Y174.416
G1 F1200 X139.159 Y152.735 E111.93557
G0 F6000 X139.159 Y152.17
G1 F1200 X160.839 Y173.85 E112.95533
G0 F6000 X160.839 Y173.285
G1 F1200 X139.159 Y151.604 E113.97511
G0 F6000 X139.159 Y151.038
G1 F1200 X160.839 Y172.719 E114.9949
G0 F6000 X160.839 Y172.153
G1 F1200 X139.159 Y150.473 E116.01466
G0 F6000 X139.159 Y149.907
G1 F1200 X160.839 Y171.587 E117.03442
G0 F6000 X160.839 Y171.022
G1 F1200 X139.159 Y149.341 E118.0542
G0 F6000 X139.159 Y148.775
G1 F1200 X160.839 Y170.456 E119.07399
G0 F6000 X160.839 Y169.89
G1 F1200 X139.159 Y148.21 E120.09375
G0 F6000 X139.159 Y147.644
G1 F1200 X160.839 Y169.325 E121.11353
G0 F6000 X160.839 Y168.759
G1 F1200 X139.159 Y147.078 E122.13332
G0 F6000 X139.159 Y146.513
G1 F1200 X160.839 Y168.193 E123.15308
G0 F6000 X160.839 Y167.628
G1 F1200 X139.159 Y145.947 E124.17286
G0 F6000 X139.159 Y145.381
G1 F1200 X160.839 Y167.062 E125.19265
G0 F6000 X160.839 Y166.496
G1 F1200 X139.159 Y144.816 E126.21241
G0 F6000 X139.159 Y144.25
G1 F1200 X160.839 Y165.931 E127.23219
G0 F6000 X160.839 Y165.365
G1 F1200 X139.159 Y143.684 E128.25198
G0 F6000 X139.159 Y143.119
G1 F1200 X160.839 Y164.799 E129.27174
G0 F6000 X160.839 Y164.234
G1 F1200 X139.159 Y142.553 E130.29152
G0 F6000 X139.159 Y141.987
G1 F1200 X160.839 Y163.668 E131.31131
G0 F6000 X160.839 Y163.102
G1 F1200 X139.159 Y141.422 E132.33107
G0 F6000 X139.159 Y140.856
G1 F1200 X160.839 Y162.536 E133.35083
G0 F6000 X160.839 Y161.971
G1 F1200 X139.159 Y140.29 E134.37061
G0 F6000 X139.159 Y139.725
G1 F1200 X160.839 Y161.405 E135.39037
G0 F6000 X160.839 Y160.839
G1 F1200 X139.159 Y139.159 E136.41013
G0 F6000 X139.159 Y138.593
G1 F1200 X160.839 Y160.274 E137.42992
G0 F6000 X160.839 Y159.708
G1 F1200 X139.159 Y138.027 E138.4497
G0 F6000 X139.159 Y137.462
G1 F1200 X160.839 Y159.142 E139.46946
G0 F6000 X160.839 Y158.577
G1 F1200 X139.159 Y136.896 E140.48925
G0 F6000 X139.159 Y136.33
G1 F1200 X160.839 Y158.011 E141.50903
G0 F6000 X160.839 Y157.445
G1 F1200 X139.159 Y135.765 E142.52879
