;FLAVOR:Marlin
;TIME:7930
;Filament used: 5.42658m
;Layer height: 0.2
;MINX:112.5
;MINY:112.36
;MINZ:0.2
;MAXX:187.5
;MAXY:187.64
;MAXZ:27
;Generated with Cura_SteamEngine 5.2.1
M140 S60
M105
M190 S60
M104 S210
M105
M109 S210
M82 ;absolute extrusion mode
M201 X500.00 Y500.00 Z100.00 E5000.00 ;Setup machine max acceleration
M203 X500.00 Y500.00 Z10.00 E50.00 ;Setup machine max feedrate
M204 P500.00 R1000.00 T500.00 ;Setup Print/Retract/Travel acceleration
M205 X8.00 Y8.00 Z0.40 E5.00 ;Setup Jerk
M220 S100 ;Reset Feedrate
M221 S100 ;Reset Flowrate

G28 ;Home
G29 ;Auto bed Level

G92 E0 ;Reset Extruder
G1 Z2.0 F3000 ;Move Z Axis up
G1 X10.1 Y20 Z0.28 F5000.0 ;Move to start position
G1 X10.1 Y200.0 Z0.28 F1500.0 E15 ;Draw the first line
G1 X10.4 Y200.0 Z0.28 F5000.0 ;Move to side a little
G1 X10.4 Y20 Z0.28 F1500.0 E30 ;Draw the second line
G92 E0 ;Reset Extruder
G1 Z2.0 F3000 ;Move Z Axis up

G92 E0
G92 E0
G1 F2700 E-7
;LAYER_COUNT:135
;LAYER:0
M107
G0 F6000 X115.698 Y115.624 Z0.2
;TYPE:SKIRT
G1 F2700 E0
G1 F1200 X116.386 Y114.987 E0.03119
G1 X117.126 Y114.411 E0.06237
G1 X117.912 Y113.899 E0.09357
G1 X118.739 Y113.457 E0.12476
G1 X119.601 Y113.087 E0.15596
G1 X120.491 Y112.791 E0.18716
G1 X121.403 Y112.573 E0.21835
G1 X122.33 Y112.432 E0.24953
G1 X123.201 Y112.373 E0.27857
G1 X123.83 Y112.36 E0.29949
G1 X175.951 Y112.361 E2.03305
G1 X176.649 Y112.371 E2.05626
G1 X177.585 Y112.425 E2.08745
G1 X178.513 Y112.557 E2.11862
G1 X179.427 Y112.769 E2.14983
G1 X180.319 Y113.058 E2.18102
G1 X181.184 Y113.421 E2.21222
G1 X182.014 Y113.857 E2.2434
G1 X182.805 Y114.362 E2.27461
G1 X183.549 Y114.933 E2.30581
G1 X184.242 Y115.565 E2.337
G1 X184.879 Y116.253 E2.36819
G1 X185.454 Y116.994 E2.39938
G1 X185.965 Y117.78 E2.43056
G1 X186.407 Y118.608 E2.46178
G1 X186.776 Y119.47 E2.49297
G1 X187.071 Y120.36 E2.52415
G1 X187.289 Y121.272 E2.55534
G1 X187.429 Y122.2 E2.58656
G1 X187.487 Y123.061 E2.61526
G1 X187.5 Y123.69 E2.63618
G1 X187.499 Y176.04 E4.37735
G1 X187.49 Y176.767 E4.40153
G1 X187.439 Y177.704 E4.43274
G1 X187.307 Y178.632 E4.46392
G1 X187.098 Y179.546 E4.4951
G1 X186.811 Y180.439 E4.5263
G1 X186.449 Y181.305 E4.55752
G1 X186.015 Y182.136 E4.5887
G1 X185.511 Y182.927 E4.6199
G1 X184.942 Y183.672 E4.65108
G1 X184.311 Y184.367 E4.6823
G1 X183.624 Y185.005 E4.71348
G1 X182.885 Y185.582 E4.74466
G1 X182.099 Y186.094 E4.77586
G1 X181.273 Y186.537 E4.80704
G1 X180.411 Y186.909 E4.83827
G1 X179.522 Y187.205 E4.86943
G1 X178.61 Y187.425 E4.90063
G1 X177.683 Y187.566 E4.93182
G1 X176.799 Y187.627 E4.96129
G1 X176.17 Y187.64 E4.98222
G1 X124.065 Y187.639 E6.71524
G1 X123.367 Y187.63 E6.73845
G1 X122.431 Y187.578 E6.76963
G1 X121.502 Y187.446 E6.80084
G1 X120.588 Y187.236 E6.83203
G1 X119.695 Y186.949 E6.86323
G1 X118.83 Y186.586 E6.89443
G1 X117.999 Y186.152 E6.92561
G1 X117.208 Y185.648 E6.95681
G1 X116.463 Y185.078 E6.98801
G1 X115.769 Y184.447 E7.01921
G1 X115.132 Y183.76 E7.05037
G1 X114.555 Y183.02 E7.08158
G1 X114.043 Y182.234 E7.11278
G1 X113.6 Y181.407 E7.14398
G1 X113.229 Y180.546 E7.17516
G1 X112.933 Y179.656 E7.20636
G1 X112.714 Y178.744 E7.23755
G1 X112.573 Y177.817 E7.26874
G1 X112.513 Y176.928 E7.29838
G1 X112.5 Y176.298 E7.31933
G1 X112.501 Y123.885 E9.0626
G1 X112.51 Y123.22 E9.08472
G1 X112.563 Y122.284 E9.1159
G1 X112.695 Y121.355 E9.14711
G1 X112.906 Y120.441 E9.17831
G1 X113.194 Y119.549 E9.20948
G1 X113.557 Y118.684 E9.24068
G1 X113.992 Y117.853 E9.27188
G1 X114.496 Y117.063 E9.30305
G1 X115.066 Y116.318 E9.33425
G1 X115.698 Y115.624 E9.36547
G0 F6000 X116.089 Y115.799
G1 F1200 X116.774 Y115.183 E9.39611
G1 X117.51 Y114.63 E9.42673
G1 X118.291 Y114.142 E9.45736
G1 X119.111 Y113.724 E9.48797
G1 X119.965 Y113.379 E9.5186
G1 X120.845 Y113.109 E9.54922
G1 X121.745 Y112.917 E9.57983
G1 X122.659 Y112.803 E9.61046
G1 X123.212 Y112.773 E9.62888
G1 X123.83 Y112.76 E9.64944
G1 X175.793 Y112.76 E11.37774
G1 X176.643 Y112.771 E11.40601
G1 X177.562 Y112.824 E11.43663
G1 X178.473 Y112.957 E11.46725
G1 X179.369 Y113.168 E11.49787
G1 X180.243 Y113.456 E11.52847
G1 X181.09 Y113.819 E11.55912
G1 X181.901 Y114.254 E11.58973
G1 X182.671 Y114.758 E11.62034
G1 X183.395 Y115.327 E11.65097
G1 X184.067 Y115.957 E11.6816
G1 X184.682 Y116.642 E11.71222
G1 X185.235 Y117.378 E11.74284
G1 X185.722 Y118.159 E11.77345
G1 X186.139 Y118.98 E11.80408
G1 X186.484 Y119.834 E11.83472
G1 X186.753 Y120.714 E11.86532
G1 X186.945 Y121.615 E11.89596
G1 X187.058 Y122.528 E11.92656
G1 X187.087 Y123.072 E11.94468
G1 X187.1 Y123.69 E11.96524
G1 X187.099 Y176.035 E13.70624
G1 X187.09 Y176.762 E13.73042
G1 X187.039 Y177.681 E13.76104
G1 X186.908 Y178.593 E13.79168
G1 X186.698 Y179.489 E13.82229
G1 X186.412 Y180.364 E13.85291
G1 X186.051 Y181.211 E13.88353
G1 X185.617 Y182.023 E13.91415
G1 X185.115 Y182.795 E13.94478
G1 X184.547 Y183.52 E13.97541
G1 X183.919 Y184.193 E14.00603
G1 X183.235 Y184.809 E14.03664
G1 X182.5 Y185.363 E14.06726
G1 X181.72 Y185.852 E14.09788
G1 X180.9 Y186.271 E14.1285
G1 X180.047 Y186.617 E14.15912
G1 X179.167 Y186.888 E14.18975
G1 X178.267 Y187.081 E14.22036
G1 X177.353 Y187.196 E14.251
G1 X176.788 Y187.227 E14.26982
G1 X176.17 Y187.24 E14.29038
G1 X124.07 Y187.239 E16.02323
G1 X123.372 Y187.23 E16.04645
G1 X122.453 Y187.178 E16.07707
G1 X121.542 Y187.047 E16.10768
G1 X120.646 Y186.837 E16.13829
G1 X119.771 Y186.55 E16.16891
G1 X118.924 Y186.188 E16.19955
G1 X118.112 Y185.754 E16.23017
G1 X117.341 Y185.252 E16.26077
G1 X116.616 Y184.684 E16.29141
G1 X115.943 Y184.055 E16.32204
G1 X115.328 Y183.371 E16.35264
G1 X114.774 Y182.636 E16.38325
G1 X114.286 Y181.855 E16.41388
G1 X113.867 Y181.035 E16.44451
G1 X113.521 Y180.182 E16.47512
G1 X113.251 Y179.302 E16.50574
G1 X113.058 Y178.401 E16.53639
G1 X112.944 Y177.488 E16.56699
G1 X112.913 Y176.917 E16.58601
G1 X112.9 Y176.298 E16.6066
G1 X112.901 Y123.891 E18.34967
G1 X112.91 Y123.226 E18.37179
G1 X112.962 Y122.306 E18.40243
G1 X113.094 Y121.395 E18.43305
G1 X113.305 Y120.499 E18.46367
G1 X113.592 Y119.624 E18.49429
G1 X113.955 Y118.778 E18.52491
G1 X114.389 Y117.966 E18.55554
G1 X114.892 Y117.195 E18.58615
G1 X115.461 Y116.471 E18.61678
G1 X116.089 Y115.799 E18.64737
G0 F6000 X116.481 Y115.977
G1 F1200 X117.162 Y115.384 E18.67741
G1 X117.894 Y114.854 E18.70747
G1 X118.669 Y114.391 E18.73749
G1 X119.482 Y113.998 E18.76753
G1 X120.327 Y113.678 E18.79758
G1 X121.196 Y113.435 E18.82759
G1 X122.084 Y113.269 E18.85764
G1 X123.223 Y113.173 E18.89565
G1 X123.83 Y113.16 E18.91585
G1 X175.793 Y113.16 E20.64414
G1 X176.637 Y113.171 E20.67222
G1 X177.539 Y113.224 E20.70227
G1 X178.432 Y113.356 E20.73229
G1 X179.31 Y113.567 E20.76233
G1 X180.166 Y113.855 E20.79237
G1 X180.993 Y114.217 E20.82239
G1 X181.785 Y114.652 E20.85245
G1 X182.536 Y115.154 E20.88249
G1 X183.239 Y115.721 E20.91253
G1 X183.889 Y116.348 E20.94257
G1 X184.481 Y117.03 E20.97261
G1 X185.011 Y117.761 E21.00264
G1 X185.473 Y118.537 E21.03267
G1 X185.866 Y119.35 E21.06271
G1 X186.184 Y120.195 E21.09274
G1 X186.427 Y121.065 E21.12278
G1 X186.592 Y121.953 E21.15282
G1 X186.687 Y123.083 E21.19054
G1 X186.7 Y123.69 E21.21073
G1 X186.699 Y176.03 E22.95157
G1 X186.69 Y176.757 E22.97575
G1 X186.639 Y177.659 E23.0058
G1 X186.508 Y178.553 E23.03585
G1 X186.299 Y179.431 E23.06587
G1 X186.013 Y180.288 E23.09592
G1 X185.652 Y181.116 E23.12596
G1 X185.22 Y181.908 E23.15597
G1 X184.719 Y182.66 E23.18602
G1 X184.153 Y183.364 E23.21607
G1 X183.528 Y184.015 E23.24608
G1 X182.847 Y184.609 E23.27614
G1 X182.116 Y185.14 E23.30619
G1 X181.342 Y185.604 E23.3362
G1 X180.529 Y185.998 E23.36625
G1 X179.685 Y186.318 E23.39627
G1 X178.815 Y186.563 E23.42633
G1 X177.928 Y186.729 E23.45635
G1 X176.777 Y186.827 E23.49477
G1 X176.17 Y186.84 E23.51496
G1 X124.075 Y186.839 E25.24765
G1 X123.377 Y186.83 E25.27087
G1 X122.476 Y186.779 E25.30088
G1 X121.582 Y186.647 E25.33094
G1 X120.704 Y186.438 E25.36096
G1 X119.847 Y186.151 E25.39102
G1 X119.02 Y185.79 E25.42103
G1 X118.227 Y185.357 E25.45108
G1 X117.476 Y184.856 E25.48111
G1 X116.772 Y184.29 E25.51115
G1 X116.121 Y183.664 E25.54119
G1 X115.528 Y182.983 E25.57122
G1 X114.998 Y182.252 E25.60126
G1 X114.534 Y181.477 E25.6313
G1 X114.14 Y180.664 E25.66135
G1 X113.82 Y179.82 E25.69137
G1 X113.576 Y178.95 E25.72142
G1 X113.41 Y178.062 E25.75147
G1 X113.313 Y176.907 E25.79002
G1 X113.3 Y176.298 E25.81028
G1 X113.301 Y123.896 E27.55318
G1 X113.31 Y123.231 E27.5753
G1 X113.362 Y122.329 E27.60535
G1 X113.494 Y121.436 E27.63537
G1 X113.704 Y120.558 E27.6654
G1 X113.991 Y119.701 E27.69546
G1 X114.353 Y118.874 E27.72548
G1 X114.786 Y118.082 E27.7555
G1 X115.288 Y117.331 E27.78555
G1 X115.855 Y116.627 E27.81561
G1 X116.481 Y115.977 E27.84563
G1 F2700 E20.84563
;MESH:Blight_Tray.stl
G0 F6000 X123.92 Y122.695
G0 X124.1 Y176.04
;TYPE:WALL-INNER
G1 F2700 E27.84563
G1 F1200 X175.9 Y176.04 E29.5685
G1 X175.9 Y149.86 E30.43926
G1 X175.9 Y123.96 E31.30069
G1 X124.1 Y123.96 E33.02357
G1 X124.1 Y176.04 E34.75576
G0 F6000 X123.7 Y176.44
;TYPE:WALL-OUTER
G1 F1200 X176.3 Y176.44 E36.50524
G1 X176.3 Y149.86 E37.38929
G1 X176.3 Y123.56 E38.26403
G1 X123.7 Y123.56 E40.01352
G1 X123.7 Y176.44 E41.77231
G0 F6000 X123.97 Y176.17
G0 X124.2 Y175.68
G0 X124.46 Y175.68
;TYPE:SKIN
G1 F1200 X175.54 Y175.68 E43.47124
G1 X175.54 Y124.32 E45.17948
G1 X124.46 Y124.32 E46.87841
G1 X124.46 Y175.68 E48.58665
G0 F6000 X125.133 Y175.479
G1 F1200 X124.659 Y175.005 E48.60895
G0 F6000 X124.659 Y174.439
G1 F1200 X125.698 Y175.479 E48.65784
G0 F6000 X126.264 Y175.479
G1 F1200 X124.659 Y173.874 E48.73333
G0 F6000 X124.659 Y173.308
G1 F1200 X126.83 Y175.479 E48.83545
G0 F6000 X127.395 Y175.479
G1 F1200 X124.659 Y172.742 E48.96417
G0 F6000 X124.659 Y172.176
G1 F1200 X127.961 Y175.479 E49.11951
G0 F6000 X128.527 Y175.479
G1 F1200 X124.659 Y171.611 E49.30145
G0 F6000 X124.659 Y171.045
G1 F1200 X129.092 Y175.479 E49.50999
G0 F6000 X129.658 Y175.479
G1 F1200 X124.659 Y170.479 E49.74515
G0 F6000 X124.659 Y169.914
G1 F1200 X130.224 Y175.479 E50.00691
G0 F6000 X130.79 Y175.479
G1 F1200 X124.659 Y169.348 E50.29529
G0 F6000 X124.659 Y168.782
G1 F1200 X131.355 Y175.479 E50.61027
G0 F6000 X131.921 Y175.479
G1 F1200 X124.659 Y168.217 E50.95186
G0 F6000 X124.659 Y167.651
G1 F1200 X132.487 Y175.479 E51.32006
G0 F6000 X133.052 Y175.479
G1 F1200 X124.659 Y167.085 E51.71486
G0 F6000 X124.659 Y166.52
G1 F1200 X133.618 Y175.479 E52.13627
G0 F6000 X134.184 Y175.479
G1 F1200 X124.659 Y165.954 E52.5843
G0 F6000 X124.659 Y165.388
G1 F1200 X134.749 Y175.479 E53.05892
G0 F6000 X135.315 Y175.479
G1 F1200 X124.659 Y164.823 E53.56015
G0 F6000 X124.659 Y164.257
G1 F1200 X135.881 Y175.479 E54.088
G0 F6000 X136.446 Y175.479
G1 F1200 X124.659 Y163.691 E54.64244
G0 F6000 X124.659 Y163.125
G1 F1200 X137.012 Y175.479 E55.22351
G0 F6000 X137.578 Y175.479
G1 F1200 X124.659 Y162.56 E55.83118
G0 F6000 X124.659 Y161.994
G1 F1200 X138.143 Y175.479 E56.46545
G0 F6000 X138.709 Y175.479
G1 F1200 X124.659 Y161.428 E57.12635
G0 F6000 X124.659 Y160.863
G1 F1200 X139.275 Y175.479 E57.81384
G0 F6000 X139.84 Y175.479
G1 F1200 X124.659 Y160.297 E58.52793
G0 F6000 X124.659 Y159.731
G1 F1200 X140.406 Y175.479 E59.26864
G0 F6000 X140.972 Y175.479
G1 F1200 X124.659 Y159.166 E60.03596
G0 F6000 X124.659 Y158.6
G1 F1200 X141.538 Y175.479 E60.82989
G0 F6000 X142.103 Y175.479
G1 F1200 X124.659 Y158.034 E61.65043
G0 F6000 X124.659 Y157.469
G1 F1200 X142.669 Y175.479 E62.49756
G0 F6000 X143.235 Y175.479
G1 F1200 X124.659 Y156.903 E63.37132
G0 F6000 X124.659 Y156.337
G1 F1200 X143.8 Y175.479 E64.27168
G0 F6000 X144.366 Y175.479
G1 F1200 X124.659 Y155.772 E65.19864
G0 F6000 X124.659 Y155.206
G1 F1200 X144.932 Y175.479 E66.15222
G0 F6000 X145.497 Y175.479
G1 F1200 X124.659 Y154.64 E67.1324
G0 F6000 X124.659 Y154.075
G1 F1200 X146.063 Y175.479 E68.13917
G0 F6000 X146.629 Y175.479
G1 F1200 X124.659 Y153.509 E69.17258
G0 F6000 X124.659 Y152.943
G1 F1200 X147.194 Y175.479 E70.23258
G0 F6000 X147.76 Y175.479
G1 F1200 X124.659 Y152.377 E71.3192
G0 F6000 X124.659 Y151.812
G1 F1200 X148.326 Y175.479 E72.43242
G0 F6000 X148.891 Y175.479
G1 F1200 X124.659 Y151.246 E73.57225
G0 F6000 X124.659 Y150.68
G1 F1200 X149.457 Y175.479 E74.73869
G0 F6000 X150.023 Y175.479
G1 F1200 X124.659 Y150.115 E75.93174
G0 F6000 X124.658 Y149.548
G1 F1200 X150.588 Y175.479 E77.15143
G0 F6000 X151.154 Y175.479
G1 F1200 X124.658 Y148.983 E78.39772
G0 F6000 X124.658 Y148.417
G1 F1200 X151.72 Y175.479 E79.67063
G0 F6000 X152.286 Y175.479
G1 F1200 X124.658 Y147.851 E80.97017
G0 F6000 X124.658 Y147.286
G1 F1200 X152.851 Y175.479 E82.29628
G0 F6000 X153.417 Y175.479
G1 F1200 X124.658 Y146.72 E83.64902
G0 F6000 X124.658 Y146.154
G1 F1200 X153.983 Y175.479 E85.02837
G0 F6000 X154.548 Y175.479
G1 F1200 X124.658 Y145.589 E86.43431
G0 F6000 X124.658 Y145.023
G1 F1200 X155.114 Y175.479 E87.86686
G0 F6000 X155.68 Y175.479
G1 F1200 X124.658 Y144.457 E89.32604
G0 F6000 X124.658 Y143.891
G1 F1200 X156.245 Y175.479 E90.81182
G0 F6000 X156.811 Y175.479
G1 F1200 X124.658 Y143.326 E92.3242
G0 F6000 X124.658 Y142.76
G1 F1200 X157.377 Y175.479 E93.8632
G0 F6000 X157.942 Y175.479
G1 F1200 X124.658 Y142.194 E95.4288
G0 F6000 X124.658 Y141.629
G1 F1200 X158.508 Y175.479 E97.021
G0 F6000 X159.074 Y175.479
G1 F1200 X124.658 Y141.063 E98.63983
G0 F6000 X124.658 Y140.497
G1 F1200 X159.639 Y175.479 E100.28525
G0 F6000 X160.205 Y175.479
G1 F1200 X124.658 Y139.932 E101.95727
G0 F6000 X124.658 Y139.366
G1 F1200 X160.771 Y175.479 E103.65592
G0 F6000 X161.337 Y175.479
G1 F1200 X124.658 Y138.8 E105.38118
G0 F6000 X124.658 Y138.235
G1 F1200 X161.902 Y175.479 E107.13303
G0 F6000 X162.468 Y175.479
G1 F1200 X124.658 Y137.669 E108.91149
G0 F6000 X124.658 Y137.103
G1 F1200 X163.034 Y175.479 E110.71658
G0 F6000 X163.599 Y175.479
G1 F1200 X124.658 Y136.538 E112.54825
G0 F6000 X124.658 Y135.972
G1 F1200 X164.165 Y175.479 E114.40654
G0 F6000 X164.731 Y175.479
G1 F1200 X124.658 Y135.406 E116.29145
G0 F6000 X124.658 Y134.841
G1 F1200 X165.296 Y175.479 E118.20294
G0 F6000 X165.862 Y175.479
G1 F1200 X124.658 Y134.275 E120.14105
G0 F6000 X124.658 Y133.709
G1 F1200 X166.428 Y175.479 E122.10578
G0 F6000 X166.993 Y175.479
G1 F1200 X124.658 Y133.143 E124.09711
G0 F6000 X124.658 Y132.578
G1 F1200 X167.559 Y175.479 E126.11504
G0 F6000 X168.125 Y175.479
G1 F1200 X124.658 Y132.012 E128.1596
G0 F6000 X124.658 Y131.446
G1 F1200 X168.69 Y175.479 E130.23075
G0 F6000 X169.256 Y175.479
G1 F1200 X124.658 Y130.881 E132.3285
G0 F6000 X124.658 Y130.315
G1 F1200 X169.822 Y175.479 E134.45288
G0 F6000 X170.387 Y175.479
G1 F1200 X124.658 Y129.749 E136.60385
G0 F6000 X124.658 Y129.184
G1 F1200 X170.953 Y175.479 E138.78143
G0 F6000 X171.519 Y175.479
G1 F1200 X124.658 Y128.618 E140.98563
G0 F6000 X124.658 Y128.052
G1 F1200 X172.085 Y175.479 E143.21645
G0 F6000 X172.65 Y175.479
G1 F1200 X124.658 Y127.487 E145.47384
G0 F6000 X124.658 Y126.921
G1 F1200 X173.216 Y175.479 E147.75786
G0 F6000 X173.782 Y175.479
G1 F1200 X124.658 Y126.355 E150.06851
G0 F6000 X124.658 Y125.79
G1 F1200 X174.347 Y175.479 E152.40572
G0 F6000 X174.913 Y175.479
G1 F1200 X124.658 Y125.224 E154.76957
G0 F6000 X124.658 Y124.658
G1 F1200 X175.34 Y175.34 E157.15349
G0 F6000 X175.34 Y174.774
G1 F1200 X125.085 Y124.52 E159.51731
G0 F6000 X125.651 Y124.52
G1 F1200 X175.34 Y174.209 E161.85453
G0 F6000 X175.34 Y173.643
G1 F1200 X126.217 Y124.52 E164.16512
G0 F6000 X126.782 Y124.52
G1 F1200 X175.34 Y173.077 E166.44912
G0 F6000 X175.34 Y172.512
G1 F1200 X127.348 Y124.52 E168.70651
G0 F6000 X127.914 Y124.52
G1 F1200 X175.34 Y171.946 E170.93729
G0 F6000 X175.34 Y171.38
G1 F1200 X128.479 Y124.52 E173.14146
G0 F6000 X129.045 Y124.52
G1 F1200 X175.34 Y170.815 E175.31904
G0 F6000 X175.34 Y170.249
G1 F1200 X129.611 Y124.52 E177.46999
G0 F6000 X130.176 Y124.52
G1 F1200 X175.34 Y169.683 E179.59434
G0 F6000 X175.34 Y169.118
G1 F1200 X130.742 Y124.52 E181.6921
G0 F6000 X131.308 Y124.52
G1 F1200 X175.34 Y168.552 E183.76323
G0 F6000 X175.34 Y167.986
G1 F1200 X131.874 Y124.52 E185.80773
G0 F6000 X132.439 Y124.52
G1 F1200 X175.34 Y167.42 E187.82564
G0 F6000 X175.34 Y166.855
G1 F1200 X133.005 Y124.52 E189.81695
G0 F6000 X133.571 Y124.52
G1 F1200 X175.34 Y166.289 E191.78164
