;FLAVOR:Marlin
;TIME:8460
;Filament used: 5.17439m
;Layer height: 0.2
;MINX:102.25
;MINY:112.5
;MINZ:0.2
;MAXX:197.75
;MAXY:187.5
;MAXZ:22
;Generated with Cura_SteamEngine 5.2.1
M140 S60
M105
M190 S60
M104 S200
M105
M109 S200
M82 ;absolute extrusion mode
M201 X500.00 Y500.00 Z100.00 E5000.00 ;Setup machine max acceleration
M203 X500.00 Y500.00 Z10.00 E50.00 ;Setup machine max feedrate
M204 P500.00 R1000.00 T500.00 ;Setup Print/Retract/Travel acceleration
M205 X8.00 Y8.00 Z0.40 E5.00 ;Setup Jerk
M220 S100 ;Reset Feedrate
M221 S100 ;Reset Flowrate

G28 ;Home
G29 ;Auto bed Level

G92 E0 ;Reset Extruder
G1 Z2.0 F3000 ;Move Z Axis up
G1 X10.1 Y20 Z0.28 F5000.0 ;Move to start position
G1 X10.1 Y200.0 Z0.28 F1500.0 E15 ;Draw the first line
G1 X10.4 Y200.0 Z0.28 F5000.0 ;Move to side a little
G1 X10.4 Y20 Z0.28 F1500.0 E30 ;Draw the second line
G92 E0 ;Reset Extruder
G1 Z2.0 F3000 ;Move Z Axis up

G92 E0
G92 E0
G1 F2700 E-7
;LAYER_COUNT:110
;LAYER:0
M107
G0 F6000 X106.136 Y115.127 Z0.2
;TYPE:SKIRT
G1 F2700 E0
G1 F1200 X106.876 Y114.551 E0.03119
G1 X107.662 Y114.039 E0.06239
G1 X108.489 Y113.597 E0.09358
G1 X109.351 Y113.227 E0.12478
G1 X110.241 Y112.931 E0.15597
G1 X111.153 Y112.713 E0.18716
G1 X112.08 Y112.572 E0.21835
G1 X112.951 Y112.513 E0.24738
G1 X113.58 Y112.5 E0.26831
G1 X186.201 Y112.501 E2.68369
G1 X186.899 Y112.511 E2.70691
G1 X187.835 Y112.565 E2.73809
G1 X188.763 Y112.697 E2.76927
G1 X189.677 Y112.909 E2.80048
G1 X190.569 Y113.198 E2.83166
G1 X191.434 Y113.561 E2.86286
G1 X192.264 Y113.997 E2.89405
G1 X193.055 Y114.502 E2.92526
G1 X193.799 Y115.073 E2.95645
G1 X194.492 Y115.705 E2.98765
G1 X195.129 Y116.393 E3.01883
G1 X195.704 Y117.134 E3.05003
G1 X196.215 Y117.92 E3.08121
G1 X196.657 Y118.748 E3.11243
G1 X197.026 Y119.61 E3.14362
G1 X197.321 Y120.5 E3.1748
G1 X197.539 Y121.412 E3.20599
G1 X197.679 Y122.34 E3.2372
G1 X197.737 Y123.201 E3.2659
G1 X197.75 Y123.83 E3.28683
G1 X197.749 Y136.991 E3.72457
G1 X197.739 Y137.688 E3.74775
G1 X197.672 Y138.749 E3.78311
G1 X197.404 Y141.154 E3.8636
G1 X197.188 Y143.695 E3.94841
G1 X197.047 Y146.211 E4.03223
G1 X196.976 Y148.736 E4.11624
G1 X196.976 Y151.261 E4.20023
G1 X197.048 Y153.757 E4.28328
G1 X197.189 Y156.259 E4.36663
G1 X197.405 Y158.775 E4.45062
G1 X197.522 Y159.785 E4.48443
G1 X197.546 Y160.105 E4.49511
G1 X197.661 Y161.141 E4.52978
G1 X197.727 Y162.145 E4.56324
G1 X197.75 Y163.436 E4.60619
G1 X197.749 Y175.915 E5.02124
G1 X197.739 Y176.642 E5.04542
G1 X197.686 Y177.579 E5.07664
G1 X197.554 Y178.507 E5.10781
G1 X197.343 Y179.421 E5.13901
G1 X197.054 Y180.313 E5.1702
G1 X196.691 Y181.178 E5.2014
G1 X196.256 Y182.009 E5.2326
G1 X195.751 Y182.799 E5.26378
G1 X195.181 Y183.544 E5.29498
G1 X194.55 Y184.238 E5.32618
G1 X193.861 Y184.875 E5.35739
G1 X193.121 Y185.451 E5.38858
G1 X192.335 Y185.962 E5.41976
G1 X191.508 Y186.404 E5.45095
G1 X190.646 Y186.774 E5.48215
G1 X189.756 Y187.069 E5.51333
G1 X188.844 Y187.288 E5.54453
G1 X187.917 Y187.428 E5.57571
G1 X187.049 Y187.487 E5.60465
G1 X186.42 Y187.5 E5.62557
G1 X113.815 Y187.499 E8.04042
G1 X113.117 Y187.49 E8.06364
G1 X112.181 Y187.438 E8.09482
G1 X111.252 Y187.306 E8.12603
G1 X110.338 Y187.096 E8.15722
G1 X109.445 Y186.809 E8.18842
G1 X108.58 Y186.446 E8.21962
G1 X107.749 Y186.012 E8.2508
G1 X106.958 Y185.508 E8.282
G1 X106.213 Y184.938 E8.3132
G1 X105.519 Y184.307 E8.34439
G1 X104.882 Y183.62 E8.37555
G1 X104.305 Y182.88 E8.40676
G1 X103.793 Y182.094 E8.43796
G1 X103.35 Y181.267 E8.46917
G1 X102.979 Y180.406 E8.50035
G1 X102.683 Y179.516 E8.53155
G1 X102.464 Y178.604 E8.56274
G1 X102.323 Y177.677 E8.59393
G1 X102.263 Y176.788 E8.62356
G1 X102.25 Y176.158 E8.64452
G1 X102.251 Y124.025 E10.37847
G1 X102.26 Y123.36 E10.40059
G1 X102.313 Y122.424 E10.43177
G1 X102.445 Y121.495 E10.46298
G1 X102.656 Y120.581 E10.49418
G1 X102.944 Y119.689 E10.52536
G1 X103.307 Y118.824 E10.55656
G1 X103.742 Y117.993 E10.58776
G1 X104.246 Y117.203 E10.61892
G1 X104.816 Y116.458 E10.65012
G1 X105.448 Y115.764 E10.68134
G1 X106.136 Y115.127 E10.71253
G0 F6000 X106.524 Y115.323
G1 F1200 X107.26 Y114.77 E10.74315
G1 X108.041 Y114.282 E10.77378
G1 X108.861 Y113.864 E10.80439
G1 X109.715 Y113.519 E10.83502
G1 X110.595 Y113.249 E10.86564
G1 X111.495 Y113.057 E10.89625
G1 X112.409 Y112.943 E10.92688
G1 X112.962 Y112.913 E10.9453
G1 X113.58 Y112.9 E10.96586
G1 X186.195 Y112.901 E13.38105
G1 X186.893 Y112.911 E13.40426
G1 X187.812 Y112.964 E13.43488
G1 X188.723 Y113.097 E13.4655
G1 X189.619 Y113.308 E13.49612
G1 X190.493 Y113.596 E13.52673
G1 X191.34 Y113.959 E13.55737
G1 X192.151 Y114.394 E13.58798
G1 X192.921 Y114.898 E13.61859
G1 X193.645 Y115.467 E13.64922
G1 X194.317 Y116.097 E13.67986
G1 X194.932 Y116.782 E13.71047
G1 X195.485 Y117.518 E13.74109
G1 X195.972 Y118.299 E13.77171
G1 X196.389 Y119.12 E13.80233
G1 X196.734 Y119.974 E13.83297
G1 X197.003 Y120.854 E13.86357
G1 X197.195 Y121.755 E13.89421
G1 X197.308 Y122.668 E13.92481
G1 X197.337 Y123.212 E13.94293
G1 X197.35 Y123.83 E13.96349
G1 X197.349 Y136.985 E14.40103
G1 X197.339 Y137.682 E14.42421
G1 X197.275 Y138.705 E14.4583
G1 X197.002 Y141.153 E14.54023
G1 X196.788 Y143.673 E14.62435
G1 X196.647 Y146.178 E14.7078
G1 X196.576 Y148.725 E14.79254
G1 X196.576 Y151.238 E14.87612
G1 X196.649 Y153.789 E14.96101
G1 X196.792 Y156.316 E15.04519
G1 X197.004 Y158.79 E15.12778
G1 X197.125 Y159.831 E15.16263
G1 X197.148 Y160.141 E15.17297
G1 X197.264 Y161.186 E15.20794
G1 X197.327 Y162.152 E15.24014
G1 X197.35 Y163.436 E15.28285
G1 X197.349 Y175.91 E15.69774
G1 X197.339 Y176.637 E15.72192
G1 X197.286 Y177.556 E15.75254
G1 X197.154 Y178.467 E15.78316
G1 X196.943 Y179.363 E15.81377
G1 X196.656 Y180.238 E15.8444
G1 X196.293 Y181.084 E15.87502
G1 X195.859 Y181.896 E15.90564
G1 X195.355 Y182.667 E15.93628
G1 X194.787 Y183.391 E15.96688
G1 X194.158 Y184.063 E15.9975
G1 X193.473 Y184.678 E16.02812
G1 X192.737 Y185.231 E16.05874
G1 X191.956 Y185.719 E16.08937
G1 X191.136 Y186.137 E16.11998
G1 X190.282 Y186.482 E16.15061
G1 X189.402 Y186.751 E16.18122
G1 X188.501 Y186.944 E16.21187
G1 X187.588 Y187.057 E16.24246
G1 X187.038 Y187.087 E16.26078
G1 X186.42 Y187.1 E16.28134
G1 X113.82 Y187.099 E18.69603
G1 X113.122 Y187.09 E18.71925
G1 X112.203 Y187.038 E18.74986
G1 X111.292 Y186.907 E18.78047
G1 X110.396 Y186.697 E18.81108
G1 X109.521 Y186.41 E18.84171
G1 X108.674 Y186.048 E18.87235
G1 X107.862 Y185.614 E18.90297
G1 X107.091 Y185.112 E18.93357
G1 X106.366 Y184.544 E18.9642
G1 X105.693 Y183.915 E18.99484
G1 X105.078 Y183.231 E19.02543
G1 X104.524 Y182.496 E19.05605
G1 X104.036 Y181.715 E19.08668
G1 X103.617 Y180.895 E19.11731
G1 X103.271 Y180.042 E19.14792
G1 X103.001 Y179.162 E19.17854
G1 X102.808 Y178.261 E19.20918
G1 X102.694 Y177.348 E19.23979
G1 X102.663 Y176.777 E19.25881
G1 X102.65 Y176.158 E19.2794
G1 X102.651 Y124.031 E21.01315
G1 X102.66 Y123.366 E21.03527
G1 X102.712 Y122.446 E21.06592
G1 X102.844 Y121.535 E21.09653
G1 X103.055 Y120.639 E21.12715
G1 X103.342 Y119.764 E21.15778
G1 X103.705 Y118.918 E21.1884
G1 X104.139 Y118.106 E21.21902
G1 X104.642 Y117.335 E21.24964
G1 X105.211 Y116.611 E21.28027
G1 X105.839 Y115.939 E21.31086
G1 X106.524 Y115.323 E21.3415
G0 F6000 X106.912 Y115.524
G1 F1200 X107.644 Y114.994 E21.37156
G1 X108.419 Y114.531 E21.40158
G1 X109.232 Y114.138 E21.43162
G1 X110.077 Y113.818 E21.46167
G1 X110.946 Y113.575 E21.49168
G1 X111.834 Y113.409 E21.52173
G1 X112.973 Y113.313 E21.55974
G1 X113.58 Y113.3 E21.57994
G1 X186.189 Y113.301 E23.99492
G1 X186.887 Y113.311 E24.01814
G1 X187.789 Y113.364 E24.04819
G1 X188.682 Y113.496 E24.07822
G1 X189.56 Y113.707 E24.10825
G1 X190.416 Y113.995 E24.13829
G1 X191.243 Y114.357 E24.16832
G1 X192.035 Y114.792 E24.19837
G1 X192.786 Y115.294 E24.22842
G1 X193.489 Y115.861 E24.25845
G1 X194.139 Y116.488 E24.28849
G1 X194.731 Y117.17 E24.31853
G1 X195.261 Y117.901 E24.34856
G1 X195.723 Y118.677 E24.3786
G1 X196.116 Y119.49 E24.40863
G1 X196.434 Y120.335 E24.43866
G1 X196.677 Y121.205 E24.46871
G1 X196.842 Y122.093 E24.49875
G1 X196.937 Y123.223 E24.53646
G1 X196.95 Y123.83 E24.55666
G1 X196.949 Y136.979 E24.99399
G1 X196.939 Y137.676 E25.01718
G1 X196.877 Y138.661 E25.05
G1 X196.607 Y141.077 E25.13086
G1 X196.389 Y143.652 E25.21681
G1 X196.247 Y146.179 E25.30099
G1 X196.176 Y148.714 E25.38534
G1 X196.176 Y151.249 E25.46966
G1 X196.249 Y153.789 E25.55417
G1 X196.393 Y156.337 E25.63905
G1 X196.607 Y158.837 E25.72251
G1 X196.728 Y159.877 E25.75733
G1 X196.75 Y160.191 E25.7678
G1 X196.866 Y161.23 E25.80257
G1 X196.927 Y162.16 E25.83357
G1 X196.95 Y163.436 E25.87602
G1 X196.949 Y175.904 E26.29071
G1 X196.939 Y176.631 E26.31489
G1 X196.887 Y177.533 E26.34494
G1 X196.755 Y178.426 E26.37496
G1 X196.544 Y179.305 E26.40503
G1 X196.257 Y180.161 E26.43506
G1 X195.895 Y180.988 E26.46508
G1 X195.461 Y181.78 E26.49512
G1 X194.959 Y182.531 E26.52516
G1 X194.393 Y183.234 E26.55518
G1 X193.766 Y183.885 E26.58525
G1 X193.085 Y184.477 E26.61526
G1 X192.354 Y185.007 E26.64529
G1 X191.578 Y185.47 E26.67534
G1 X190.765 Y185.863 E26.70538
G1 X189.92 Y186.183 E26.73543
G1 X189.051 Y186.426 E26.76544
G1 X188.163 Y186.591 E26.79548
G1 X187.027 Y186.687 E26.8334
G1 X186.42 Y186.7 E26.85359
G1 X113.825 Y186.699 E29.26811
G1 X113.127 Y186.69 E29.29133
G1 X112.226 Y186.639 E29.32135
G1 X111.332 Y186.507 E29.3514
G1 X110.454 Y186.298 E29.38142
G1 X109.597 Y186.011 E29.41148
G1 X108.77 Y185.65 E29.44149
G1 X107.977 Y185.217 E29.47155
G1 X107.226 Y184.716 E29.50157
G1 X106.522 Y184.15 E29.53162
G1 X105.871 Y183.524 E29.56165
G1 X105.278 Y182.843 E29.59169
G1 X104.748 Y182.112 E29.62172
G1 X104.284 Y181.337 E29.65176
G1 X103.89 Y180.524 E29.68181
G1 X103.57 Y179.68 E29.71183
G1 X103.326 Y178.81 E29.74189
G1 X103.16 Y177.922 E29.77193
G1 X103.063 Y176.767 E29.81048
G1 X103.05 Y176.158 E29.83074
G1 X103.051 Y124.036 E31.56433
G1 X103.06 Y123.371 E31.58645
G1 X103.112 Y122.469 E31.6165
G1 X103.244 Y121.576 E31.64652
G1 X103.454 Y120.698 E31.67655
G1 X103.741 Y119.841 E31.70661
G1 X104.103 Y119.014 E31.73663
G1 X104.536 Y118.222 E31.76666
G1 X105.038 Y117.471 E31.7967
G1 X105.605 Y116.767 E31.82677
G1 X106.231 Y116.117 E31.85678
G1 X106.912 Y115.524 E31.88681
G1 F2700 E24.88681
;MESH:Reminder_card_tray.stl
G0 F6000 X113.67 Y122.835
G0 X113.85 Y175.9
;TYPE:WALL-INNER
G1 F2700 E31.88681
G1 F1200 X186.15 Y175.9 E34.29152
G1 X186.15 Y163.161 E34.71522
G1 X186.15 Y163.093 E34.71749
G1 X185.387 Y163.095 E34.74286
G1 X184.712 Y163.059 E34.76535
G1 X183.976 Y162.98 E34.78997
G1 X183.322 Y162.873 E34.81201
G1 X182.581 Y162.712 E34.83723
G1 X181.855 Y162.507 E34.86232
G1 X181.245 Y162.3 E34.88374
G1 X180.601 Y162.047 E34.90676
G1 X179.925 Y161.735 E34.93152
G1 X179.3 Y161.402 E34.95507
G1 X178.691 Y161.037 E34.97869
G1 X178.132 Y160.659 E35.00113
G1 X177.566 Y160.228 E35.02479
G1 X177 Y159.75 E35.04944
G1 X176.485 Y159.263 E35.07301
G1 X175.999 Y158.749 E35.09654
G1 X175.539 Y158.208 E35.12016
G1 X175.109 Y157.643 E35.14377
G1 X174.73 Y157.085 E35.16621
G1 X174.362 Y156.477 E35.18984
G1 X174.015 Y155.824 E35.21444
G1 X173.717 Y155.179 E35.23807
G1 X173.444 Y154.494 E35.2626
G1 X173.213 Y153.804 E35.2868
G1 X173.025 Y153.119 E35.31042
G1 X172.878 Y152.447 E35.3333
G1 X172.77 Y151.772 E35.35604
G1 X172.689 Y151.023 E35.3811
G1 X172.654 Y150.347 E35.40361
G1 X172.655 Y149.651 E35.42676
G1 X172.691 Y148.96 E35.44977
G1 X172.769 Y148.24 E35.47386
G1 X172.881 Y147.554 E35.49698
G1 X173.026 Y146.88 E35.51991
G1 X173.225 Y146.164 E35.54463
G1 X173.435 Y145.536 E35.56665
G1 X173.699 Y144.863 E35.5907
G1 X174.03 Y144.146 E35.61696
G1 X174.326 Y143.588 E35.63797
G1 X174.731 Y142.915 E35.6641
G1 X175.13 Y142.326 E35.68776
G1 X175.515 Y141.824 E35.7088
G1 X176.022 Y141.224 E35.73493
G1 X176.511 Y140.711 E35.7585
G1 X177.025 Y140.229 E35.78193
G1 X177.532 Y139.797 E35.80409
G1 X178.134 Y139.342 E35.82919
G1 X178.691 Y138.963 E35.85159
G1 X179.331 Y138.579 E35.87642
G1 X179.927 Y138.264 E35.89884
G1 X180.602 Y137.953 E35.92356
G1 X181.274 Y137.687 E35.9476
G1 X181.888 Y137.481 E35.96914
G1 X182.54 Y137.298 E35.99166
G1 X183.325 Y137.124 E36.0184
G1 X184.011 Y137.015 E36.04151
G1 X184.714 Y136.94 E36.06502
G1 X185.391 Y136.904 E36.08757
G1 X186.15 Y136.907 E36.11281
G1 X186.15 Y124.1 E36.53878
G1 X113.85 Y124.1 E38.94349
G1 X113.85 Y175.9 E40.66636
G0 F6000 X113.45 Y176.3
;TYPE:WALL-OUTER
G1 F1200 X186.55 Y176.3 E43.09768
G1 X186.55 Y163.161 E43.53468
G1 X186.55 Y162.672 E43.55095
G1 X186.05 Y162.697 E43.5676
G1 X185.409 Y162.695 E43.58892
G1 X184.723 Y162.658 E43.61177
G1 X184.04 Y162.585 E43.63461
G1 X183.376 Y162.476 E43.65699
G1 X182.689 Y162.327 E43.68037
G1 X181.983 Y162.128 E43.70477
G1 X181.391 Y161.928 E43.72555
G1 X180.737 Y161.67 E43.74894
G1 X180.113 Y161.381 E43.77181
G1 X179.506 Y161.059 E43.79466
G1 X178.915 Y160.705 E43.81758
G1 X178.347 Y160.321 E43.84038
G1 X177.808 Y159.91 E43.86292
G1 X177.274 Y159.459 E43.88617
G1 X176.775 Y158.988 E43.90899
G1 X176.303 Y158.489 E43.93184
G1 X175.857 Y157.966 E43.9547
G1 X175.44 Y157.418 E43.9776
G1 X175.055 Y156.851 E44.0004
G1 X174.699 Y156.26 E44.02335
G1 X174.378 Y155.656 E44.0461
G1 X174.089 Y155.031 E44.069
G1 X173.812 Y154.335 E44.09391
G1 X173.599 Y153.698 E44.11625
G1 X173.416 Y153.033 E44.13919
G1 X173.267 Y152.35 E44.16244
G1 X173.168 Y151.728 E44.18339
G1 X173.089 Y151.002 E44.20768
G1 X173.054 Y150.326 E44.2302
G1 X173.055 Y149.672 E44.25195
G1 X173.091 Y148.986 E44.2748
G1 X173.164 Y148.304 E44.29761
G1 X173.272 Y147.638 E44.32005
G1 X173.42 Y146.953 E44.34336
G1 X173.605 Y146.291 E44.36622
G1 X173.818 Y145.653 E44.38859
G1 X174.076 Y144.999 E44.41198
G1 X174.384 Y144.334 E44.43635
G1 X174.685 Y143.767 E44.4577
G1 X175.062 Y143.139 E44.48206
G1 X175.448 Y142.57 E44.50493
G1 X175.839 Y142.061 E44.52628
G1 X176.312 Y141.5 E44.55069
G1 X176.785 Y141.003 E44.57351
G1 X177.285 Y140.533 E44.59633
G1 X177.774 Y140.116 E44.61771
G1 X178.359 Y139.673 E44.64211
G1 X178.926 Y139.288 E44.66491
G1 X179.518 Y138.933 E44.68787
G1 X180.124 Y138.613 E44.71066
G1 X180.75 Y138.325 E44.73358
G1 X181.402 Y138.066 E44.75691
G1 X181.996 Y137.866 E44.77776
G1 X182.659 Y137.68 E44.80066
G1 X183.388 Y137.519 E44.82549
G1 X184.054 Y137.413 E44.84792
G1 X184.735 Y137.34 E44.8707
G1 X185.412 Y137.304 E44.89325
G1 X186.086 Y137.304 E44.91567
G1 X186.55 Y137.328 E44.93112
G1 X186.55 Y123.7 E45.38439
G1 X113.45 Y123.7 E47.81571
G1 X113.45 Y176.3 E49.56519
G0 F6000 X113.72 Y176.03
G0 X113.95 Y175.54
G0 X114.21 Y175.54
;TYPE:SKIN
G1 F1200 X185.79 Y175.54 E51.94595
G1 X185.79 Y163.869 E52.33413
G1 X185.79 Y163.458 E52.3478
G1 X185.369 Y163.454 E52.3618
G1 X184.642 Y163.414 E52.38602
G1 X183.908 Y163.335 E52.41057
G1 X183.227 Y163.222 E52.43353
G1 X182.482 Y163.06 E52.45889
G1 X181.777 Y162.86 E52.48326
G1 X181.113 Y162.634 E52.50659
G1 X180.415 Y162.36 E52.53153
G1 X179.793 Y162.072 E52.55433
G1 X179.112 Y161.71 E52.57998
G1 X178.526 Y161.358 E52.60272
G1 X177.92 Y160.95 E52.62702
G1 X177.314 Y160.486 E52.6524
G1 X176.75 Y160.011 E52.67693
G1 X176.22 Y159.509 E52.70121
G1 X175.752 Y159.012 E52.72391
G1 X175.25 Y158.426 E52.74958
G1 X174.811 Y157.846 E52.77377
G1 X174.402 Y157.242 E52.79803
G1 X174.026 Y156.615 E52.82235
G1 X173.707 Y156.014 E52.84498
G1 X173.382 Y155.313 E52.87068
G1 X173.099 Y154.602 E52.89613
G1 X172.86 Y153.884 E52.9213
G1 X172.682 Y153.235 E52.94368
G1 X172.524 Y152.512 E52.9683
G1 X172.412 Y151.809 E52.99197
G1 X172.333 Y151.086 E53.01616
G1 X172.295 Y150.366 E53.04015
G1 X172.295 Y149.669 E53.06333
G1 X172.333 Y148.926 E53.08807
G1 X172.413 Y148.181 E53.11299
G1 X172.528 Y147.478 E53.13669
G1 X172.673 Y146.803 E53.15965
G1 X172.877 Y146.071 E53.18492
G1 X173.112 Y145.375 E53.20936
G1 X173.385 Y144.679 E53.23422
G1 X173.692 Y144.015 E53.25855
G1 X174.034 Y143.374 E53.28272
G1 X174.426 Y142.722 E53.30802
G1 X174.817 Y142.144 E53.33123
G1 X175.259 Y141.568 E53.35538
G1 X175.761 Y140.975 E53.38122
G1 X176.23 Y140.481 E53.40388
G1 X176.791 Y139.954 E53.42948
G1 X177.279 Y139.538 E53.4508
G1 X177.931 Y139.044 E53.47801
G1 X178.496 Y138.659 E53.50075
G1 X179.126 Y138.281 E53.52519
G1 X179.768 Y137.941 E53.54935
G1 X180.47 Y137.619 E53.57504
