;FLAVOR:Marlin
;TIME:7883
;Filament used: 4.96794m
;Layer height: 0.2
;MINX:113.757
;MINY:107.776
;MINZ:0.2
;MAXX:186.242
;MAXY:192.24
;MAXZ:22
;Generated with Cura_SteamEngine 5.2.1
M140 S60
M105
M190 S60
M104 S210
M105
M109 S210
M82 ;absolute extrusion mode
M201 X500.00 Y500.00 Z100.00 E5000.00 ;Setup machine max acceleration
M203 X500.00 Y500.00 Z10.00 E50.00 ;Setup machine max feedrate
M204 P500.00 R1000.00 T500.00 ;Setup Print/Retract/Travel acceleration
M205 X8.00 Y8.00 Z0.40 E5.00 ;Setup Jerk
M220 S100 ;Reset Feedrate
M221 S100 ;Reset Flowrate

G28 ;Home
G29 ;Auto bed Level

G92 E0 ;Reset Extruder
G1 Z2.0 F3000 ;Move Z Axis up
G1 X10.1 Y20 Z0.28 F5000.0 ;Move to start position
G1 X10.1 Y200.0 Z0.28 F1500.0 E15 ;Draw the first line
G1 X10.4 Y200.0 Z0.28 F5000.0 ;Move to side a little
G1 X10.4 Y20 Z0.28 F1500.0 E30 ;Draw the second line
G92 E0 ;Reset Extruder
G1 Z2.0 F3000 ;Move Z Axis up

G92 E0
G92 E0
G1 F2700 E-7
;LAYER_COUNT:110
;LAYER:0
M107
G0 F6000 X116.952 Y111.031 Z0.2
;TYPE:SKIRT
G1 F2700 E0
G1 F1200 X117.639 Y110.394 E0.03116
G1 X118.379 Y109.817 E0.06237
G1 X119.165 Y109.306 E0.09355
G1 X119.992 Y108.863 E0.12476
G1 X120.853 Y108.492 E0.15594
G1 X121.743 Y108.196 E0.18713
G1 X122.655 Y107.977 E0.21833
G1 X123.583 Y107.837 E0.24954
G1 X124.519 Y107.776 E0.28074
G1 X125.456 Y107.795 E0.31191
G1 X126.389 Y107.893 E0.34312
G1 X127.31 Y108.071 E0.37432
G1 X128.132 Y108.301 E0.40271
G1 X128.528 Y108.428 E0.41654
G1 X130.995 Y109.181 E0.50233
G1 X133.434 Y109.851 E0.58645
G1 X135.874 Y110.448 E0.67
G1 X138.394 Y110.987 E0.75571
G1 X140.803 Y111.435 E0.83721
G1 X143.318 Y111.827 E0.92187
G1 X145.797 Y112.143 E1.00499
G1 X148.319 Y112.392 E1.08928
G1 X150.834 Y112.568 E1.17313
G1 X153.32 Y112.672 E1.25589
G1 X155.2 Y112.695 E1.31842
G1 X155.342 Y112.703 E1.32315
G1 X156.61 Y112.718 E1.36533
G1 X157.665 Y112.781 E1.40048
G1 X158.015 Y112.819 E1.41219
G1 X158.785 Y112.931 E1.43807
G1 X159.277 Y113.02 E1.4547
G1 X161.917 Y113.461 E1.54372
G1 X164.416 Y113.806 E1.62763
G1 X166.914 Y114.079 E1.71121
G1 X169.408 Y114.281 E1.79443
G1 X171.905 Y114.412 E1.8776
G1 X175.448 Y114.481 E1.99546
G1 X176.384 Y114.539 E2.02665
G1 X177.311 Y114.677 E2.05782
G1 X178.224 Y114.894 E2.08903
G1 X179.115 Y115.187 E2.12023
G1 X179.977 Y115.555 E2.1514
G1 X180.805 Y115.996 E2.18261
G1 X181.593 Y116.505 E2.21381
G1 X182.334 Y117.079 E2.24498
G1 X183.024 Y117.715 E2.27619
G1 X183.657 Y118.407 E2.30739
G1 X184.229 Y119.15 E2.33857
G1 X184.735 Y119.94 E2.36978
G1 X185.173 Y120.769 E2.40096
G1 X185.538 Y121.633 E2.43216
G1 X185.828 Y122.525 E2.46335
G1 X186.041 Y123.438 E2.49454
G1 X186.176 Y124.366 E2.52573
G1 X186.231 Y125.313 E2.55728
G1 X186.242 Y126.043 E2.58156
G1 X186.242 Y180.655 E4.39796
G1 X186.232 Y181.382 E4.42214
G1 X186.179 Y182.319 E4.45336
G1 X186.047 Y183.247 E4.48453
G1 X185.836 Y184.161 E4.51573
G1 X185.547 Y185.053 E4.54692
G1 X185.184 Y185.918 E4.57812
G1 X184.749 Y186.749 E4.60932
G1 X184.244 Y187.539 E4.6405
G1 X183.674 Y188.284 E4.6717
G1 X183.043 Y188.978 E4.7029
G1 X182.354 Y189.615 E4.73411
G1 X181.614 Y190.191 E4.7653
G1 X180.828 Y190.702 E4.79648
G1 X180.001 Y191.144 E4.82767
G1 X179.139 Y191.514 E4.85887
G1 X178.249 Y191.809 E4.89005
G1 X177.337 Y192.028 E4.92125
G1 X176.41 Y192.168 E4.95243
G1 X175.542 Y192.227 E4.98137
G1 X174.913 Y192.24 E5.00229
G1 X125.322 Y192.239 E6.6517
G1 X124.624 Y192.23 E6.67491
G1 X123.688 Y192.178 E6.70609
G1 X122.759 Y192.046 E6.7373
G1 X121.845 Y191.836 E6.76849
G1 X120.952 Y191.549 E6.79969
G1 X120.087 Y191.186 E6.83089
G1 X119.256 Y190.752 E6.86207
G1 X118.465 Y190.248 E6.89327
G1 X117.72 Y189.678 E6.92447
G1 X117.026 Y189.047 E6.95567
G1 X116.389 Y188.36 E6.98683
G1 X115.812 Y187.62 E7.01804
G1 X115.3 Y186.834 E7.04924
G1 X114.857 Y186.007 E7.08044
G1 X114.486 Y185.146 E7.11162
G1 X114.19 Y184.256 E7.14282
G1 X113.971 Y183.344 E7.17401
G1 X113.83 Y182.417 E7.2052
G1 X113.77 Y181.528 E7.23484
G1 X113.757 Y180.898 E7.25579
G1 X113.758 Y119.313 E9.30412
G1 X113.767 Y118.628 E9.3269
G1 X113.819 Y117.692 E9.35808
G1 X113.951 Y116.764 E9.38926
G1 X114.162 Y115.85 E9.42046
G1 X114.449 Y114.957 E9.45166
G1 X114.812 Y114.092 E9.48286
G1 X115.247 Y113.261 E9.51405
G1 X115.751 Y112.47 E9.54525
G1 X116.32 Y111.725 E9.57643
G1 X116.952 Y111.031 E9.60765
G0 F6000 X117.344 Y111.206
G1 F1200 X118.028 Y110.59 E9.63826
G1 X118.764 Y110.036 E9.6689
G1 X119.544 Y109.548 E9.69951
G1 X120.365 Y109.13 E9.73015
G1 X121.218 Y108.784 E9.76076
G1 X122.098 Y108.514 E9.79138
G1 X122.998 Y108.321 E9.82199
G1 X123.912 Y108.207 E9.85263
G1 X124.832 Y108.173 E9.88325
G1 X125.751 Y108.219 E9.91385
G1 X126.663 Y108.344 E9.94447
G1 X127.561 Y108.548 E9.9751
G1 X128.01 Y108.681 E9.99068
G1 X128.436 Y108.818 E10.00556
G1 X130.9 Y109.57 E10.09124
G1 X133.347 Y110.242 E10.17564
G1 X135.8 Y110.842 E10.25964
G1 X138.273 Y111.371 E10.34375
G1 X140.768 Y111.835 E10.42816
G1 X143.247 Y112.221 E10.5116
G1 X145.74 Y112.539 E10.59519
G1 X148.288 Y112.79 E10.68035
G1 X150.79 Y112.966 E10.76377
G1 X153.332 Y113.072 E10.84839
G1 X155.195 Y113.095 E10.91036
G1 X155.334 Y113.103 E10.91499
G1 X156.606 Y113.118 E10.9573
G1 X157.622 Y113.179 E10.99115
G1 X157.972 Y113.217 E11.00286
G1 X158.714 Y113.324 E11.0278
G1 X159.294 Y113.429 E11.0474
G1 X161.862 Y113.858 E11.134
G1 X164.355 Y114.202 E11.2177
G1 X166.875 Y114.477 E11.30201
G1 X169.391 Y114.681 E11.38597
G1 X171.876 Y114.811 E11.46874
G1 X175.44 Y114.881 E11.5873
G1 X176.359 Y114.939 E11.61792
G1 X177.269 Y115.077 E11.64854
G1 X178.164 Y115.293 E11.67916
G1 X179.037 Y115.585 E11.70978
G1 X179.881 Y115.953 E11.7404
G1 X180.69 Y116.392 E11.77101
G1 X181.458 Y116.9 E11.80164
G1 X182.179 Y117.473 E11.83227
G1 X182.847 Y118.106 E11.86288
G1 X183.458 Y118.794 E11.89348
G1 X184.007 Y119.533 E11.9241
G1 X184.49 Y120.317 E11.95473
G1 X184.903 Y121.14 E11.98536
G1 X185.243 Y121.996 E12.01599
G1 X185.508 Y122.877 E12.04659
G1 X185.695 Y123.779 E12.07723
G1 X185.803 Y124.693 E12.10784
G1 X185.831 Y125.319 E12.12868
G1 X185.842 Y126.049 E12.15297
G1 X185.842 Y180.65 E13.969
G1 X185.832 Y181.377 E13.99318
G1 X185.779 Y182.296 E14.0238
G1 X185.647 Y183.207 E14.05442
G1 X185.436 Y184.103 E14.08503
G1 X185.149 Y184.978 E14.11566
G1 X184.786 Y185.824 E14.14628
G1 X184.352 Y186.636 E14.1769
G1 X183.848 Y187.407 E14.20754
G1 X183.28 Y188.131 E14.23815
G1 X182.651 Y188.803 E14.26876
G1 X181.966 Y189.418 E14.29938
G1 X181.23 Y189.971 E14.33
G1 X180.449 Y190.459 E14.36063
G1 X179.629 Y190.877 E14.39124
G1 X178.775 Y191.222 E14.42188
G1 X177.895 Y191.491 E14.45248
G1 X176.994 Y191.684 E14.48313
G1 X176.081 Y191.797 E14.51373
G1 X175.531 Y191.827 E14.53205
G1 X174.913 Y191.84 E14.55261
G1 X125.327 Y191.839 E16.20184
G1 X124.629 Y191.83 E16.22506
G1 X123.71 Y191.778 E16.25568
G1 X122.799 Y191.647 E16.28629
G1 X121.903 Y191.437 E16.3169
G1 X121.028 Y191.15 E16.34752
G1 X120.181 Y190.788 E16.37816
G1 X119.369 Y190.354 E16.40878
G1 X118.598 Y189.852 E16.43938
G1 X117.873 Y189.284 E16.47002
G1 X117.2 Y188.655 E16.50065
G1 X116.585 Y187.971 E16.53125
G1 X116.031 Y187.236 E16.56186
G1 X115.543 Y186.455 E16.59249
G1 X115.124 Y185.635 E16.62312
G1 X114.778 Y184.782 E16.65373
G1 X114.508 Y183.902 E16.68435
G1 X114.315 Y183.001 E16.715
G1 X114.201 Y182.088 E16.7456
G1 X114.17 Y181.517 E16.76462
G1 X114.157 Y180.898 E16.78521
G1 X114.158 Y119.319 E18.83334
G1 X114.167 Y118.634 E18.85612
G1 X114.219 Y117.715 E18.88674
G1 X114.351 Y116.803 E18.91739
G1 X114.561 Y115.907 E18.948
G1 X114.848 Y115.032 E18.97862
G1 X115.21 Y114.186 E19.00923
G1 X115.644 Y113.374 E19.03985
G1 X116.147 Y112.603 E19.07047
G1 X116.715 Y111.878 E19.1011
G1 X117.344 Y111.206 E19.13172
G0 F6000 X117.735 Y111.383
G1 F1200 X118.416 Y110.791 E19.16173
G1 X119.147 Y110.26 E19.19178
G1 X119.922 Y109.797 E19.22181
G1 X120.735 Y109.403 E19.25186
G1 X121.58 Y109.083 E19.28191
G1 X122.449 Y108.84 E19.31192
G1 X123.337 Y108.674 E19.34197
G1 X124.236 Y108.587 E19.37201
G1 X125.139 Y108.58 E19.40204
G1 X126.039 Y108.653 E19.43207
G1 X126.929 Y108.805 E19.4621
G1 X127.887 Y109.062 E19.49509
G1 X128.323 Y109.202 E19.51032
G1 X130.783 Y109.953 E19.59587
G1 X133.218 Y110.622 E19.67986
G1 X135.726 Y111.235 E19.76573
G1 X138.187 Y111.762 E19.84944
G1 X140.704 Y112.229 E19.93459
G1 X143.202 Y112.619 E20.01868
G1 X145.69 Y112.936 E20.1021
G1 X148.253 Y113.189 E20.18776
G1 X150.779 Y113.366 E20.27198
G1 X153.311 Y113.472 E20.35627
G1 X155.19 Y113.495 E20.41877
G1 X155.325 Y113.503 E20.42327
G1 X156.601 Y113.518 E20.46571
G1 X157.579 Y113.577 E20.4983
G1 X157.929 Y113.615 E20.51001
G1 X158.643 Y113.718 E20.534
G1 X159.162 Y113.812 E20.55154
G1 X161.813 Y114.255 E20.64094
G1 X164.293 Y114.597 E20.7242
G1 X166.835 Y114.875 E20.80925
G1 X169.371 Y115.08 E20.89388
G1 X171.878 Y115.211 E20.97737
G1 X175.432 Y115.281 E21.0956
G1 X176.333 Y115.339 E21.12563
G1 X177.226 Y115.476 E21.15568
G1 X178.103 Y115.691 E21.18572
G1 X178.957 Y115.984 E21.21574
G1 X179.783 Y116.35 E21.24579
G1 X180.572 Y116.789 E21.27582
G1 X181.32 Y117.295 E21.30586
G1 X182.02 Y117.866 E21.33591
G1 X182.667 Y118.496 E21.36594
G1 X183.255 Y119.181 E21.39597
G1 X183.781 Y119.915 E21.426
G1 X184.24 Y120.693 E21.45605
G1 X184.628 Y121.509 E21.4861
G1 X184.942 Y122.356 E21.51614
G1 X185.18 Y123.227 E21.54617
G1 X185.34 Y124.115 E21.57619
G1 X185.431 Y125.325 E21.61654
G1 X185.442 Y126.055 E21.64083
G1 X185.442 Y180.644 E23.45646
G1 X185.432 Y181.371 E23.48065
G1 X185.38 Y182.273 E23.5107
G1 X185.248 Y183.166 E23.54072
G1 X185.037 Y184.045 E23.57079
G1 X184.75 Y184.901 E23.60082
G1 X184.388 Y185.728 E23.63084
G1 X183.954 Y186.52 E23.66088
G1 X183.452 Y187.271 E23.69092
G1 X182.886 Y187.974 E23.72094
G1 X182.259 Y188.625 E23.751
G1 X181.578 Y189.217 E23.78102
G1 X180.847 Y189.747 E23.81105
G1 X180.071 Y190.21 E23.8411
G1 X179.258 Y190.603 E23.87114
G1 X178.413 Y190.923 E23.90119
G1 X177.544 Y191.166 E23.9312
G1 X176.656 Y191.331 E23.96124
G1 X175.52 Y191.427 E23.99916
G1 X174.913 Y191.44 E24.01935
G1 X125.332 Y191.439 E25.66842
G1 X124.634 Y191.43 E25.69164
G1 X123.733 Y191.379 E25.72166
G1 X122.839 Y191.247 E25.75171
G1 X121.961 Y191.038 E25.78173
G1 X121.104 Y190.751 E25.81179
G1 X120.277 Y190.39 E25.8418
G1 X119.484 Y189.957 E25.87186
G1 X118.733 Y189.456 E25.90188
G1 X118.029 Y188.89 E25.93193
G1 X117.378 Y188.264 E25.96196
G1 X116.785 Y187.583 E25.992
G1 X116.255 Y186.852 E26.02203
G1 X115.791 Y186.077 E26.05207
G1 X115.397 Y185.264 E26.08212
G1 X115.077 Y184.42 E26.11214
G1 X114.833 Y183.55 E26.1422
G1 X114.667 Y182.662 E26.17224
G1 X114.57 Y181.507 E26.21079
G1 X114.557 Y180.898 E26.23105
G1 X114.558 Y119.324 E28.27901
G1 X114.567 Y118.639 E28.3018
G1 X114.619 Y117.737 E28.33185
G1 X114.75 Y116.844 E28.36187
G1 X114.96 Y115.966 E28.39189
G1 X115.247 Y115.109 E28.42195
G1 X115.608 Y114.281 E28.452
G1 X116.041 Y113.489 E28.48202
G1 X116.543 Y112.738 E28.51206
G1 X117.109 Y112.034 E28.54211
G1 X117.735 Y111.383 E28.57215
G1 F2700 E21.57215
;MESH:Quake_tokens.stl
G0 F6000 X124.092 Y119.581
G0 X125.357 Y180.64
;TYPE:WALL-INNER
G1 F2700 E28.57215
G1 F1200 X174.643 Y180.64 E30.21141
G1 X174.643 Y126.121 E32.02471
G1 X174.111 Y126.148 E32.04243
G1 X173.396 Y126.163 E32.06622
G1 X172.601 Y126.165 E32.09266
G1 X168.571 Y126.1 E32.22672
G1 X167.497 Y126.103 E32.26244
G1 X167.088 Y126.118 E32.27605
G1 X166.62 Y126.162 E32.29168
G1 X166.337 Y126.205 E32.30121
G1 X166.004 Y126.271 E32.3125
G1 X165.596 Y126.377 E32.32652
G1 X165.169 Y126.574 E32.34216
G1 X164.955 Y126.824 E32.3531
G1 X164.766 Y127.209 E32.36737
G1 X164.48 Y127.587 E32.38313
G1 X164.033 Y127.802 E32.39963
G1 X163.598 Y127.821 E32.41411
G1 X163.083 Y127.662 E32.43204
G1 X162.605 Y127.43 E32.44971
G1 X162.271 Y127.254 E32.46227
G1 X161.688 Y126.923 E32.48457
G1 X159.76 Y125.777 E32.55916
G1 X158.935 Y125.296 E32.59093
G1 X158.536 Y125.073 E32.60613
G1 X158 Y124.792 E32.62626
G1 X157.72 Y124.659 E32.63657
G1 X157.358 Y124.504 E32.64967
G1 X157.048 Y124.414 E32.6604
G1 X156.721 Y124.337 E32.67158
G1 X156.435 Y124.306 E32.68114
G1 X155.962 Y124.307 E32.69688
G1 X155.442 Y124.437 E32.7147
G1 X155.085 Y124.605 E32.72783
G1 X154.823 Y124.777 E32.73825
G1 X154.463 Y125.064 E32.75356
G1 X153.848 Y125.654 E32.78191
G1 X153.456 Y125.883 E32.79701
G1 X153.027 Y125.978 E32.81162
G1 X152.521 Y125.976 E32.82845
G1 X151.975 Y125.91 E32.84675
G1 X151.132 Y125.774 E32.87515
G1 X150.061 Y125.582 E32.91134
G1 X146.642 Y124.911 E33.02722
G1 X146.119 Y124.825 E33.04485
G1 X145.728 Y124.775 E33.05796
G1 X145.315 Y124.817 E33.07177
G1 X144.779 Y125.368 E33.09734
G1 X144.481 Y125.636 E33.11067
G1 X143.986 Y125.985 E33.13081
G1 X143.372 Y126.256 E33.15313
G1 X142.853 Y126.376 E33.17085
G1 X142.37 Y126.431 E33.18702
G1 X141.848 Y126.444 E33.20439
G1 X141.343 Y126.421 E33.2212
G1 X140.721 Y126.356 E33.242
G1 X140.42 Y126.311 E33.25212
G1 X139.756 Y126.191 E33.27456
G1 X139.064 Y126.035 E33.29816
G1 X138.336 Y125.845 E33.32318
G1 X137.172 Y125.497 E33.36359
G1 X136.351 Y125.224 E33.39237
G1 X135.496 Y124.918 E33.42257
G1 X134.612 Y124.583 E33.45401
G1 X133.697 Y124.216 E33.4868
G1 X132.752 Y123.818 E33.52091
G1 X131.285 Y123.168 E33.57428
G1 X129.768 Y122.454 E33.63004
G1 X128.205 Y121.68 E33.68805
G1 X127.103 Y121.107 E33.72936
G1 X126.559 Y120.797 E33.75019
G1 X126.21 Y120.564 E33.76414
G1 X126.041 Y120.43 E33.77132
G1 X125.358 Y119.935 E33.79937
G1 X125.357 Y180.64 E35.81843
G0 F6000 X124.957 Y181.04
;TYPE:WALL-OUTER
G1 F1200 X175.043 Y181.04 E37.4843
G1 X175.043 Y125.88 E39.31893
G1 X175.043 Y125.7 E39.32491
G1 X174.103 Y125.748 E39.35622
G1 X173.395 Y125.763 E39.37977
G1 X172.607 Y125.765 E39.40598
G1 X168.57 Y125.7 E39.54027
G1 X167.489 Y125.703 E39.57622
G1 X167.062 Y125.719 E39.59044
G1 X166.461 Y125.775 E39.61051
G1 X165.915 Y125.881 E39.62901
G1 X165.61 Y125.96 E39.63949
G1 X165.342 Y126.054 E39.64894
G1 X165.058 Y126.185 E39.65934
G1 X164.852 Y126.33 E39.66772
G1 X164.618 Y126.602 E39.67965
G1 X164.423 Y126.998 E39.69433
G1 X164.218 Y127.273 E39.70574
G1 X163.931 Y127.407 E39.71628
G1 X163.655 Y127.419 E39.72546
G1 X163.219 Y127.286 E39.74062
G1 X162.791 Y127.076 E39.75648
G1 X162.469 Y126.906 E39.76859
G1 X161.892 Y126.579 E39.79065
G1 X159.962 Y125.431 E39.86534
G1 X159.131 Y124.947 E39.89733
G1 X158.727 Y124.721 E39.91272
G1 X158.179 Y124.434 E39.9333
G1 X157.884 Y124.294 E39.94416
G1 X157.628 Y124.185 E39.95341
G1 X157.279 Y124.057 E39.96578
G1 X156.789 Y123.942 E39.98252
G1 X156.456 Y123.906 E39.99366
G1 X155.912 Y123.907 E40.01175
G1 X155.307 Y124.059 E40.0325
G1 X154.889 Y124.255 E40.04785
G1 X154.494 Y124.514 E40.06356
G1 X154.195 Y124.766 E40.07657
G1 X153.617 Y125.321 E40.10322
G1 X153.313 Y125.503 E40.11501
G1 X152.989 Y125.577 E40.12606
G1 X152.538 Y125.576 E40.14106
G1 X152.039 Y125.515 E40.15778
G1 X151.202 Y125.38 E40.18598
G1 X150.138 Y125.19 E40.22193
G1 X146.713 Y124.517 E40.33802
G1 X146.177 Y124.429 E40.35609
G1 X145.748 Y124.374 E40.37047
G1 X145.423 Y124.382 E40.38129
G1 X145.192 Y124.443 E40.38923
G1 X144.978 Y124.589 E40.39785
G1 X144.511 Y125.07 E40.42015
G1 X144.195 Y125.353 E40.43426
G1 X143.792 Y125.635 E40.45061
G1 X143.26 Y125.872 E40.46999
G1 X142.762 Y125.985 E40.48697
G1 X142.334 Y126.032 E40.50129
G1 X141.866 Y126.044 E40.51686
G1 X141.35 Y126.02 E40.53404
G1 X140.78 Y125.96 E40.55311
G1 X140.491 Y125.917 E40.56282
G1 X139.844 Y125.801 E40.58469
G1 X139.165 Y125.648 E40.60784
G1 X138.448 Y125.461 E40.63248
G1 X137.298 Y125.117 E40.67241
G1 X136.485 Y124.847 E40.7009
G1 X135.638 Y124.544 E40.73082
G1 X134.761 Y124.211 E40.76202
G1 X133.852 Y123.847 E40.79459
G1 X132.914 Y123.452 E40.82844
G1 X131.455 Y122.806 E40.88151
G1 X129.946 Y122.096 E40.93698
G1 X128.389 Y121.325 E40.99476
G1 X127.301 Y120.759 E41.03555
G1 X126.781 Y120.464 E41.05544
G1 X126.432 Y120.231 E41.0694
G1 X126.276 Y120.106 E41.07604
G1 X124.958 Y119.151 E41.13018
G1 X124.957 Y181.04 E43.18862
G0 F6000 X125.227 Y180.77
G0 X125.457 Y180.28
G0 X125.717 Y180.28
;TYPE:SKIN
G1 F1200 X174.283 Y180.28 E44.80393
G1 X174.283 Y126.636 E46.58813
G1 X174.283 Y126.501 E46.59262
G1 X173.413 Y126.523 E46.62157
G1 X172.611 Y126.525 E46.64824
