;FLAVOR:Marlin
;TIME:18998
;Filament used: 13.4936m
;Layer height: 0.2
;MINX:103.7
;MINY:92
;MINZ:0.2
;MAXX:196.2
;MAXY:208
;MAXZ:28
;Generated with Cura_SteamEngine 5.2.1
M140 S60
M105
M190 S60
M104 S200
M105
M109 S200
M82 ;absolute extrusion mode
M201 X500.00 Y500.00 Z100.00 E5000.00 ;Setup machine max acceleration
M203 X500.00 Y500.00 Z10.00 E50.00 ;Setup machine max feedrate
M204 P500.00 R1000.00 T500.00 ;Setup Print/Retract/Travel acceleration
M205 X8.00 Y8.00 Z0.40 E5.00 ;Setup Jerk
M220 S100 ;Reset Feedrate
M221 S100 ;Reset Flowrate

G28 ;Home
G29 ;Auto bed Level

G92 E0 ;Reset Extruder
G1 Z2.0 F3000 ;Move Z Axis up
G1 X10.1 Y20 Z0.28 F5000.0 ;Move to start position
G1 X10.1 Y200.0 Z0.28 F1500.0 E15 ;Draw the first line
G1 X10.4 Y200.0 Z0.28 F5000.0 ;Move to side a little
G1 X10.4 Y20 Z0.28 F1500.0 E30 ;Draw the second line
G92 E0 ;Reset Extruder
G1 Z2.0 F3000 ;Move Z Axis up

G92 E0
G92 E0
G1 F2700 E-7
;LAYER_COUNT:140
;LAYER:0
M107
G0 F6000 X106.266 Y95.958 Z0.2
;TYPE:SKIRT
G1 F2700 E0
G1 F1200 X106.898 Y95.264 E0.03122
G1 X107.586 Y94.627 E0.0624
G1 X108.326 Y94.051 E0.09359
G1 X109.112 Y93.539 E0.12479
G1 X109.939 Y93.097 E0.15598
G1 X110.801 Y92.727 E0.18718
G1 X111.691 Y92.431 E0.21838
G1 X112.603 Y92.213 E0.24957
G1 X113.53 Y92.072 E0.28075
G1 X114.401 Y92.013 E0.30979
G1 X115.03 Y92 E0.33071
G1 X184.651 Y92.001 E2.64632
G1 X185.349 Y92.011 E2.66954
G1 X186.285 Y92.065 E2.70072
G1 X187.213 Y92.197 E2.73189
G1 X188.127 Y92.409 E2.7631
G1 X189.019 Y92.698 E2.79429
G1 X189.884 Y93.061 E2.82549
G1 X190.714 Y93.497 E2.85667
G1 X191.505 Y94.002 E2.88788
G1 X192.249 Y94.573 E2.91908
G1 X192.942 Y95.205 E2.95027
G1 X193.579 Y95.893 E2.98146
G1 X194.154 Y96.634 E3.01265
G1 X194.665 Y97.42 E3.04384
G1 X195.107 Y98.248 E3.07505
G1 X195.476 Y99.11 E3.10624
G1 X195.771 Y100 E3.13742
G1 X195.989 Y100.912 E3.16861
G1 X196.129 Y101.84 E3.19983
G1 X196.187 Y102.701 E3.22853
G1 X196.2 Y103.33 E3.24945
G1 X196.199 Y196.4 E6.34497
G1 X196.19 Y197.127 E6.36916
G1 X196.139 Y198.064 E6.40037
G1 X196.007 Y198.992 E6.43154
G1 X195.798 Y199.906 E6.46273
G1 X195.511 Y200.799 E6.49393
G1 X195.149 Y201.665 E6.52514
G1 X194.715 Y202.496 E6.55633
G1 X194.211 Y203.287 E6.58752
G1 X193.642 Y204.032 E6.6187
G1 X193.011 Y204.727 E6.64992
G1 X192.324 Y205.365 E6.68111
G1 X191.585 Y205.942 E6.71229
G1 X190.799 Y206.454 E6.74349
G1 X189.973 Y206.897 E6.77466
G1 X189.111 Y207.269 E6.80589
G1 X188.222 Y207.565 E6.83705
G1 X187.31 Y207.785 E6.86826
G1 X186.383 Y207.926 E6.89944
G1 X185.499 Y207.987 E6.92892
G1 X184.87 Y208 E6.94984
G1 X115.265 Y207.999 E9.26491
G1 X114.567 Y207.99 E9.28813
G1 X113.631 Y207.938 E9.31931
G1 X112.702 Y207.806 E9.35052
G1 X111.788 Y207.596 E9.38171
G1 X110.895 Y207.309 E9.41291
G1 X110.03 Y206.946 E9.44411
G1 X109.199 Y206.512 E9.47529
G1 X108.408 Y206.008 E9.50649
G1 X107.663 Y205.438 E9.53769
G1 X106.969 Y204.807 E9.56888
G1 X106.332 Y204.12 E9.60004
G1 X105.755 Y203.38 E9.63125
G1 X105.243 Y202.594 E9.66245
G1 X104.8 Y201.767 E9.69366
G1 X104.429 Y200.906 E9.72484
G1 X104.133 Y200.016 E9.75603
G1 X103.914 Y199.104 E9.78723
G1 X103.773 Y198.177 E9.81842
G1 X103.713 Y197.288 E9.84805
G1 X103.7 Y196.658 E9.86901
G1 X103.701 Y103.525 E12.96663
G1 X103.71 Y102.86 E12.98875
G1 X103.763 Y101.924 E13.01993
G1 X103.895 Y100.995 E13.05114
G1 X104.106 Y100.081 E13.08234
G1 X104.394 Y99.189 E13.11351
G1 X104.757 Y98.324 E13.14471
G1 X105.192 Y97.493 E13.17591
G1 X105.696 Y96.703 E13.20708
G1 X106.266 Y95.958 E13.23828
G0 F6000 X106.661 Y96.111
G1 F1200 X107.289 Y95.439 E13.26887
G1 X107.974 Y94.823 E13.29951
G1 X108.71 Y94.27 E13.33013
G1 X109.491 Y93.782 E13.36076
G1 X110.311 Y93.364 E13.39137
G1 X111.165 Y93.019 E13.42201
G1 X112.045 Y92.749 E13.45262
G1 X112.945 Y92.557 E13.48323
G1 X113.859 Y92.443 E13.51386
G1 X114.412 Y92.413 E13.53228
G1 X115.03 Y92.4 E13.55284
G1 X184.645 Y92.401 E15.86825
G1 X185.343 Y92.411 E15.89147
G1 X186.262 Y92.464 E15.92208
G1 X187.173 Y92.597 E15.9527
G1 X188.069 Y92.808 E15.98332
G1 X188.943 Y93.096 E16.01393
G1 X189.79 Y93.459 E16.04458
G1 X190.601 Y93.894 E16.07519
G1 X191.371 Y94.398 E16.10579
G1 X192.095 Y94.967 E16.13642
G1 X192.767 Y95.597 E16.16706
G1 X193.382 Y96.282 E16.19768
G1 X193.935 Y97.018 E16.2283
G1 X194.422 Y97.799 E16.25891
G1 X194.839 Y98.62 E16.28954
G1 X195.184 Y99.474 E16.32017
G1 X195.453 Y100.354 E16.35078
G1 X195.645 Y101.255 E16.38142
G1 X195.758 Y102.168 E16.41201
G1 X195.787 Y102.712 E16.43013
G1 X195.8 Y103.33 E16.45069
G1 X195.799 Y196.395 E19.54605
G1 X195.79 Y197.122 E19.57023
G1 X195.739 Y198.041 E19.60084
G1 X195.608 Y198.953 E19.63149
G1 X195.398 Y199.849 E19.6621
G1 X195.112 Y200.724 E19.69271
G1 X194.751 Y201.571 E19.72334
G1 X194.317 Y202.383 E19.75396
G1 X193.815 Y203.155 E19.78459
G1 X193.247 Y203.88 E19.81522
G1 X192.619 Y204.553 E19.84584
G1 X191.935 Y205.169 E19.87645
G1 X191.2 Y205.723 E19.90706
G1 X190.42 Y206.212 E19.93768
G1 X189.6 Y206.631 E19.96831
G1 X188.747 Y206.977 E19.99893
G1 X187.867 Y207.248 E20.02955
G1 X186.967 Y207.441 E20.06017
G1 X186.053 Y207.556 E20.09081
G1 X185.488 Y207.587 E20.10963
G1 X184.87 Y207.6 E20.13019
G1 X115.27 Y207.599 E22.44509
G1 X114.572 Y207.59 E22.46831
G1 X113.653 Y207.538 E22.49892
G1 X112.742 Y207.407 E22.52954
G1 X111.846 Y207.197 E22.56014
G1 X110.971 Y206.91 E22.59077
G1 X110.124 Y206.548 E22.62141
G1 X109.312 Y206.114 E22.65203
G1 X108.541 Y205.612 E22.68263
G1 X107.816 Y205.044 E22.71326
G1 X107.143 Y204.415 E22.7439
G1 X106.528 Y203.731 E22.7745
G1 X105.974 Y202.996 E22.80511
G1 X105.486 Y202.215 E22.83574
G1 X105.067 Y201.395 E22.86637
G1 X104.721 Y200.542 E22.89698
G1 X104.451 Y199.662 E22.9276
G1 X104.258 Y198.761 E22.95825
G1 X104.144 Y197.848 E22.98885
G1 X104.113 Y197.277 E23.00787
G1 X104.1 Y196.658 E23.02846
G1 X104.101 Y103.531 E26.12588
G1 X104.11 Y102.866 E26.148
G1 X104.162 Y101.946 E26.17865
G1 X104.294 Y101.035 E26.20926
G1 X104.505 Y100.139 E26.23988
G1 X104.792 Y99.264 E26.27051
G1 X105.155 Y98.418 E26.30113
G1 X105.589 Y97.606 E26.33175
G1 X106.092 Y96.835 E26.36237
G1 X106.661 Y96.111 E26.39299
G0 F6000 X107.055 Y96.267
G1 F1200 X107.681 Y95.617 E26.42301
G1 X108.362 Y95.024 E26.45304
G1 X109.094 Y94.494 E26.4831
G1 X109.869 Y94.031 E26.51313
G1 X110.682 Y93.638 E26.54316
G1 X111.527 Y93.318 E26.57321
G1 X112.396 Y93.075 E26.60322
G1 X113.284 Y92.909 E26.63327
G1 X114.423 Y92.813 E26.67129
G1 X115.03 Y92.8 E26.69148
G1 X184.639 Y92.801 E29.00669
G1 X185.337 Y92.811 E29.02991
G1 X186.239 Y92.864 E29.05996
G1 X187.132 Y92.996 E29.08998
G1 X188.01 Y93.207 E29.12002
G1 X188.866 Y93.495 E29.15005
G1 X189.693 Y93.857 E29.18008
G1 X190.485 Y94.292 E29.21013
G1 X191.236 Y94.794 E29.24018
G1 X191.939 Y95.361 E29.27022
G1 X192.589 Y95.988 E29.30026
G1 X193.181 Y96.67 E29.33029
G1 X193.711 Y97.401 E29.36032
G1 X194.173 Y98.177 E29.39036
G1 X194.566 Y98.99 E29.4204
G1 X194.884 Y99.835 E29.45043
G1 X195.127 Y100.705 E29.48047
G1 X195.292 Y101.593 E29.51051
G1 X195.387 Y102.723 E29.54823
G1 X195.4 Y103.33 E29.56842
G1 X195.399 Y196.39 E32.66361
G1 X195.39 Y197.117 E32.68779
G1 X195.339 Y198.019 E32.71784
G1 X195.208 Y198.913 E32.74789
G1 X194.999 Y199.791 E32.77791
G1 X194.713 Y200.648 E32.80796
G1 X194.352 Y201.476 E32.838
G1 X193.92 Y202.268 E32.86801
G1 X193.419 Y203.02 E32.89806
G1 X192.853 Y203.724 E32.92811
G1 X192.228 Y204.375 E32.95812
G1 X191.547 Y204.969 E32.98818
G1 X190.816 Y205.5 E33.01823
G1 X190.042 Y205.964 E33.04824
G1 X189.229 Y206.358 E33.07829
G1 X188.385 Y206.678 E33.10831
G1 X187.515 Y206.923 E33.13837
G1 X186.628 Y207.089 E33.16839
G1 X185.477 Y207.187 E33.20681
G1 X184.87 Y207.2 E33.227
G1 X115.275 Y207.199 E35.54174
G1 X114.577 Y207.19 E35.56496
G1 X113.676 Y207.139 E35.59498
G1 X112.782 Y207.007 E35.62503
G1 X111.904 Y206.798 E35.65505
G1 X111.047 Y206.511 E35.68511
G1 X110.22 Y206.15 E35.71512
G1 X109.427 Y205.717 E35.74517
G1 X108.676 Y205.216 E35.7752
G1 X107.972 Y204.65 E35.80524
G1 X107.321 Y204.024 E35.83528
G1 X106.728 Y203.343 E35.86532
G1 X106.198 Y202.612 E35.89535
G1 X105.734 Y201.837 E35.92539
G1 X105.34 Y201.024 E35.95544
G1 X105.02 Y200.18 E35.98546
G1 X104.776 Y199.31 E36.01551
G1 X104.61 Y198.422 E36.04556
G1 X104.513 Y197.267 E36.08411
G1 X104.5 Y196.658 E36.10437
G1 X104.501 Y103.536 E39.20162
G1 X104.51 Y102.871 E39.22374
G1 X104.562 Y101.969 E39.25379
G1 X104.694 Y101.076 E39.28382
G1 X104.904 Y100.198 E39.31384
G1 X105.191 Y99.341 E39.3439
G1 X105.553 Y98.514 E39.37393
G1 X105.986 Y97.722 E39.40395
G1 X106.488 Y96.971 E39.434
G1 X107.055 Y96.267 E39.46406
G1 F2700 E32.46406
;MESH:Element_tray.stl
G0 F6000 X114.035 Y103.42
G0 X115.3 Y196.4
;TYPE:WALL-INNER
G1 F2700 E39.46406
G1 F1200 X184.6 Y196.4 E41.76899
G1 X184.6 Y138.25 E43.70306
G1 X184.6 Y103.6 E44.85553
G1 X115.3 Y103.6 E47.16046
G1 X115.3 Y196.4 E50.247
G0 F6000 X114.9 Y196.8
;TYPE:WALL-OUTER
G1 F1200 X185 Y196.8 E52.57853
G1 X185 Y138.25 E54.52591
G1 X185 Y103.2 E55.69168
G1 X114.9 Y103.2 E58.02322
G1 X114.9 Y196.8 E61.13636
G0 F6000 X115.17 Y196.53
G0 X115.4 Y196.04
G0 X115.66 Y196.04
;TYPE:SKIN
G1 F1200 X184.24 Y196.04 E63.41734
G1 X184.24 Y161.75 E64.55783
G1 X184.24 Y103.96 E66.47994
G1 X115.66 Y103.96 E68.76092
G1 X115.66 Y196.04 E71.82351
G0 F6000 X116.077 Y195.838
G1 F1200 X115.859 Y195.621 E71.83374
G0 F6000 X115.859 Y195.055
G1 F1200 X116.642 Y195.838 E71.87057
G0 F6000 X117.208 Y195.838
G1 F1200 X115.859 Y194.489 E71.93402
G0 F6000 X115.859 Y193.924
G1 F1200 X117.774 Y195.838 E72.02408
G0 F6000 X118.339 Y195.838
G1 F1200 X115.859 Y193.358 E72.14073
G0 F6000 X115.859 Y192.792
G1 F1200 X118.905 Y195.838 E72.284
G0 F6000 X119.471 Y195.838
G1 F1200 X115.859 Y192.226 E72.4539
G0 F6000 X115.859 Y191.661
G1 F1200 X120.037 Y195.838 E72.6504
G0 F6000 X120.602 Y195.838
G1 F1200 X115.859 Y191.095 E72.87349
G0 F6000 X115.859 Y190.529
G1 F1200 X121.168 Y195.838 E73.12321
G0 F6000 X121.734 Y195.838
G1 F1200 X115.859 Y189.964 E73.39953
G0 F6000 X115.859 Y189.398
G1 F1200 X122.299 Y195.838 E73.70245
G0 F6000 X122.865 Y195.838
G1 F1200 X115.859 Y188.832 E74.03199
G0 F6000 X115.859 Y188.267
G1 F1200 X123.431 Y195.838 E74.38813
G0 F6000 X123.996 Y195.838
G1 F1200 X115.859 Y187.701 E74.77087
G0 F6000 X115.859 Y187.135
G1 F1200 X124.562 Y195.838 E75.18023
G0 F6000 X125.128 Y195.838
G1 F1200 X115.859 Y186.57 E75.61619
G0 F6000 X115.859 Y186.004
G1 F1200 X125.693 Y195.838 E76.07875
G0 F6000 X126.259 Y195.838
G1 F1200 X115.859 Y185.438 E76.56794
G0 F6000 X115.859 Y184.873
G1 F1200 X126.825 Y195.838 E77.08372
G0 F6000 X127.39 Y195.838
G1 F1200 X115.859 Y184.307 E77.6261
G0 F6000 X115.859 Y183.741
G1 F1200 X127.956 Y195.838 E78.19511
G0 F6000 X128.522 Y195.838
G1 F1200 X115.859 Y183.176 E78.79072
G0 F6000 X115.859 Y182.61
G1 F1200 X129.087 Y195.838 E79.41292
G0 F6000 X129.653 Y195.838
G1 F1200 X115.859 Y182.044 E80.06175
G0 F6000 X115.859 Y181.478
G1 F1200 X130.219 Y195.838 E80.7372
G0 F6000 X130.785 Y195.838
G1 F1200 X115.859 Y180.913 E81.43925
G0 F6000 X115.859 Y180.347
G1 F1200 X131.35 Y195.838 E82.1679
G0 F6000 X131.916 Y195.838
G1 F1200 X115.859 Y179.781 E82.92317
G0 F6000 X115.859 Y179.216
G1 F1200 X132.482 Y195.838 E83.70504
G0 F6000 X133.047 Y195.838
G1 F1200 X115.859 Y178.65 E84.51351
G0 F6000 X115.859 Y178.084
G1 F1200 X133.613 Y195.838 E85.3486
G0 F6000 X134.179 Y195.838
G1 F1200 X115.859 Y177.519 E86.2103
G0 F6000 X115.859 Y176.953
G1 F1200 X134.744 Y195.838 E87.09859
G0 F6000 X135.31 Y195.838
G1 F1200 X115.859 Y176.387 E88.01351
G0 F6000 X115.859 Y175.822
G1 F1200 X135.876 Y195.838 E88.95502
G0 F6000 X136.441 Y195.838
G1 F1200 X115.859 Y175.256 E89.92313
G0 F6000 X115.859 Y174.69
G1 F1200 X137.007 Y195.838 E90.91787
G0 F6000 X137.573 Y195.838
G1 F1200 X115.859 Y174.125 E91.93921
G0 F6000 X115.859 Y173.559
G1 F1200 X138.138 Y195.838 E92.98714
G0 F6000 X138.704 Y195.838
G1 F1200 X115.859 Y172.993 E94.0617
G0 F6000 X115.859 Y172.427
G1 F1200 X139.27 Y195.838 E95.16288
G0 F6000 X139.836 Y195.838
G1 F1200 X115.859 Y171.862 E96.29067
G0 F6000 X115.859 Y171.296
G1 F1200 X140.401 Y195.838 E97.44505
G0 F6000 X140.967 Y195.838
G1 F1200 X115.859 Y170.73 E98.62605
G0 F6000 X115.859 Y170.165
G1 F1200 X141.533 Y195.838 E99.83365
G0 F6000 X142.098 Y195.838
G1 F1200 X115.859 Y169.599 E101.06785
G0 F6000 X115.859 Y169.033
G1 F1200 X142.664 Y195.838 E102.32868
G0 F6000 X143.23 Y195.838
G1 F1200 X115.859 Y168.468 E103.6161
G0 F6000 X115.859 Y167.902
G1 F1200 X143.795 Y195.838 E104.93013
G0 F6000 X144.361 Y195.838
G1 F1200 X115.859 Y167.336 E106.27077
G0 F6000 X115.859 Y166.771
G1 F1200 X144.927 Y195.838 E107.63802
G0 F6000 X145.492 Y195.838
G1 F1200 X115.859 Y166.205 E109.03187
G0 F6000 X115.859 Y165.639
G1 F1200 X146.058 Y195.838 E110.45233
G0 F6000 X146.624 Y195.838
G1 F1200 X115.859 Y165.074 E111.8994
G0 F6000 X115.859 Y164.508
G1 F1200 X147.189 Y195.838 E113.37307
G0 F6000 X147.755 Y195.838
G1 F1200 X115.859 Y163.942 E114.87336
G0 F6000 X115.859 Y163.377
G1 F1200 X148.321 Y195.838 E116.40025
G0 F6000 X148.886 Y195.838
G1 F1200 X115.859 Y162.811 E117.95374
G0 F6000 X115.859 Y162.245
G1 F1200 X149.452 Y195.838 E119.53385
G0 F6000 X150.018 Y195.838
G1 F1200 X115.859 Y161.679 E121.14058
G0 F6000 X115.859 Y161.114
G1 F1200 X150.584 Y195.838 E122.77392
G0 F6000 X151.149 Y195.838
G1 F1200 X115.859 Y160.548 E124.43385
G0 F6000 X115.859 Y159.982
G1 F1200 X151.715 Y195.838 E126.12041
G0 F6000 X152.281 Y195.838
G1 F1200 X115.859 Y159.417 E127.83356
G0 F6000 X115.859 Y158.851
G1 F1200 X152.846 Y195.838 E129.57332
G0 F6000 X153.412 Y195.838
G1 F1200 X115.859 Y158.285 E131.3397
G0 F6000 X115.859 Y157.72
G1 F1200 X153.978 Y195.838 E133.13267
G0 F6000 X154.543 Y195.838
G1 F1200 X115.859 Y157.154 E134.95225
G0 F6000 X115.859 Y156.588
G1 F1200 X155.109 Y195.838 E136.79845
G0 F6000 X155.675 Y195.838
G1 F1200 X115.859 Y156.023 E138.67125
G0 F6000 X115.859 Y155.457
G1 F1200 X156.24 Y195.838 E140.57065
G0 F6000 X156.806 Y195.838
G1 F1200 X115.859 Y154.891 E142.49667
G0 F6000 X115.859 Y154.326
G1 F1200 X157.372 Y195.838 E144.44929
G0 F6000 X157.937 Y195.838
G1 F1200 X115.859 Y153.76 E146.42851
G0 F6000 X115.859 Y153.194
G1 F1200 X158.503 Y195.838 E148.43435
G0 F6000 X159.069 Y195.838
G1 F1200 X115.859 Y152.628 E150.46682
G0 F6000 X115.859 Y152.063
G1 F1200 X159.635 Y195.838 E152.52588
G0 F6000 X160.2 Y195.838
G1 F1200 X115.859 Y151.497 E154.61155
G0 F6000 X115.859 Y150.931
G1 F1200 X160.766 Y195.838 E156.72384
G0 F6000 X161.332 Y195.838
G1 F1200 X115.859 Y150.366 E158.86272
G0 F6000 X115.859 Y149.8
G1 F1200 X161.897 Y195.838 E161.02821
G0 F6000 X162.463 Y195.838
G1 F1200 X115.859 Y149.234 E163.22032
G0 F6000 X115.859 Y148.669
G1 F1200 X163.029 Y195.838 E165.43903
G0 F6000 X163.594 Y195.838
G1 F1200 X115.859 Y148.103 E167.68434
G0 F6000 X115.859 Y147.537
G1 F1200 X164.16 Y195.838 E169.95627
G0 F6000 X164.726 Y195.838
G1 F1200 X115.859 Y146.972 E172.2548
G0 F6000 X115.859 Y146.406
G1 F1200 X165.291 Y195.838 E174.57993
G0 F6000 X165.857 Y195.838
G1 F1200 X115.859 Y145.84 E176.93168
G0 F6000 X115.859 Y145.275
G1 F1200 X166.423 Y195.838 E179.31003
G0 F6000 X166.988 Y195.838
G1 F1200 X115.859 Y144.709 E181.71498
G0 F6000 X115.859 Y144.143
G1 F1200 X167.554 Y195.838 E184.14656
G0 F6000 X168.12 Y195.838
G1 F1200 X115.859 Y143.578 E186.60473
G0 F6000 X115.859 Y143.012
G1 F1200 X168.685 Y195.838 E189.0895
G0 F6000 X169.251 Y195.838
G1 F1200 X115.859 Y142.446 E191.6009
G0 F6000 X115.859 Y141.88
G1 F1200 X169.817 Y195.838 E194.13892
G0 F6000 X170.383 Y195.838
G1 F1200 X115.859 Y141.315 E196.70354
G0 F6000 X115.859 Y140.749
G1 F1200 X170.948 Y195.838 E199.29475
G0 F6000 X171.514 Y195.838
G1 F1200 X115.859 Y140.183 E201.9126
G0 F6000 X115.859 Y139.618
G1 F1200 X172.08 Y195.838 E204.55704
G0 F6000 X172.645 Y195.838
G1 F1200 X115.859 Y139.052 E207.22807
G0 F6000 X115.859 Y138.486
G1 F1200 X173.211 Y195.838 E209.92574
G0 F6000 X173.777 Y195.838
G1 F1200 X115.859 Y137.921 E212.65
G0 F6000 X115.859 Y137.355
G1 F1200 X174.342 Y195.838 E215.40086
G0 F6000 X174.908 Y195.838
G1 F1200 X115.859 Y136.789 E218.17834
G0 F6000 X115.859 Y136.224
G1 F1200 X175.474 Y195.838 E220.98243
G0 F6000 X176.039 Y195.838
