;FLAVOR:Marlin
;TIME:13319
;Filament used: 9.13m
;Layer height: 0.2
;MINX:112.5
;MINY:94.305
;MINZ:0.2
;MAXX:187.5
;MAXY:205.695
;MAXZ:33
;Generated with Cura_SteamEngine 5.2.1
M140 S60
M105
M190 S60
M104 S210
M105
M109 S210
M82 ;absolute extrusion mode
M201 X500.00 Y500.00 Z100.00 E5000.00 ;Setup machine max acceleration
M203 X500.00 Y500.00 Z10.00 E50.00 ;Setup machine max feedrate
M204 P500.00 R1000.00 T500.00 ;Setup Print/Retract/Travel acceleration
M205 X8.00 Y8.00 Z0.40 E5.00 ;Setup Jerk
M220 S100 ;Reset Feedrate
M221 S100 ;Reset Flowrate

G28 ;Home
G29 ;Auto bed Level

G92 E0 ;Reset Extruder
G1 Z2.0 F3000 ;Move Z Axis up
G1 X10.1 Y20 Z0.28 F5000.0 ;Move to start position
G1 X10.1 Y200.0 Z0.28 F1500.0 E15 ;Draw the first line
G1 X10.4 Y200.0 Z0.28 F5000.0 ;Move to side a little
G1 X10.4 Y20 Z0.28 F1500.0 E30 ;Draw the second line
G92 E0 ;Reset Extruder
G1 Z2.0 F3000 ;Move Z Axis up

G92 E0
G92 E0
G1 F2700 E-7
;LAYER_COUNT:165
;LAYER:0
M107
G0 F6000 X115.066 Y98.263 Z0.2
;TYPE:SKIRT
G1 F2700 E0
G1 F1200 X115.698 Y97.569 E0.03122
G1 X116.386 Y96.932 E0.0624
G1 X117.126 Y96.356 E0.09359
G1 X117.912 Y95.844 E0.12479
G1 X118.739 Y95.402 E0.15598
G1 X119.601 Y95.032 E0.18718
G1 X120.491 Y94.736 E0.21838
G1 X121.403 Y94.518 E0.24957
G1 X122.33 Y94.377 E0.28075
G1 X123.201 Y94.318 E0.30979
G1 X123.83 Y94.305 E0.33071
G1 X175.951 Y94.306 E2.06426
G1 X176.649 Y94.316 E2.08748
G1 X177.585 Y94.37 E2.11867
G1 X178.513 Y94.502 E2.14984
G1 X179.427 Y94.714 E2.18105
G1 X180.319 Y95.003 E2.21224
G1 X181.184 Y95.366 E2.24344
G1 X182.014 Y95.802 E2.27462
G1 X182.805 Y96.307 E2.30583
G1 X183.549 Y96.878 E2.33703
G1 X184.242 Y97.51 E2.36822
G1 X184.879 Y98.198 E2.39941
G1 X185.454 Y98.939 E2.4306
G1 X185.965 Y99.725 E2.46178
G1 X186.407 Y100.553 E2.493
G1 X186.776 Y101.415 E2.52419
G1 X187.071 Y102.305 E2.55537
G1 X187.289 Y103.217 E2.58656
G1 X187.429 Y104.145 E2.61777
G1 X187.487 Y105.006 E2.64648
G1 X187.5 Y105.635 E2.6674
G1 X187.499 Y194.095 E5.60959
G1 X187.49 Y194.822 E5.63378
G1 X187.439 Y195.759 E5.66499
G1 X187.307 Y196.687 E5.69616
G1 X187.098 Y197.601 E5.72735
G1 X186.811 Y198.494 E5.75854
G1 X186.449 Y199.36 E5.78976
G1 X186.015 Y200.191 E5.82094
G1 X185.511 Y200.982 E5.85214
G1 X184.942 Y201.727 E5.88332
G1 X184.311 Y202.422 E5.91454
G1 X183.624 Y203.06 E5.94572
G1 X182.885 Y203.637 E5.97691
G1 X182.099 Y204.149 E6.00811
G1 X181.273 Y204.592 E6.03928
G1 X180.411 Y204.964 E6.07051
G1 X179.522 Y205.26 E6.10167
G1 X178.61 Y205.48 E6.13288
G1 X177.683 Y205.621 E6.16406
G1 X176.799 Y205.682 E6.19353
G1 X176.17 Y205.695 E6.21446
G1 X124.065 Y205.694 E7.94748
G1 X123.367 Y205.685 E7.9707
G1 X122.431 Y205.633 E8.00188
G1 X121.502 Y205.501 E8.03308
G1 X120.588 Y205.291 E8.06428
G1 X119.695 Y205.004 E8.09547
G1 X118.83 Y204.641 E8.12667
G1 X117.999 Y204.207 E8.15786
G1 X117.208 Y203.703 E8.18905
G1 X116.463 Y203.133 E8.22025
G1 X115.769 Y202.502 E8.25145
G1 X115.132 Y201.815 E8.28261
G1 X114.555 Y201.075 E8.31382
G1 X114.043 Y200.289 E8.34502
G1 X113.6 Y199.462 E8.37622
G1 X113.229 Y198.601 E8.40741
G1 X112.933 Y197.711 E8.4386
G1 X112.714 Y196.799 E8.4698
G1 X112.573 Y195.872 E8.50098
G1 X112.513 Y194.983 E8.53062
G1 X112.5 Y194.353 E8.55158
G1 X112.501 Y105.83 E11.49586
G1 X112.51 Y105.165 E11.51798
G1 X112.563 Y104.229 E11.54917
G1 X112.695 Y103.3 E11.58037
G1 X112.906 Y102.386 E11.61157
G1 X113.194 Y101.494 E11.64275
G1 X113.557 Y100.629 E11.67395
G1 X113.992 Y99.798 E11.70515
G1 X114.496 Y99.008 E11.73631
G1 X115.066 Y98.263 E11.76751
G0 F6000 X115.461 Y98.416
G1 F1200 X116.089 Y97.744 E11.79811
G1 X116.774 Y97.128 E11.82875
G1 X117.51 Y96.575 E11.85937
G1 X118.291 Y96.087 E11.89
G1 X119.111 Y95.669 E11.92061
G1 X119.965 Y95.324 E11.95124
G1 X120.845 Y95.054 E11.98186
G1 X121.745 Y94.862 E12.01247
G1 X122.659 Y94.748 E12.0431
G1 X123.212 Y94.718 E12.06152
G1 X123.83 Y94.705 E12.08208
G1 X175.793 Y94.705 E13.81038
G1 X176.643 Y94.716 E13.83865
G1 X177.562 Y94.769 E13.86927
G1 X178.473 Y94.902 E13.89989
G1 X179.369 Y95.113 E13.9305
G1 X180.243 Y95.401 E13.96111
G1 X181.09 Y95.764 E13.99176
G1 X181.901 Y96.199 E14.02237
G1 X182.671 Y96.703 E14.05298
G1 X183.395 Y97.272 E14.08361
G1 X184.067 Y97.902 E14.11424
G1 X184.682 Y98.587 E14.14486
G1 X185.235 Y99.323 E14.17548
G1 X185.722 Y100.104 E14.20609
G1 X186.139 Y100.925 E14.23672
G1 X186.484 Y101.779 E14.26735
G1 X186.753 Y102.659 E14.29796
G1 X186.945 Y103.56 E14.3286
G1 X187.058 Y104.473 E14.3592
G1 X187.087 Y105.017 E14.37732
G1 X187.1 Y105.635 E14.39788
G1 X187.099 Y194.09 E17.3399
G1 X187.09 Y194.817 E17.36408
G1 X187.039 Y195.736 E17.3947
G1 X186.908 Y196.648 E17.42534
G1 X186.698 Y197.544 E17.45595
G1 X186.412 Y198.419 E17.48657
G1 X186.051 Y199.266 E17.51719
G1 X185.617 Y200.078 E17.54781
G1 X185.115 Y200.85 E17.57844
G1 X184.547 Y201.575 E17.60908
G1 X183.919 Y202.248 E17.63969
G1 X183.235 Y202.864 E17.67031
G1 X182.5 Y203.418 E17.70092
G1 X181.72 Y203.907 E17.73154
G1 X180.9 Y204.326 E17.76217
G1 X180.047 Y204.672 E17.79278
G1 X179.167 Y204.943 E17.82341
G1 X178.267 Y205.136 E17.85402
G1 X177.353 Y205.251 E17.88466
G1 X176.788 Y205.282 E17.90348
G1 X176.17 Y205.295 E17.92404
G1 X124.07 Y205.294 E19.65689
G1 X123.372 Y205.285 E19.68011
G1 X122.453 Y205.233 E19.71073
G1 X121.542 Y205.102 E19.74134
G1 X120.646 Y204.892 E19.77195
G1 X119.771 Y204.605 E19.80258
G1 X118.924 Y204.243 E19.83321
G1 X118.112 Y203.809 E19.86383
G1 X117.341 Y203.307 E19.89444
G1 X116.616 Y202.739 E19.92507
G1 X115.943 Y202.11 E19.95571
G1 X115.328 Y201.426 E19.9863
G1 X114.774 Y200.691 E20.01691
G1 X114.286 Y199.91 E20.04754
G1 X113.867 Y199.09 E20.07817
G1 X113.521 Y198.237 E20.10879
G1 X113.251 Y197.357 E20.1394
G1 X113.058 Y196.456 E20.17005
G1 X112.944 Y195.543 E20.20065
G1 X112.913 Y194.972 E20.21967
G1 X112.9 Y194.353 E20.24026
G1 X112.901 Y105.836 E23.18435
G1 X112.91 Y105.171 E23.20647
G1 X112.962 Y104.251 E23.23712
G1 X113.094 Y103.34 E23.26774
G1 X113.305 Y102.444 E23.29835
G1 X113.592 Y101.569 E23.32898
G1 X113.955 Y100.723 E23.3596
G1 X114.389 Y99.911 E23.39022
G1 X114.892 Y99.14 E23.42084
G1 X115.461 Y98.416 E23.45147
G0 F6000 X115.855 Y98.572
G1 F1200 X116.481 Y97.922 E23.48148
G1 X117.162 Y97.329 E23.51152
G1 X117.894 Y96.799 E23.54157
G1 X118.669 Y96.336 E23.5716
G1 X119.482 Y95.943 E23.60163
G1 X120.327 Y95.623 E23.63169
G1 X121.196 Y95.38 E23.6617
G1 X122.084 Y95.214 E23.69175
G1 X123.223 Y95.118 E23.72976
G1 X123.83 Y95.105 E23.74996
G1 X175.793 Y95.105 E25.47825
G1 X176.637 Y95.116 E25.50633
G1 X177.539 Y95.169 E25.53638
G1 X178.432 Y95.301 E25.5664
G1 X179.31 Y95.512 E25.59644
G1 X180.166 Y95.8 E25.62648
G1 X180.993 Y96.162 E25.6565
G1 X181.785 Y96.597 E25.68656
G1 X182.536 Y97.099 E25.7166
G1 X183.239 Y97.666 E25.74664
G1 X183.889 Y98.293 E25.77668
G1 X184.481 Y98.975 E25.80671
G1 X185.011 Y99.706 E25.83675
G1 X185.473 Y100.482 E25.86678
G1 X185.866 Y101.295 E25.89682
G1 X186.184 Y102.14 E25.92685
G1 X186.427 Y103.01 E25.95689
G1 X186.592 Y103.898 E25.98693
G1 X186.687 Y105.028 E26.02465
G1 X186.7 Y105.635 E26.04484
G1 X186.699 Y194.085 E28.9867
G1 X186.69 Y194.812 E29.01088
G1 X186.639 Y195.714 E29.04093
G1 X186.508 Y196.608 E29.07098
G1 X186.299 Y197.486 E29.101
G1 X186.013 Y198.343 E29.13105
G1 X185.652 Y199.171 E29.16109
G1 X185.22 Y199.963 E29.1911
G1 X184.719 Y200.715 E29.22115
G1 X184.153 Y201.419 E29.2512
G1 X183.528 Y202.07 E29.28121
G1 X182.847 Y202.664 E29.31127
G1 X182.116 Y203.195 E29.34132
G1 X181.342 Y203.659 E29.37133
G1 X180.529 Y204.053 E29.40138
G1 X179.685 Y204.373 E29.4314
G1 X178.815 Y204.618 E29.46147
G1 X177.928 Y204.784 E29.49148
G1 X176.777 Y204.882 E29.5299
G1 X176.17 Y204.895 E29.5501
G1 X124.075 Y204.894 E31.28278
G1 X123.377 Y204.885 E31.306
G1 X122.476 Y204.834 E31.33601
G1 X121.582 Y204.702 E31.36607
G1 X120.704 Y204.493 E31.39609
G1 X119.847 Y204.206 E31.42615
G1 X119.02 Y203.845 E31.45616
G1 X118.227 Y203.412 E31.48621
G1 X117.476 Y202.911 E31.51624
G1 X116.772 Y202.345 E31.54628
G1 X116.121 Y201.719 E31.57632
G1 X115.528 Y201.038 E31.60636
G1 X114.998 Y200.307 E31.63639
G1 X114.534 Y199.532 E31.66643
G1 X114.14 Y198.719 E31.69648
G1 X113.82 Y197.875 E31.7265
G1 X113.576 Y197.005 E31.75655
G1 X113.41 Y196.117 E31.7866
G1 X113.313 Y194.962 E31.82515
G1 X113.3 Y194.353 E31.84541
G1 X113.301 Y105.841 E34.78933
G1 X113.31 Y105.176 E34.81145
G1 X113.362 Y104.274 E34.8415
G1 X113.494 Y103.381 E34.87153
G1 X113.704 Y102.503 E34.90155
G1 X113.991 Y101.646 E34.93161
G1 X114.353 Y100.819 E34.96164
G1 X114.786 Y100.027 E34.99166
G1 X115.288 Y99.276 E35.02171
G1 X115.855 Y98.572 E35.05177
G1 F2700 E28.05177
;MESH:Town__Tray.stl
G0 F6000 X122.835 Y105.725
G0 X124.1 Y194.095
;TYPE:WALL-INNER
G1 F2700 E35.05177
G1 F1200 X175.9 Y194.095 E36.77465
G1 X175.9 Y131.805 E38.84642
G1 X175.9 Y105.905 E39.70786
G1 X124.1 Y105.905 E41.43073
G1 X124.1 Y194.095 E44.36394
G0 F6000 X123.7 Y194.495
;TYPE:WALL-OUTER
G1 F1200 X176.3 Y194.495 E46.11343
G1 X176.3 Y131.805 E48.1985
G1 X176.3 Y105.505 E49.07325
G1 X123.7 Y105.505 E50.82273
G1 X123.7 Y194.495 E53.78255
G0 F6000 X123.97 Y194.225
G0 X124.2 Y193.735
G0 X124.46 Y193.735
;TYPE:SKIN
G1 F1200 X175.54 Y193.735 E55.48148
G1 X175.54 Y131.805 E57.54128
G1 X175.54 Y106.265 E58.39074
G1 X124.46 Y106.265 E60.08967
G1 X124.46 Y193.735 E62.99893
G0 F6000 X125.085 Y193.533
G1 F1200 X124.659 Y193.107 E63.01897
G0 F6000 X124.659 Y192.541
G1 F1200 X125.651 Y193.533 E63.06563
G0 F6000 X126.217 Y193.533
G1 F1200 X124.659 Y191.975 E63.13891
G0 F6000 X124.659 Y191.41
G1 F1200 X126.782 Y193.533 E63.23877
G0 F6000 X127.348 Y193.533
G1 F1200 X124.659 Y190.844 E63.36526
G0 F6000 X124.659 Y190.278
G1 F1200 X127.914 Y193.533 E63.51836
G0 F6000 X128.479 Y193.533
G1 F1200 X124.659 Y189.713 E63.69804
G0 F6000 X124.659 Y189.147
G1 F1200 X129.045 Y193.533 E63.90435
G0 F6000 X129.611 Y193.533
G1 F1200 X124.659 Y188.581 E64.13727
G0 F6000 X124.659 Y188.016
G1 F1200 X130.176 Y193.533 E64.39678
G0 F6000 X130.742 Y193.533
G1 F1200 X124.659 Y187.45 E64.6829
G0 F6000 X124.659 Y186.884
G1 F1200 X131.308 Y193.533 E64.99565
G0 F6000 X131.874 Y193.533
G1 F1200 X124.659 Y186.319 E65.335
G0 F6000 X124.659 Y185.753
G1 F1200 X132.439 Y193.533 E65.70094
G0 F6000 X133.005 Y193.533
G1 F1200 X124.659 Y185.187 E66.09352
G0 F6000 X124.659 Y184.622
G1 F1200 X133.571 Y193.533 E66.51268
G0 F6000 X134.136 Y193.533
G1 F1200 X124.659 Y184.056 E66.95845
G0 F6000 X124.659 Y183.49
G1 F1200 X134.702 Y193.533 E67.43085
G0 F6000 X135.268 Y193.533
G1 F1200 X124.659 Y182.924 E67.92986
G0 F6000 X124.659 Y182.359
G1 F1200 X135.833 Y193.533 E68.45545
G0 F6000 X136.399 Y193.533
G1 F1200 X124.659 Y181.793 E69.00766
G0 F6000 X124.659 Y181.227
G1 F1200 X136.965 Y193.533 E69.5865
G0 F6000 X137.53 Y193.533
G1 F1200 X124.659 Y180.662 E70.19191
G0 F6000 X124.659 Y180.096
G1 F1200 X138.096 Y193.533 E70.82395
G0 F6000 X138.662 Y193.533
G1 F1200 X124.659 Y179.53 E71.48261
G0 F6000 X124.659 Y178.965
G1 F1200 X139.227 Y193.533 E72.16784
G0 F6000 X139.793 Y193.533
G1 F1200 X124.659 Y178.399 E72.8797
G0 F6000 X124.659 Y177.833
G1 F1200 X140.359 Y193.533 E73.61818
G0 F6000 X140.924 Y193.533
G1 F1200 X124.659 Y177.268 E74.38323
G0 F6000 X124.659 Y176.702
G1 F1200 X141.49 Y193.533 E75.17491
G0 F6000 X142.056 Y193.533
G1 F1200 X124.659 Y176.136 E75.99321
G0 F6000 X124.659 Y175.571
G1 F1200 X142.622 Y193.533 E76.83812
G0 F6000 X143.187 Y193.533
G1 F1200 X124.659 Y175.005 E77.70962
G0 F6000 X124.659 Y174.439
G1 F1200 X143.753 Y193.533 E78.60774
G0 F6000 X144.319 Y193.533
G1 F1200 X124.659 Y173.874 E79.53246
G0 F6000 X124.659 Y173.308
G1 F1200 X144.884 Y193.533 E80.48378
G0 F6000 X145.45 Y193.533
G1 F1200 X124.659 Y172.742 E81.46173
G0 F6000 X124.659 Y172.176
G1 F1200 X146.016 Y193.533 E82.4663
G0 F6000 X146.581 Y193.533
G1 F1200 X124.659 Y171.611 E83.49744
G0 F6000 X124.659 Y171.045
G1 F1200 X147.147 Y193.533 E84.55521
G0 F6000 X147.713 Y193.533
G1 F1200 X124.659 Y170.479 E85.6396
G0 F6000 X124.659 Y169.914
G1 F1200 X148.278 Y193.533 E86.75056
G0 F6000 X148.844 Y193.533
G1 F1200 X124.659 Y169.348 E87.88815
G0 F6000 X124.659 Y168.782
G1 F1200 X149.41 Y193.533 E89.05236
G0 F6000 X149.975 Y193.533
G1 F1200 X124.659 Y168.217 E90.24315
G0 F6000 X124.659 Y167.651
G1 F1200 X150.541 Y193.533 E91.46056
G0 F6000 X151.107 Y193.533
G1 F1200 X124.659 Y167.085 E92.70459
G0 F6000 X124.659 Y166.52
G1 F1200 X151.672 Y193.533 E93.9752
G0 F6000 X152.238 Y193.533
G1 F1200 X124.659 Y165.954 E95.27243
G0 F6000 X124.659 Y165.388
G1 F1200 X152.804 Y193.533 E96.59628
G0 F6000 X153.37 Y193.533
G1 F1200 X124.659 Y164.823 E97.94674
G0 F6000 X124.659 Y164.257
G1 F1200 X153.935 Y193.533 E99.32379
G0 F6000 X154.501 Y193.533
G1 F1200 X124.659 Y163.691 E100.72747
G0 F6000 X124.659 Y163.125
G1 F1200 X155.067 Y193.533 E102.15777
G0 F6000 X155.632 Y193.533
G1 F1200 X124.659 Y162.56 E103.61464
G0 F6000 X124.659 Y161.994
G1 F1200 X156.198 Y193.533 E105.09814
G0 F6000 X156.764 Y193.533
G1 F1200 X124.659 Y161.428 E106.60826
G0 F6000 X124.659 Y160.863
G1 F1200 X157.329 Y193.533 E108.14496
G0 F6000 X157.895 Y193.533
G1 F1200 X124.659 Y160.297 E109.70828
G0 F6000 X124.659 Y159.731
G1 F1200 X158.461 Y193.533 E111.29822
G0 F6000 X159.026 Y193.533
G1 F1200 X124.659 Y159.166 E112.91474
G0 F6000 X124.659 Y158.6
G1 F1200 X159.592 Y193.533 E114.55788
G0 F6000 X160.158 Y193.533
G1 F1200 X124.659 Y158.034 E116.22764
G0 F6000 X124.659 Y157.469
G1 F1200 X160.723 Y193.533 E117.92398
G0 F6000 X161.289 Y193.533
G1 F1200 X124.659 Y156.903 E119.64695
G0 F6000 X124.659 Y156.337
G1 F1200 X161.855 Y193.533 E121.39653
G0 F6000 X162.421 Y193.533
G1 F1200 X124.659 Y155.772 E123.17272
G0 F6000 X124.659 Y155.206
G1 F1200 X162.986 Y193.533 E124.9755
G0 F6000 X163.552 Y193.533
G1 F1200 X124.659 Y154.64 E126.80491
G0 F6000 X124.659 Y154.075
G1 F1200 X164.118 Y193.533 E128.66092
G0 F6000 X164.683 Y193.533
G1 F1200 X124.659 Y153.509 E130.54352
G0 F6000 X124.659 Y152.943
G1 F1200 X165.249 Y193.533 E132.45275
G0 F6000 X165.815 Y193.533
G1 F1200 X124.659 Y152.377 E134.3886
G0 F6000 X124.659 Y151.812
G1 F1200 X166.38 Y193.533 E136.35103
G0 F6000 X166.946 Y193.533
G1 F1200 X124.659 Y151.246 E138.34008
G0 F6000 X124.659 Y150.68
G1 F1200 X167.512 Y193.533 E140.35576
G0 F6000 X168.077 Y193.533
G1 F1200 X124.659 Y150.115 E142.39801
G0 F6000 X124.659 Y149.549
G1 F1200 X168.643 Y193.533 E144.46688
G0 F6000 X169.209 Y193.533
G1 F1200 X124.659 Y148.983 E146.56237
G0 F6000 X124.659 Y148.418
G1 F1200 X169.774 Y193.533 E148.68444
G0 F6000 X170.34 Y193.533
G1 F1200 X124.659 Y147.852 E150.83314
G0 F6000 X124.659 Y147.286
G1 F1200 X170.906 Y193.533 E153.00846
G0 F6000 X171.471 Y193.533
G1 F1200 X124.659 Y146.721 E155.21035
G0 F6000 X124.659 Y146.155
G1 F1200 X172.037 Y193.533 E157.43886
G0 F6000 X172.603 Y193.533
G1 F1200 X124.659 Y145.589 E159.694
G0 F6000 X124.659 Y145.024
G1 F1200 X173.169 Y193.533 E161.97574
G0 F6000 X173.734 Y193.533
G1 F1200 X124.659 Y144.458 E164.28408
G0 F6000 X124.659 Y143.892
G1 F1200 X174.3 Y193.533 E166.61904
G0 F6000 X174.866 Y193.533
G1 F1200 X124.659 Y143.327 E168.9806
G0 F6000 X124.659 Y142.761
G1 F1200 X175.34 Y193.442 E171.36448
G0 F6000 X175.34 Y192.876
G1 F1200 X124.659 Y142.195 E173.74836
G0 F6000 X124.659 Y141.629
G1 F1200 X175.34 Y192.311 E176.13226
G0 F6000 X175.34 Y191.745
G1 F1200 X124.659 Y141.064 E178.51614
G0 F6000 X124.659 Y140.498
G1 F1200 X175.34 Y191.179 E180.90002
G0 F6000 X175.34 Y190.614
G1 F1200 X124.659 Y139.932 E183.28392
G0 F6000 X124.659 Y139.367
G1 F1200 X175.34 Y190.048 E185.6678
G0 F6000 X175.34 Y189.482
G1 F1200 X124.659 Y138.801 E188.05168
G0 F6000 X124.659 Y138.235
G1 F1200 X175.34 Y188.917 E190.43558
G0 F6000 X175.34 Y188.351
G1 F1200 X124.659 Y137.67 E192.81946
G0 F6000 X124.659 Y137.104
G1 F1200 X175.34 Y187.785 E195.20334
G0 F6000 X175.34 Y187.219
G1 F1200 X124.659 Y136.538 E197.58722
G0 F6000 X124.659 Y135.973
G1 F1200 X175.34 Y186.654 E199.9711
G0 F6000 X175.34 Y186.088
G1 F1200 X124.659 Y135.407 E202.35497
G0 F6000 X124.659 Y134.841
G1 F1200 X175.34 Y185.522 E204.73885
G0 F6000 X175.34 Y184.957
G1 F1200 X124.659 Y134.276 E207.12273
G0 F6000 X124.659 Y133.71
G1 F1200 X175.34 Y184.391 E209.50661
