;FLAVOR:Marlin
;TIME:14036
;Filament used: 9.26331m
;Layer height: 0.2
;MINX:96
;MINY:109.61
;MINZ:0.2
;MAXX:204
;MAXY:190.39
;MAXZ:27
;Generated with Cura_SteamEngine 5.2.1
M140 S60
M105
M190 S60
M104 S210
M105
M109 S210
M82 ;absolute extrusion mode
M201 X500.00 Y500.00 Z100.00 E5000.00 ;Setup machine max acceleration
M203 X500.00 Y500.00 Z10.00 E50.00 ;Setup machine max feedrate
M204 P500.00 R1000.00 T500.00 ;Setup Print/Retract/Travel acceleration
M205 X8.00 Y8.00 Z0.40 E5.00 ;Setup Jerk
M220 S100 ;Reset Feedrate
M221 S100 ;Reset Flowrate

G28 ;Home
G29 ;Auto bed Level

G92 E0 ;Reset Extruder
G1 Z2.0 F3000 ;Move Z Axis up
G1 X10.1 Y20 Z0.28 F5000.0 ;Move to start position
G1 X10.1 Y200.0 Z0.28 F1500.0 E15 ;Draw the first line
G1 X10.4 Y200.0 Z0.28 F5000.0 ;Move to side a little
G1 X10.4 Y20 Z0.28 F1500.0 E30 ;Draw the second line
G92 E0 ;Reset Extruder
G1 Z2.0 F3000 ;Move Z Axis up

G92 E0
G92 E0
G1 F2700 E-7
;LAYER_COUNT:135
;LAYER:0
M107
G0 F6000 X99.886 Y112.237 Z0.2
;TYPE:SKIRT
G1 F2700 E0
G1 F1200 X100.626 Y111.661 E0.03119
G1 X101.412 Y111.149 E0.06239
G1 X102.239 Y110.707 E0.09358
G1 X103.101 Y110.337 E0.12478
G1 X103.991 Y110.041 E0.15597
G1 X104.903 Y109.823 E0.18716
G1 X105.83 Y109.682 E0.21835
G1 X106.701 Y109.623 E0.24738
G1 X107.33 Y109.61 E0.26831
G1 X192.451 Y109.611 E3.09944
G1 X193.149 Y109.621 E3.12266
G1 X194.085 Y109.675 E3.15385
G1 X195.013 Y109.807 E3.18502
G1 X195.927 Y110.019 E3.21623
G1 X196.819 Y110.308 E3.24742
G1 X197.684 Y110.671 E3.27862
G1 X198.514 Y111.107 E3.3098
G1 X199.305 Y111.612 E3.34101
G1 X200.049 Y112.183 E3.37221
G1 X200.742 Y112.815 E3.4034
G1 X201.379 Y113.503 E3.43459
G1 X201.954 Y114.244 E3.46578
G1 X202.465 Y115.03 E3.49696
G1 X202.907 Y115.858 E3.52818
G1 X203.276 Y116.72 E3.55937
G1 X203.571 Y117.61 E3.59055
G1 X203.789 Y118.522 E3.62174
G1 X203.929 Y119.45 E3.65295
G1 X203.987 Y120.311 E3.68166
G1 X204 Y120.94 E3.70258
G1 X203.999 Y178.79 E5.62668
G1 X203.99 Y179.517 E5.65086
G1 X203.939 Y180.454 E5.68207
G1 X203.807 Y181.382 E5.71325
G1 X203.598 Y182.296 E5.74443
G1 X203.311 Y183.189 E5.77563
G1 X202.949 Y184.055 E5.80685
G1 X202.515 Y184.886 E5.83803
G1 X202.011 Y185.677 E5.86923
G1 X201.442 Y186.422 E5.90041
G1 X200.811 Y187.117 E5.93163
G1 X200.124 Y187.755 E5.96281
G1 X199.385 Y188.332 E5.99399
G1 X198.599 Y188.844 E6.02519
G1 X197.773 Y189.287 E6.05637
G1 X196.911 Y189.659 E6.0876
G1 X196.022 Y189.955 E6.11876
G1 X195.11 Y190.175 E6.14996
G1 X194.183 Y190.316 E6.18115
G1 X193.299 Y190.377 E6.21062
G1 X192.67 Y190.39 E6.23155
G1 X107.565 Y190.389 E9.06215
G1 X106.867 Y190.38 E9.08537
G1 X105.931 Y190.328 E9.11655
G1 X105.002 Y190.196 E9.14776
G1 X104.088 Y189.986 E9.17895
G1 X103.195 Y189.699 E9.21015
G1 X102.33 Y189.336 E9.24135
G1 X101.499 Y188.902 E9.27253
G1 X100.708 Y188.398 E9.30372
G1 X99.963 Y187.828 E9.33492
G1 X99.269 Y187.197 E9.36612
G1 X98.632 Y186.51 E9.39728
G1 X98.055 Y185.77 E9.42849
G1 X97.543 Y184.984 E9.45969
G1 X97.1 Y184.157 E9.49089
G1 X96.729 Y183.296 E9.52208
G1 X96.433 Y182.406 E9.55327
G1 X96.214 Y181.494 E9.58447
G1 X96.073 Y180.567 E9.61565
G1 X96.013 Y179.678 E9.64529
G1 X96 Y179.048 E9.66625
G1 X96.001 Y121.135 E11.59244
G1 X96.01 Y120.47 E11.61456
G1 X96.063 Y119.534 E11.64574
G1 X96.195 Y118.605 E11.67695
G1 X96.406 Y117.691 E11.70815
G1 X96.694 Y116.799 E11.73933
G1 X97.057 Y115.934 E11.77053
G1 X97.492 Y115.103 E11.80173
G1 X97.996 Y114.313 E11.83289
G1 X98.566 Y113.568 E11.86409
G1 X99.198 Y112.874 E11.89531
G1 X99.886 Y112.237 E11.9265
G0 F6000 X100.274 Y112.433
G1 F1200 X101.01 Y111.88 E11.95712
G1 X101.791 Y111.392 E11.98775
G1 X102.611 Y110.974 E12.01836
G1 X103.465 Y110.629 E12.04899
G1 X104.345 Y110.359 E12.07961
G1 X105.245 Y110.167 E12.11022
G1 X106.159 Y110.053 E12.14085
G1 X106.712 Y110.023 E12.15927
G1 X107.33 Y110.01 E12.17983
G1 X192.445 Y110.011 E15.01077
G1 X193.143 Y110.021 E15.03399
G1 X194.062 Y110.074 E15.0646
G1 X194.973 Y110.207 E15.09522
G1 X195.869 Y110.418 E15.12584
G1 X196.743 Y110.706 E15.15645
G1 X197.59 Y111.069 E15.1871
G1 X198.401 Y111.504 E15.21771
G1 X199.171 Y112.008 E15.24831
G1 X199.895 Y112.577 E15.27894
G1 X200.567 Y113.207 E15.30958
G1 X201.182 Y113.892 E15.3402
G1 X201.735 Y114.628 E15.37082
G1 X202.222 Y115.409 E15.40143
G1 X202.639 Y116.23 E15.43206
G1 X202.984 Y117.084 E15.46269
G1 X203.253 Y117.964 E15.4933
G1 X203.445 Y118.865 E15.52394
G1 X203.558 Y119.778 E15.55453
G1 X203.587 Y120.322 E15.57265
G1 X203.6 Y120.94 E15.59321
G1 X203.599 Y178.785 E17.51715
G1 X203.59 Y179.512 E17.54133
G1 X203.539 Y180.431 E17.57194
G1 X203.408 Y181.343 E17.60259
G1 X203.198 Y182.239 E17.63319
G1 X202.912 Y183.114 E17.66381
G1 X202.551 Y183.961 E17.69443
G1 X202.117 Y184.773 E17.72506
G1 X201.615 Y185.545 E17.75569
G1 X201.047 Y186.27 E17.78632
G1 X200.419 Y186.943 E17.81693
G1 X199.735 Y187.559 E17.84755
G1 X199 Y188.113 E17.87816
G1 X198.22 Y188.602 E17.90878
G1 X197.4 Y189.021 E17.93941
G1 X196.547 Y189.367 E17.97003
G1 X195.667 Y189.638 E18.00065
G1 X194.767 Y189.831 E18.03127
G1 X193.853 Y189.946 E18.06191
G1 X193.288 Y189.977 E18.08073
G1 X192.67 Y189.99 E18.10128
G1 X107.57 Y189.989 E20.93172
G1 X106.872 Y189.98 E20.95494
G1 X105.953 Y189.928 E20.98555
G1 X105.042 Y189.797 E21.01617
G1 X104.146 Y189.587 E21.04678
G1 X103.271 Y189.3 E21.0774
G1 X102.424 Y188.938 E21.10804
G1 X101.612 Y188.504 E21.13866
G1 X100.841 Y188.002 E21.16926
G1 X100.116 Y187.434 E21.1999
G1 X99.443 Y186.805 E21.23053
G1 X98.828 Y186.121 E21.26113
G1 X98.274 Y185.386 E21.29174
G1 X97.786 Y184.605 E21.32237
G1 X97.367 Y183.785 E21.353
G1 X97.021 Y182.932 E21.38361
G1 X96.751 Y182.052 E21.41423
G1 X96.558 Y181.151 E21.44488
G1 X96.444 Y180.238 E21.47548
G1 X96.413 Y179.667 E21.4945
G1 X96.4 Y179.048 E21.51509
G1 X96.401 Y121.141 E23.44109
G1 X96.41 Y120.476 E23.46321
G1 X96.462 Y119.556 E23.49385
G1 X96.594 Y118.645 E23.52447
G1 X96.805 Y117.749 E23.55509
G1 X97.092 Y116.874 E23.58571
G1 X97.455 Y116.028 E23.61633
G1 X97.889 Y115.216 E23.64696
G1 X98.392 Y114.445 E23.67757
G1 X98.961 Y113.721 E23.7082
G1 X99.589 Y113.049 E23.73879
G1 X100.274 Y112.433 E23.76943
G0 F6000 X100.662 Y112.634
G1 F1200 X101.394 Y112.104 E23.79949
G1 X102.169 Y111.641 E23.82952
G1 X102.982 Y111.248 E23.85955
G1 X103.827 Y110.928 E23.8896
G1 X104.696 Y110.685 E23.91962
G1 X105.584 Y110.519 E23.94966
G1 X106.723 Y110.423 E23.98768
G1 X107.33 Y110.41 E24.00787
G1 X192.439 Y110.411 E26.83861
G1 X193.137 Y110.421 E26.86183
G1 X194.039 Y110.474 E26.89188
G1 X194.932 Y110.606 E26.92191
G1 X195.81 Y110.817 E26.95194
G1 X196.666 Y111.105 E26.98198
G1 X197.493 Y111.467 E27.012
G1 X198.285 Y111.902 E27.04206
G1 X199.036 Y112.404 E27.0721
G1 X199.739 Y112.971 E27.10214
G1 X200.389 Y113.598 E27.13218
G1 X200.981 Y114.28 E27.16222
G1 X201.511 Y115.011 E27.19225
G1 X201.973 Y115.787 E27.22229
G1 X202.366 Y116.6 E27.25232
G1 X202.684 Y117.445 E27.28235
G1 X202.927 Y118.315 E27.31239
G1 X203.092 Y119.203 E27.34243
G1 X203.187 Y120.333 E27.38015
G1 X203.2 Y120.94 E27.40034
G1 X203.199 Y178.78 E29.32411
G1 X203.19 Y179.507 E29.34829
G1 X203.139 Y180.409 E29.37834
G1 X203.008 Y181.303 E29.40839
G1 X202.799 Y182.181 E29.43841
G1 X202.513 Y183.038 E29.46846
G1 X202.152 Y183.866 E29.4985
G1 X201.72 Y184.658 E29.52851
G1 X201.219 Y185.41 E29.55856
G1 X200.653 Y186.114 E29.58861
G1 X200.028 Y186.765 E29.61862
G1 X199.347 Y187.359 E29.64868
G1 X198.616 Y187.89 E29.67873
G1 X197.842 Y188.354 E29.70874
G1 X197.029 Y188.748 E29.73879
G1 X196.185 Y189.068 E29.76881
G1 X195.315 Y189.313 E29.79888
G1 X194.428 Y189.479 E29.82889
G1 X193.277 Y189.577 E29.86731
G1 X192.67 Y189.59 E29.8875
G1 X107.575 Y189.589 E32.71778
G1 X106.877 Y189.58 E32.74099
G1 X105.976 Y189.529 E32.77101
G1 X105.082 Y189.397 E32.80107
G1 X104.204 Y189.188 E32.83108
G1 X103.347 Y188.901 E32.86114
G1 X102.52 Y188.54 E32.89116
G1 X101.727 Y188.107 E32.92121
G1 X100.976 Y187.606 E32.95123
G1 X100.272 Y187.04 E32.98128
G1 X99.621 Y186.414 E33.01132
G1 X99.028 Y185.733 E33.04135
G1 X98.498 Y185.002 E33.07138
G1 X98.034 Y184.227 E33.10143
G1 X97.64 Y183.414 E33.13147
G1 X97.32 Y182.57 E33.1615
G1 X97.076 Y181.7 E33.19155
G1 X96.91 Y180.812 E33.2216
G1 X96.813 Y179.657 E33.26015
G1 X96.8 Y179.048 E33.28041
G1 X96.801 Y121.146 E35.20623
G1 X96.81 Y120.481 E35.22835
G1 X96.862 Y119.579 E35.2584
G1 X96.994 Y118.686 E35.28843
G1 X97.204 Y117.808 E35.31845
G1 X97.491 Y116.951 E35.34851
G1 X97.853 Y116.124 E35.37854
G1 X98.286 Y115.332 E35.40856
G1 X98.788 Y114.581 E35.43861
G1 X99.355 Y113.877 E35.46867
G1 X99.981 Y113.227 E35.49869
G1 X100.662 Y112.634 E35.52872
G1 F2700 E28.52872
;MESH:Explorer_card_tray.stl
G0 F6000 X107.42 Y119.945
G0 X107.6 Y178.79
;TYPE:WALL-INNER
G1 F2700 E35.52872
G1 F1200 X192.4 Y178.79 E38.34918
G1 X192.4 Y121.21 E40.2643
G1 X107.6 Y121.21 E43.08476
G1 X107.6 Y150 E44.04232
G1 X107.6 Y178.79 E44.99988
G0 F6000 X107.2 Y179.19
;TYPE:WALL-OUTER
G1 F1200 X192.8 Y179.19 E47.84694
G1 X192.8 Y120.81 E49.78867
G1 X107.2 Y120.81 E52.63574
G1 X107.2 Y150 E53.6066
G1 X107.2 Y179.19 E54.57747
G0 F6000 X107.47 Y178.92
G0 X107.7 Y178.43
G0 X107.96 Y178.43
;TYPE:SKIN
G1 F1200 X192.04 Y178.43 E57.37398
G1 X192.04 Y150 E58.31956
G1 X192.04 Y121.57 E59.26515
G1 X107.96 Y121.57 E62.06166
G1 X107.96 Y178.43 E63.95283
G0 F6000 X108.649 Y178.229
G1 F1200 X108.16 Y177.739 E63.97586
G0 F6000 X108.16 Y177.174
G1 F1200 X109.215 Y178.229 E64.02548
G0 F6000 X109.781 Y178.229
G1 F1200 X108.16 Y176.608 E64.10173
G0 F6000 X108.16 Y176.042
G1 F1200 X110.346 Y178.229 E64.20457
G0 F6000 X110.912 Y178.229
G1 F1200 X108.16 Y175.477 E64.33402
G0 F6000 X108.16 Y174.911
G1 F1200 X111.478 Y178.229 E64.49009
G0 F6000 X112.043 Y178.229
G1 F1200 X108.16 Y174.345 E64.67276
G0 F6000 X108.16 Y173.779
G1 F1200 X112.609 Y178.229 E64.88205
G0 F6000 X113.175 Y178.229
G1 F1200 X108.16 Y173.214 E65.11794
G0 F6000 X108.16 Y172.648
G1 F1200 X113.74 Y178.229 E65.38043
G0 F6000 X114.306 Y178.229
G1 F1200 X108.16 Y172.082 E65.66954
G0 F6000 X108.16 Y171.517
G1 F1200 X114.872 Y178.229 E65.98525
G0 F6000 X115.438 Y178.229
G1 F1200 X108.16 Y170.951 E66.32759
G0 F6000 X108.16 Y170.385
G1 F1200 X116.003 Y178.229 E66.69652
G0 F6000 X116.569 Y178.229
G1 F1200 X108.16 Y169.82 E67.09205
G0 F6000 X108.16 Y169.254
G1 F1200 X117.135 Y178.229 E67.51421
G0 F6000 X117.7 Y178.229
G1 F1200 X108.16 Y168.688 E67.96297
G0 F6000 X108.16 Y168.123
G1 F1200 X118.266 Y178.229 E68.43832
G0 F6000 X118.832 Y178.229
G1 F1200 X108.16 Y167.557 E68.9403
G0 F6000 X108.16 Y166.991
G1 F1200 X119.397 Y178.229 E69.46888
G0 F6000 X119.963 Y178.229
G1 F1200 X108.16 Y166.426 E70.02405
G0 F6000 X108.16 Y165.86
G1 F1200 X120.529 Y178.229 E70.60585
G0 F6000 X121.094 Y178.229
G1 F1200 X108.16 Y165.294 E71.21425
G0 F6000 X108.16 Y164.729
G1 F1200 X121.66 Y178.229 E71.84925
G0 F6000 X122.226 Y178.229
G1 F1200 X108.16 Y164.163 E72.51087
G0 F6000 X108.16 Y163.597
G1 F1200 X122.791 Y178.229 E73.19909
G0 F6000 X123.357 Y178.229
G1 F1200 X108.16 Y163.031 E73.91394
G0 F6000 X108.16 Y162.466
G1 F1200 X123.923 Y178.229 E74.65538
G0 F6000 X124.488 Y178.229
G1 F1200 X108.16 Y161.9 E75.42342
G0 F6000 X108.16 Y161.334
G1 F1200 X125.054 Y178.229 E76.21809
G0 F6000 X125.62 Y178.229
G1 F1200 X108.16 Y160.769 E77.03935
G0 F6000 X108.16 Y160.203
G1 F1200 X126.186 Y178.229 E77.88724
G0 F6000 X126.751 Y178.229
G1 F1200 X108.16 Y159.637 E78.76173
G0 F6000 X108.16 Y159.072
G1 F1200 X127.317 Y178.229 E79.66282
G0 F6000 X127.883 Y178.229
G1 F1200 X108.16 Y158.506 E80.59053
G0 F6000 X108.16 Y157.94
G1 F1200 X128.448 Y178.229 E81.54483
G0 F6000 X129.014 Y178.229
G1 F1200 X108.16 Y157.375 E82.52574
G0 F6000 X108.16 Y156.809
G1 F1200 X129.58 Y178.229 E83.53327
G0 F6000 X130.145 Y178.229
G1 F1200 X108.16 Y156.243 E84.5674
G0 F6000 X108.16 Y155.678
G1 F1200 X130.711 Y178.229 E85.62813
G0 F6000 X131.277 Y178.229
G1 F1200 X108.16 Y155.112 E86.71549
G0 F6000 X108.16 Y154.546
G1 F1200 X131.842 Y178.229 E87.82944
G0 F6000 X132.408 Y178.229
G1 F1200 X108.16 Y153.98 E88.97001
G0 F6000 X108.16 Y153.415
G1 F1200 X132.974 Y178.229 E90.13719
G0 F6000 X133.539 Y178.229
G1 F1200 X108.16 Y152.849 E91.33096
G0 F6000 X108.16 Y152.283
G1 F1200 X134.105 Y178.229 E92.55136
G0 F6000 X134.671 Y178.229
G1 F1200 X108.16 Y151.718 E93.79836
G0 F6000 X108.16 Y151.152
G1 F1200 X135.237 Y178.229 E95.07197
G0 F6000 X135.802 Y178.229
G1 F1200 X108.16 Y150.586 E96.37219
G0 F6000 X108.16 Y150.021
G1 F1200 X136.368 Y178.229 E97.69901
G0 F6000 X136.934 Y178.229
G1 F1200 X108.16 Y149.455 E99.05245
G0 F6000 X108.16 Y148.889
G1 F1200 X137.499 Y178.229 E100.43249
G0 F6000 X138.065 Y178.229
G1 F1200 X108.16 Y148.324 E101.83913
G0 F6000 X108.16 Y147.758
G1 F1200 X138.631 Y178.229 E103.27239
G0 F6000 X139.196 Y178.229
G1 F1200 X108.16 Y147.192 E104.73226
G0 F6000 X108.16 Y146.627
G1 F1200 X139.762 Y178.229 E106.21872
G0 F6000 X140.328 Y178.229
G1 F1200 X108.16 Y146.061 E107.7318
G0 F6000 X108.16 Y145.495
G1 F1200 X140.893 Y178.229 E109.27148
G0 F6000 X141.459 Y178.229
G1 F1200 X108.16 Y144.93 E110.83777
G0 F6000 X108.16 Y144.364
G1 F1200 X142.025 Y178.229 E112.43067
G0 F6000 X142.59 Y178.229
G1 F1200 X108.16 Y143.798 E114.05018
G0 F6000 X108.16 Y143.232
G1 F1200 X143.156 Y178.229 E115.69631
G0 F6000 X143.722 Y178.229
G1 F1200 X108.16 Y142.667 E117.36903
G0 F6000 X108.16 Y142.101
G1 F1200 X144.287 Y178.229 E119.06836
G0 F6000 X144.853 Y178.229
G1 F1200 X108.16 Y141.535 E120.79431
G0 F6000 X108.16 Y140.97
G1 F1200 X145.419 Y178.229 E122.54686
G0 F6000 X145.985 Y178.229
G1 F1200 X108.16 Y140.404 E124.32603
G0 F6000 X108.16 Y139.838
G1 F1200 X146.55 Y178.229 E126.1318
G0 F6000 X147.116 Y178.229
G1 F1200 X108.16 Y139.273 E127.96417
G0 F6000 X108.16 Y138.707
G1 F1200 X147.682 Y178.229 E129.82317
G0 F6000 X148.247 Y178.229
G1 F1200 X108.16 Y138.141 E131.70876
G0 F6000 X108.16 Y137.576
G1 F1200 X148.813 Y178.229 E133.62095
G0 F6000 X149.379 Y178.229
G1 F1200 X108.16 Y137.01 E135.55977
G0 F6000 X108.16 Y136.444
G1 F1200 X149.944 Y178.229 E137.52518
G0 F6000 X150.511 Y178.229
G1 F1200 X108.16 Y135.879 E139.51722
G0 F6000 X108.16 Y135.313
G1 F1200 X151.076 Y178.229 E141.53586
G0 F6000 X151.642 Y178.229
G1 F1200 X108.16 Y134.747 E143.58112
G0 F6000 X108.16 Y134.181
G1 F1200 X152.208 Y178.229 E145.653
G0 F6000 X152.773 Y178.229
G1 F1200 X108.16 Y133.616 E147.75146
G0 F6000 X108.16 Y133.05
G1 F1200 X153.339 Y178.229 E149.87654
G0 F6000 X153.905 Y178.229
G1 F1200 X108.16 Y132.484 E152.02825
G0 F6000 X108.16 Y131.919
G1 F1200 X154.471 Y178.229 E154.20655
G0 F6000 X155.036 Y178.229
G1 F1200 X108.16 Y131.353 E156.41145
G0 F6000 X108.16 Y130.787
G1 F1200 X155.602 Y178.229 E158.64298
G0 F6000 X156.168 Y178.229
G1 F1200 X108.16 Y130.222 E160.9011
G0 F6000 X108.16 Y129.656
G1 F1200 X156.733 Y178.229 E163.18583
G0 F6000 X157.299 Y178.229
G1 F1200 X108.16 Y129.09 E165.49718
G0 F6000 X108.16 Y128.525
G1 F1200 X157.865 Y178.229 E167.83512
G0 F6000 X158.43 Y178.229
G1 F1200 X108.16 Y127.959 E170.19967
G0 F6000 X108.16 Y127.393
G1 F1200 X158.996 Y178.229 E172.59084
G0 F6000 X159.562 Y178.229
G1 F1200 X108.16 Y126.828 E175.00861
G0 F6000 X108.16 Y126.262
G1 F1200 X160.127 Y178.229 E177.45298
G0 F6000 X160.693 Y178.229
G1 F1200 X108.16 Y125.696 E179.92397
G0 F6000 X108.16 Y125.131
G1 F1200 X161.259 Y178.229 E182.42156
G0 F6000 X161.824 Y178.229
G1 F1200 X108.16 Y124.565 E184.94575
G0 F6000 X108.16 Y123.999
G1 F1200 X162.39 Y178.229 E187.49656
G0 F6000 X162.956 Y178.229
G1 F1200 X108.16 Y123.433 E190.074
G0 F6000 X108.16 Y122.868
G1 F1200 X163.521 Y178.229 E192.67801
G0 F6000 X164.087 Y178.229
G1 F1200 X108.16 Y122.302 E195.30864
G0 F6000 X108.193 Y121.77
G1 F1200 X164.653 Y178.229 E197.96433
G0 F6000 X165.219 Y178.229
G1 F1200 X108.759 Y121.77 E200.62001
G0 F6000 X109.325 Y121.77
G1 F1200 X165.784 Y178.229 E203.27567
G0 F6000 X166.35 Y178.229
G1 F1200 X109.89 Y121.77 E205.93135
G0 F6000 X110.456 Y121.77
G1 F1200 X166.916 Y178.229 E208.58703
G0 F6000 X167.481 Y178.229
G1 F1200 X111.022 Y121.77 E211.24269
G0 F6000 X111.587 Y121.77
G1 F1200 X168.047 Y178.229 E213.89837
G0 F6000 X168.613 Y178.229
G1 F1200 X112.153 Y121.77 E216.55405
G0 F6000 X112.719 Y121.77
